docs/luts/fuji_recipes/AcrosY_BLP_Kodak_Panatomic.cube
TITLE "Fujifilm Recipe: BLP Kodak Panatomic (AcrosY)"
# FilmSim=AcrosY HL=3 SH=3 Col=0 WB=Auto WBR=0 WBB=0
LUT_3D_SIZE 5
DOMAIN_MIN 0.0 0.0 0.0
DOMAIN_MAX 1.0 1.0 1.0
0.000000 0.000000 0.000000
0.083771 0.083771 0.083771
0.192107 0.192107 0.192107
0.300444 0.300444 0.300444
0.408781 0.408781 0.408781
0.167291 0.167291 0.167291
0.192877 0.192877 0.192877
0.256706 0.256706 0.256706
0.342658 0.342658 0.342658
0.438786 0.438786 0.438786
0.344088 0.344088 0.344088
0.355840 0.355840 0.355840
0.390644 0.390644 0.390644
0.509645 0.509645 0.509645
0.603066 0.603066 0.603066
0.602943 0.602943 0.602943
0.611939 0.611939 0.611939
0.639797 0.639797 0.639797
0.688888 0.688888 0.688888
0.757560 0.757560 0.757560
0.827957 0.827957 0.827957
0.834142 0.834142 0.834142
0.853611 0.853611 0.853611
0.889004 0.889004 0.889004
0.940592 0.940592 0.940592
0.028905 0.028905 0.028905
0.097782 0.097782 0.097782
0.198504 0.198504 0.198504
0.304286 0.304286 0.304286
0.411422 0.411422 0.411422
0.174702 0.174702 0.174702
0.199246 0.199246 0.199246
0.261327 0.261327 0.261327
0.345938 0.345938 0.345938
0.501531 0.501531 0.501531
0.347351 0.347351 0.347351
0.358973 0.358973 0.358973
0.393438 0.393438 0.393438
0.512645 0.512645 0.512645
0.605542 0.605542 0.605542
0.605420 0.605420 0.605420
0.614373 0.614373 0.614373
0.642107 0.642107 0.642107
0.691006 0.691006 0.691006
0.759451 0.759451 0.759451
0.829654 0.829654 0.829654
0.835825 0.835825 0.835825
0.855247 0.855247 0.855247
0.890560 0.890560 0.890560
0.942044 0.942044 0.942044
0.091744 0.091744 0.091744
0.133457 0.133457 0.133457
0.217604 0.217604 0.217604
0.316230 0.316230 0.316230
0.419750 0.419750 0.419750
0.196419 0.196419 0.196419
0.218272 0.218272 0.218272
0.275535 0.275535 0.275535
0.356209 0.356209 0.356209
0.511257 0.511257 0.511257
0.357572 0.357572 0.357572
0.368799 0.368799 0.368799
0.402234 0.402234 0.402234
0.522138 0.522138 0.522138
0.613403 0.613403 0.613403
0.613283 0.613283 0.613283
0.622104 0.622104 0.622104
0.649453 0.649453 0.649453
0.697747 0.697747 0.697747
0.765476 0.765476 0.765476
0.835071 0.835071 0.835071
0.841193 0.841193 0.841193
0.860467 0.860467 0.860467
0.895528 0.895528 0.895528
0.946681 0.946681 0.946681
0.154872 0.154872 0.154872
0.182367 0.182367 0.182367
0.249242 0.249242 0.249242
0.337426 0.337426 0.337426
0.434954 0.434954 0.434954
0.231396 0.231396 0.231396
0.249813 0.249813 0.249813
0.300243 0.300243 0.300243
0.374689 0.374689 0.374689
0.529094 0.529094 0.529094
0.375970 0.375970 0.375970
0.386542 0.386542 0.386542
0.418238 0.418238 0.418238
0.539567 0.539567 0.539567
0.627953 0.627953 0.627953
0.627836 0.627836 0.627836
0.636422 0.636422 0.636422
0.663080 0.663080 0.663080
0.710283 0.710283 0.710283
0.776714 0.776714 0.776714
0.845196 0.845196 0.845196
0.851228 0.851228 0.851228
0.870232 0.870232 0.870232
0.904830 0.904830 0.904830
0.955371 0.955371 0.955371
0.218000 0.218000 0.218000
0.237621 0.237621 0.237621
0.290537 0.290537 0.290537
0.367341 0.367341 0.367341
0.521951 0.521951 0.521951
0.275835 0.275835 0.275835
0.291013 0.291013 0.291013
0.334256 0.334256 0.334256
0.401247 0.401247 0.401247
0.555425 0.555425 0.555425
0.402423 0.402423 0.402423
0.412159 0.412159 0.412159
0.502029 0.502029 0.502029
0.565342 0.565342 0.565342
0.649725 0.649725 0.649725
0.649613 0.649613 0.649613
0.657865 0.657865 0.657865
0.683542 0.683542 0.683542
0.729182 0.729182 0.729182
0.793730 0.793730 0.793730
0.860581 0.860581 0.860581
0.866482 0.866482 0.866482
0.885085 0.885085 0.885085
0.918999 0.918999 0.918999
0.968632 0.968632 0.968632
