docs/luts/fuji_recipes/AcrosG_SS_Acros.cube
TITLE "Fujifilm Recipe: SS Acros (AcrosG)"
# FilmSim=AcrosG HL=-2 SH=2 Col=0 WB=Auto WBR=0 WBB=0
LUT_3D_SIZE 5
DOMAIN_MIN 0.0 0.0 0.0
DOMAIN_MAX 1.0 1.0 1.0
0.000000 0.000000 0.000000
0.088301 0.088301 0.088301
0.202154 0.202154 0.202154
0.316008 0.316008 0.316008
0.429861 0.429861 0.429861
0.208056 0.208056 0.208056
0.230868 0.230868 0.230868
0.290758 0.290758 0.290758
0.375292 0.375292 0.375292
0.511932 0.511932 0.511932
0.420070 0.420070 0.420070
0.430394 0.430394 0.430394
0.501511 0.501511 0.501511
0.551854 0.551854 0.551854
0.618848 0.618848 0.618848
0.664601 0.664601 0.664601
0.670521 0.670521 0.670521
0.689023 0.689023 0.689023
0.722192 0.722192 0.722192
0.769629 0.769629 0.769629
0.867397 0.867397 0.867397
0.871463 0.871463 0.871463
0.884326 0.884326 0.884326
0.907944 0.907944 0.907944
0.940000 0.940000 0.940000
0.037968 0.037968 0.037968
0.106296 0.106296 0.106296
0.210463 0.210463 0.210463
0.321011 0.321011 0.321011
0.433302 0.433302 0.433302
0.216111 0.216111 0.216111
0.238052 0.238052 0.238052
0.296277 0.296277 0.296277
0.379360 0.379360 0.379360
0.514857 0.514857 0.514857
0.423611 0.423611 0.423611
0.433830 0.433830 0.433830
0.504523 0.504523 0.504523
0.554483 0.554483 0.554483
0.621083 0.621083 0.621083
0.666620 0.666620 0.666620
0.672515 0.672515 0.672515
0.690941 0.690941 0.690941
0.723986 0.723986 0.723986
0.771268 0.771268 0.771268
0.868781 0.868781 0.868781
0.872838 0.872838 0.872838
0.885672 0.885672 0.885672
0.909242 0.909242 0.909242
0.940000 0.940000 0.940000
0.110565 0.110565 0.110565
0.150440 0.150440 0.150440
0.234900 0.234900 0.234900
0.336453 0.336453 0.336453
0.444115 0.444115 0.444115
0.239896 0.239896 0.239896
0.259558 0.259558 0.259558
0.313198 0.313198 0.313198
0.392055 0.392055 0.392055
0.524083 0.524083 0.524083
0.434726 0.434726 0.434726
0.444627 0.444627 0.444627
0.514015 0.514015 0.514015
0.562797 0.562797 0.562797
0.628171 0.628171 0.628171
0.673037 0.673037 0.673037
0.678853 0.678853 0.678853
0.697042 0.697042 0.697042
0.729698 0.729698 0.729698
0.776493 0.776493 0.776493
0.873198 0.873198 0.873198
0.877226 0.877226 0.877226
0.889971 0.889971 0.889971
0.913384 0.913384 0.913384
0.940000 0.940000 0.940000
0.183162 0.183162 0.183162
0.209051 0.209051 0.209051
0.274457 0.274457 0.274457
0.363503 0.363503 0.363503
0.503540 0.503540 0.503540
0.278637 0.278637 0.278637
0.295330 0.295330 0.295330
0.342488 0.342488 0.342488
0.414757 0.414757 0.414757
0.540916 0.540916 0.540916
0.454820 0.454820 0.454820
0.504004 0.504004 0.504004
0.531303 0.531303 0.531303
0.578053 0.578053 0.578053
0.641270 0.641270 0.641270
0.684936 0.684936 0.684936
0.690609 0.690609 0.690609
0.708373 0.708373 0.708373
0.740327 0.740327 0.740327
0.786237 0.786237 0.786237
0.881464 0.881464 0.881464
0.885439 0.885439 0.885439
0.898020 0.898020 0.898020
0.921145 0.921145 0.921145
0.940000 0.940000 0.940000
0.255759 0.255759 0.255759
0.274107 0.274107 0.274107
0.324953 0.324953 0.324953
0.401061 0.401061 0.401061
0.530711 0.530711 0.530711
0.328377 0.328377 0.328377
0.342219 0.342219 0.342219
0.382581 0.382581 0.382581
0.447114 0.447114 0.447114
0.565584 0.565584 0.565584
0.522843 0.522843 0.522843
0.531140 0.531140 0.531140
0.556577 0.556577 0.556577
0.600593 0.600593 0.600593
0.660824 0.660824 0.660824
0.702793 0.702793 0.702793
0.708265 0.708265 0.708265
0.725420 0.725420 0.725420
0.756364 0.756364 0.756364
0.800989 0.800989 0.800989
0.894046 0.894046 0.894046
0.897942 0.897942 0.897942
0.910279 0.910279 0.910279
0.932977 0.932977 0.932977
0.940000 0.940000 0.940000
