docs/luts/fuji_recipes/Acros_RR_Faded_Monochrome.cube
TITLE "Fujifilm Recipe: RR Faded Monochrome (Acros)"
# FilmSim=Acros HL=4 SH=4 Col=0 WB=Auto WBR=0 WBB=0
LUT_3D_SIZE 9
DOMAIN_MIN 0.0 0.0 0.0
DOMAIN_MAX 1.0 1.0 1.0
0.000000 0.000000 0.000000
0.041049 0.041049 0.041049
0.101639 0.101639 0.101639
0.162229 0.162229 0.162229
0.222818 0.222818 0.222818
0.283408 0.283408 0.283408
0.343998 0.343998 0.343998
0.404588 0.404588 0.404588
0.418690 0.418690 0.418690
0.098440 0.098440 0.098440
0.115007 0.115007 0.115007
0.149023 0.149023 0.149023
0.194742 0.194742 0.194742
0.246609 0.246609 0.246609
0.301714 0.301714 0.301714
0.358632 0.358632 0.358632
0.416634 0.416634 0.416634
0.514144 0.514144 0.514144
0.198884 0.198884 0.198884
0.207246 0.207246 0.207246
0.226956 0.226956 0.226956
0.257863 0.257863 0.257863
0.297442 0.297442 0.297442
0.343106 0.343106 0.343106
0.392892 0.392892 0.392892
0.535174 0.535174 0.535174
0.552488 0.552488 0.552488
0.299329 0.299329 0.299329
0.304566 0.304566 0.304566
0.317428 0.317428 0.317428
0.338905 0.338905 0.338905
0.368376 0.368376 0.368376
0.404575 0.404575 0.404575
0.536047 0.536047 0.536047
0.599043 0.599043 0.599043
0.614361 0.614361 0.614361
0.399773 0.399773 0.399773
0.403455 0.403455 0.403455
0.412642 0.412642 0.412642
0.511620 0.511620 0.511620
0.542607 0.542607 0.542607
0.582171 0.582171 0.582171
0.629273 0.629273 0.629273
0.682739 0.682739 0.682739
0.695973 0.695973 0.695973
0.610777 0.610777 0.610777
0.614611 0.614611 0.614611
0.624251 0.624251 0.624251
0.641035 0.641035 0.641035
0.665384 0.665384 0.665384
0.697204 0.697204 0.697204
0.736033 0.736033 0.736033
0.781188 0.781188 0.781188
0.792523 0.792523 0.792523
0.749486 0.749486 0.749486
0.752517 0.752517 0.752517
0.760169 0.760169 0.760169
0.773594 0.773594 0.773594
0.793294 0.793294 0.793294
0.819409 0.819409 0.819409
0.851800 0.851800 0.851800
0.890116 0.890116 0.890116
0.899834 0.899834 0.899834
0.888194 0.888194 0.888194
0.890673 0.890673 0.890673
0.896944 0.896944 0.896944
0.907999 0.907999 0.907999
0.924334 0.924334 0.924334
0.946189 0.946189 0.946189
0.973591 0.973591 0.973591
1.000000 1.000000 1.000000
1.000000 1.000000 1.000000
0.920478 0.920478 0.920478
0.922852 0.922852 0.922852
0.928862 0.928862 0.928862
0.939464 0.939464 0.939464
0.955151 0.955151 0.955151
0.976172 0.976172 0.976172
1.000000 1.000000 1.000000
1.000000 1.000000 1.000000
1.000000 1.000000 1.000000
0.014134 0.014134 0.014134
0.052353 0.052353 0.052353
0.107382 0.107382 0.107382
0.165833 0.165833 0.165833
0.225354 0.225354 0.225354
0.285321 0.285321 0.285321
0.345510 0.345510 0.345510
0.405824 0.405824 0.405824
0.419874 0.419874 0.419874
0.104354 0.104354 0.104354
0.120120 0.120120 0.120120
0.152965 0.152965 0.152965
0.197695 0.197695 0.197695
0.248863 0.248863 0.248863
0.303488 0.303488 0.303488
0.360069 0.360069 0.360069
0.417825 0.417825 0.417825
0.515724 0.515724 0.515724
0.201768 0.201768 0.201768
0.209999 0.209999 0.209999
0.229438 0.229438 0.229438
0.260003 0.260003 0.260003
0.299247 0.299247 0.299247
0.344623 0.344623 0.344623
0.394175 0.394175 0.394175
0.536687 0.536687 0.536687
0.553949 0.553949 0.553949
0.301120 0.301120 0.301120
0.306321 0.306321 0.306321
0.319096 0.319096 0.319096
0.340445 0.340445 0.340445
0.369766 0.369766 0.369766
0.405812 0.405812 0.405812
0.537557 0.537557 0.537557
0.600377 0.600377 0.600377
0.615658 0.615658 0.615658
0.401028 0.401028 0.401028
0.404696 0.404696 0.404696
0.413848 0.413848 0.413848
0.513210 0.513210 0.513210
0.544097 0.544097 0.544097
0.583549 0.583549 0.583549
0.630535 0.630535 0.630535
0.683888 0.683888 0.683888
0.697097 0.697097 0.697097
0.612082 0.612082 0.612082
0.615907 0.615907 0.615907
0.625525 0.625525 0.625525
0.642270 0.642270 0.642270
0.666567 0.666567 0.666567
0.698325 0.698325 0.698325
0.737086 0.737086 0.737086
0.782170 0.782170 0.782170
0.793488 0.793488 0.793488
0.750517 0.750517 0.750517
0.753543 0.753543 0.753543
0.761183 0.761183 0.761183
0.774587 0.774587 0.774587
0.794258 0.794258 0.794258
0.820337 0.820337 0.820337
0.852686 0.852686 0.852686
0.890956 0.890956 0.890956
0.900663 0.900663 0.900663
0.889037 0.889037 0.889037
0.891513 0.891513 0.891513
0.897777 0.897777 0.897777
0.908819 0.908819 0.908819
0.925137 0.925137 0.925137
0.946969 0.946969 0.946969
0.974345 0.974345 0.974345
1.000000 1.000000 1.000000
1.000000 1.000000 1.000000
0.921285 0.921285 0.921285
0.923657 0.923657 0.923657
0.929660 0.929660 0.929660
0.940252 0.940252 0.940252
0.955922 0.955922 0.955922
0.976923 0.976923 0.976923
1.000000 1.000000 1.000000
1.000000 1.000000 1.000000
1.000000 1.000000 1.000000
0.048067 0.048067 0.048067
0.075074 0.075074 0.075074
0.120792 0.120792 0.120792
0.174641 0.174641 0.174641
0.231662 0.231662 0.231662
0.290121 0.290121 0.290121
0.349323 0.349323 0.349323
0.408950 0.408950 0.408950
0.503964 0.503964 0.503964
0.118105 0.118105 0.118105
0.132232 0.132232 0.132232
0.162536 0.162536 0.162536
0.204993 0.204993 0.204993
0.254496 0.254496 0.254496
0.307948 0.307948 0.307948
0.363694 0.363694 0.363694
0.501160 0.501160 0.501160
0.519724 0.519724 0.519724
0.208905 0.208905 0.208905
0.216827 0.216827 0.216827
0.235619 0.235619 0.235619
0.265356 0.265356 0.265356
0.303783 0.303783 0.303783
0.348448 0.348448 0.348448
0.397416 0.397416 0.397416
0.540516 0.540516 0.540516
0.557647 0.557647 0.557647
0.305622 0.305622 0.305622
0.310731 0.310731 0.310731
0.323295 0.323295 0.323295
0.344327 0.344327 0.344327
0.373275 0.373275 0.373275
0.408938 0.408938 0.408938
0.541380 0.541380 0.541380
0.603758 0.603758 0.603758
0.618945 0.618945 0.618945
0.404201 0.404201 0.404201
0.407833 0.407833 0.407833
0.416899 0.416899 0.416899
0.517230 0.517230 0.517230
0.547869 0.547869 0.547869
0.587039 0.587039 0.587039
0.633734 0.633734 0.633734
0.686803 0.686803 0.686803
0.699949 0.699949 0.699949
0.615390 0.615390 0.615390
0.619192 0.619192 0.619192
0.628753 0.628753 0.628753
0.645403 0.645403 0.645403
0.669570 0.669570 0.669570
0.701171 0.701171 0.701171
0.739759 0.739759 0.739759
0.784663 0.784663 0.784663
0.795939 0.795939 0.795939
0.753134 0.753134 0.753134
0.756148 0.756148 0.756148
0.763757 0.763757 0.763757
0.777109 0.777109 0.777109
0.796706 0.796706 0.796706
0.822694 0.822694 0.822694
0.854936 0.854936 0.854936
0.893091 0.893091 0.893091
0.902771 0.902771 0.902771
0.891177 0.891177 0.891177
0.893646 0.893646 0.893646
0.899892 0.899892 0.899892
0.910904 0.910904 0.910904
0.927177 0.927177 0.927177
0.948953 0.948953 0.948953
0.976261 0.976261 0.976261
1.000000 1.000000 1.000000
1.000000 1.000000 1.000000
0.923336 0.923336 0.923336
0.925701 0.925701 0.925701
0.931689 0.931689 0.931689
0.942252 0.942252 0.942252
0.957883 0.957883 0.957883
0.978833 0.978833 0.978833
1.000000 1.000000 1.000000
1.000000 1.000000 1.000000
1.000000 1.000000 1.000000
0.086701 0.086701 0.086701
0.105062 0.105062 0.105062
0.141543 0.141543 0.141543
0.189231 0.189231 0.189231
0.242440 0.242440 0.242440
0.298451 0.298451 0.298451
0.355998 0.355998 0.355998
0.414452 0.414452 0.414452
0.511252 0.511252 0.511252
0.139268 0.139268 0.139268
0.151360 0.151360 0.151360
0.178228 0.178228 0.178228
0.217319 0.217319 0.217319
0.264189 0.264189 0.264189
0.315713 0.315713 0.315713
0.370049 0.370049 0.370049
0.508492 0.508492 0.508492
0.526774 0.526774 0.526774
0.220981 0.220981 0.220981
0.228423 0.228423 0.228423
0.246195 0.246195 0.246195
0.274596 0.274596 0.274596
0.311673 0.311673 0.311673
0.355143 0.355143 0.355143
0.403117 0.403117 0.403117
0.547271 0.547271 0.547271
0.564175 0.564175 0.564175
0.313456 0.313456 0.313456
0.318413 0.318413 0.318413
0.330622 0.330622 0.330622
0.351119 0.351119 0.351119
0.379431 0.379431 0.379431
0.414440 0.414440 0.414440
0.548124 0.548124 0.548124
0.609735 0.609735 0.609735
0.624757 0.624757 0.624757
0.409783 0.409783 0.409783
0.413354 0.413354 0.413354
0.503136 0.503136 0.503136
0.524317 0.524317 0.524317
0.554526 0.554526 0.554526
0.593207 0.593207 0.593207
0.639394 0.639394 0.639394
0.691967 0.691967 0.691967
0.705001 0.705001 0.705001
0.621241 0.621241 0.621241
0.625002 0.625002 0.625002
0.634463 0.634463 0.634463
0.650947 0.650947 0.650947
0.674887 0.674887 0.674887
0.706214 0.706214 0.706214
0.744498 0.744498 0.744498
0.789086 0.789086 0.789086
0.800289 0.800289 0.800289
0.757774 0.757774 0.757774
0.760767 0.760767 0.760767
0.768322 0.768322 0.768322
0.781583 0.781583 0.781583
0.801050 0.801050 0.801050
0.826876 0.826876 0.826876
0.858932 0.858932 0.858932
0.896883 0.896883 0.896883
0.906514 0.906514 0.906514
0.894979 0.894979 0.894979
0.897435 0.897435 0.897435
0.903650 0.903650 0.903650
0.914607 0.914607 0.914607
0.930802 0.930802 0.930802
0.952477 0.952477 0.952477
0.979666 0.979666 0.979666
1.000000 1.000000 1.000000
1.000000 1.000000 1.000000
0.926979 0.926979 0.926979
0.929333 0.929333 0.929333
0.935292 0.935292 0.935292
0.945807 0.945807 0.945807
0.961368 0.961368 0.961368
0.982228 0.982228 0.982228
1.000000 1.000000 1.000000
1.000000 1.000000 1.000000
1.000000 1.000000 1.000000
0.125336 0.125336 0.125336
0.138708 0.138708 0.138708
0.167776 0.167776 0.167776
0.209061 0.209061 0.209061
0.257671 0.257671 0.257671
0.310479 0.310479 0.310479
0.365759 0.365759 0.365759
0.503538 0.503538 0.503538
0.522010 0.522010 0.522010
0.165887 0.165887 0.165887
0.176029 0.176029 0.176029
0.199295 0.199295 0.199295
0.234475 0.234475 0.234475
0.278024 0.278024 0.278024
0.326975 0.326975 0.326975
0.379365 0.379365 0.379365
0.519313 0.519313 0.519313
0.537192 0.537192 0.537192
0.237833 0.237833 0.237833
0.244681 0.244681 0.244681
0.261169 0.261169 0.261169
0.287837 0.287837 0.287837
0.323108 0.323108 0.323108
0.364933 0.364933 0.364933
0.411508 0.411508 0.411508
0.557267 0.557267 0.557267
0.573844 0.573844 0.573844
0.324814 0.324814 0.324814
0.329563 0.329563 0.329563
0.341287 0.341287 0.341287
0.361044 0.361044 0.361044
0.388468 0.388468 0.388468
0.503522 0.503522 0.503522
0.558102 0.558102 0.558102
0.618606 0.618606 0.618606
0.633390 0.633390 0.633390
0.418007 0.418007 0.418007
0.502058 0.502058 0.502058
0.514080 0.514080 0.514080
0.534788 0.534788 0.534788
0.564378 0.564378 0.564378
0.602354 0.602354 0.602354
0.647804 0.647804 0.647804
0.699655 0.699655 0.699655
0.712526 0.712526 0.712526
0.629928 0.629928 0.629928
0.633632 0.633632 0.633632
0.642948 0.642948 0.642948
0.659189 0.659189 0.659189
0.682797 0.682797 0.682797
0.713723 0.713723 0.713723
0.751563 0.751563 0.751563
0.795687 0.795687 0.795687
0.806781 0.806781 0.806781
0.764695 0.764695 0.764695
0.767656 0.767656 0.767656
0.775132 0.775132 0.775132
0.788258 0.788258 0.788258
0.807536 0.807536 0.807536
0.833123 0.833123 0.833123
0.864903 0.864903 0.864903
0.902553 0.902553 0.902553
0.912112 0.912112 0.912112
0.900664 0.900664 0.900664
0.903101 0.903101 0.903101
0.909269 0.909269 0.909269
0.920145 0.920145 0.920145
0.936225 0.936225 0.936225
0.957751 0.957751 0.957751
0.984763 0.984763 0.984763
1.000000 1.000000 1.000000
1.000000 1.000000 1.000000
0.932429 0.932429 0.932429
0.934766 0.934766 0.934766
0.940684 0.940684 0.940684
0.951127 0.951127 0.951127
0.966583 0.966583 0.966583
0.987309 0.987309 0.987309
1.000000 1.000000 1.000000
1.000000 1.000000 1.000000
1.000000 1.000000 1.000000
0.163970 0.163970 0.163970
0.174234 0.174234 0.174234
0.197736 0.197736 0.197736
0.233184 0.233184 0.233184
0.276971 0.276971 0.276971
0.326110 0.326110 0.326110
0.378645 0.378645 0.378645
0.518474 0.518474 0.518474
0.536384 0.536384 0.536384
0.196166 0.196166 0.196166
0.204654 0.204654 0.204654
0.224624 0.224624 0.224624
0.255859 0.255859 0.255859
0.295756 0.295756 0.295756
0.341691 0.341691 0.341691
0.391697 0.391697 0.391697
0.533766 0.533766 0.533766
0.551130 0.551130 0.551130
0.258893 0.258893 0.258893
0.265105 0.265105 0.265105
0.280183 0.280183 0.280183
0.304887 0.304887 0.304887
0.338030 0.338030 0.338030
0.377854 0.377854 0.377854
0.503702 0.503702 0.503702
0.570662 0.570662 0.570662
0.586817 0.586817 0.586817
0.339645 0.339645 0.339645
0.344144 0.344144 0.344144
0.355280 0.355280 0.355280
0.374132 0.374132 0.374132
0.400452 0.400452 0.400452
0.518458 0.518458 0.518458
0.571475 0.571475 0.571475
0.630546 0.630546 0.630546
0.645019 0.645019 0.645019
0.512384 0.512384 0.512384
0.517040 0.517040 0.517040
0.528690 0.528690 0.528690
0.548793 0.548793 0.548793
0.577590 0.577590 0.577590
0.614652 0.614652 0.614652
0.659142 0.659142 0.659142
0.710044 0.710044 0.710044
0.722700 0.722700 0.722700
0.641628 0.641628 0.641628
0.645255 0.645255 0.645255
0.654382 0.654382 0.654382
0.670307 0.670307 0.670307
0.693480 0.693480 0.693480
0.723878 0.723878 0.723878
0.761129 0.761129 0.761129
0.804638 0.804638 0.804638
0.815587 0.815587 0.815587
0.774071 0.774071 0.774071
0.776990 0.776990 0.776990
0.784361 0.784361 0.784361
0.797307 0.797307 0.797307
0.816332 0.816332 0.816332
0.841602 0.841602 0.841602
0.873014 0.873014 0.873014
0.910263 0.910263 0.910263
0.919725 0.919725 0.919725
0.908393 0.908393 0.908393
0.910805 0.910805 0.910805
0.916910 0.916910 0.916910
0.927678 0.927678 0.927678
0.943602 0.943602 0.943602
0.964930 0.964930 0.964930
0.991704 0.991704 0.991704
1.000000 1.000000 1.000000
1.000000 1.000000 1.000000
0.939843 0.939843 0.939843
0.942158 0.942158 0.942158
0.948019 0.948019 0.948019
0.958365 0.958365 0.958365
0.973682 0.973682 0.973682
0.994228 0.994228 0.994228
1.000000 1.000000 1.000000
1.000000 1.000000 1.000000
1.000000 1.000000 1.000000
0.202604 0.202604 0.202604
0.210798 0.210798 0.210798
0.230159 0.230159 0.230159
0.260625 0.260625 0.260625
0.299773 0.299773 0.299773
0.345066 0.345066 0.345066
0.394549 0.394549 0.394549
0.537129 0.537129 0.537129
0.554376 0.554376 0.554376
0.228842 0.228842 0.228842
0.235997 0.235997 0.235997
0.253151 0.253151 0.253151
0.280725 0.280725 0.280725
0.316948 0.316948 0.316948
0.359647 0.359647 0.359647
0.406969 0.406969 0.406969
0.551853 0.551853 0.551853
0.568605 0.568605 0.568605
0.283444 0.283444 0.283444
0.289031 0.289031 0.289031
0.302696 0.302696 0.302696
0.325362 0.325362 0.325362
0.356213 0.356213 0.356213
0.393798 0.393798 0.393798
0.522935 0.522935 0.522935
0.587491 0.587491 0.587491
0.603141 0.603141 0.603141
0.357727 0.357727 0.357727
0.361950 0.361950 0.361950
0.372432 0.372432 0.372432
0.390265 0.390265 0.390265
0.415322 0.415322 0.415322
0.537114 0.537114 0.537114
0.588278 0.588278 0.588278
0.645624 0.645624 0.645624
0.659719 0.659719 0.659719
0.531273 0.531273 0.531273
0.535750 0.535750 0.535750
0.546962 0.546962 0.546962
0.566349 0.566349 0.566349
0.594199 0.594199 0.594199
0.630164 0.630164 0.630164
0.673490 0.673490 0.673490
0.723231 0.723231 0.723231
0.735623 0.735623 0.735623
0.656416 0.656416 0.656416
0.659950 0.659950 0.659950
0.668847 0.668847 0.668847
0.684385 0.684385 0.684385
0.707026 0.707026 0.707026
0.736776 0.736776 0.736776
0.773303 0.773303 0.773303
0.816048 0.816048 0.816048
0.826818 0.826818 0.826818
0.786009 0.786009 0.786009
0.788875 0.788875 0.788875
0.796117 0.796117 0.796117
0.808840 0.808840 0.808840
0.827551 0.827551 0.827551
0.852425 0.852425 0.852425
0.883377 0.883377 0.883377
0.920123 0.920123 0.920123
0.929464 0.929464 0.929464
0.918277 0.918277 0.918277
0.920658 0.920658 0.920658
0.926685 0.926685 0.926685
0.937317 0.937317 0.937317
0.953046 0.953046 0.953046
0.974123 0.974123 0.974123
1.000000 1.000000 1.000000
1.000000 1.000000 1.000000
1.000000 1.000000 1.000000
0.949332 0.949332 0.949332
0.951619 0.951619 0.951619
0.957411 0.957411 0.957411
0.967634 0.967634 0.967634
0.982776 0.982776 0.982776
1.000000 1.000000 1.000000
1.000000 1.000000 1.000000
1.000000 1.000000 1.000000
1.000000 1.000000 1.000000
0.241238 0.241238 0.241238
0.247977 0.247977 0.247977
0.264222 0.264222 0.264222
0.290558 0.290558 0.290558
0.325475 0.325475 0.325475
0.366972 0.366972 0.366972
0.413264 0.413264 0.413264
0.559366 0.559366 0.559366
0.575875 0.575875 0.575875
0.263104 0.263104 0.263104
0.269201 0.269201 0.269201
0.284020 0.284020 0.284020
0.308356 0.308356 0.308356
0.341092 0.341092 0.341092
0.380524 0.380524 0.380524
0.506908 0.506908 0.506908
0.573457 0.573457 0.573457
0.589526 0.589526 0.589526
0.310785 0.310785 0.310785
0.315793 0.315793 0.315793
0.328121 0.328121 0.328121
0.348798 0.348798 0.348798
0.377325 0.377325 0.377325
0.412555 0.412555 0.412555
0.545811 0.545811 0.545811
0.607684 0.607684 0.607684
0.622762 0.622762 0.622762
0.378735 0.378735 0.378735
0.382672 0.382672 0.382672
0.392471 0.392471 0.392471
0.409225 0.409225 0.409225
0.517843 0.517843 0.517843
0.559351 0.559351 0.559351
0.608442 0.608442 0.608442
0.663824 0.663824 0.663824
0.677485 0.677485 0.677485
0.553770 0.553770 0.553770
0.558047 0.558047 0.558047
0.568773 0.568773 0.568773
0.587360 0.587360 0.587360
0.614143 0.614143 0.614143
0.648860 0.648860 0.648860
0.690849 0.690849 0.690849
0.739242 0.739242 0.739242
0.751326 0.751326 0.751326
0.674282 0.674282 0.674282
0.677709 0.677709 0.677709
0.686342 0.686342 0.686342
0.701433 0.701433 0.701433
0.723457 0.723457 0.723457
0.752452 0.752452 0.752452
0.788127 0.788127 0.788127
0.829973 0.829973 0.829973
0.840531 0.840531 0.840531
0.800556 0.800556 0.800556
0.803361 0.803361 0.803361
0.810449 0.810449 0.810449
0.822910 0.822910 0.822910
0.841249 0.841249 0.841249
0.865655 0.865655 0.865655
0.896061 0.896061 0.896061
0.932205 0.932205 0.932205
0.941401 0.941401 0.941401
0.930389 0.930389 0.930389
0.932732 0.932732 0.932732
0.938666 0.938666 0.938666
0.949135 0.949135 0.949135
0.964631 0.964631 0.964631
0.985406 0.985406 0.985406
1.000000 1.000000 1.000000
1.000000 1.000000 1.000000
1.000000 1.000000 1.000000
0.960971 0.960971 0.960971
0.963224 0.963224 0.963224
0.968931 0.968931 0.968931
0.979009 0.979009 0.979009
0.993939 0.993939 0.993939
1.000000 1.000000 1.000000
1.000000 1.000000 1.000000
1.000000 1.000000 1.000000
1.000000 1.000000 1.000000
0.250230 0.250230 0.250230
0.256692 0.256692 0.256692
0.272325 0.272325 0.272325
0.297811 0.297811 0.297811
0.331812 0.331812 0.331812
0.372451 0.372451 0.372451
0.417996 0.417996 0.417996
0.565033 0.565033 0.565033
0.581363 0.581363 0.581363
0.271247 0.271247 0.271247
0.277131 0.277131 0.277131
0.291469 0.291469 0.291469
0.315115 0.315115 0.315115
0.347080 0.347080 0.347080
0.385764 0.385764 0.385764
0.513218 0.513218 0.513218
0.578970 0.578970 0.578970
0.594873 0.594873 0.594873
0.317482 0.317482 0.317482
0.322363 0.322363 0.322363
0.334397 0.334397 0.334397
0.354626 0.354626 0.354626
0.382620 0.382620 0.382620
0.417297 0.417297 0.417297
0.551633 0.551633 0.551633
0.612852 0.612852 0.612852
0.627789 0.627789 0.627789
0.384005 0.384005 0.384005
0.387876 0.387876 0.387876
0.397515 0.397515 0.397515
0.414014 0.414014 0.414014
0.524009 0.524009 0.524009
0.565018 0.565018 0.565018
0.613602 0.613602 0.613602
0.668499 0.668499 0.668499
0.682053 0.682053 0.682053
0.559501 0.559501 0.559501
0.563729 0.563729 0.563729
0.574337 0.574337 0.574337
0.592728 0.592728 0.592728
0.619250 0.619250 0.619250
0.653659 0.653659 0.653659
0.695315 0.695315 0.695315
0.743372 0.743372 0.743372
0.755378 0.755378 0.755378
0.678875 0.678875 0.678875
0.682275 0.682275 0.682275
0.690842 0.690842 0.690842
0.705822 0.705822 0.705822
0.727691 0.727691 0.727691
0.756497 0.756497 0.756497
0.791958 0.791958 0.791958
0.833576 0.833576 0.833576
0.844081 0.844081 0.844081
0.804317 0.804317 0.804317
0.807106 0.807106 0.807106
0.814156 0.814156 0.814156
0.826551 0.826551 0.826551
0.844796 0.844796 0.844796
0.869082 0.869082 0.869082
0.899349 0.899349 0.899349
0.935341 0.935341 0.935341
0.944499 0.944499 0.944499
0.933531 0.933531 0.933531
0.935865 0.935865 0.935865
0.941775 0.941775 0.941775
0.952203 0.952203 0.952203
0.967639 0.967639 0.967639
0.988337 0.988337 0.988337
1.000000 1.000000 1.000000
1.000000 1.000000 1.000000
1.000000 1.000000 1.000000
0.963993 0.963993 0.963993
0.966238 0.966238 0.966238
0.971923 0.971923 0.971923
0.981963 0.981963 0.981963
0.996840 0.996840 0.996840
1.000000 1.000000 1.000000
1.000000 1.000000 1.000000
1.000000 1.000000 1.000000
1.000000 1.000000 1.000000
