docs/luts/fuji_recipes/AcrosR_JC_Acros_1R.cube
TITLE "Fujifilm Recipe: JC Acros 1R (AcrosR)"
# FilmSim=AcrosR HL=-1 SH=3 Col=0 WB=Auto WBR=1 WBB=0
LUT_3D_SIZE 9
DOMAIN_MIN 0.0 0.0 0.0
DOMAIN_MAX 1.0 1.0 1.0
0.000000 0.000000 0.000000
0.041206 0.041206 0.041206
0.103900 0.103900 0.103900
0.166594 0.166594 0.166594
0.229288 0.229288 0.229288
0.291982 0.291982 0.291982
0.354676 0.354676 0.354676
0.417370 0.417370 0.417370
0.529728 0.529728 0.529728
0.081587 0.081587 0.081587
0.101572 0.101572 0.101572
0.140826 0.140826 0.140826
0.191346 0.191346 0.191346
0.247188 0.247188 0.247188
0.305668 0.305668 0.305668
0.365576 0.365576 0.365576
0.426321 0.426321 0.426321
0.538032 0.538032 0.538032
0.171856 0.171856 0.171856
0.182119 0.182119 0.182119
0.205947 0.205947 0.205947
0.242124 0.242124 0.242124
0.287012 0.287012 0.287012
0.337535 0.337535 0.337535
0.391653 0.391653 0.391653
0.508655 0.508655 0.508655
0.558425 0.558425 0.558425
0.262124 0.262124 0.262124
0.268583 0.268583 0.268583
0.284402 0.284402 0.284402
0.310322 0.310322 0.310322
0.345040 0.345040 0.345040
0.386667 0.386667 0.386667
0.433432 0.433432 0.433432
0.546929 0.546929 0.546929
0.592492 0.592492 0.592492
0.352393 0.352393 0.352393
0.356942 0.356942 0.356942
0.368323 0.368323 0.368323
0.387653 0.387653 0.387653
0.414697 0.414697 0.414697
0.509152 0.509152 0.509152
0.551402 0.551402 0.551402
0.598520 0.598520 0.598520
0.639264 0.639264 0.639264
0.502843 0.502843 0.502843
0.506510 0.506510 0.506510
0.515781 0.515781 0.515781
0.531821 0.531821 0.531821
0.554829 0.554829 0.554829
0.584463 0.584463 0.584463
0.620053 0.620053 0.620053
0.660783 0.660783 0.660783
0.696739 0.696739 0.696739
0.599267 0.599267 0.599267
0.602167 0.602167 0.602167
0.609540 0.609540 0.609540
0.622431 0.622431 0.622431
0.641199 0.641199 0.641199
0.665812 0.665812 0.665812
0.695955 0.695955 0.695955
0.731130 0.731130 0.731130
0.762703 0.762703 0.762703
0.695690 0.695690 0.695690
0.698062 0.698062 0.698062
0.704112 0.704112 0.704112
0.714756 0.714756 0.714756
0.730400 0.730400 0.730400
0.751163 0.751163 0.751163
0.776936 0.776936 0.776936
0.807447 0.807447 0.807447
0.835189 0.835189 0.835189
0.792113 0.792113 0.792113
0.794103 0.794103 0.794103
0.799187 0.799187 0.799187
0.808170 0.808170 0.808170
0.821454 0.821454 0.821454
0.839226 0.839226 0.839226
0.861501 0.861501 0.861501
0.888149 0.888149 0.888149
0.912619 0.912619 0.912619
0.010248 0.010248 0.010248
0.049823 0.049823 0.049823
0.108195 0.108195 0.108195
0.169274 0.169274 0.169274
0.231168 0.231168 0.231168
0.293399 0.293399 0.293399
0.355795 0.355795 0.355795
0.418284 0.418284 0.418284
0.530575 0.530575 0.530575
0.086902 0.086902 0.086902
0.105957 0.105957 0.105957
0.144020 0.144020 0.144020
0.193651 0.193651 0.193651
0.248912 0.248912 0.248912
0.307009 0.307009 0.307009
0.366654 0.366654 0.366654
0.427212 0.427212 0.427212
0.538860 0.538860 0.538860
0.174447 0.174447 0.174447
0.184552 0.184552 0.184552
0.208071 0.208071 0.208071
0.243890 0.243890 0.243890
0.288458 0.288458 0.288458
0.338724 0.338724 0.338724
0.392643 0.392643 0.392643
0.509548 0.509548 0.509548
0.559213 0.559213 0.559213
0.263734 0.263734 0.263734
0.270148 0.270148 0.270148
0.285863 0.285863 0.285863
0.311639 0.311639 0.311639
0.346197 0.346197 0.346197
0.387673 0.387673 0.387673
0.434304 0.434304 0.434304
0.547739 0.547739 0.547739
0.593220 0.593220 0.593220
0.353521 0.353521 0.353521
0.358052 0.358052 0.358052
0.369391 0.369391 0.369391
0.388656 0.388656 0.388656
0.415619 0.415619 0.415619
0.510044 0.510044 0.510044
0.552204 0.552204 0.552204
0.599237 0.599237 0.599237
0.639921 0.639921 0.639921
0.503751 0.503751 0.503751
0.507409 0.507409 0.507409
0.516658 0.516658 0.516658
0.532663 0.532663 0.532663
0.555624 0.555624 0.555624
0.585205 0.585205 0.585205
0.620738 0.620738 0.620738
0.661412 0.661412 0.661412
0.697323 0.697323 0.697323
0.599983 0.599983 0.599983
0.602879 0.602879 0.602879
0.610240 0.610240 0.610240
0.623112 0.623112 0.623112
0.641853 0.641853 0.641853
0.666434 0.666434 0.666434
0.696541 0.696541 0.696541
0.731678 0.731678 0.731678
0.763220 0.763220 0.763220
0.696276 0.696276 0.696276
0.698645 0.698645 0.698645
0.704688 0.704688 0.704688
0.715321 0.715321 0.715321
0.730949 0.730949 0.730949
0.751690 0.751690 0.751690
0.777440 0.777440 0.777440
0.807925 0.807925 0.807925
0.835646 0.835646 0.835646
0.792604 0.792604 0.792604
0.794592 0.794592 0.794592
0.799672 0.799672 0.799672
0.808648 0.808648 0.808648
0.821921 0.821921 0.821921
0.839680 0.839680 0.839680
0.861939 0.861939 0.861939
0.888569 0.888569 0.888569
0.913024 0.913024 0.913024
0.036317 0.036317 0.036317
0.068011 0.068011 0.068011
0.118445 0.118445 0.118445
0.175895 0.175895 0.175895
0.235876 0.235876 0.235876
0.296968 0.296968 0.296968
0.358624 0.358624 0.358624
0.420601 0.420601 0.420601
0.532720 0.532720 0.532720
0.099260 0.099260 0.099260
0.116400 0.116400 0.116400
0.151833 0.151833 0.151833
0.199384 0.199384 0.199384
0.253238 0.253238 0.253238
0.310390 0.310390 0.310390
0.369381 0.369381 0.369381
0.429468 0.429468 0.429468
0.540962 0.540962 0.540962
0.180861 0.180861 0.180861
0.190592 0.190592 0.190592
0.213369 0.213369 0.213369
0.248319 0.248319 0.248319
0.292099 0.292099 0.292099
0.341728 0.341728 0.341728
0.395149 0.395149 0.395149
0.511813 0.511813 0.511813
0.561213 0.561213 0.561213
0.267780 0.267780 0.267780
0.274082 0.274082 0.274082
0.289544 0.289544 0.289544
0.314960 0.314960 0.314960
0.349122 0.349122 0.349122
0.390219 0.390219 0.390219
0.436514 0.436514 0.436514
0.549795 0.549795 0.549795
0.595067 0.595067 0.595067
0.356372 0.356372 0.356372
0.360859 0.360859 0.360859
0.372093 0.372093 0.372093
0.391194 0.391194 0.391194
0.417954 0.417954 0.417954
0.512306 0.512306 0.512306
0.554238 0.554238 0.554238
0.601060 0.601060 0.601060
0.641589 0.641589 0.641589
0.506050 0.506050 0.506050
0.509687 0.509687 0.509687
0.518882 0.518882 0.518882
0.534798 0.534798 0.534798
0.557641 0.557641 0.557641
0.587086 0.587086 0.587086
0.622476 0.622476 0.622476
0.663007 0.663007 0.663007
0.698808 0.698808 0.698808
0.601802 0.601802 0.601802
0.604686 0.604686 0.604686
0.612019 0.612019 0.612019
0.624840 0.624840 0.624840
0.643514 0.643514 0.643514
0.668013 0.668013 0.668013
0.698028 0.698028 0.698028
0.733069 0.733069 0.733069
0.764534 0.764534 0.764534
0.697764 0.697764 0.697764
0.700126 0.700126 0.700126
0.706152 0.706152 0.706152
0.716756 0.716756 0.716756
0.732342 0.732342 0.732342
0.753032 0.753032 0.753032
0.778721 0.778721 0.778721
0.809141 0.809141 0.809141
0.836807 0.836807 0.836807
0.793852 0.793852 0.793852
0.795836 0.795836 0.795836
0.800905 0.800905 0.800905
0.809862 0.809862 0.809862
0.823109 0.823109 0.823109
0.840834 0.840834 0.840834
0.863052 0.863052 0.863052
0.889637 0.889637 0.889637
0.914053 0.914053 0.914053
0.071038 0.071038 0.071038
0.093089 0.093089 0.093089
0.134806 0.134806 0.134806
0.187067 0.187067 0.187067
0.244012 0.244012 0.244012
0.303208 0.303208 0.303208
0.363603 0.363603 0.363603
0.424693 0.424693 0.424693
0.536518 0.536518 0.536518
0.118279 0.118279 0.118279
0.133016 0.133016 0.133016
0.164796 0.164796 0.164796
0.209171 0.209171 0.209171
0.260745 0.260745 0.260745
0.316313 0.316313 0.316313
0.374183 0.374183 0.374183
0.433456 0.433456 0.433456
0.544683 0.544683 0.544683
0.191714 0.191714 0.191714
0.200862 0.200862 0.200862
0.222461 0.222461 0.222461
0.255995 0.255995 0.255995
0.298462 0.298462 0.298462
0.347006 0.347006 0.347006
0.399570 0.399570 0.399570
0.515819 0.515819 0.515819
0.564756 0.564756 0.564756
0.274821 0.274821 0.274821
0.280935 0.280935 0.280935
0.295973 0.295973 0.295973
0.320780 0.320780 0.320780
0.354266 0.354266 0.354266
0.394709 0.394709 0.394709
0.500450 0.500450 0.500450
0.553437 0.553437 0.553437
0.598342 0.598342 0.598342
0.361389 0.361389 0.361389
0.365800 0.365800 0.365800
0.376852 0.376852 0.376852
0.395670 0.395670 0.395670
0.422079 0.422079 0.422079
0.516307 0.516307 0.516307
0.557840 0.557840 0.557840
0.604291 0.604291 0.604291
0.644549 0.644549 0.644549
0.510117 0.510117 0.510117
0.513715 0.513715 0.513715
0.522815 0.522815 0.522815
0.538576 0.538576 0.538576
0.561214 0.561214 0.561214
0.590421 0.590421 0.590421
0.625558 0.625558 0.625558
0.665838 0.665838 0.665838
0.701446 0.701446 0.701446
0.605028 0.605028 0.605028
0.607892 0.607892 0.607892
0.615172 0.615172 0.615172
0.627908 0.627908 0.627908
0.646462 0.646462 0.646462
0.670816 0.670816 0.670816
0.700669 0.700669 0.700669
0.735541 0.735541 0.735541
0.766869 0.766869 0.766869
0.700406 0.700406 0.700406
0.702757 0.702757 0.702757
0.708752 0.708752 0.708752
0.719304 0.719304 0.719304
0.734817 0.734817 0.734817
0.755415 0.755415 0.755415
0.780999 0.780999 0.780999
0.811303 0.811303 0.811303
0.838873 0.838873 0.838873
0.796071 0.796071 0.796071
0.798047 0.798047 0.798047
0.803098 0.803098 0.803098
0.812022 0.812022 0.812022
0.825221 0.825221 0.825221
0.842886 0.842886 0.842886
0.865032 0.865032 0.865032
0.891537 0.891537 0.891537
0.915884 0.915884 0.915884
0.105758 0.105758 0.105758
0.122010 0.122010 0.122010
0.156142 0.156142 0.156142
0.202600 0.202600 0.202600
0.255688 0.255688 0.255688
0.312316 0.312316 0.312316
0.370939 0.370939 0.370939
0.430760 0.430760 0.430760
0.542166 0.542166 0.542166
0.142201 0.142201 0.142201
0.154609 0.154609 0.154609
0.182445 0.182445 0.182445
0.222986 0.222986 0.222986
0.271582 0.271582 0.271582
0.324979 0.324979 0.324979
0.381269 0.381269 0.381269
0.439370 0.439370 0.439370
0.550219 0.550219 0.550219
0.206858 0.206858 0.206858
0.215285 0.215285 0.215285
0.235390 0.235390 0.235390
0.267061 0.267061 0.267061
0.307740 0.307740 0.307740
0.354768 0.354768 0.354768
0.406110 0.406110 0.406110
0.521770 0.521770 0.521770
0.570031 0.570031 0.570031
0.285028 0.285028 0.285028
0.290888 0.290888 0.290888
0.305341 0.305341 0.305341
0.329304 0.329304 0.329304
0.361836 0.361836 0.361836
0.401348 0.401348 0.401348
0.506645 0.506645 0.506645
0.558856 0.558856 0.558856
0.603226 0.603226 0.603226
0.368780 0.368780 0.368780
0.373083 0.373083 0.373083
0.383877 0.383877 0.383877
0.402289 0.402289 0.402289
0.428192 0.428192 0.428192
0.522251 0.522251 0.522251
0.563203 0.563203 0.563203
0.609110 0.609110 0.609110
0.648968 0.648968 0.648968
0.516157 0.516157 0.516157
0.519698 0.519698 0.519698
0.528661 0.528661 0.528661
0.544195 0.544195 0.544195
0.566534 0.566534 0.566534
0.595392 0.595392 0.595392
0.630159 0.630159 0.630159
0.670069 0.670069 0.670069
0.705389 0.705389 0.705389
0.609840 0.609840 0.609840
0.612673 0.612673 0.612673
0.619878 0.619878 0.619878
0.632485 0.632485 0.632485
0.650864 0.650864 0.650864
0.675004 0.675004 0.675004
0.704619 0.704619 0.704619
0.739240 0.739240 0.739240
0.770365 0.770365 0.770365
0.704358 0.704358 0.704358
0.706691 0.706691 0.706691
0.712641 0.712641 0.712641
0.723116 0.723116 0.723116
0.738521 0.738521 0.738521
0.758983 0.758983 0.758983
0.784410 0.784410 0.784410
0.814542 0.814542 0.814542
0.841968 0.841968 0.841968
0.799395 0.799395 0.799395
0.801359 0.801359 0.801359
0.806382 0.806382 0.806382
0.815257 0.815257 0.815257
0.828386 0.828386 0.828386
0.845961 0.845961 0.845961
0.868001 0.868001 0.868001
0.894386 0.894386 0.894386
0.918631 0.918631 0.918631
0.140478 0.140478 0.140478
0.153033 0.153033 0.153033
0.181131 0.181131 0.181131
0.221940 0.221940 0.221940
0.270752 0.270752 0.270752
0.324310 0.324310 0.324310
0.380720 0.380720 0.380720
0.438911 0.438911 0.438911
0.549788 0.549788 0.549788
0.169413 0.169413 0.169413
0.179829 0.179829 0.179829
0.203954 0.203954 0.203954
0.240472 0.240472 0.240472
0.285662 0.285662 0.285662
0.336428 0.336428 0.336428
0.390731 0.390731 0.390731
0.507824 0.507824 0.507824
0.557693 0.557693 0.557693
0.225785 0.225785 0.225785
0.233436 0.233436 0.233436
0.251886 0.251886 0.251886
0.281409 0.281409 0.281409
0.319941 0.319941 0.319941
0.365086 0.365086 0.365086
0.414872 0.414872 0.414872
0.529788 0.529788 0.529788
0.577162 0.577162 0.577162
0.298356 0.298356 0.298356
0.303909 0.303909 0.303909
0.317655 0.317655 0.317655
0.340576 0.340576 0.340576
0.371914 0.371914 0.371914
0.410237 0.410237 0.410237
0.514980 0.514980 0.514980
0.566177 0.566177 0.566177
0.609839 0.609839 0.609839
0.378630 0.378630 0.378630
0.382797 0.382797 0.382797
0.393262 0.393262 0.393262
0.411153 0.411153 0.411153
0.436403 0.436403 0.436403
0.530259 0.530259 0.530259
0.570449 0.570449 0.570449
0.615638 0.615638 0.615638
0.654966 0.654966 0.654966
0.524290 0.524290 0.524290
0.527758 0.527758 0.527758
0.536541 0.536541 0.536541
0.551779 0.551779 0.551779
0.573723 0.573723 0.573723
0.602122 0.602122 0.602122
0.636397 0.636397 0.636397
0.675814 0.675814 0.675814
0.710751 0.710751 0.710751
0.616357 0.616357 0.616357
0.619150 0.619150 0.619150
0.626255 0.626255 0.626255
0.638693 0.638693 0.638693
0.656838 0.656838 0.656838
0.680693 0.680693 0.680693
0.709989 0.709989 0.709989
0.744274 0.744274 0.744274
0.775126 0.775126 0.775126
0.709731 0.709731 0.709731
0.712039 0.712039 0.712039
0.717930 0.717930 0.717930
0.728302 0.728302 0.728302
0.743561 0.743561 0.743561
0.763841 0.763841 0.763841
0.789056 0.789056 0.789056
0.818957 0.818957 0.818957
0.846189 0.846189 0.846189
0.803923 0.803923 0.803923
0.805873 0.805873 0.805873
0.810857 0.810857 0.810857
0.819666 0.819666 0.819666
0.832701 0.832701 0.832701
0.850155 0.850155 0.850155
0.872051 0.872051 0.872051
0.898275 0.898275 0.898275
0.922380 0.922380 0.922380
0.175198 0.175198 0.175198
0.185258 0.185258 0.185258
0.208688 0.208688 0.208688
0.244404 0.244404 0.244404
0.288879 0.288879 0.288879
0.339072 0.339072 0.339072
0.392932 0.392932 0.392932
0.509810 0.509810 0.509810
0.559444 0.559444 0.559444
0.198779 0.198779 0.198779
0.207578 0.207578 0.207578
0.228459 0.228459 0.228459
0.261108 0.261108 0.261108
0.302734 0.302734 0.302734
0.350570 0.350570 0.350570
0.402567 0.402567 0.402567
0.518543 0.518543 0.518543
0.567168 0.567168 0.567168
0.247849 0.247849 0.247849
0.254736 0.254736 0.254736
0.271512 0.271512 0.271512
0.298771 0.298771 0.298771
0.334937 0.334937 0.334937
0.377926 0.377926 0.377926
0.425878 0.425878 0.425878
0.539928 0.539928 0.539928
0.586217 0.586217 0.586217
0.314606 0.314606 0.314606
0.319820 0.319820 0.319820
0.332775 0.332775 0.332775
0.354517 0.354517 0.354517
0.384473 0.384473 0.384473
0.421395 0.421395 0.421395
0.525504 0.525504 0.525504
0.575466 0.575466 0.575466
0.618256 0.618256 0.618256
0.390923 0.390923 0.390923
0.394929 0.394929 0.394929
0.405006 0.405006 0.405006
0.422281 0.422281 0.422281
0.507208 0.507208 0.507208
0.540387 0.540387 0.540387
0.579645 0.579645 0.579645
0.623949 0.623949 0.623949
0.662618 0.662618 0.662618
0.534569 0.534569 0.534569
0.537949 0.537949 0.537949
0.546513 0.546513 0.546513
0.561389 0.561389 0.561389
0.582850 0.582850 0.582850
0.610682 0.610682 0.610682
0.644349 0.644349 0.644349
0.683152 0.683152 0.683152
0.717609 0.717609 0.717609
0.624656 0.624656 0.624656
0.627398 0.627398 0.627398
0.634379 0.634379 0.634379
0.646606 0.646606 0.646606
0.664461 0.664461 0.664461
0.687961 0.687961 0.687961
0.716857 0.716857 0.716857
0.750720 0.750720 0.750720
0.781228 0.781228 0.781228
0.716602 0.716602 0.716602
0.718881 0.718881 0.718881
0.724696 0.724696 0.724696
0.734939 0.734939 0.734939
0.750016 0.750016 0.750016
0.770065 0.770065 0.770065
0.795013 0.795013 0.795013
0.824622 0.824622 0.824622
0.851609 0.851609 0.851609
0.809732 0.809732 0.809732
0.811663 0.811663 0.811663
0.816599 0.816599 0.816599
0.825325 0.825325 0.825325
0.838240 0.838240 0.838240
0.855541 0.855541 0.855541
0.877254 0.877254 0.877254
0.903273 0.903273 0.903273
0.927202 0.927202 0.927202
0.209919 0.209919 0.209919
0.218211 0.218211 0.218211
0.238033 0.238033 0.238033
0.269343 0.269343 0.269343
0.309668 0.309668 0.309668
0.356390 0.356390 0.356390
0.407483 0.407483 0.407483
0.523023 0.523023 0.523023
0.571144 0.571144 0.571144
0.229569 0.229569 0.229569
0.237079 0.237079 0.237079
0.255224 0.255224 0.255224
0.284341 0.284341 0.284341
0.322457 0.322457 0.322457
0.367228 0.367228 0.367228
0.416701 0.416701 0.416701
0.531467 0.531467 0.531467
0.578659 0.578659 0.578659
0.272420 0.272420 0.272420
0.278597 0.278597 0.278597
0.293778 0.293778 0.293778
0.318790 0.318790 0.318790
0.352504 0.352504 0.352504
0.393170 0.393170 0.393170
0.439081 0.439081 0.439081
0.552186 0.552186 0.552186
0.597217 0.597217 0.597217
0.333486 0.333486 0.333486
0.338348 0.338348 0.338348
0.350475 0.350475 0.350475
0.370957 0.370957 0.370957
0.399408 0.399408 0.399408
0.434768 0.434768 0.434768
0.538205 0.538205 0.538205
0.586738 0.586738 0.586738
0.628507 0.628507 0.628507
0.405563 0.405563 0.405563
0.409392 0.409392 0.409392
0.419037 0.419037 0.419037
0.435620 0.435620 0.435620
0.520510 0.520510 0.520510
0.552631 0.552631 0.552631
0.590811 0.590811 0.590811
0.634077 0.634077 0.634077
0.671967 0.671967 0.671967
0.546989 0.546989 0.546989
0.550267 0.550267 0.550267
0.558577 0.558577 0.558577
0.573036 0.573036 0.573036
0.593935 0.593935 0.593935
0.621103 0.621103 0.621103
0.654053 0.654053 0.654053
0.692128 0.692128 0.692128
0.726013 0.726013 0.726013
0.634768 0.634768 0.634768
0.637452 0.637452 0.637452
0.644286 0.644286 0.644286
0.656265 0.656265 0.656265
0.673775 0.673775 0.673775
0.696853 0.696853 0.696853
0.725272 0.725272 0.725272
0.758629 0.758629 0.758629
0.788725 0.788725 0.788725
0.725021 0.725021 0.725021
0.727264 0.727264 0.727264
0.732990 0.732990 0.732990
0.743078 0.743078 0.743078
0.757935 0.757935 0.757935
0.777709 0.777709 0.777709
0.802335 0.802335 0.802335
0.831592 0.831592 0.831592
0.858282 0.858282 0.858282
0.816875 0.816875 0.816875
0.818783 0.818783 0.818783
0.823661 0.823661 0.823661
0.832287 0.832287 0.832287
0.845057 0.845057 0.845057
0.862172 0.862172 0.862172
0.883664 0.883664 0.883664
0.909434 0.909434 0.909434
0.933148 0.933148 0.933148
0.244639 0.244639 0.244639
0.251629 0.251629 0.251629
0.268634 0.268634 0.268634
0.296207 0.296207 0.296207
0.332707 0.332707 0.332707
0.376006 0.376006 0.376006
0.424226 0.424226 0.424226
0.538401 0.538401 0.538401
0.584851 0.584851 0.584851
0.261325 0.261325 0.261325
0.267807 0.267807 0.267807
0.283676 0.283676 0.283676
0.309669 0.309669 0.309669
0.344466 0.344466 0.344466
0.386169 0.386169 0.386169
0.433000 0.433000 0.433000
0.546528 0.546528 0.546528
0.592133 0.592133 0.592133
0.298956 0.298956 0.298956
0.304496 0.304496 0.304496
0.318211 0.318211 0.318211
0.341087 0.341087 0.341087
0.372372 0.372372 0.372372
0.410643 0.410643 0.410643
0.515361 0.515361 0.515361
0.566513 0.566513 0.566513
0.610143 0.610143 0.610143
0.354667 0.354667 0.354667
0.359180 0.359180 0.359180
0.370476 0.370476 0.370476
0.389675 0.389675 0.389675
0.416556 0.416556 0.416556
0.510952 0.510952 0.510952
0.553020 0.553020 0.553020
0.599968 0.599968 0.599968
0.640590 0.640590 0.640590
0.422401 0.422401 0.422401
0.426041 0.426041 0.426041
0.435227 0.435227 0.435227
0.511822 0.511822 0.511822
0.535984 0.535984 0.535984
0.566943 0.566943 0.566943
0.603921 0.603921 0.603921
0.646019 0.646019 0.646019
0.683023 0.683023 0.683023
0.561494 0.561494 0.561494
0.564659 0.564659 0.564659
0.572690 0.572690 0.572690
0.586683 0.586683 0.586683
0.606954 0.606954 0.606954
0.633376 0.633376 0.633376
0.665514 0.665514 0.665514
0.702757 0.702757 0.702757
0.735985 0.735985 0.735985
0.646693 0.646693 0.646693
0.649311 0.649311 0.649311
0.655978 0.655978 0.655978
0.667675 0.667675 0.667675
0.684792 0.684792 0.684792
0.707386 0.707386 0.707386
0.735258 0.735258 0.735258
0.768031 0.768031 0.768031
0.797649 0.797649 0.797649
0.735012 0.735012 0.735012
0.737213 0.737213 0.737213
0.742835 0.742835 0.742835
0.752744 0.752744 0.752744
0.767349 0.767349 0.767349
0.786802 0.786802 0.786802
0.811055 0.811055 0.811055
0.839901 0.839901 0.839901
0.866244 0.866244 0.866244
0.825387 0.825387 0.825387
0.827268 0.827268 0.827268
0.832079 0.832079 0.832079
0.840587 0.840587 0.840587
0.853189 0.853189 0.853189
0.870086 0.870086 0.870086
0.891319 0.891319 0.891319
0.916797 0.916797 0.916797
0.940259 0.940259 0.940259
