docs/luts/fuji_recipes/AcrosR_GB_Oh_Sh_t.cube
TITLE "Fujifilm Recipe: GB Oh Sh*t (AcrosR)"
# FilmSim=AcrosR HL=-2 SH=-1 Col=0 WB=Daylight WBR=-2 WBB=1
LUT_3D_SIZE 33
DOMAIN_MIN 0.0 0.0 0.0
DOMAIN_MAX 1.0 1.0 1.0
0.040000 0.040000 0.040000
0.046968 0.046968 0.046968
0.054655 0.054655 0.054655
0.065498 0.065498 0.065498
0.079948 0.079948 0.079948
0.095795 0.095795 0.095795
0.111643 0.111643 0.111643
0.127490 0.127490 0.127490
0.143337 0.143337 0.143337
0.159184 0.159184 0.159184
0.175032 0.175032 0.175032
0.190879 0.190879 0.190879
0.206726 0.206726 0.206726
0.222573 0.222573 0.222573
0.238420 0.238420 0.238420
0.254268 0.254268 0.254268
0.270115 0.270115 0.270115
0.285962 0.285962 0.285962
0.301809 0.301809 0.301809
0.317657 0.317657 0.317657
0.333504 0.333504 0.333504
0.349351 0.349351 0.349351
0.365198 0.365198 0.365198
0.381046 0.381046 0.381046
0.396893 0.396893 0.396893
0.412740 0.412740 0.412740
0.428587 0.428587 0.428587
0.444435 0.444435 0.444435
0.460282 0.460282 0.460282
0.476129 0.476129 0.476129
0.491976 0.491976 0.491976
0.507824 0.507824 0.507824
0.503365 0.503365 0.503365
0.058667 0.058667 0.058667
0.065635 0.065635 0.065635
0.073322 0.073322 0.073322
0.083879 0.083879 0.083879
0.096004 0.096004 0.096004
0.109104 0.109104 0.109104
0.122881 0.122881 0.122881
0.137132 0.137132 0.137132
0.151723 0.151723 0.151723
0.166563 0.166563 0.166563
0.181589 0.181589 0.181589
0.196758 0.196758 0.196758
0.212037 0.212037 0.212037
0.227403 0.227403 0.227403
0.242838 0.242838 0.242838
0.258329 0.258329 0.258329
0.273867 0.273867 0.273867
0.289442 0.289442 0.289442
0.305050 0.305050 0.305050
0.320684 0.320684 0.320684
0.336341 0.336341 0.336341
0.352017 0.352017 0.352017
0.367711 0.367711 0.367711
0.383419 0.383419 0.383419
0.399139 0.399139 0.399139
0.414871 0.414871 0.414871
0.430612 0.430612 0.430612
0.446363 0.446363 0.446363
0.462120 0.462120 0.462120
0.477885 0.477885 0.477885
0.493656 0.493656 0.493656
0.509432 0.509432 0.509432
0.504779 0.504779 0.504779
0.079766 0.079766 0.079766
0.086204 0.086204 0.086204
0.092687 0.092687 0.092687
0.100979 0.100979 0.100979
0.110883 0.110883 0.110883
0.122054 0.122054 0.122054
0.134200 0.134200 0.134200
0.147088 0.147088 0.147088
0.160542 0.160542 0.160542
0.174430 0.174430 0.174430
0.188655 0.188655 0.188655
0.203144 0.203144 0.203144
0.217843 0.217843 0.217843
0.232709 0.232709 0.232709
0.247711 0.247711 0.247711
0.262825 0.262825 0.262825
0.278031 0.278031 0.278031
0.293314 0.293314 0.293314
0.308661 0.308661 0.308661
0.324064 0.324064 0.324064
0.339513 0.339513 0.339513
0.355002 0.355002 0.355002
0.370526 0.370526 0.370526
0.386080 0.386080 0.386080
0.401661 0.401661 0.401661
0.417264 0.417264 0.417264
0.432888 0.432888 0.432888
0.448531 0.448531 0.448531
0.464189 0.464189 0.464189
0.479862 0.479862 0.479862
0.495547 0.495547 0.495547
0.511245 0.511245 0.511245
0.506373 0.506373 0.506373
0.104385 0.104385 0.104385
0.109106 0.109106 0.109106
0.114034 0.114034 0.114034
0.120561 0.120561 0.120561
0.128634 0.128634 0.128634
0.138043 0.138043 0.138043
0.148569 0.148569 0.148569
0.160009 0.160009 0.160009
0.172188 0.172188 0.172188
0.184963 0.184963 0.184963
0.198219 0.198219 0.198219
0.211864 0.211864 0.211864
0.225826 0.225826 0.225826
0.240048 0.240048 0.240048
0.254484 0.254484 0.254484
0.269097 0.269097 0.269097
0.283860 0.283860 0.283860
0.298748 0.298748 0.298748
0.313743 0.313743 0.313743
0.328828 0.328828 0.328828
0.343992 0.343992 0.343992
0.359223 0.359223 0.359223
0.374513 0.374513 0.374513
0.389853 0.389853 0.389853
0.405239 0.405239 0.405239
0.420664 0.420664 0.420664
0.436124 0.436124 0.436124
0.451615 0.451615 0.451615
0.467133 0.467133 0.467133
0.482677 0.482677 0.482677
0.498242 0.498242 0.498242
0.513828 0.513828 0.513828
0.508645 0.508645 0.508645
0.129004 0.129004 0.129004
0.132655 0.132655 0.132655
0.136540 0.136540 0.136540
0.141791 0.141791 0.141791
0.148435 0.148435 0.148435
0.156361 0.156361 0.156361
0.165426 0.165426 0.165426
0.175479 0.175479 0.175479
0.186373 0.186373 0.186373
0.197978 0.197978 0.197978
0.210179 0.210179 0.210179
0.222877 0.222877 0.222877
0.235992 0.235992 0.235992
0.249457 0.249457 0.249457
0.263217 0.263217 0.263217
0.277225 0.277225 0.277225
0.291444 0.291444 0.291444
0.305843 0.305843 0.305843
0.320397 0.320397 0.320397
0.335084 0.335084 0.335084
0.349886 0.349886 0.349886
0.364788 0.364788 0.364788
0.379777 0.379777 0.379777
0.394844 0.394844 0.394844
0.409977 0.409977 0.409977
0.425171 0.425171 0.425171
0.440418 0.440418 0.440418
0.455711 0.455711 0.455711
0.471048 0.471048 0.471048
0.486422 0.486422 0.486422
0.501830 0.501830 0.501830
0.517269 0.517269 0.517269
0.511674 0.511674 0.511674
0.153623 0.153623 0.153623
0.156557 0.156557 0.156557
0.159715 0.159715 0.159715
0.164035 0.164035 0.164035
0.169584 0.169584 0.169584
0.176310 0.176310 0.176310
0.184130 0.184130 0.184130
0.192942 0.192942 0.192942
0.202636 0.202636 0.202636
0.213102 0.213102 0.213102
0.224240 0.224240 0.224240
0.235956 0.235956 0.235956
0.248171 0.248171 0.248171
0.260814 0.260814 0.260814
0.273824 0.273824 0.273824
0.287150 0.287150 0.287150
0.300750 0.300750 0.300750
0.314585 0.314585 0.314585
0.328624 0.328624 0.328624
0.342842 0.342842 0.342842
0.357215 0.357215 0.357215
0.371724 0.371724 0.371724
0.386353 0.386353 0.386353
0.401088 0.401088 0.401088
0.415916 0.415916 0.415916
0.430828 0.430828 0.430828
0.445813 0.445813 0.445813
0.460866 0.460866 0.460866
0.475977 0.475977 0.475977
0.491143 0.491143 0.491143
0.506356 0.506356 0.506356
0.501479 0.501479 0.501479
0.515501 0.515501 0.515501
0.178241 0.178241 0.178241
0.180669 0.180669 0.180669
0.183299 0.183299 0.183299
0.186926 0.186926 0.186926
0.191631 0.191631 0.191631
0.197398 0.197398 0.197398
0.204185 0.204185 0.204185
0.211926 0.211926 0.211926
0.220545 0.220545 0.220545
0.229957 0.229957 0.229957
0.240080 0.240080 0.240080
0.250833 0.250833 0.250833
0.262142 0.262142 0.262142
0.273939 0.273939 0.273939
0.286165 0.286165 0.286165
0.298765 0.298765 0.298765
0.311694 0.311694 0.311694
0.324911 0.324911 0.324911
0.338381 0.338381 0.338381
0.352073 0.352073 0.352073
0.365962 0.365962 0.365962
0.380025 0.380025 0.380025
0.394241 0.394241 0.394241
0.408594 0.408594 0.408594
0.423068 0.423068 0.423068
0.437652 0.437652 0.437652
0.452333 0.452333 0.452333
0.467101 0.467101 0.467101
0.481949 0.481949 0.481949
0.496867 0.496867 0.496867
0.511850 0.511850 0.511850
0.506318 0.506318 0.506318
0.520154 0.520154 0.520154
0.202860 0.202860 0.202860
0.204913 0.204913 0.204913
0.207148 0.207148 0.207148
0.210246 0.210246 0.210246
0.214292 0.214292 0.214292
0.219291 0.219291 0.219291
0.225227 0.225227 0.225227
0.232060 0.232060 0.232060
0.239740 0.239740 0.239740
0.248206 0.248206 0.248206
0.257393 0.257393 0.257393
0.267235 0.267235 0.267235
0.277668 0.277668 0.277668
0.288631 0.288631 0.288631
0.300067 0.300067 0.300067
0.311925 0.311925 0.311925
0.324159 0.324159 0.324159
0.336726 0.336726 0.336726
0.349590 0.349590 0.349590
0.362718 0.362718 0.362718
0.376082 0.376082 0.376082
0.389656 0.389656 0.389656
0.403417 0.403417 0.403417
0.417346 0.417346 0.417346
0.431425 0.431425 0.431425
0.445641 0.445641 0.445641
0.459978 0.459978 0.459978
0.474425 0.474425 0.474425
0.488972 0.488972 0.488972
0.503609 0.503609 0.503609
0.518328 0.518328 0.518328
0.512028 0.512028 0.512028
0.525651 0.525651 0.525651
0.227479 0.227479 0.227479
0.229246 0.229246 0.229246
0.231176 0.231176 0.231176
0.233861 0.233861 0.233861
0.237385 0.237385 0.237385
0.241764 0.241764 0.241764
0.246997 0.246997 0.246997
0.253065 0.253065 0.253065
0.259935 0.259935 0.259935
0.267566 0.267566 0.267566
0.275909 0.275909 0.275909
0.284911 0.284911 0.284911
0.294520 0.294520 0.294520
0.304683 0.304683 0.304683
0.315350 0.315350 0.315350
0.326473 0.326473 0.326473
0.338008 0.338008 0.338008
0.349914 0.349914 0.349914
0.362153 0.362153 0.362153
0.374694 0.374694 0.374694
0.387505 0.387505 0.387505
0.400560 0.400560 0.400560
0.413835 0.413835 0.413835
0.427308 0.427308 0.427308
0.440959 0.440959 0.440959
0.454773 0.454773 0.454773
0.468733 0.468733 0.468733
0.482827 0.482827 0.482827
0.497041 0.497041 0.497041
0.511365 0.511365 0.511365
0.505308 0.505308 0.505308
0.518614 0.518614 0.518614
0.531998 0.531998 0.531998
0.252098 0.252098 0.252098
0.253641 0.253641 0.253641
0.255330 0.255330 0.255330
0.257687 0.257687 0.257687
0.260789 0.260789 0.260789
0.264662 0.264662 0.264662
0.269313 0.269313 0.269313
0.274735 0.274735 0.274735
0.280910 0.280910 0.280910
0.287811 0.287811 0.287811
0.295401 0.295401 0.295401
0.303642 0.303642 0.303642
0.312490 0.312490 0.312490
0.321903 0.321903 0.321903
0.331837 0.331837 0.331837
0.342248 0.342248 0.342248
0.353098 0.353098 0.353098
0.364347 0.364347 0.364347
0.375959 0.375959 0.375959
0.387903 0.387903 0.387903
0.400149 0.400149 0.400149
0.412667 0.412667 0.412667
0.425435 0.425435 0.425435
0.438428 0.438428 0.438428
0.451627 0.451627 0.451627
0.465014 0.465014 0.465014
0.478571 0.478571 0.478571
0.492283 0.492283 0.492283
0.506139 0.506139 0.506139
0.500113 0.500113 0.500113
0.513042 0.513042 0.513042
0.526071 0.526071 0.526071
0.539193 0.539193 0.539193
0.276716 0.276716 0.276716
0.278080 0.278080 0.278080
0.279575 0.279575 0.279575
0.281665 0.281665 0.281665
0.284424 0.284424 0.284424
0.287879 0.287879 0.287879
0.292043 0.292043 0.292043
0.296919 0.296919 0.296919
0.302497 0.302497 0.302497
0.308761 0.308761 0.308761
0.315686 0.315686 0.315686
0.323243 0.323243 0.323243
0.331398 0.331398 0.331398
0.340117 0.340117 0.340117
0.349362 0.349362 0.349362
0.359098 0.359098 0.359098
0.369288 0.369288 0.369288
0.379897 0.379897 0.379897
0.390892 0.390892 0.390892
0.402243 0.402243 0.402243
0.413919 0.413919 0.413919
0.425894 0.425894 0.425894
0.438144 0.438144 0.438144
0.450644 0.450644 0.450644
0.463374 0.463374 0.463374
0.476316 0.476316 0.476316
0.489450 0.489450 0.489450
0.502762 0.502762 0.502762
0.516236 0.516236 0.516236
0.509039 0.509039 0.509039
0.521654 0.521654 0.521654
0.534385 0.534385 0.534385
0.547223 0.547223 0.547223
0.301335 0.301335 0.301335
0.302553 0.302553 0.302553
0.303888 0.303888 0.303888
0.305759 0.305759 0.305759
0.308233 0.308233 0.308233
0.311339 0.311339 0.311339
0.315093 0.315093 0.315093
0.319504 0.319504 0.319504
0.324568 0.324568 0.324568
0.330278 0.330278 0.330278
0.336616 0.336616 0.336616
0.343562 0.343562 0.343562
0.351090 0.351090 0.351090
0.359173 0.359173 0.359173
0.367780 0.367780 0.367780
0.376881 0.376881 0.376881
0.386445 0.386445 0.386445
0.396440 0.396440 0.396440
0.406837 0.406837 0.406837
0.417606 0.417606 0.417606
0.428721 0.428721 0.428721
0.440156 0.440156 0.440156
0.451885 0.451885 0.451885
0.463886 0.463886 0.463886
0.476139 0.476139 0.476139
0.488624 0.488624 0.488624
0.501323 0.501323 0.501323
0.514219 0.514219 0.514219
0.506689 0.506689 0.506689
0.518831 0.518831 0.518831
0.531116 0.531116 0.531116
0.543533 0.543533 0.543533
0.556072 0.556072 0.556072
0.325954 0.325954 0.325954
0.327050 0.327050 0.327050
0.328253 0.328253 0.328253
0.329941 0.329941 0.329941
0.332176 0.332176 0.332176
0.334987 0.334987 0.334987
0.338393 0.338393 0.338393
0.342405 0.342405 0.342405
0.347026 0.347026 0.347026
0.352251 0.352251 0.352251
0.358072 0.358072 0.358072
0.364473 0.364473 0.364473
0.371437 0.371437 0.371437
0.378941 0.378941 0.378941
0.386961 0.386961 0.386961
0.395472 0.395472 0.395472
0.404448 0.404448 0.404448
0.413861 0.413861 0.413861
0.423684 0.423684 0.423684
0.433892 0.433892 0.433892
0.444460 0.444460 0.444460
0.455363 0.455363 0.455363
0.466577 0.466577 0.466577
0.478081 0.478081 0.478081
0.489855 0.489855 0.489855
0.501879 0.501879 0.501879
0.514135 0.514135 0.514135
0.506056 0.506056 0.506056
0.517671 0.517671 0.517671
0.529457 0.529457 0.529457
0.541400 0.541400 0.541400
0.553490 0.553490 0.553490
0.565716 0.565716 0.565716
0.350573 0.350573 0.350573
0.351566 0.351566 0.351566
0.352658 0.352658 0.352658
0.354191 0.354191 0.354191
0.356223 0.356223 0.356223
0.358784 0.358784 0.358784
0.361892 0.361892 0.361892
0.365560 0.365560 0.365560
0.369795 0.369795 0.369795
0.374597 0.374597 0.374597
0.379961 0.379961 0.379961
0.385878 0.385878 0.385878
0.392334 0.392334 0.392334
0.399312 0.399312 0.399312
0.406795 0.406795 0.406795
0.414761 0.414761 0.414761
0.423188 0.423188 0.423188
0.432053 0.432053 0.432053
0.441333 0.441333 0.441333
0.451004 0.451004 0.451004
0.461044 0.461044 0.461044
0.471430 0.471430 0.471430
0.482141 0.482141 0.482141
0.493155 0.493155 0.493155
0.504454 0.504454 0.504454
0.516018 0.516018 0.516018
0.507177 0.507177 0.507177
0.518216 0.518216 0.518216
0.529453 0.529453 0.529453
0.540875 0.540875 0.540875
0.552468 0.552468 0.552468
0.564222 0.564222 0.564222
0.576125 0.576125 0.576125
0.375191 0.375191 0.375191
0.376098 0.376098 0.376098
0.377095 0.377095 0.377095
0.378496 0.378496 0.378496
0.380355 0.380355 0.380355
0.382699 0.382699 0.382699
0.385550 0.385550 0.385550
0.388920 0.388920 0.388920
0.392818 0.392818 0.392818
0.397248 0.397248 0.397248
0.402208 0.402208 0.402208
0.407692 0.407692 0.407692
0.413692 0.413692 0.413692
0.420196 0.420196 0.420196
0.427188 0.427188 0.427188
0.434652 0.434652 0.434652
0.442571 0.442571 0.442571
0.450923 0.450923 0.450923
0.459691 0.459691 0.459691
0.468852 0.468852 0.468852
0.478387 0.478387 0.478387
0.488276 0.488276 0.488276
0.498498 0.498498 0.498498
0.509034 0.509034 0.509034
0.519866 0.519866 0.519866
0.510061 0.510061 0.510061
0.520484 0.520484 0.520484
0.531132 0.531132 0.531132
0.541989 0.541989 0.541989
0.553044 0.553044 0.553044
0.564283 0.564283 0.564283
0.575695 0.575695 0.575695
0.587269 0.587269 0.587269
0.399810 0.399810 0.399810
0.400642 0.400642 0.400642
0.401558 0.401558 0.401558
0.402844 0.402844 0.402844
0.404553 0.404553 0.404553
0.406711 0.406711 0.406711
0.409337 0.409337 0.409337
0.412447 0.412447 0.412447
0.416050 0.416050 0.416050
0.420151 0.420151 0.420151
0.424752 0.424752 0.424752
0.429851 0.429851 0.429851
0.435441 0.435441 0.435441
0.441514 0.441514 0.441514
0.448059 0.448059 0.448059
0.455063 0.455063 0.455063
0.462512 0.462512 0.462512
0.470388 0.470388 0.470388
0.478675 0.478675 0.478675
0.487355 0.487355 0.487355
0.496410 0.496410 0.496410
0.505823 0.505823 0.505823
0.515575 0.515575 0.515575
0.505178 0.505178 0.505178
0.514691 0.514691 0.514691
0.524467 0.524467 0.524467
0.534492 0.534492 0.534492
0.544751 0.544751 0.544751
0.555232 0.555232 0.555232
0.565920 0.565920 0.565920
0.576804 0.576804 0.576804
0.587872 0.587872 0.587872
0.599113 0.599113 0.599113
0.424429 0.424429 0.424429
0.425196 0.425196 0.425196
0.426041 0.426041 0.426041
0.427228 0.427228 0.427228
0.428807 0.428807 0.428807
0.430801 0.430801 0.430801
0.433232 0.433232 0.433232
0.436112 0.436112 0.436112
0.439455 0.439455 0.439455
0.443265 0.443265 0.443265
0.447547 0.447547 0.447547
0.452300 0.452300 0.452300
0.457521 0.457521 0.457521
0.463204 0.463204 0.463204
0.469342 0.469342 0.469342
0.475925 0.475925 0.475925
0.482939 0.482939 0.482939
0.490373 0.490373 0.490373
0.498211 0.498211 0.498211
0.506439 0.506439 0.506439
0.515041 0.515041 0.515041
0.503668 0.503668 0.503668
0.512195 0.512195 0.512195
0.521021 0.521021 0.521021
0.530131 0.530131 0.530131
0.539511 0.539511 0.539511
0.549147 0.549147 0.549147
0.559026 0.559026 0.559026
0.569134 0.569134 0.569134
0.579459 0.579459 0.579459
0.589989 0.589989 0.589989
0.600713 0.600713 0.600713
0.611620 0.611620 0.611620
0.449047 0.449047 0.449047
0.449758 0.449758 0.449758
0.450541 0.450541 0.450541
0.451642 0.451642 0.451642
0.453106 0.453106 0.453106
0.454957 0.454957 0.454957
0.457214 0.457214 0.457214
0.459893 0.459893 0.459893
0.463004 0.463004 0.463004
0.466555 0.466555 0.466555
0.470552 0.470552 0.470552
0.474994 0.474994 0.474994
0.479883 0.479883 0.479883
0.485213 0.485213 0.485213
0.490980 0.490980 0.490980
0.497176 0.497176 0.497176
0.503791 0.503791 0.503791
0.510815 0.510815 0.510815
0.518235 0.518235 0.518235
0.505537 0.505537 0.505537
0.513031 0.513031 0.513031
0.520851 0.520851 0.520851
0.528986 0.528986 0.528986
0.537421 0.537421 0.537421
0.546144 0.546144 0.546144
0.555141 0.555141 0.555141
0.564399 0.564399 0.564399
0.573906 0.573906 0.573906
0.583649 0.583649 0.583649
0.593617 0.593617 0.593617
0.603798 0.603798 0.603798
0.614180 0.614180 0.614180
0.624755 0.624755 0.624755
0.473666 0.473666 0.473666
0.474327 0.474327 0.474327
0.475055 0.475055 0.475055
0.476080 0.476080 0.476080
0.477443 0.477443 0.477443
0.479167 0.479167 0.479167
0.481271 0.481271 0.481271
0.483770 0.483770 0.483770
0.486675 0.486675 0.486675
0.489995 0.489995 0.489995
0.493735 0.493735 0.493735
0.497899 0.497899 0.497899
0.502487 0.502487 0.502487
0.507496 0.507496 0.507496
0.512925 0.512925 0.512925
0.518766 0.518766 0.518766
0.504596 0.504596 0.504596
0.510687 0.510687 0.510687
0.517133 0.517133 0.517133
0.523924 0.523924 0.523924
0.531051 0.531051 0.531051
0.538501 0.538501 0.538501
0.546263 0.546263 0.546263
0.554326 0.554326 0.554326
0.562678 0.562678 0.562678
0.571306 0.571306 0.571306
0.580199 0.580199 0.580199
0.589345 0.589345 0.589345
0.598733 0.598733 0.598733
0.608351 0.608351 0.608351
0.618189 0.618189 0.618189
0.628235 0.628235 0.628235
0.638480 0.638480 0.638480
0.498285 0.498285 0.498285
0.498902 0.498902 0.498902
0.499582 0.499582 0.499582
0.500538 0.500538 0.500538
0.501811 0.501811 0.501811
0.503423 0.503423 0.503423
0.505391 0.505391 0.505391
0.507729 0.507729 0.507729
0.510450 0.510450 0.510450
0.513562 0.513562 0.513562
0.517072 0.517072 0.517072
0.500901 0.500901 0.500901
0.504857 0.504857 0.504857
0.509182 0.509182 0.509182
0.513874 0.513874 0.513874
0.518931 0.518931 0.518931
0.524348 0.524348 0.524348
0.530117 0.530117 0.530117
0.536232 0.536232 0.536232
0.542685 0.542685 0.542685
0.549467 0.549467 0.549467
0.556568 0.556568 0.556568
0.563979 0.563979 0.563979
0.571688 0.571688 0.571688
0.579686 0.579686 0.579686
0.587961 0.587961 0.587961
0.596502 0.596502 0.596502
0.605300 0.605300 0.605300
0.614343 0.614343 0.614343
0.623620 0.623620 0.623620
0.633122 0.633122 0.633122
0.642839 0.642839 0.642839
0.652760 0.652760 0.652760
0.502662 0.502662 0.502662
0.503191 0.503191 0.503191
0.503775 0.503775 0.503775
0.504596 0.504596 0.504596
0.505690 0.505690 0.505690
0.507075 0.507075 0.507075
0.508766 0.508766 0.508766
0.510778 0.510778 0.510778
0.513120 0.513120 0.513120
0.515802 0.515802 0.515802
0.518828 0.518828 0.518828
0.522204 0.522204 0.522204
0.525933 0.525933 0.525933
0.530014 0.530014 0.530014
0.534447 0.534447 0.534447
0.539231 0.539231 0.539231
0.544361 0.544361 0.544361
0.549833 0.549833 0.549833
0.555641 0.555641 0.555641
0.561779 0.561779 0.561779
0.568238 0.568238 0.568238
0.575011 0.575011 0.575011
0.582089 0.582089 0.582089
0.589463 0.589463 0.589463
0.597124 0.597124 0.597124
0.605062 0.605062 0.605062
0.613266 0.613266 0.613266
0.621729 0.621729 0.621729
0.630438 0.630438 0.630438
0.639385 0.639385 0.639385
0.648561 0.648561 0.648561
0.657955 0.657955 0.657955
0.667558 0.667558 0.667558
0.525229 0.525229 0.525229
0.525726 0.525726 0.525726
0.526274 0.526274 0.526274
0.527046 0.527046 0.527046
0.528074 0.528074 0.528074
0.529375 0.529375 0.529375
0.530966 0.530966 0.530966
0.532859 0.532859 0.532859
0.535065 0.535065 0.535065
0.537591 0.537591 0.537591
0.540444 0.540444 0.540444
0.543630 0.543630 0.543630
0.547152 0.547152 0.547152
0.551010 0.551010 0.551010
0.555207 0.555207 0.555207
0.559739 0.559739 0.559739
0.564605 0.564605 0.564605
0.569802 0.569802 0.569802
0.575325 0.575325 0.575325
0.581168 0.581168 0.581168
0.587325 0.587325 0.587325
0.593790 0.593790 0.593790
0.600555 0.600555 0.600555
0.607613 0.607613 0.607613
0.614954 0.614954 0.614954
0.622570 0.622570 0.622570
0.630452 0.630452 0.630452
0.638592 0.638592 0.638592
0.646981 0.646981 0.646981
0.655609 0.655609 0.655609
0.664468 0.664468 0.664468
0.673548 0.673548 0.673548
0.682842 0.682842 0.682842
0.547796 0.547796 0.547796
0.548264 0.548264 0.548264
0.548780 0.548780 0.548780
0.549507 0.549507 0.549507
0.550476 0.550476 0.550476
0.551702 0.551702 0.551702
0.553202 0.553202 0.553202
0.554988 0.554988 0.554988
0.557069 0.557069 0.557069
0.559454 0.559454 0.559454
0.562151 0.562151 0.562151
0.565163 0.565163 0.565163
0.568496 0.568496 0.568496
0.572151 0.572151 0.572151
0.576129 0.576129 0.576129
0.580430 0.580430 0.580430
0.585053 0.585053 0.585053
0.589995 0.589995 0.589995
0.595252 0.595252 0.595252
0.600821 0.600821 0.600821
0.606697 0.606697 0.606697
0.612873 0.612873 0.612873
0.619343 0.619343 0.619343
0.626101 0.626101 0.626101
0.633139 0.633139 0.633139
0.640449 0.640449 0.640449
0.648024 0.648024 0.648024
0.655856 0.655856 0.655856
0.663936 0.663936 0.663936
0.672257 0.672257 0.672257
0.680810 0.680810 0.680810
0.689586 0.689586 0.689586
0.698578 0.698578 0.698578
0.570363 0.570363 0.570363
0.570805 0.570805 0.570805
0.571293 0.571293 0.571293
0.571979 0.571979 0.571979
0.572893 0.572893 0.572893
0.574052 0.574052 0.574052
0.575470 0.575470 0.575470
0.577158 0.577158 0.577158
0.579126 0.579126 0.579126
0.581383 0.581383 0.581383
0.583936 0.583936 0.583936
0.586791 0.586791 0.586791
0.589950 0.589950 0.589950
0.593418 0.593418 0.593418
0.597196 0.597196 0.597196
0.601284 0.601284 0.601284
0.605681 0.605681 0.605681
0.610387 0.610387 0.610387
0.615398 0.615398 0.615398
0.620711 0.620711 0.620711
0.626323 0.626323 0.626323
0.632228 0.632228 0.632228
0.638421 0.638421 0.638421
0.644896 0.644896 0.644896
0.651647 0.651647 0.651647
0.658667 0.658667 0.658667
0.665949 0.665949 0.665949
0.673486 0.673486 0.673486
0.681271 0.681271 0.681271
0.689296 0.689296 0.689296
0.697553 0.697553 0.697553
0.706036 0.706036 0.706036
0.714736 0.714736 0.714736
0.592930 0.592930 0.592930
0.593349 0.593349 0.593349
0.593810 0.593810 0.593810
0.594459 0.594459 0.594459
0.595325 0.595325 0.595325
0.596422 0.596422 0.596422
0.597764 0.597764 0.597764
0.599363 0.599363 0.599363
0.601229 0.601229 0.601229
0.603369 0.603369 0.603369
0.605791 0.605791 0.605791
0.608500 0.608500 0.608500
0.611501 0.611501 0.611501
0.614797 0.614797 0.614797
0.618390 0.618390 0.618390
0.622281 0.622281 0.622281
0.626470 0.626470 0.626470
0.630956 0.630956 0.630956
0.635738 0.635738 0.635738
0.640813 0.640813 0.640813
0.646178 0.646178 0.646178
0.651828 0.651828 0.651828
0.657760 0.657760 0.657760
0.663969 0.663969 0.663969
0.670448 0.670448 0.670448
0.677193 0.677193 0.677193
0.684197 0.684197 0.684197
0.691453 0.691453 0.691453
0.698955 0.698955 0.698955
0.706696 0.706696 0.706696
0.714670 0.714670 0.714670
0.722868 0.722868 0.722868
0.731285 0.731285 0.731285
0.615498 0.615498 0.615498
0.615894 0.615894 0.615894
0.616331 0.616331 0.616331
0.616947 0.616947 0.616947
0.617768 0.617768 0.617768
0.618809 0.618809 0.618809
0.620083 0.620083 0.620083
0.621601 0.621601 0.621601
0.623372 0.623372 0.623372
0.625405 0.625405 0.625405
0.627706 0.627706 0.627706
0.630282 0.630282 0.630282
0.633137 0.633137 0.633137
0.636275 0.636275 0.636275
0.639697 0.639697 0.639697
0.643406 0.643406 0.643406
0.647401 0.647401 0.647401
0.651684 0.651684 0.651684
0.656252 0.656252 0.656252
0.661105 0.661105 0.661105
0.666238 0.666238 0.666238
0.671651 0.671651 0.671651
0.677337 0.677337 0.677337
0.683294 0.683294 0.683294
0.689517 0.689517 0.689517
0.696001 0.696001 0.696001
0.702740 0.702740 0.702740
0.709728 0.709728 0.709728
0.716960 0.716960 0.716960
0.724430 0.724430 0.724430
0.732131 0.732131 0.732131
0.740056 0.740056 0.740056
0.748200 0.748200 0.748200
0.638065 0.638065 0.638065
0.638442 0.638442 0.638442
0.638857 0.638857 0.638857
0.639442 0.639442 0.639442
0.640222 0.640222 0.640222
0.641211 0.641211 0.641211
0.642422 0.642422 0.642422
0.643866 0.643866 0.643866
0.645550 0.645550 0.645550
0.647485 0.647485 0.647485
0.649676 0.649676 0.649676
0.652129 0.652129 0.652129
0.654849 0.654849 0.654849
0.657840 0.657840 0.657840
0.661105 0.661105 0.661105
0.664645 0.664645 0.664645
0.668461 0.668461 0.668461
0.672554 0.672554 0.672554
0.676923 0.676923 0.676923
0.681568 0.681568 0.681568
0.686485 0.686485 0.686485
0.691673 0.691673 0.691673
0.697129 0.697129 0.697129
0.702850 0.702850 0.702850
