docs/luts/fuji_recipes/Acros_RR_Ilford_HP-5_.cube
TITLE "Fujifilm Recipe: RR Ilford HP-5+ (Acros)"
# FilmSim=Acros HL=4 SH=2 Col=0 WB=Auto WBR=0 WBB=0
LUT_3D_SIZE 5
DOMAIN_MIN 0.0 0.0 0.0
DOMAIN_MAX 1.0 1.0 1.0
0.000000 0.000000 0.000000
0.096599 0.096599 0.096599
0.217254 0.217254 0.217254
0.337910 0.337910 0.337910
0.458565 0.458565 0.458565
0.193424 0.193424 0.193424
0.221374 0.221374 0.221374
0.291556 0.291556 0.291556
0.386592 0.386592 0.386592
0.541873 0.541873 0.541873
0.393444 0.393444 0.393444
0.406257 0.406257 0.406257
0.444303 0.444303 0.444303
0.558995 0.558995 0.558995
0.660967 0.660967 0.660967
0.668280 0.668280 0.668280
0.677992 0.677992 0.677992
0.708105 0.708105 0.708105
0.761293 0.761293 0.761293
0.835907 0.835907 0.835907
0.920478 0.920478 0.920478
0.927156 0.927156 0.927156
0.948186 0.948186 0.948186
0.986469 0.986469 0.986469
1.000000 1.000000 1.000000
0.043259 0.043259 0.043259
0.115670 0.115670 0.115670
0.226060 0.226060 0.226060
0.343212 0.343212 0.343212
0.502789 0.502789 0.502789
0.203401 0.203401 0.203401
0.230000 0.230000 0.230000
0.297869 0.297869 0.297869
0.391097 0.391097 0.391097
0.546070 0.546070 0.546070
0.397852 0.397852 0.397852
0.410495 0.410495 0.410495
0.448097 0.448097 0.448097
0.563051 0.563051 0.563051
0.664326 0.664326 0.664326
0.671596 0.671596 0.671596
0.681254 0.681254 0.681254
0.711208 0.711208 0.711208
0.764144 0.764144 0.764144
0.838459 0.838459 0.838459
0.922753 0.922753 0.922753
0.929410 0.929410 0.929410
0.950380 0.950380 0.950380
0.988560 0.988560 0.988560
1.000000 1.000000 1.000000
0.120193 0.120193 0.120193
0.162450 0.162450 0.162450
0.251956 0.251956 0.251956
0.359577 0.359577 0.359577
0.517237 0.517237 0.517237
0.232204 0.232204 0.232204
0.255439 0.255439 0.255439
0.317110 0.317110 0.317110
0.405128 0.405128 0.405128
0.559294 0.559294 0.559294
0.411599 0.411599 0.411599
0.423735 0.423735 0.423735
0.460000 0.460000 0.460000
0.575842 0.575842 0.575842
0.674967 0.674967 0.674967
0.682107 0.682107 0.682107
0.691595 0.691595 0.691595
0.721053 0.721053 0.721053
0.773205 0.773205 0.773205
0.846585 0.846585 0.846585
0.930001 0.930001 0.930001
0.936596 0.936596 0.936596
0.957376 0.957376 0.957376
0.995230 0.995230 0.995230
1.000000 1.000000 1.000000
0.197127 0.197127 0.197127
0.224563 0.224563 0.224563
0.293876 0.293876 0.293876
0.388243 0.388243 0.388243
0.543408 0.543408 0.543408
0.277618 0.277618 0.277618
0.296787 0.296787 0.296787
0.350072 0.350072 0.350072
0.430119 0.430119 0.430119
0.583388 0.583388 0.583388
0.436131 0.436131 0.436131
0.447443 0.447443 0.447443
0.527110 0.527110 0.527110
0.599193 0.599193 0.599193
0.694573 0.694573 0.694573
0.701483 0.701483 0.701483
0.710672 0.710672 0.710672
0.739249 0.739249 0.739249
0.790000 0.790000 0.790000
0.861696 0.861696 0.861696
0.943520 0.943520 0.943520
0.950001 0.950001 0.950001
0.970433 0.970433 0.970433
1.000000 1.000000 1.000000
1.000000 1.000000 1.000000
0.274061 0.274061 0.274061
0.293505 0.293505 0.293505
0.347390 0.347390 0.347390
0.428044 0.428044 0.428044
0.581363 0.581363 0.581363
0.334240 0.334240 0.334240
0.349771 0.349771 0.349771
0.394661 0.394661 0.394661
0.507007 0.507007 0.507007
0.618617 0.618617 0.618617
0.513878 0.513878 0.513878
0.526855 0.526855 0.526855
0.566277 0.566277 0.566277
0.633433 0.633433 0.633433
0.723713 0.723713 0.723713
0.730303 0.730303 0.730303
0.739075 0.739075 0.739075
0.766420 0.766420 0.766420
0.815193 0.815193 0.815193
0.884478 0.884478 0.884478
0.963993 0.963993 0.963993
0.970308 0.970308 0.970308
0.990232 0.990232 0.990232
1.000000 1.000000 1.000000
1.000000 1.000000 1.000000
