docs/luts/fuji_recipes/Acros_RR_Bleach_Bypass_2_2.cube
TITLE "Fujifilm Recipe: RR Bleach Bypass 2/2 (Acros)"
# FilmSim=Acros HL=3 SH=4 Col=2 WB=Auto WBR=-1 WBB=3
LUT_3D_SIZE 5
DOMAIN_MIN 0.0 0.0 0.0
DOMAIN_MAX 1.0 1.0 1.0
0.000000 0.000000 0.000000
0.098549 0.098549 0.098549
0.216699 0.216699 0.216699
0.334849 0.334849 0.334849
0.407673 0.407673 0.407673
0.198884 0.198884 0.198884
0.225662 0.225662 0.225662
0.293130 0.293130 0.293130
0.385169 0.385169 0.385169
0.537608 0.537608 0.537608
0.399773 0.399773 0.399773
0.412017 0.412017 0.412017
0.537726 0.537726 0.537726
0.617526 0.617526 0.617526
0.679210 0.679210 0.679210
0.740883 0.740883 0.740883
0.750691 0.750691 0.750691
0.780978 0.780978 0.780978
0.834570 0.834570 0.834570
0.878692 0.878692 0.878692
0.905979 0.905979 0.905979
0.913676 0.913676 0.913676
0.937695 0.937695 0.937695
0.981070 0.981070 0.981070
1.000000 1.000000 1.000000
0.053978 0.053978 0.053978
0.120996 0.120996 0.120996
0.227216 0.227216 0.227216
0.341205 0.341205 0.341205
0.412669 0.412669 0.412669
0.210430 0.210430 0.210430
0.235718 0.235718 0.235718
0.300579 0.300579 0.300579
0.390528 0.390528 0.390528
0.543525 0.543525 0.543525
0.404892 0.404892 0.404892
0.416948 0.416948 0.416948
0.543642 0.543642 0.543642
0.622575 0.622575 0.622575
0.683727 0.683727 0.683727
0.744956 0.744956 0.744956
0.754702 0.754702 0.754702
0.784802 0.784802 0.784802
0.838099 0.838099 0.838099
0.882006 0.882006 0.882006
0.909171 0.909171 0.909171
0.916834 0.916834 0.916834
0.940754 0.940754 0.940754
0.983962 0.983962 0.983962
1.000000 1.000000 1.000000
0.137042 0.137042 0.137042
0.174803 0.174803 0.174803
0.258103 0.258103 0.258103
0.360978 0.360978 0.360978
0.511265 0.511265 0.511265
0.243801 0.243801 0.243801
0.265457 0.265457 0.265457
0.323437 0.323437 0.323437
0.407390 0.407390 0.407390
0.562323 0.562323 0.562323
0.501384 0.501384 0.501384
0.516710 0.516710 0.516710
0.562435 0.562435 0.562435
0.638711 0.638711 0.638711
0.698212 0.698212 0.698212
0.758055 0.758055 0.758055
0.767600 0.767600 0.767600
0.797114 0.797114 0.797114
0.849478 0.849478 0.849478
0.892704 0.892704 0.892704
0.919480 0.919480 0.919480
0.927039 0.927039 0.927039
0.950642 0.950642 0.950642
0.993319 0.993319 0.993319
1.000000 1.000000 1.000000
0.220105 0.220105 0.220105
0.244244 0.244244 0.244244
0.307012 0.307012 0.307012
0.395211 0.395211 0.395211
0.548719 0.548719 0.548719
0.295523 0.295523 0.295523
0.313010 0.313010 0.313010
0.362096 0.362096 0.362096
0.522920 0.522920 0.522920
0.596145 0.596145 0.596145
0.539615 0.539615 0.539615
0.553746 0.553746 0.553746
0.596250 0.596250 0.596250
0.668091 0.668091 0.668091
0.724765 0.724765 0.724765
0.782196 0.782196 0.782196
0.791390 0.791390 0.791390
0.819873 0.819873 0.819873
0.870582 0.870582 0.870582
0.912588 0.912588 0.912588
0.938669 0.938669 0.938669
0.946038 0.946038 0.946038
0.969070 0.969070 0.969070
1.000000 1.000000 1.000000
1.000000 1.000000 1.000000
0.250230 0.250230 0.250230
0.271283 0.271283 0.271283
0.328045 0.328045 0.328045
0.410862 0.410862 0.410862
0.566225 0.566225 0.566225
0.317482 0.317482 0.317482
0.333585 0.333585 0.333585
0.379468 0.379468 0.379468
0.541383 0.541383 0.541383
0.612096 0.612096 0.612096
0.557449 0.557449 0.557449
0.571075 0.571075 0.571075
0.612199 0.612199 0.612199
0.682090 0.682090 0.682090
0.737492 0.737492 0.737492
0.793823 0.793823 0.793823
0.802857 0.802857 0.802857
0.830863 0.830863 0.830863
0.880803 0.880803 0.880803
0.922240 0.922240 0.922240
0.947993 0.947993 0.947993
0.955273 0.955273 0.955273
0.978036 0.978036 0.978036
1.000000 1.000000 1.000000
1.000000 1.000000 1.000000
