docs/luts/fuji_recipes/AcrosR_PE_Moriyama.cube
TITLE "Fujifilm Recipe: PE Moriyama (AcrosR)"
# FilmSim=AcrosR HL=4 SH=4 Col=0 WB=Auto WBR=0 WBB=0
LUT_3D_SIZE 33
DOMAIN_MIN 0.0 0.0 0.0
DOMAIN_MAX 1.0 1.0 1.0
0.000000 0.000000 0.000000
0.006418 0.006418 0.006418
0.013680 0.013680 0.013680
0.024093 0.024093 0.024093
0.037874 0.037874 0.037874
0.052470 0.052470 0.052470
0.067066 0.067066 0.067066
0.081662 0.081662 0.081662
0.096258 0.096258 0.096258
0.110854 0.110854 0.110854
0.125451 0.125451 0.125451
0.140047 0.140047 0.140047
0.154643 0.154643 0.154643
0.169239 0.169239 0.169239
0.183835 0.183835 0.183835
0.198431 0.198431 0.198431
0.213027 0.213027 0.213027
0.227624 0.227624 0.227624
0.242220 0.242220 0.242220
0.256816 0.256816 0.256816
0.271412 0.271412 0.271412
0.286008 0.286008 0.286008
0.300604 0.300604 0.300604
0.315200 0.315200 0.315200
0.329797 0.329797 0.329797
0.344393 0.344393 0.344393
0.358989 0.358989 0.358989
0.373585 0.373585 0.373585
0.388181 0.388181 0.388181
0.402777 0.402777 0.402777
0.417373 0.417373 0.417373
0.516529 0.516529 0.516529
0.536686 0.536686 0.536686
0.016333 0.016333 0.016333
0.022751 0.022751 0.022751
0.030013 0.030013 0.030013
0.039999 0.039999 0.039999
0.051356 0.051356 0.051356
0.063590 0.063590 0.063590
0.076420 0.076420 0.076420
0.089664 0.089664 0.089664
0.103202 0.103202 0.103202
0.116953 0.116953 0.116953
0.130863 0.130863 0.130863
0.144893 0.144893 0.144893
0.159016 0.159016 0.159016
0.173212 0.173212 0.173212
0.187467 0.187467 0.187467
0.201768 0.201768 0.201768
0.216108 0.216108 0.216108
0.230480 0.230480 0.230480
0.244878 0.244878 0.244878
0.259298 0.259298 0.259298
0.273738 0.273738 0.273738
0.288193 0.288193 0.288193
0.302663 0.302663 0.302663
0.317144 0.317144 0.317144
0.331636 0.331636 0.331636
0.346137 0.346137 0.346137
0.360646 0.360646 0.360646
0.375163 0.375163 0.375163
0.389685 0.389685 0.389685
0.404214 0.404214 0.404214
0.418747 0.418747 0.418747
0.518346 0.518346 0.518346
0.538428 0.538428 0.538428
0.034796 0.034796 0.034796
0.040711 0.040711 0.040711
0.046789 0.046789 0.046789
0.054640 0.054640 0.054640
0.063997 0.063997 0.063997
0.074521 0.074521 0.074521
0.085924 0.085924 0.085924
0.097988 0.097988 0.097988
0.110550 0.110550 0.110550
0.123490 0.123490 0.123490
0.136720 0.136720 0.136720
0.150177 0.150177 0.150177
0.163813 0.163813 0.163813
0.177590 0.177590 0.177590
0.191483 0.191483 0.191483
0.205470 0.205470 0.205470
0.219534 0.219534 0.219534
0.233663 0.233663 0.233663
0.247845 0.247845 0.247845
0.262074 0.262074 0.262074
0.276341 0.276341 0.276341
0.290642 0.290642 0.290642
0.304971 0.304971 0.304971
0.319326 0.319326 0.319326
0.333702 0.333702 0.333702
0.348098 0.348098 0.348098
0.362511 0.362511 0.362511
0.376938 0.376938 0.376938
0.391379 0.391379 0.391379
0.405832 0.405832 0.405832
0.500407 0.500407 0.500407
0.520394 0.520394 0.520394
0.540392 0.540392 0.540392
0.056337 0.056337 0.056337
0.060679 0.060679 0.060679
0.065313 0.065313 0.065313
0.071520 0.071520 0.071520
0.079197 0.079197 0.079197
0.088124 0.088124 0.088124
0.098080 0.098080 0.098080
0.108866 0.108866 0.108866
0.120314 0.120314 0.120314
0.132290 0.132290 0.132290
0.144688 0.144688 0.144688
0.157424 0.157424 0.157424
0.170434 0.170434 0.170434
0.183666 0.183666 0.183666
0.197082 0.197082 0.197082
0.210648 0.210648 0.210648
0.224341 0.224341 0.224341
0.238140 0.238140 0.238140
0.252028 0.252028 0.252028
0.265993 0.265993 0.265993
0.280023 0.280023 0.280023
0.294109 0.294109 0.294109
0.308245 0.308245 0.308245
0.322423 0.322423 0.322423
0.336638 0.336638 0.336638
0.350886 0.350886 0.350886
0.365163 0.365163 0.365163
0.379466 0.379466 0.379466
0.393791 0.393791 0.393791
0.408137 0.408137 0.408137
0.503455 0.503455 0.503455
0.523314 0.523314 0.523314
0.543195 0.543195 0.543195
0.077878 0.077878 0.077878
0.081239 0.081239 0.081239
0.084897 0.084897 0.084897
0.089906 0.089906 0.089906
0.096251 0.096251 0.096251
0.103812 0.103812 0.103812
0.112438 0.112438 0.112438
0.121977 0.121977 0.121977
0.132283 0.132283 0.132283
0.143228 0.143228 0.143228
0.154705 0.154705 0.154705
0.166621 0.166621 0.166621
0.178902 0.178902 0.178902
0.191487 0.191487 0.191487
0.204327 0.204327 0.204327
0.217380 0.217380 0.217380
0.230614 0.230614 0.230614
0.244001 0.244001 0.244001
0.257519 0.257519 0.257519
0.271150 0.271150 0.271150
0.284878 0.284878 0.284878
0.298690 0.298690 0.298690
0.312575 0.312575 0.312575
0.326525 0.326525 0.326525
0.340531 0.340531 0.340531
0.354587 0.354587 0.354587
0.368687 0.368687 0.368687
0.382827 0.382827 0.382827
0.397002 0.397002 0.397002
0.411208 0.411208 0.411208
0.507516 0.507516 0.507516
0.527208 0.527208 0.527208
0.546933 0.546933 0.546933
0.099420 0.099420 0.099420
0.102121 0.102121 0.102121
0.105097 0.105097 0.105097
0.109227 0.109227 0.109227
0.114541 0.114541 0.114541
0.120983 0.120983 0.120983
0.128460 0.128460 0.128460
0.136865 0.136865 0.136865
0.146085 0.146085 0.146085
0.156013 0.156013 0.156013
0.166547 0.166547 0.166547
0.177600 0.177600 0.177600
0.189096 0.189096 0.189096
0.200969 0.200969 0.200969
0.213163 0.213163 0.213163
0.225633 0.225633 0.225633
0.238338 0.238338 0.238338
0.251245 0.251245 0.251245
0.264328 0.264328 0.264328
0.277563 0.277563 0.277563
0.290930 0.290930 0.290930
0.304412 0.304412 0.304412
0.317995 0.317995 0.317995
0.331668 0.331668 0.331668
0.345419 0.345419 0.345419
0.359240 0.359240 0.359240
0.373123 0.373123 0.373123
0.387062 0.387062 0.387062
0.401050 0.401050 0.401050
0.415083 0.415083 0.415083
0.512645 0.512645 0.512645
0.532130 0.532130 0.532130
0.551660 0.551660 0.551660
0.120961 0.120961 0.120961
0.123196 0.123196 0.123196
0.125676 0.125676 0.125676
0.129148 0.129148 0.129148
0.133663 0.133663 0.133663
0.139202 0.139202 0.139202
0.145714 0.145714 0.145714
0.153128 0.153128 0.153128
0.161364 0.161364 0.161364
0.170335 0.170335 0.170335
0.179958 0.179958 0.179958
0.190152 0.190152 0.190152
0.200847 0.200847 0.200847
0.211978 0.211978 0.211978
0.223488 0.223488 0.223488
0.235328 0.235328 0.235328
0.247456 0.247456 0.247456
0.259833 0.259833 0.259833
0.272429 0.272429 0.272429
0.285217 0.285217 0.285217
0.298173 0.298173 0.298173
0.311277 0.311277 0.311277
0.324513 0.324513 0.324513
0.337864 0.337864 0.337864
0.351318 0.351318 0.351318
0.364864 0.364864 0.364864
0.378492 0.378492 0.378492
0.392194 0.392194 0.392194
0.405962 0.405962 0.405962
0.419790 0.419790 0.419790
0.518880 0.518880 0.518880
0.538117 0.538117 0.538117
0.557416 0.557416 0.557416
0.142503 0.142503 0.142503
0.144393 0.144393 0.144393
0.146501 0.146501 0.146501
0.149469 0.149469 0.149469
0.153357 0.153357 0.153357
0.158168 0.158168 0.158168
0.163879 0.163879 0.163879
0.170445 0.170445 0.170445
0.177811 0.177811 0.177811
0.185913 0.185913 0.185913
0.194683 0.194683 0.194683
0.204056 0.204056 0.204056
0.213967 0.213967 0.213967
0.224357 0.224357 0.224357
0.235171 0.235171 0.235171
0.246360 0.246360 0.246360
0.257881 0.257881 0.257881
0.269695 0.269695 0.269695
0.281769 0.281769 0.281769
0.294072 0.294072 0.294072
0.306578 0.306578 0.306578
0.319266 0.319266 0.319266
0.332114 0.332114 0.332114
0.345106 0.345106 0.345106
0.358227 0.358227 0.358227
0.371463 0.371463 0.371463
0.384802 0.384802 0.384802
0.398234 0.398234 0.398234
0.411750 0.411750 0.411750
0.507377 0.507377 0.507377
0.526242 0.526242 0.526242
0.545194 0.545194 0.545194
0.564225 0.564225 0.564225
0.164044 0.164044 0.164044
0.165672 0.165672 0.165672
0.167492 0.167492 0.167492
0.170066 0.170066 0.170066
0.173456 0.173456 0.173456
0.177677 0.177677 0.177677
0.182721 0.182721 0.182721
0.188567 0.188567 0.188567
0.195176 0.195176 0.195176
0.202503 0.202503 0.202503
0.210497 0.210497 0.210497
0.219103 0.219103 0.219103
0.228268 0.228268 0.228268
0.237939 0.237939 0.237939
0.248066 0.248066 0.248066
0.258604 0.258604 0.258604
0.269509 0.269509 0.269509
0.280744 0.280744 0.280744
0.292274 0.292274 0.292274
0.304067 0.304067 0.304067
0.316097 0.316097 0.316097
0.328339 0.328339 0.328339
0.340770 0.340770 0.340770
0.353373 0.353373 0.353373
0.366129 0.366129 0.366129
0.379024 0.379024 0.379024
0.392044 0.392044 0.392044
0.405177 0.405177 0.405177
0.418413 0.418413 0.418413
0.516215 0.516215 0.516215
0.534739 0.534739 0.534739
0.553370 0.553370 0.553370
0.572099 0.572099 0.572099
0.185585 0.185585 0.185585
0.187007 0.187007 0.187007
0.188601 0.188601 0.188601
0.190860 0.190860 0.190860
0.193848 0.193848 0.193848
0.197584 0.197584 0.197584
0.202075 0.202075 0.202075
0.207309 0.207309 0.207309
0.213263 0.213263 0.213263
0.219907 0.219907 0.219907
0.227202 0.227202 0.227202
0.235107 0.235107 0.235107
0.243576 0.243576 0.243576
0.252565 0.252565 0.252565
0.262031 0.262031 0.262031
0.271932 0.271932 0.271932
0.282227 0.282227 0.282227
0.292881 0.292881 0.292881
0.303859 0.303859 0.303859
0.315130 0.315130 0.315130
0.326667 0.326667 0.326667
0.338443 0.338443 0.338443
0.350437 0.350437 0.350437
0.362627 0.362627 0.362627
0.374995 0.374995 0.374995
0.387524 0.387524 0.387524
0.400201 0.400201 0.400201
0.413010 0.413010 0.413010
0.508205 0.508205 0.508205
0.526216 0.526216 0.526216
0.544366 0.544366 0.544366
0.562645 0.562645 0.562645
0.581041 0.581041 0.581041
0.207127 0.207127 0.207127
0.208383 0.208383 0.208383
0.209794 0.209794 0.209794
0.211799 0.211799 0.211799
0.214456 0.214456 0.214456
0.217793 0.217793 0.217793
0.221818 0.221818 0.221818
0.226532 0.226532 0.226532
0.231921 0.231921 0.231921
0.237966 0.237966 0.237966
0.244638 0.244638 0.244638
0.251907 0.251907 0.251907
0.259736 0.259736 0.259736
0.268090 0.268090 0.268090
0.276929 0.276929 0.276929
0.286218 0.286218 0.286218
0.295921 0.295921 0.295921
0.306003 0.306003 0.306003
0.316432 0.316432 0.316432
0.327179 0.327179 0.327179
0.338216 0.338216 0.338216
0.349517 0.349517 0.349517
0.361060 0.361060 0.361060
0.372822 0.372822 0.372822
0.384785 0.384785 0.384785
0.396931 0.396931 0.396931
0.409244 0.409244 0.409244
0.502362 0.502362 0.502362
0.519771 0.519771 0.519771
0.537358 0.537358 0.537358
0.555107 0.555107 0.555107
0.573005 0.573005 0.573005
0.591041 0.591041 0.591041
0.228668 0.228668 0.228668
0.229789 0.229789 0.229789
0.231051 0.231051 0.231051
0.232845 0.232845 0.232845
0.235229 0.235229 0.235229
0.238230 0.238230 0.238230
0.241863 0.241863 0.241863
0.246132 0.246132 0.246132
0.251033 0.251033 0.251033
0.256552 0.256552 0.256552
0.262673 0.262673 0.262673
0.269369 0.269369 0.269369
0.276616 0.276616 0.276616
0.284381 0.284381 0.284381
0.292635 0.292635 0.292635
0.301345 0.301345 0.301345
0.310480 0.310480 0.310480
0.320009 0.320009 0.320009
0.329902 0.329902 0.329902
0.340131 0.340131 0.340131
0.350670 0.350670 0.350670
0.361494 0.361494 0.361494
0.372579 0.372579 0.372579
0.383905 0.383905 0.383905
0.395453 0.395453 0.395453
0.407203 0.407203 0.407203
0.419139 0.419139 0.419139
0.515533 0.515533 0.515533
0.532471 0.532471 0.532471
0.549611 0.549611 0.549611
0.566935 0.566935 0.566935
0.584430 0.584430 0.584430
0.602082 0.602082 0.602082
0.250210 0.250210 0.250210
0.251219 0.251219 0.251219
0.252355 0.252355 0.252355
0.253974 0.253974 0.253974
0.256129 0.256129 0.256129
0.258847 0.258847 0.258847
0.262145 0.262145 0.262145
0.266032 0.266032 0.266032
0.270509 0.270509 0.270509
0.275568 0.275568 0.275568
0.281199 0.281199 0.281199
0.287383 0.287383 0.287383
0.294101 0.294101 0.294101
0.301327 0.301327 0.301327
0.309038 0.309038 0.309038
0.317206 0.317206 0.317206
0.325803 0.325803 0.325803
0.334803 0.334803 0.334803
0.344178 0.344178 0.344178
0.353903 0.353903 0.353903
0.363952 0.363952 0.363952
0.374303 0.374303 0.374303
0.384933 0.384933 0.384933
0.395821 0.395821 0.395821
0.406947 0.406947 0.406947
0.418295 0.418295 0.418295
0.513597 0.513597 0.513597
0.529809 0.529809 0.529809
0.546261 0.546261 0.546261
0.562937 0.562937 0.562937
0.579818 0.579818 0.579818
0.596891 0.596891 0.596891
0.614140 0.614140 0.614140
0.271751 0.271751 0.271751
0.272666 0.272666 0.272666
0.273697 0.273697 0.273697
0.275168 0.275168 0.275168
0.277128 0.277128 0.277128
0.279604 0.279604 0.279604
0.282616 0.282616 0.282616
0.286172 0.286172 0.286172
0.290279 0.290279 0.290279
0.294935 0.294935 0.294935
0.300131 0.300131 0.300131
0.305857 0.305857 0.305857
0.312096 0.312096 0.312096
0.318832 0.318832 0.318832
0.326042 0.326042 0.326042
0.333705 0.333705 0.333705
0.341797 0.341797 0.341797
0.350295 0.350295 0.350295
0.359175 0.359175 0.359175
0.368413 0.368413 0.368413
0.377988 0.377988 0.377988
0.387875 0.387875 0.387875
0.398055 0.398055 0.398055
0.408508 0.408508 0.408508
0.419215 0.419215 0.419215
0.514027 0.514027 0.514027
0.529440 0.529440 0.529440
0.545135 0.545135 0.545135
0.561092 0.561092 0.561092
0.577292 0.577292 0.577292
0.593717 0.593717 0.593717
0.610352 0.610352 0.610352
0.627183 0.627183 0.627183
0.293292 0.293292 0.293292
0.294128 0.294128 0.294128
0.295069 0.295069 0.295069
0.296413 0.296413 0.296413
0.298206 0.298206 0.298206
0.300475 0.300475 0.300475
0.303238 0.303238 0.303238
0.306508 0.306508 0.306508
0.310291 0.310291 0.310291
0.314590 0.314590 0.314590
0.319401 0.319401 0.319401
0.324716 0.324716 0.324716
0.330524 0.330524 0.330524
0.336812 0.336812 0.336812
0.343563 0.343563 0.343563
0.350758 0.350758 0.350758
0.358379 0.358379 0.358379
0.366405 0.366405 0.366405
0.374815 0.374815 0.374815
0.383589 0.383589 0.383589
0.392705 0.392705 0.392705
0.402143 0.402143 0.402143
0.411884 0.411884 0.411884
0.502637 0.502637 0.502637
0.516848 0.516848 0.516848
0.531403 0.531403 0.531403
0.546279 0.546279 0.546279
0.561454 0.561454 0.561454
0.576910 0.576910 0.576910
0.592627 0.592627 0.592627
0.608587 0.608587 0.608587
0.624776 0.624776 0.624776
0.641177 0.641177 0.641177
0.314834 0.314834 0.314834
0.315600 0.315600 0.315600
0.316465 0.316465 0.316465
0.317700 0.317700 0.317700
0.319348 0.319348 0.319348
0.321437 0.321437 0.321437
0.323983 0.323983 0.323983
0.327002 0.327002 0.327002
0.330501 0.330501 0.330501
0.334485 0.334485 0.334485
0.338952 0.338952 0.338952
0.343899 0.343899 0.343899
0.349319 0.349319 0.349319
0.355200 0.355200 0.355200
0.361530 0.361530 0.361530
0.368294 0.368294 0.368294
0.375477 0.375477 0.375477
0.383060 0.383060 0.383060
0.391027 0.391027 0.391027
0.399359 0.399359 0.399359
0.408037 0.408037 0.408037
0.417043 0.417043 0.417043
0.508781 0.508781 0.508781
0.522050 0.522050 0.522050
0.535699 0.535699 0.535699
0.549705 0.549705 0.549705
0.564047 0.564047 0.564047
0.578705 0.578705 0.578705
0.593659 0.593659 0.593659
0.608891 0.608891 0.608891
0.624382 0.624382 0.624382
0.640118 0.640118 0.640118
0.656083 0.656083 0.656083
0.336375 0.336375 0.336375
0.337082 0.337082 0.337082
0.337880 0.337880 0.337880
0.339019 0.339019 0.339019
0.340543 0.340543 0.340543
0.342473 0.342473 0.342473
0.344831 0.344831 0.344831
0.347628 0.347628 0.347628
0.350876 0.350876 0.350876
0.354580 0.354580 0.354580
0.358741 0.358741 0.358741
0.363357 0.363357 0.363357
0.368425 0.368425 0.368425
0.373936 0.373936 0.373936
0.379881 0.379881 0.379881
0.386249 0.386249 0.386249
0.393025 0.393025 0.393025
0.400196 0.400196 0.400196
0.407747 0.407747 0.407747
0.415661 0.415661 0.415661
0.505417 0.505417 0.505417
0.517282 0.517282 0.517282
0.529581 0.529581 0.529581
0.542293 0.542293 0.542293
0.555394 0.555394 0.555394
0.568863 0.568863 0.568863
0.582681 0.582681 0.582681
0.596828 0.596828 0.596828
0.611284 0.611284 0.611284
0.626031 0.626031 0.626031
0.641053 0.641053 0.641053
0.656334 0.656334 0.656334
0.671858 0.671858 0.671858
0.357917 0.357917 0.357917
0.358571 0.358571 0.358571
0.359311 0.359311 0.359311
0.360367 0.360367 0.360367
0.361780 0.361780 0.361780
0.363572 0.363572 0.363572
0.365762 0.365762 0.365762
0.368365 0.368365 0.368365
0.371390 0.371390 0.371390
0.374844 0.374844 0.374844
0.378730 0.378730 0.378730
0.383049 0.383049 0.383049
0.387799 0.387799 0.387799
0.392973 0.392973 0.392973
0.398566 0.398566 0.398566
0.404568 0.404568 0.404568
0.410969 0.410969 0.410969
0.417756 0.417756 0.417756
0.506791 0.506791 0.506791
0.517177 0.517177 0.517177
0.528040 0.528040 0.528040
0.539361 0.539361 0.539361
0.551119 0.551119 0.551119
0.563293 0.563293 0.563293
0.575864 0.575864 0.575864
0.588812 0.588812 0.588812
0.602118 0.602118 0.602118
0.615762 0.615762 0.615762
0.629727 0.629727 0.629727
0.643995 0.643995 0.643995
0.658551 0.658551 0.658551
0.673377 0.673377 0.673377
0.688459 0.688459 0.688459
0.379458 0.379458 0.379458
0.380067 0.380067 0.380067
0.380755 0.380755 0.380755
0.381738 0.381738 0.381738
0.383053 0.383053 0.383053
0.384723 0.384723 0.384723
0.386765 0.386765 0.386765
0.389194 0.389194 0.389194
0.392019 0.392019 0.392019
0.395250 0.395250 0.395250
0.398890 0.398890 0.398890
0.402940 0.402940 0.402940
0.407401 0.407401 0.407401
0.412270 0.412270 0.412270
0.417541 0.417541 0.417541
0.504428 0.504428 0.504428
0.512788 0.512788 0.512788
0.521668 0.521668 0.521668
0.531054 0.531054 0.531054
0.540930 0.540930 0.540930
0.551279 0.551279 0.551279
0.562084 0.562084 0.562084
0.573325 0.573325 0.573325
0.584985 0.584985 0.584985
0.597046 0.597046 0.597046
0.609489 0.609489 0.609489
0.622296 0.622296 0.622296
0.635450 0.635450 0.635450
0.648934 0.648934 0.648934
0.662731 0.662731 0.662731
0.676825 0.676825 0.676825
0.691200 0.691200 0.691200
0.705843 0.705843 0.705843
0.400999 0.400999 0.400999
0.401568 0.401568 0.401568
0.402210 0.402210 0.402210
0.403128 0.403128 0.403128
0.404357 0.404357 0.404357
0.405917 0.405917 0.405917
0.407827 0.407827 0.407827
0.410101 0.410101 0.410101
0.412748 0.412748 0.412748
0.415778 0.415778 0.415778
0.419195 0.419195 0.419195
0.504147 0.504147 0.504147
0.509946 0.509946 0.509946
0.516284 0.516284 0.516284
0.523155 0.523155 0.523155
0.530553 0.530553 0.530553
0.538468 0.538468 0.538468
0.546891 0.546891 0.546891
0.555808 0.555808 0.555808
0.565207 0.565207 0.565207
0.575071 0.575071 0.575071
0.585387 0.585387 0.585387
0.596137 0.596137 0.596137
0.607307 0.607307 0.607307
0.618878 0.618878 0.618878
0.630834 0.630834 0.630834
0.643159 0.643159 0.643159
0.655837 0.655837 0.655837
0.668851 0.668851 0.668851
0.682186 0.682186 0.682186
0.695827 0.695827 0.695827
0.709758 0.709758 0.709758
0.723966 0.723966 0.723966
0.503509 0.503509 0.503509
0.504244 0.504244 0.504244
0.505074 0.505074 0.505074
0.506262 0.506262 0.506262
0.507852 0.507852 0.507852
0.509873 0.509873 0.509873
0.512347 0.512347 0.512347
0.515294 0.515294 0.515294
0.518728 0.518728 0.518728
0.522662 0.522662 0.522662
0.527103 0.527103 0.527103
0.532058 0.532058 0.532058
0.537528 0.537528 0.537528
0.543512 0.543512 0.543512
0.550010 0.550010 0.550010
0.557015 0.557015 0.557015
0.564521 0.564521 0.564521
0.572519 0.572519 0.572519
0.580999 0.580999 0.580999
0.589950 0.589950 0.589950
0.599359 0.599359 0.599359
0.609213 0.609213 0.609213
0.619498 0.619498 0.619498
0.630200 0.630200 0.630200
0.641303 0.641303 0.641303
0.652792 0.652792 0.652792
0.664653 0.664653 0.664653
0.676870 0.676870 0.676870
0.689428 0.689428 0.689428
0.702312 0.702312 0.702312
0.715509 0.715509 0.715509
0.729004 0.729004 0.729004
0.742784 0.742784 0.742784
0.533256 0.533256 0.533256
0.533946 0.533946 0.533946
0.534726 0.534726 0.534726
0.535842 0.535842 0.535842
0.537337 0.537337 0.537337
0.539236 0.539236 0.539236
0.541564 0.541564 0.541564
0.544337 0.544337 0.544337
0.547571 0.547571 0.547571
0.551279 0.551279 0.551279
0.555468 0.555468 0.555468
0.560146 0.560146 0.560146
0.565315 0.565315 0.565315
0.570978 0.570978 0.570978
0.577132 0.577132 0.577132
0.583775 0.583775 0.583775
0.590901 0.590901 0.590901
0.598505 0.598505 0.598505
0.606578 0.606578 0.606578
0.615111 0.615111 0.615111
0.624092 0.624092 0.624092
0.633512 0.633512 0.633512
0.643356 0.643356 0.643356
0.653614 0.653614 0.653614
0.664270 0.664270 0.664270
0.675312 0.675312 0.675312
0.686726 0.686726 0.686726
0.698499 0.698499 0.698499
0.710616 0.710616 0.710616
0.723063 0.723063 0.723063
0.735827 0.735827 0.735827
0.748896 0.748896 0.748896
0.762255 0.762255 0.762255
0.563004 0.563004 0.563004
0.563654 0.563654 0.563654
0.564388 0.564388 0.564388
0.565439 0.565439 0.565439
0.566847 0.566847 0.566847
0.568638 0.568638 0.568638
0.570832 0.570832 0.570832
0.573449 0.573449 0.573449
0.576502 0.576502 0.576502
0.580004 0.580004 0.580004
0.583964 0.583964 0.583964
0.588389 0.588389 0.588389
0.593284 0.593284 0.593284
0.598650 0.598650 0.598650
0.604488 0.604488 0.604488
0.610797 0.610797 0.610797
0.617573 0.617573 0.617573
0.624811 0.624811 0.624811
0.632505 0.632505 0.632505
0.640646 0.640646 0.640646
0.649226 0.649226 0.649226
0.658236 0.658236 0.658236
0.667664 0.667664 0.667664
0.677500 0.677500 0.677500
0.687732 0.687732 0.687732
0.698347 0.698347 0.698347
0.709333 0.709333 0.709333
0.720678 0.720678 0.720678
0.732369 0.732369 0.732369
0.744393 0.744393 0.744393
0.756737 0.756737 0.756737
0.769390 0.769390 0.769390
0.782338 0.782338 0.782338
0.592752 0.592752 0.592752
0.593365 0.593365 0.593365
0.594058 0.594058 0.594058
0.595051 0.595051 0.595051
0.596381 0.596381 0.596381
0.598072 0.598072 0.598072
0.600146 0.600146 0.600146
0.602620 0.602620 0.602620
0.605508 0.605508 0.605508
0.608823 0.608823 0.608823
0.612574 0.612574 0.612574
0.616768 0.616768 0.616768
0.621410 0.621410 0.621410
0.626505 0.626505 0.626505
0.632053 0.632053 0.632053
0.638053 0.638053 0.638053
0.644504 0.644504 0.644504
0.651401 0.651401 0.651401
0.658741 0.658741 0.658741
0.666516 0.666516 0.666516
0.674720 0.674720 0.674720
0.683345 0.683345 0.683345
0.692380 0.692380 0.692380
0.701817 0.701817 0.701817
0.711645 0.711645 0.711645
0.721853 0.721853 0.721853
0.732430 0.732430 0.732430
0.743364 0.743364 0.743364
0.754645 0.754645 0.754645
0.766260 0.766260 0.766260
0.778198 0.778198 0.778198
0.790446 0.790446 0.790446
0.802995 0.802995 0.802995
0.622499 0.622499 0.622499
0.623080 0.623080 0.623080
0.623736 0.623736 0.623736
0.624675 0.624675 0.624675
0.625934 0.625934 0.625934
0.627535 0.627535 0.627535
0.629500 0.629500 0.629500
0.631843 0.631843 0.631843
0.634581 0.634581 0.634581
0.637724 0.637724 0.637724
0.641284 0.641284 0.641284
0.645266 0.645266 0.645266
0.649677 0.649677 0.649677
0.654521 0.654521 0.654521
0.659800 0.659800 0.659800
0.665515 0.665515 0.665515
0.671664 0.671664 0.671664
0.678246 0.678246 0.678246
0.685255 0.685255 0.685255
0.692689 0.692689 0.692689
0.700540 0.700540 0.700540
0.708801 0.708801 0.708801
0.717466 0.717466 0.717466
0.726525 0.726525 0.726525
0.735969 0.735969 0.735969
0.745790 0.745790 0.745790
0.755976 0.755976 0.755976
0.766518 0.766518 0.766518
0.777404 0.777404 0.777404
0.788625 0.788625 0.788625
0.800170 0.800170 0.800170
0.812028 0.812028 0.812028
0.824187 0.824187 0.824187
0.652247 0.652247 0.652247
0.652797 0.652797 0.652797
0.653419 0.653419 0.653419
0.654310 0.654310 0.654310
0.655504 0.655504 0.655504
0.657023 0.657023 0.657023
0.658887 0.658887 0.658887
0.661112 0.661112 0.661112
0.663712 0.663712 0.663712
0.666699 0.666699 0.666699
0.670082 0.670082 0.670082
0.673869 0.673869 0.673869
0.678067 0.678067 0.678067
0.682681 0.682681 0.682681
0.687711 0.687711 0.687711
0.693162 0.693162 0.693162
0.699031 0.699031 0.699031
0.705317 0.705317 0.705317
0.712019 0.712019 0.712019
0.719133 0.719133 0.719133
0.726652 0.726652 0.726652
0.734573 0.734573 0.734573
0.742887 0.742887 0.742887
0.751589 0.751589 0.751589
0.760670 0.760670 0.760670
0.770122 0.770122 0.770122
0.779935 0.779935 0.779935
0.790101 0.790101 0.790101
0.800610 0.800610 0.800610
0.811453 0.811453 0.811453
0.822618 0.822618 0.822618
0.834097 0.834097 0.834097
0.845880 0.845880 0.845880
0.681994 0.681994 0.681994
0.682517 0.682517 0.682517
0.683108 0.683108 0.683108
0.683955 0.683955 0.683955
0.685089 0.685089 0.685089
0.686534 0.686534 0.686534
0.688306 0.688306 0.688306
0.690422 0.690422 0.690422
0.692895 0.692895 0.692895
0.695737 0.695737 0.695737
0.698958 0.698958 0.698958
0.702566 0.702566 0.702566
0.706568 0.706568 0.706568
0.710967 0.710967 0.710967
0.715768 0.715768 0.715768
0.720973 0.720973 0.720973
0.726581 0.726581 0.726581
0.732594 0.732594 0.732594
0.739008 0.739008 0.739008
0.745821 0.745821 0.745821
0.753030 0.753030 0.753030
0.760630 0.760630 0.760630
0.768615 0.768615 0.768615
0.776979 0.776979 0.776979
