docs/luts/fuji_recipes/AcrosG_DC_Acros.cube
TITLE "Fujifilm Recipe: DC Acros (AcrosG)"
# FilmSim=AcrosG HL=-1 SH=3 Col=0 WB=Auto WBR=0 WBB=0
LUT_3D_SIZE 9
DOMAIN_MIN 0.0 0.0 0.0
DOMAIN_MAX 1.0 1.0 1.0
0.000000 0.000000 0.000000
0.030177 0.030177 0.030177
0.084462 0.084462 0.084462
0.138913 0.138913 0.138913
0.193365 0.193365 0.193365
0.247817 0.247817 0.247817
0.302268 0.302268 0.302268
0.356720 0.356720 0.356720
0.411171 0.411171 0.411171
0.097613 0.097613 0.097613
0.110490 0.110490 0.110490
0.138016 0.138016 0.138016
0.176441 0.176441 0.176441
0.221131 0.221131 0.221131
0.269312 0.269312 0.269312
0.319514 0.319514 0.319514
0.370947 0.370947 0.370947
0.423170 0.423170 0.423170
0.199010 0.199010 0.199010
0.205432 0.205432 0.205432
0.220830 0.220830 0.220830
0.245588 0.245588 0.245588
0.278116 0.278116 0.278116
0.316466 0.316466 0.316466
0.358975 0.358975 0.358975
0.404415 0.404415 0.404415
0.512746 0.512746 0.512746
0.300408 0.300408 0.300408
0.304418 0.304418 0.304418
0.314349 0.314349 0.314349
0.331171 0.331171 0.331171
0.354677 0.354677 0.354677
0.384099 0.384099 0.384099
0.418447 0.418447 0.418447
0.517888 0.517888 0.517888
0.562117 0.562117 0.562117
0.401806 0.401806 0.401806
0.404622 0.404622 0.404622
0.411681 0.411681 0.411681
0.423907 0.423907 0.423907
0.501614 0.501614 0.501614
0.525966 0.525966 0.525966
0.555390 0.555390 0.555390
0.589268 0.589268 0.589268
0.626952 0.626952 0.626952
0.567513 0.567513 0.567513
0.569780 0.569780 0.569780
0.575497 0.575497 0.575497
0.585506 0.585506 0.585506
0.600146 0.600146 0.600146
0.619478 0.619478 0.619478
0.643343 0.643343 0.643343
0.671434 0.671434 0.671434
0.703355 0.703355 0.703355
0.675824 0.675824 0.675824
0.677616 0.677616 0.677616
0.682148 0.682148 0.682148
0.690130 0.690130 0.690130
0.701911 0.701911 0.701911
0.717648 0.717648 0.717648
0.737341 0.737341 0.737341
0.760868 0.760868 0.760868
0.788012 0.788012 0.788012
0.784135 0.784135 0.784135
0.785600 0.785600 0.785600
0.789312 0.789312 0.789312
0.795872 0.795872 0.795872
0.805608 0.805608 0.805608
0.818708 0.818708 0.818708
0.835247 0.835247 0.835247
0.855205 0.855205 0.855205
0.878482 0.878482 0.878482
0.892447 0.892447 0.892447
0.893675 0.893675 0.893675
0.896790 0.896790 0.896790
0.902310 0.902310 0.902310
0.910530 0.910530 0.910530
0.921643 0.921643 0.921643
0.935759 0.935759 0.935759
0.952910 0.952910 0.952910
0.970000 0.970000 0.970000
0.010248 0.010248 0.010248
0.040169 0.040169 0.040169
0.089623 0.089623 0.089623
0.142152 0.142152 0.142152
0.195643 0.195643 0.195643
0.249535 0.249535 0.249535
0.303627 0.303627 0.303627
0.357831 0.357831 0.357831
0.412103 0.412103 0.412103
0.102160 0.102160 0.102160
0.114545 0.114545 0.114545
0.141276 0.141276 0.141276
0.178960 0.178960 0.178960
0.223090 0.223090 0.223090
0.270872 0.270872 0.270872
0.320785 0.320785 0.320785
0.372006 0.372006 0.372006
0.424069 0.424069 0.424069
0.201217 0.201217 0.201217
0.207562 0.207562 0.207562
0.222793 0.222793 0.222793
0.247325 0.247325 0.247325
0.279617 0.279617 0.279617
0.317752 0.317752 0.317752
0.360078 0.360078 0.360078
0.405366 0.405366 0.405366
0.513630 0.513630 0.513630
0.301777 0.301777 0.301777
0.305766 0.305766 0.305766
0.315645 0.315645 0.315645
0.332388 0.332388 0.332388
0.355796 0.355796 0.355796
0.385113 0.385113 0.385113
0.419358 0.419358 0.419358
0.518760 0.518760 0.518760
0.562898 0.562898 0.562898
0.402765 0.402765 0.402765
0.405573 0.405573 0.405573
0.412611 0.412611 0.412611
0.424804 0.424804 0.424804
0.502525 0.502525 0.502525
0.526820 0.526820 0.526820
0.556184 0.556184 0.556184
0.590001 0.590001 0.590001
0.627626 0.627626 0.627626
0.568284 0.568284 0.568284
0.570547 0.570547 0.570547
0.576254 0.576254 0.576254
0.586245 0.586245 0.586245
0.600862 0.600862 0.600862
0.620163 0.620163 0.620163
0.643994 0.643994 0.643994
0.672049 0.672049 0.672049
0.703932 0.703932 0.703932
0.676433 0.676433 0.676433
0.678223 0.678223 0.678223
0.682749 0.682749 0.682749
0.690722 0.690722 0.690722
0.702490 0.702490 0.702490
0.718209 0.718209 0.718209
0.737883 0.737883 0.737883
0.761386 0.761386 0.761386
0.788507 0.788507 0.788507
0.784633 0.784633 0.784633
0.786097 0.786097 0.786097
0.789805 0.789805 0.789805
0.796360 0.796360 0.796360
0.806088 0.806088 0.806088
0.819177 0.819177 0.819177
0.835704 0.835704 0.835704
0.855647 0.855647 0.855647
0.878908 0.878908 0.878908
0.892864 0.892864 0.892864
0.894091 0.894091 0.894091
0.897205 0.897205 0.897205
0.902721 0.902721 0.902721
0.910936 0.910936 0.910936
0.922043 0.922043 0.922043
0.936150 0.936150 0.936150
0.953291 0.953291 0.953291
0.970000 0.970000 0.970000
0.036317 0.036317 0.036317
0.060589 0.060589 0.060589
0.101675 0.101675 0.101675
0.150068 0.150068 0.150068
0.201313 0.201313 0.201313
0.253849 0.253849 0.253849
0.307054 0.307054 0.307054
0.360640 0.360640 0.360640
0.414463 0.414463 0.414463
0.112944 0.112944 0.112944
0.124278 0.124278 0.124278
0.149241 0.149241 0.149241
0.185202 0.185202 0.185202
0.227991 0.227991 0.227991
0.274793 0.274793 0.274793
0.323993 0.323993 0.323993
0.374685 0.374685 0.374685
0.426346 0.426346 0.426346
0.206715 0.206715 0.206715
0.212874 0.212874 0.212874
0.227702 0.227702 0.227702
0.251683 0.251683 0.251683
0.283395 0.283395 0.283395
0.320997 0.320997 0.320997
0.362866 0.362866 0.362866
0.407775 0.407775 0.407775
0.515870 0.515870 0.515870
0.305229 0.305229 0.305229
0.309164 0.309164 0.309164
0.318916 0.318916 0.318916
0.335461 0.335461 0.335461
0.358625 0.358625 0.358625
0.387680 0.387680 0.387680
0.421668 0.421668 0.421668
0.520971 0.520971 0.520971
0.564881 0.564881 0.564881
0.405193 0.405193 0.405193
0.407980 0.407980 0.407980
0.414968 0.414968 0.414968
0.427076 0.427076 0.427076
0.504832 0.504832 0.504832
0.528987 0.528987 0.528987
0.558198 0.558198 0.558198
0.591862 0.591862 0.591862
0.629338 0.629338 0.629338
0.570241 0.570241 0.570241
0.572494 0.572494 0.572494
0.578174 0.578174 0.578174
0.588122 0.588122 0.588122
0.602677 0.602677 0.602677
0.621903 0.621903 0.621903
0.645648 0.645648 0.645648
0.673610 0.673610 0.673610
0.705399 0.705399 0.705399
0.677981 0.677981 0.677981
0.679765 0.679765 0.679765
0.684277 0.684277 0.684277
0.692226 0.692226 0.692226
0.703960 0.703960 0.703960
0.719636 0.719636 0.719636
0.739258 0.739258 0.739258
0.762704 0.762704 0.762704
0.789764 0.789764 0.789764
0.785898 0.785898 0.785898
0.787359 0.787359 0.787359
0.791059 0.791059 0.791059
0.797600 0.797600 0.797600
0.807307 0.807307 0.807307
0.820371 0.820371 0.820371
0.836865 0.836865 0.836865
0.856772 0.856772 0.856772
0.879992 0.879992 0.879992
0.893925 0.893925 0.893925
0.895150 0.895150 0.895150
0.898259 0.898259 0.898259
0.903766 0.903766 0.903766
0.911968 0.911968 0.911968
0.923058 0.923058 0.923058
0.937144 0.937144 0.937144
0.954262 0.954262 0.954262
0.970000 0.970000 0.970000
0.071038 0.071038 0.071038
0.087538 0.087538 0.087538
0.120323 0.120323 0.120323
0.163181 0.163181 0.163181
0.210999 0.210999 0.210999
0.261335 0.261335 0.261335
0.313052 0.313052 0.313052
0.365585 0.365585 0.365585
0.418631 0.418631 0.418631
0.130004 0.130004 0.130004
0.139948 0.139948 0.139948
0.162424 0.162424 0.162424
0.195788 0.195788 0.195788
0.236442 0.236442 0.236442
0.281626 0.281626 0.281626
0.329620 0.329620 0.329620
0.379404 0.379404 0.379404
0.430370 0.430370 0.430370
0.216127 0.216127 0.216127
0.221990 0.221990 0.221990
0.236164 0.236164 0.236164
0.259242 0.259242 0.259242
0.289987 0.289987 0.289987
0.326687 0.326687 0.326687
0.367773 0.367773 0.367773
0.412028 0.412028 0.412028
0.519835 0.519835 0.519835
0.311270 0.311270 0.311270
0.315114 0.315114 0.315114
0.324650 0.324650 0.324650
0.340858 0.340858 0.340858
0.363604 0.363604 0.363604
0.392206 0.392206 0.392206
0.425747 0.425747 0.425747
0.524884 0.524884 0.524884
0.568392 0.568392 0.568392
0.409479 0.409479 0.409479
0.412230 0.412230 0.412230
0.419129 0.419129 0.419129
0.431092 0.431092 0.431092
0.508912 0.508912 0.508912
0.532820 0.532820 0.532820
0.561766 0.561766 0.561766
0.595161 0.595161 0.595161
0.632376 0.632376 0.632376
0.573709 0.573709 0.573709
0.575943 0.575943 0.575943
0.581578 0.581578 0.581578
0.591449 0.591449 0.591449
0.605897 0.605897 0.605897
0.624990 0.624990 0.624990
0.648583 0.648583 0.648583
0.676382 0.676382 0.676382
0.708003 0.708003 0.708003
0.680728 0.680728 0.680728
0.682503 0.682503 0.682503
0.686991 0.686991 0.686991
0.694898 0.694898 0.694898
0.706571 0.706571 0.706571
0.722171 0.722171 0.722171
0.741702 0.741702 0.741702
0.765047 0.765047 0.765047
0.791998 0.791998 0.791998
0.788148 0.788148 0.788148
0.789603 0.789603 0.789603
0.793288 0.793288 0.793288
0.799805 0.799805 0.799805
0.809476 0.809476 0.809476
0.822493 0.822493 0.822493
0.838931 0.838931 0.838931
0.858772 0.858772 0.858772
0.881921 0.881921 0.881921
0.895813 0.895813 0.895813
0.897035 0.897035 0.897035
0.900134 0.900134 0.900134
0.905626 0.905626 0.905626
0.913805 0.913805 0.913805
0.924865 0.924865 0.924865
0.938914 0.938914 0.938914
0.955988 0.955988 0.955988
0.970000 0.970000 0.970000
0.105758 0.105758 0.105758
0.117776 0.117776 0.117776
0.143899 0.143899 0.143899
0.181002 0.181002 0.181002
0.224687 0.224687 0.224687
0.272145 0.272145 0.272145
0.321825 0.321825 0.321825
0.372873 0.372873 0.372873
0.424806 0.424806 0.424806
0.152043 0.152043 0.152043
0.160568 0.160568 0.160568
0.180327 0.180327 0.180327
0.210604 0.210604 0.210604
0.248534 0.248534 0.248534
0.291550 0.291550 0.291550
0.337873 0.337873 0.337873
0.386371 0.386371 0.386371
0.436338 0.436338 0.436338
0.229466 0.229466 0.229466
0.234948 0.234948 0.234948
0.248272 0.248272 0.248272
0.270151 0.270151 0.270151
0.299581 0.299581 0.299581
0.335028 0.335028 0.335028
0.375009 0.375009 0.375009
0.418325 0.418325 0.418325
0.525725 0.525725 0.525725
0.320102 0.320102 0.320102
0.323819 0.323819 0.323819
0.333054 0.333054 0.333054
0.348788 0.348788 0.348788
0.370940 0.370940 0.370940
0.398897 0.398897 0.398897
0.431795 0.431795 0.431795
0.530699 0.530699 0.530699
0.573623 0.573623 0.573623
0.415825 0.415825 0.415825
0.418524 0.418524 0.418524
0.425295 0.425295 0.425295
0.437047 0.437047 0.437047
0.514970 0.514970 0.514970
0.538521 0.538521 0.538521
0.567079 0.567079 0.567079
0.600079 0.600079 0.600079
0.636910 0.636910 0.636910
0.578875 0.578875 0.578875
0.581082 0.581082 0.581082
0.586651 0.586651 0.586651
0.596409 0.596409 0.596409
0.610699 0.610699 0.610699
0.629596 0.629596 0.629596
0.652965 0.652965 0.652965
0.680524 0.680524 0.680524
0.711897 0.711897 0.711897
0.684835 0.684835 0.684835
0.686595 0.686595 0.686595
0.691047 0.691047 0.691047
0.698892 0.698892 0.698892
0.710477 0.710477 0.710477
0.725963 0.725963 0.725963
0.745360 0.745360 0.745360
0.768555 0.768555 0.768555
0.795345 0.795345 0.795345
0.791517 0.791517 0.791517
0.792963 0.792963 0.792963
0.796628 0.796628 0.796628
0.803107 0.803107 0.803107
0.812725 0.812725 0.812725
0.825672 0.825672 0.825672
0.842026 0.842026 0.842026
0.861770 0.861770 0.861770
0.884813 0.884813 0.884813
0.898644 0.898644 0.898644
0.899860 0.899860 0.899860
0.902946 0.902946 0.902946
0.908415 0.908415 0.908415
0.916560 0.916560 0.916560
0.927575 0.927575 0.927575
0.941570 0.941570 0.941570
0.958579 0.958579 0.958579
0.970000 0.970000 0.970000
0.140478 0.140478 0.140478
0.149703 0.149703 0.149703
0.170823 0.170823 0.170823
0.202681 0.202681 0.202681
0.242031 0.242031 0.242031
0.286193 0.286193 0.286193
0.333406 0.333406 0.333406
0.382593 0.382593 0.382593
0.433098 0.433098 0.433098
0.177655 0.177655 0.177655
0.184911 0.184911 0.184911
0.202086 0.202086 0.202086
0.229179 0.229179 0.229179
0.264079 0.264079 0.264079
0.304538 0.304538 0.304538
0.348808 0.348808 0.348808
0.395682 0.395682 0.395682
0.504657 0.504657 0.504657
0.246423 0.246423 0.246423
0.251478 0.251478 0.251478
0.263835 0.263835 0.263835
0.284316 0.284316 0.284316
0.312169 0.312169 0.312169
0.346073 0.346073 0.346073
0.384662 0.384662 0.384662
0.426775 0.426775 0.426775
0.533663 0.533663 0.533663
0.331756 0.331756 0.331756
0.335316 0.335316 0.335316
0.344176 0.344176 0.344176
0.359318 0.359318 0.359318
0.380721 0.380721 0.380721
0.407853 0.407853 0.407853
0.439922 0.439922 0.439922
0.538539 0.538539 0.538539
0.580694 0.580694 0.580694
0.424338 0.424338 0.424338
0.426969 0.426969 0.426969
0.433576 0.433576 0.433576
0.505398 0.505398 0.505398
0.523128 0.523128 0.523128
0.546210 0.546210 0.546210
0.574259 0.574259 0.574259
0.606739 0.606739 0.606739
0.643060 0.643060 0.643060
0.585861 0.585861 0.585861
0.588033 0.588033 0.588033
0.593514 0.593514 0.593514
0.603123 0.603123 0.603123
0.617204 0.617204 0.617204
0.635842 0.635842 0.635842
0.658914 0.658914 0.658914
0.686151 0.686151 0.686151
0.717193 0.717193 0.717193
0.690414 0.690414 0.690414
0.692155 0.692155 0.692155
0.696559 0.696559 0.696559
0.704321 0.704321 0.704321
0.715787 0.715787 0.715787
0.731121 0.731121 0.731121
0.750338 0.750338 0.750338
0.773331 0.773331 0.773331
0.799905 0.799905 0.799905
0.796106 0.796106 0.796106
0.797541 0.797541 0.797541
0.801177 0.801177 0.801177
0.807607 0.807607 0.807607
0.817153 0.817153 0.817153
0.830006 0.830006 0.830006
0.846246 0.846246 0.846246
0.865860 0.865860 0.865860
0.888758 0.888758 0.888758
0.902507 0.902507 0.902507
0.903716 0.903716 0.903716
0.906785 0.906785 0.906785
0.912222 0.912222 0.912222
0.920321 0.920321 0.920321
0.931276 0.931276 0.931276
0.945195 0.945195 0.945195
0.962117 0.962117 0.962117
0.970000 0.970000 0.970000
0.175198 0.175198 0.175198
0.182562 0.182562 0.182562
0.199962 0.199962 0.199962
0.227342 0.227342 0.227342
0.262524 0.262524 0.262524
0.303228 0.303228 0.303228
0.347699 0.347699 0.347699
0.394733 0.394733 0.394733
0.503782 0.503782 0.503782
0.205730 0.205730 0.205730
0.211922 0.211922 0.211922
0.226820 0.226820 0.226820
0.250899 0.250899 0.250899
0.282714 0.282714 0.282714
0.320411 0.320411 0.320411
0.362362 0.362362 0.362362
0.407339 0.407339 0.407339
0.515465 0.515465 0.515465
0.266522 0.266522 0.266522
0.271139 0.271139 0.271139
0.282489 0.282489 0.282489
0.301478 0.301478 0.301478
0.327597 0.327597 0.327597
0.359754 0.359754 0.359754
0.396724 0.396724 0.396724
0.437407 0.437407 0.437407
0.543706 0.543706 0.543706
0.346132 0.346132 0.346132
0.349514 0.349514 0.349514
0.357946 0.357946 0.357946
0.372403 0.372403 0.372403
0.392933 0.392933 0.392933
0.419090 0.419090 0.419090
0.510858 0.510858 0.510858
0.548462 0.548462 0.548462
0.589676 0.589676 0.589676
0.435045 0.435045 0.435045
0.437595 0.437595 0.437595
0.504277 0.504277 0.504277
0.516184 0.516184 0.516184
0.533438 0.533438 0.533438
0.555950 0.555950 0.555950
0.583375 0.583375 0.583375
0.615213 0.615213 0.615213
0.650902 0.650902 0.650902
0.594738 0.594738 0.594738
0.596867 0.596867 0.596867
0.602240 0.602240 0.602240
0.611665 0.611665 0.611665
0.625488 0.625488 0.625488
0.643803 0.643803 0.643803
0.666504 0.666504 0.666504
0.693341 0.693341 0.693341
0.723969 0.723969 0.723969
0.697545 0.697545 0.697545
0.699262 0.699262 0.699262
0.703606 0.703606 0.703606
0.711263 0.711263 0.711263
0.722580 0.722580 0.722580
0.737723 0.737723 0.737723
0.756713 0.756713 0.756713
0.779452 0.779452 0.779452
0.805753 0.805753 0.805753
0.801993 0.801993 0.801993
0.803413 0.803413 0.803413
0.807013 0.807013 0.807013
0.813380 0.813380 0.813380
0.822836 0.822836 0.822836
0.835570 0.835570 0.835570
0.851666 0.851666 0.851666
0.871114 0.871114 0.871114
0.893829 0.893829 0.893829
0.907473 0.907473 0.907473
0.908674 0.908674 0.908674
0.911719 0.911719 0.911719
0.917116 0.917116 0.917116
0.925157 0.925157 0.925157
0.936035 0.936035 0.936035
0.949859 0.949859 0.949859
0.966670 0.966670 0.966670
0.970000 0.970000 0.970000
0.209919 0.209919 0.209919
0.215975 0.215975 0.215975
0.230574 0.230574 0.230574
0.254242 0.254242 0.254242
0.285622 0.285622 0.285622
0.322915 0.322915 0.322915
0.364517 0.364517 0.364517
0.409205 0.409205 0.409205
0.517202 0.517202 0.517202
0.235495 0.235495 0.235495
0.240818 0.240818 0.240818
0.253785 0.253785 0.253785
0.275151 0.275151 0.275151
0.304008 0.304008 0.304008
0.338900 0.338900 0.338900
0.378384 0.378384 0.378384
0.421273 0.421273 0.421273
0.528490 0.528490 0.528490
0.289244 0.289244 0.289244
0.293438 0.293438 0.293438
0.303802 0.303802 0.303802
0.321294 0.321294 0.321294
0.345620 0.345620 0.345620
0.375913 0.375913 0.375913
0.411108 0.411108 0.411108
0.510881 0.510881 0.510881
0.555852 0.555852 0.555852
0.363040 0.363040 0.363040
0.366230 0.366230 0.366230
0.374201 0.374201 0.374201
0.387916 0.387916 0.387916
0.407484 0.407484 0.407484
0.432553 0.432553 0.432553
0.524037 0.524037 0.524037
0.560471 0.560471 0.560471
0.600591 0.600591 0.600591
0.508448 0.508448 0.508448
0.511075 0.511075 0.511075
0.517680 0.517680 0.517680
0.529186 0.529186 0.529186
0.545892 0.545892 0.545892
0.567747 0.567747 0.567747
0.594446 0.594446 0.594446
0.625532 0.625532 0.625532
0.660476 0.660476 0.660476
0.605531 0.605531 0.605531
0.607609 0.607609 0.607609
0.612855 0.612855 0.612855
0.622063 0.622063 0.622063
0.635582 0.635582 0.635582
0.653517 0.653517 0.653517
0.675781 0.675781 0.675781
0.702141 0.702141 0.702141
0.732274 0.732274 0.732274
0.706274 0.706274 0.706274
0.707962 0.707962 0.707962
0.712234 0.712234 0.712234
0.719767 0.719767 0.719767
0.730906 0.730906 0.730906
0.745821 0.745821 0.745821
0.764539 0.764539 0.764539
0.786972 0.786972 0.786972
0.812944 0.812944 0.812944
0.809229 0.809229 0.809229
0.810632 0.810632 0.810632
0.814189 0.814189 0.814189
0.820480 0.820480 0.820480
0.829826 0.829826 0.829826
0.842416 0.842416 0.842416
0.858338 0.858338 0.858338
0.877585 0.877585 0.877585
0.900079 0.900079 0.900079
0.913596 0.913596 0.913596
0.914785 0.914785 0.914785
0.917803 0.917803 0.917803
0.923152 0.923152 0.923152
0.931122 0.931122 0.931122
0.941905 0.941905 0.941905
0.955614 0.955614 0.955614
0.970000 0.970000 0.970000
0.970000 0.970000 0.970000
0.244639 0.244639 0.244639
0.249736 0.249736 0.249736
0.262189 0.262189 0.262189
0.282811 0.282811 0.282811
0.310825 0.310825 0.310825
0.344889 0.344889 0.344889
0.383624 0.383624 0.383624
0.425863 0.425863 0.425863
0.532804 0.532804 0.532804
0.266435 0.266435 0.266435
0.271054 0.271054 0.271054
0.282408 0.282408 0.282408
0.301403 0.301403 0.301403
0.327529 0.327529 0.327529
0.359693 0.359693 0.359693
0.396670 0.396670 0.396670
0.437360 0.437360 0.437360
0.543661 0.543661 0.543661
0.314100 0.314100 0.314100
0.317902 0.317902 0.317902
0.327340 0.327340 0.327340
0.343394 0.343394 0.343394
0.365947 0.365947 0.365947
0.394341 0.394341 0.394341
0.427674 0.427674 0.427674
0.526735 0.526735 0.526735
0.570056 0.570056 0.570056
0.382237 0.382237 0.382237
0.385232 0.385232 0.385232
0.392728 0.392728 0.392728
0.405671 0.405671 0.405671
0.424227 0.424227 0.424227
0.508688 0.508688 0.508688
0.539376 0.539376 0.539376
0.574521 0.574521 0.574521
0.613421 0.613421 0.613421
0.524400 0.524400 0.524400
0.526920 0.526920 0.526920
0.533264 0.533264 0.533264
0.544330 0.544330 0.544330
0.560435 0.560435 0.560435
0.581561 0.581561 0.581561
0.607451 0.607451 0.607451
0.637690 0.637690 0.637690
0.671789 0.671789 0.671789
0.618223 0.618223 0.618223
0.620243 0.620243 0.620243
0.625347 0.625347 0.625347
0.634311 0.634311 0.634311
0.647487 0.647487 0.647487
0.664991 0.664991 0.664991
0.686754 0.686754 0.686754
0.712568 0.712568 0.712568
0.742132 0.742132 0.742132
0.716620 0.716620 0.716620
0.718275 0.718275 0.718275
0.722465 0.722465 0.722465
0.729855 0.729855 0.729855
0.740789 0.740789 0.740789
0.755440 0.755440 0.755440
0.773843 0.773843 0.773843
0.795922 0.795922 0.795922
0.821511 0.821511 0.821511
0.817849 0.817849 0.817849
0.819232 0.819232 0.819232
0.822739 0.822739 0.822739
0.828942 0.828942 0.828942
0.838159 0.838159 0.838159
0.850582 0.850582 0.850582
0.866300 0.866300 0.866300
0.885312 0.885312 0.885312
0.907545 0.907545 0.907545
0.920913 0.920913 0.920913
0.922090 0.922090 0.922090
0.925075 0.925075 0.925075
0.930367 0.930367 0.930367
0.938253 0.938253 0.938253
0.948926 0.948926 0.948926
0.962498 0.962498 0.962498
0.970000 0.970000 0.970000
0.970000 0.970000 0.970000
