docs/luts/fuji_recipes/AcrosR_GB_BW_Hard.cube
TITLE "Fujifilm Recipe: GB BW Hard (AcrosR)"
# FilmSim=AcrosR HL=-1 SH=2 Col=0 WB=Auto WBR=0 WBB=0
LUT_3D_SIZE 33
DOMAIN_MIN 0.0 0.0 0.0
DOMAIN_MAX 1.0 1.0 1.0
0.000000 0.000000 0.000000
0.007029 0.007029 0.007029
0.014983 0.014983 0.014983
0.026388 0.026388 0.026388
0.041481 0.041481 0.041481
0.057467 0.057467 0.057467
0.073453 0.073453 0.073453
0.089440 0.089440 0.089440
0.105426 0.105426 0.105426
0.121412 0.121412 0.121412
0.137398 0.137398 0.137398
0.153385 0.153385 0.153385
0.169371 0.169371 0.169371
0.185357 0.185357 0.185357
0.201343 0.201343 0.201343
0.217330 0.217330 0.217330
0.233316 0.233316 0.233316
0.249302 0.249302 0.249302
0.265288 0.265288 0.265288
0.281275 0.281275 0.281275
0.297261 0.297261 0.297261
0.313247 0.313247 0.313247
0.329233 0.329233 0.329233
0.345220 0.345220 0.345220
0.361206 0.361206 0.361206
0.377192 0.377192 0.377192
0.393178 0.393178 0.393178
0.409165 0.409165 0.409165
0.425151 0.425151 0.425151
0.441137 0.441137 0.441137
0.457123 0.457123 0.457123
0.513395 0.513395 0.513395
0.529728 0.529728 0.529728
0.017889 0.017889 0.017889
0.024918 0.024918 0.024918
0.032872 0.032872 0.032872
0.043808 0.043808 0.043808
0.056247 0.056247 0.056247
0.069646 0.069646 0.069646
0.083698 0.083698 0.083698
0.098203 0.098203 0.098203
0.113031 0.113031 0.113031
0.128091 0.128091 0.128091
0.143326 0.143326 0.143326
0.158692 0.158692 0.158692
0.174161 0.174161 0.174161
0.189709 0.189709 0.189709
0.205321 0.205321 0.205321
0.220984 0.220984 0.220984
0.236690 0.236690 0.236690
0.252430 0.252430 0.252430
0.268200 0.268200 0.268200
0.283993 0.283993 0.283993
0.299808 0.299808 0.299808
0.315640 0.315640 0.315640
0.331488 0.331488 0.331488
0.347348 0.347348 0.347348
0.363220 0.363220 0.363220
0.379103 0.379103 0.379103
0.394994 0.394994 0.394994
0.410893 0.410893 0.410893
0.426798 0.426798 0.426798
0.442710 0.442710 0.442710
0.458628 0.458628 0.458628
0.514867 0.514867 0.514867
0.531140 0.531140 0.531140
0.038110 0.038110 0.038110
0.044589 0.044589 0.044589
0.051245 0.051245 0.051245
0.059843 0.059843 0.059843
0.070092 0.070092 0.070092
0.081618 0.081618 0.081618
0.094107 0.094107 0.094107
0.107321 0.107321 0.107321
0.121079 0.121079 0.121079
0.135251 0.135251 0.135251
0.149741 0.149741 0.149741
0.164480 0.164480 0.164480
0.179414 0.179414 0.179414
0.194504 0.194504 0.194504
0.209720 0.209720 0.209720
0.225039 0.225039 0.225039
0.240442 0.240442 0.240442
0.255916 0.255916 0.255916
0.271450 0.271450 0.271450
0.287033 0.287033 0.287033
0.302659 0.302659 0.302659
0.318322 0.318322 0.318322
0.334016 0.334016 0.334016
0.349738 0.349738 0.349738
0.365483 0.365483 0.365483
0.381250 0.381250 0.381250
0.397035 0.397035 0.397035
0.412837 0.412837 0.412837
0.428653 0.428653 0.428653
0.444482 0.444482 0.444482
0.500330 0.500330 0.500330
0.516526 0.516526 0.516526
0.532732 0.532732 0.532732
0.061702 0.061702 0.061702
0.066458 0.066458 0.066458
0.071533 0.071533 0.071533
0.078332 0.078332 0.078332
0.086740 0.086740 0.086740
0.096517 0.096517 0.096517
0.107421 0.107421 0.107421
0.119234 0.119234 0.119234
0.131772 0.131772 0.131772
0.144889 0.144889 0.144889
0.158467 0.158467 0.158467
0.172417 0.172417 0.172417
0.186665 0.186665 0.186665
0.201158 0.201158 0.201158
0.215851 0.215851 0.215851
0.230710 0.230710 0.230710
0.245707 0.245707 0.245707
0.260820 0.260820 0.260820
0.276031 0.276031 0.276031
0.291326 0.291326 0.291326
0.306692 0.306692 0.306692
0.322120 0.322120 0.322120
0.337601 0.337601 0.337601
0.353130 0.353130 0.353130
0.368699 0.368699 0.368699
0.384304 0.384304 0.384304
0.399940 0.399940 0.399940
0.415605 0.415605 0.415605
0.431295 0.431295 0.431295
0.447008 0.447008 0.447008
0.502800 0.502800 0.502800
0.518893 0.518893 0.518893
0.535003 0.535003 0.535003
0.085295 0.085295 0.085295
0.088976 0.088976 0.088976
0.092982 0.092982 0.092982
0.098468 0.098468 0.098468
0.105418 0.105418 0.105418
0.113699 0.113699 0.113699
0.123147 0.123147 0.123147
0.133594 0.133594 0.133594
0.144881 0.144881 0.144881
0.156869 0.156869 0.156869
0.169438 0.169438 0.169438
0.182489 0.182489 0.182489
0.195940 0.195940 0.195940
0.209724 0.209724 0.209724
0.223787 0.223787 0.223787
0.238083 0.238083 0.238083
0.252577 0.252577 0.252577
0.267239 0.267239 0.267239
0.282045 0.282045 0.282045
0.296974 0.296974 0.296974
0.312009 0.312009 0.312009
0.327136 0.327136 0.327136
0.342344 0.342344 0.342344
0.357622 0.357622 0.357622
0.372963 0.372963 0.372963
0.388357 0.388357 0.388357
0.403800 0.403800 0.403800
0.419287 0.419287 0.419287
0.434811 0.434811 0.434811
0.450371 0.450371 0.450371
0.506090 0.506090 0.506090
0.522048 0.522048 0.522048
0.538032 0.538032 0.538032
0.108888 0.108888 0.108888
0.111847 0.111847 0.111847
0.115106 0.115106 0.115106
0.119629 0.119629 0.119629
0.125450 0.125450 0.125450
0.132505 0.132505 0.132505
0.140694 0.140694 0.140694
0.149900 0.149900 0.149900
0.159998 0.159998 0.159998
0.170871 0.170871 0.170871
0.182409 0.182409 0.182409
0.194515 0.194515 0.194515
0.207105 0.207105 0.207105
0.220109 0.220109 0.220109
0.233465 0.233465 0.233465
0.247122 0.247122 0.247122
0.261037 0.261037 0.261037
0.275174 0.275174 0.275174
0.289502 0.289502 0.289502
0.303997 0.303997 0.303997
0.318637 0.318637 0.318637
0.333403 0.333403 0.333403
0.348280 0.348280 0.348280
0.363255 0.363255 0.363255
0.378316 0.378316 0.378316
0.393453 0.393453 0.393453
0.408659 0.408659 0.408659
0.423925 0.423925 0.423925
0.439246 0.439246 0.439246
0.454615 0.454615 0.454615
0.510247 0.510247 0.510247
0.526036 0.526036 0.526036
0.541863 0.541863 0.541863
0.132481 0.132481 0.132481
0.134929 0.134929 0.134929
0.137646 0.137646 0.137646
0.141447 0.141447 0.141447
0.146393 0.146393 0.146393
0.152459 0.152459 0.152459
0.159591 0.159591 0.159591
0.167712 0.167712 0.167712
0.176732 0.176732 0.176732
0.186558 0.186558 0.186558
0.197096 0.197096 0.197096
0.208262 0.208262 0.208262
0.219976 0.219976 0.219976
0.232167 0.232167 0.232167
0.244773 0.244773 0.244773
0.257741 0.257741 0.257741
0.271023 0.271023 0.271023
0.284579 0.284579 0.284579
0.298375 0.298375 0.298375
0.312381 0.312381 0.312381
0.326570 0.326570 0.326570
0.340923 0.340923 0.340923
0.355418 0.355418 0.355418
0.370041 0.370041 0.370041
0.384777 0.384777 0.384777
0.399613 0.399613 0.399613
0.414539 0.414539 0.414539
0.429546 0.429546 0.429546
0.444625 0.444625 0.444625
0.459770 0.459770 0.459770
0.515299 0.515299 0.515299
0.530888 0.530888 0.530888
0.546527 0.546527 0.546527
0.156074 0.156074 0.156074
0.158145 0.158145 0.158145
0.160454 0.160454 0.160454
0.163704 0.163704 0.163704
0.167963 0.167963 0.167963
0.173232 0.173232 0.173232
0.179486 0.179486 0.179486
0.186678 0.186678 0.186678
0.194745 0.194745 0.194745
0.203619 0.203619 0.203619
0.213225 0.213225 0.213225
0.223490 0.223490 0.223490
0.234345 0.234345 0.234345
0.245724 0.245724 0.245724
0.257568 0.257568 0.257568
0.269823 0.269823 0.269823
0.282441 0.282441 0.282441
0.295380 0.295380 0.295380
0.308604 0.308604 0.308604
0.322079 0.322079 0.322079
0.335776 0.335776 0.335776
0.349672 0.349672 0.349672
0.363744 0.363744 0.363744
0.377974 0.377974 0.377974
0.392344 0.392344 0.392344
0.406840 0.406840 0.406840
0.421449 0.421449 0.421449
0.436161 0.436161 0.436161
0.450964 0.450964 0.450964
0.505978 0.505978 0.505978
0.521265 0.521265 0.521265
0.536623 0.536623 0.536623
0.552044 0.552044 0.552044
0.179667 0.179667 0.179667
0.181450 0.181450 0.181450
0.183444 0.183444 0.183444
0.186263 0.186263 0.186263
0.189976 0.189976 0.189976
0.194598 0.194598 0.194598
0.200123 0.200123 0.200123
0.206526 0.206526 0.206526
0.213764 0.213764 0.213764
0.221789 0.221789 0.221789
0.230544 0.230544 0.230544
0.239970 0.239970 0.239970
0.250008 0.250008 0.250008
0.260600 0.260600 0.260600
0.271692 0.271692 0.271692
0.283233 0.283233 0.283233
0.295177 0.295177 0.295177
0.307482 0.307482 0.307482
0.320109 0.320109 0.320109
0.333026 0.333026 0.333026
0.346201 0.346201 0.346201
0.359609 0.359609 0.359609
0.373225 0.373225 0.373225
0.387027 0.387027 0.387027
0.400998 0.400998 0.400998
0.415121 0.415121 0.415121
0.429381 0.429381 0.429381
0.443765 0.443765 0.443765
0.458262 0.458262 0.458262
0.513140 0.513140 0.513140
0.528151 0.528151 0.528151
0.543248 0.543248 0.543248
0.558425 0.558425 0.558425
0.203260 0.203260 0.203260
0.204817 0.204817 0.204817
0.206563 0.206563 0.206563
0.209037 0.209037 0.209037
0.212309 0.212309 0.212309
0.216402 0.216402 0.216402
0.221320 0.221320 0.221320
0.227052 0.227052 0.227052
0.233574 0.233574 0.233574
0.240851 0.240851 0.240851
0.248841 0.248841 0.248841
0.257498 0.257498 0.257498
0.266774 0.266774 0.266774
0.276619 0.276619 0.276619
0.286987 0.286987 0.286987
0.297830 0.297830 0.297830
0.309106 0.309106 0.309106
0.320774 0.320774 0.320774
0.332798 0.332798 0.332798
0.345142 0.345142 0.345142
0.357778 0.357778 0.357778
0.370676 0.370676 0.370676
0.383811 0.383811 0.383811
0.397162 0.397162 0.397162
0.410708 0.410708 0.410708
0.424431 0.424431 0.424431
0.438315 0.438315 0.438315
0.452345 0.452345 0.452345
0.506649 0.506649 0.506649
0.521244 0.521244 0.521244
0.535952 0.535952 0.535952
0.550764 0.550764 0.550764
0.565671 0.565671 0.565671
0.226853 0.226853 0.226853
0.228229 0.228229 0.228229
0.229774 0.229774 0.229774
0.231970 0.231970 0.231970
0.234881 0.234881 0.234881
0.238535 0.238535 0.238535
0.242944 0.242944 0.242944
0.248106 0.248106 0.248106
0.254009 0.254009 0.254009
0.260629 0.260629 0.260629
0.267937 0.267937 0.267937
0.275898 0.275898 0.275898
0.284473 0.284473 0.284473
0.293622 0.293622 0.293622
0.303303 0.303303 0.303303
0.313477 0.313477 0.313477
0.324104 0.324104 0.324104
0.335146 0.335146 0.335146
0.346569 0.346569 0.346569
0.358339 0.358339 0.358339
0.370427 0.370427 0.370427
0.382805 0.382805 0.382805
0.395446 0.395446 0.395446
0.408329 0.408329 0.408329
0.421431 0.421431 0.421431
0.434734 0.434734 0.434734
0.448220 0.448220 0.448220
0.501914 0.501914 0.501914
0.516022 0.516022 0.516022
0.530273 0.530273 0.530273
0.544655 0.544655 0.544655
0.559159 0.559159 0.559159
0.573774 0.573774 0.573774
0.250446 0.250446 0.250446
0.251674 0.251674 0.251674
0.253055 0.253055 0.253055
0.255021 0.255021 0.255021
0.257632 0.257632 0.257632
0.260919 0.260919 0.260919
0.264898 0.264898 0.264898
0.269573 0.269573 0.269573
0.274940 0.274940 0.274940
0.280986 0.280986 0.280986
0.287689 0.287689 0.287689
0.295024 0.295024 0.295024
0.302960 0.302960 0.302960
0.311465 0.311465 0.311465
0.320505 0.320505 0.320505
0.330045 0.330045 0.330045
0.340050 0.340050 0.340050
0.350486 0.350486 0.350486
0.361321 0.361321 0.361321
0.372525 0.372525 0.372525
0.384067 0.384067 0.384067
0.395922 0.395922 0.395922
0.408063 0.408063 0.408063
0.420468 0.420468 0.420468
0.433115 0.433115 0.433115
0.445984 0.445984 0.445984
0.459058 0.459058 0.459058
0.512587 0.512587 0.512587
0.526313 0.526313 0.526313
0.540202 0.540202 0.540202
0.554240 0.554240 0.554240
0.568417 0.568417 0.568417
0.582721 0.582721 0.582721
0.274039 0.274039 0.274039
0.275145 0.275145 0.275145
0.276389 0.276389 0.276389
0.278162 0.278162 0.278162
0.280522 0.280522 0.280522
0.283499 0.283499 0.283499
0.287111 0.287111 0.287111
0.291369 0.291369 0.291369
0.296271 0.296271 0.296271
0.301813 0.301813 0.301813
0.307979 0.307979 0.307979
0.314753 0.314753 0.314753
0.322110 0.322110 0.322110
0.330025 0.330025 0.330025
0.338470 0.338470 0.338470
0.347416 0.347416 0.347416
0.356832 0.356832 0.356832
0.366689 0.366689 0.366689
0.376957 0.376957 0.376957
0.387608 0.387608 0.387608
0.398614 0.398614 0.398614
0.409951 0.409951 0.409951
0.421593 0.421593 0.421593
0.433518 0.433518 0.433518
0.445704 0.445704 0.445704
0.458132 0.458132 0.458132
0.511018 0.511018 0.511018
0.524155 0.524155 0.524155
0.537488 0.537488 0.537488
0.551001 0.551001 0.551001
0.564680 0.564680 0.564680
0.578515 0.578515 0.578515
0.592492 0.592492 0.592492
0.297632 0.297632 0.297632
0.298634 0.298634 0.298634
0.299764 0.299764 0.299764
0.301375 0.301375 0.301375
0.303521 0.303521 0.303521
0.306233 0.306233 0.306233
0.309531 0.309531 0.309531
0.313427 0.313427 0.313427
0.317925 0.317925 0.317925
0.323024 0.323024 0.323024
0.328715 0.328715 0.328715
0.334986 0.334986 0.334986
0.341820 0.341820 0.341820
0.349197 0.349197 0.349197
0.357094 0.357094 0.357094
0.365486 0.365486 0.365486
0.374349 0.374349 0.374349
0.383657 0.383657 0.383657
0.393382 0.393382 0.393382
0.403500 0.403500 0.403500
0.413986 0.413986 0.413986
0.424816 0.424816 0.424816
0.435966 0.435966 0.435966
0.447414 0.447414 0.447414
0.459140 0.459140 0.459140
0.511366 0.511366 0.511366
0.523857 0.523857 0.523857
0.536575 0.536575 0.536575
0.549506 0.549506 0.549506
0.562633 0.562633 0.562633
0.575943 0.575943 0.575943
0.589424 0.589424 0.589424
0.603062 0.603062 0.603062
0.321225 0.321225 0.321225
0.322140 0.322140 0.322140
0.323171 0.323171 0.323171
0.324643 0.324643 0.324643
0.326607 0.326607 0.326607
0.329091 0.329091 0.329091
0.332117 0.332117 0.332117
0.335699 0.335699 0.335699
0.339843 0.339843 0.339843
0.344551 0.344551 0.344551
0.349820 0.349820 0.349820
0.355641 0.355641 0.355641
0.362003 0.362003 0.362003
0.368889 0.368889 0.368889
0.376283 0.376283 0.376283
0.384164 0.384164 0.384164
0.392511 0.392511 0.392511
0.401301 0.401301 0.401301
0.410512 0.410512 0.410512
0.420121 0.420121 0.420121
0.430105 0.430105 0.430105
0.440443 0.440443 0.440443
0.451112 0.451112 0.451112
0.502137 0.502137 0.502137
0.513653 0.513653 0.513653
0.525447 0.525447 0.525447
0.537502 0.537502 0.537502
0.549799 0.549799 0.549799
0.562323 0.562323 0.562323
0.575059 0.575059 0.575059
0.587993 0.587993 0.587993
0.601112 0.601112 0.601112
0.614402 0.614402 0.614402
0.344818 0.344818 0.344818
0.345657 0.345657 0.345657
0.346604 0.346604 0.346604
0.347957 0.347957 0.347957
0.349762 0.349762 0.349762
0.352050 0.352050 0.352050
0.354839 0.354839 0.354839
0.358145 0.358145 0.358145
0.361978 0.361978 0.361978
0.366341 0.366341 0.366341
0.371233 0.371233 0.371233
0.376652 0.376652 0.376652
0.382587 0.382587 0.382587
0.389028 0.389028 0.389028
0.395961 0.395961 0.395961
0.403370 0.403370 0.403370
0.411236 0.411236 0.411236
0.419542 0.419542 0.419542
0.428268 0.428268 0.428268
0.437393 0.437393 0.437393
0.446898 0.446898 0.446898
0.456761 0.456761 0.456761
0.507116 0.507116 0.507116
0.517868 0.517868 0.517868
0.528928 0.528928 0.528928
0.540278 0.540278 0.540278
0.551900 0.551900 0.551900
0.563778 0.563778 0.563778
0.575896 0.575896 0.575896
0.588239 0.588239 0.588239
0.600793 0.600793 0.600793
0.613544 0.613544 0.613544
0.626481 0.626481 0.626481
0.368411 0.368411 0.368411
0.369185 0.369185 0.369185
0.370059 0.370059 0.370059
0.371307 0.371307 0.371307
0.372975 0.372975 0.372975
0.375090 0.375090 0.375090
0.377672 0.377672 0.377672
0.380736 0.380736 0.380736
0.384293 0.384293 0.384293
0.388350 0.388350 0.388350
0.392907 0.392907 0.392907
0.397963 0.397963 0.397963
0.403513 0.403513 0.403513
0.409549 0.409549 0.409549
0.416060 0.416060 0.416060
0.423034 0.423034 0.423034
0.430456 0.430456 0.430456
0.438310 0.438310 0.438310
0.446580 0.446580 0.446580
0.455248 0.455248 0.455248
0.504389 0.504389 0.504389
0.514004 0.514004 0.514004
0.523971 0.523971 0.523971
0.534272 0.534272 0.534272
0.544888 0.544888 0.544888
0.555803 0.555803 0.555803
0.567000 0.567000 0.567000
0.578464 0.578464 0.578464
0.590178 0.590178 0.590178
0.602129 0.602129 0.602129
0.614302 0.614302 0.614302
0.626685 0.626685 0.626685
0.639264 0.639264 0.639264
0.392004 0.392004 0.392004
0.392721 0.392721 0.392721
0.393531 0.393531 0.393531
0.394688 0.394688 0.394688
0.396235 0.396235 0.396235
0.398198 0.398198 0.398198
0.400597 0.400597 0.400597
0.403447 0.403447 0.403447
0.406760 0.406760 0.406760
0.410543 0.410543 0.410543
0.414799 0.414799 0.414799
0.419530 0.419530 0.419530
0.424732 0.424732 0.424732
0.430399 0.430399 0.430399
0.436525 0.436525 0.436525
0.443099 0.443099 0.443099
0.450109 0.450109 0.450109
0.457543 0.457543 0.457543
0.505503 0.505503 0.505503
0.513919 0.513919 0.513919
0.522722 0.522722 0.522722
0.531896 0.531896 0.531896
0.541424 0.541424 0.541424
0.551289 0.551289 0.551289
0.561476 0.561476 0.561476
0.571969 0.571969 0.571969
0.582750 0.582750 0.582750
0.593807 0.593807 0.593807
0.605123 0.605123 0.605123
0.616686 0.616686 0.616686
0.628481 0.628481 0.628481
0.640495 0.640495 0.640495
0.652717 0.652717 0.652717
0.415597 0.415597 0.415597
0.416264 0.416264 0.416264
0.417017 0.417017 0.417017
0.418094 0.418094 0.418094
0.419534 0.419534 0.419534
0.421363 0.421363 0.421363
0.423600 0.423600 0.423600
0.426260 0.426260 0.426260
0.429355 0.429355 0.429355
0.432893 0.432893 0.432893
0.436879 0.436879 0.436879
0.441316 0.441316 0.441316
0.446202 0.446202 0.446202
0.451534 0.451534 0.451534
0.457306 0.457306 0.457306
0.503589 0.503589 0.503589
0.510362 0.510362 0.510362
0.517558 0.517558 0.517558
0.525165 0.525165 0.525165
0.533168 0.533168 0.533168
0.541554 0.541554 0.541554
0.550309 0.550309 0.550309
0.559419 0.559419 0.559419
0.568867 0.568867 0.568867
0.578641 0.578641 0.578641
0.588724 0.588724 0.588724
0.599102 0.599102 0.599102
0.609761 0.609761 0.609761
0.620688 0.620688 0.620688
0.631868 0.631868 0.631868
0.643289 0.643289 0.643289
0.654938 0.654938 0.654938
0.666804 0.666804 0.666804
0.439190 0.439190 0.439190
0.439812 0.439812 0.439812
0.440515 0.440515 0.440515
0.441521 0.441521 0.441521
0.442867 0.442867 0.442867
0.444576 0.444576 0.444576
0.446668 0.446668 0.446668
0.449158 0.449158 0.449158
0.452058 0.452058 0.452058
0.455376 0.455376 0.455376
0.459119 0.459119 0.459119
0.503361 0.503361 0.503361
0.508060 0.508060 0.508060
0.513195 0.513195 0.513195
0.518763 0.518763 0.518763
0.524758 0.524758 0.524758
0.531173 0.531173 0.531173
0.537998 0.537998 0.537998
0.545224 0.545224 0.545224
0.552840 0.552840 0.552840
0.560834 0.560834 0.560834
0.569193 0.569193 0.569193
0.577905 0.577905 0.577905
0.586955 0.586955 0.586955
0.596332 0.596332 0.596332
0.606021 0.606021 0.606021
0.616008 0.616008 0.616008
0.626282 0.626282 0.626282
0.636828 0.636828 0.636828
0.647634 0.647634 0.647634
0.658687 0.658687 0.658687
0.669976 0.669976 0.669976
0.681490 0.681490 0.681490
0.502843 0.502843 0.502843
0.503439 0.503439 0.503439
0.504111 0.504111 0.504111
0.505074 0.505074 0.505074
0.506363 0.506363 0.506363
0.508000 0.508000 0.508000
0.510005 0.510005 0.510005
0.512393 0.512393 0.512393
0.515176 0.515176 0.515176
0.518364 0.518364 0.518364
0.521963 0.521963 0.521963
0.525978 0.525978 0.525978
0.530410 0.530410 0.530410
0.535260 0.535260 0.535260
0.540525 0.540525 0.540525
0.546202 0.546202 0.546202
0.552284 0.552284 0.552284
0.558765 0.558765 0.558765
0.565637 0.565637 0.565637
0.572890 0.572890 0.572890
0.580515 0.580515 0.580515
0.588500 0.588500 0.588500
0.596835 0.596835 0.596835
0.605507 0.605507 0.605507
0.614504 0.614504 0.614504
0.623814 0.623814 0.623814
0.633426 0.633426 0.633426
0.643325 0.643325 0.643325
0.653502 0.653502 0.653502
0.663943 0.663943 0.663943
0.674637 0.674637 0.674637
0.685572 0.685572 0.685572
0.696739 0.696739 0.696739
0.526949 0.526949 0.526949
0.527508 0.527508 0.527508
0.528140 0.528140 0.528140
0.529044 0.529044 0.529044
0.530256 0.530256 0.530256
0.531795 0.531795 0.531795
0.533681 0.533681 0.533681
0.535928 0.535928 0.535928
0.538549 0.538549 0.538549
0.541554 0.541554 0.541554
0.544948 0.544948 0.544948
0.548739 0.548739 0.548739
0.552928 0.552928 0.552928
0.557516 0.557516 0.557516
0.562503 0.562503 0.562503
0.567886 0.567886 0.567886
0.573661 0.573661 0.573661
0.579823 0.579823 0.579823
0.586365 0.586365 0.586365
0.593279 0.593279 0.593279
0.600558 0.600558 0.600558
0.608190 0.608190 0.608190
0.616168 0.616168 0.616168
0.624480 0.624480 0.624480
0.633115 0.633115 0.633115
0.642063 0.642063 0.642063
0.651313 0.651313 0.651313
0.660852 0.660852 0.660852
0.670671 0.670671 0.670671
0.680758 0.680758 0.680758
0.691101 0.691101 0.691101
0.701691 0.701691 0.701691
0.712517 0.712517 0.712517
0.551055 0.551055 0.551055
0.551582 0.551582 0.551582
0.552177 0.552177 0.552177
0.553028 0.553028 0.553028
0.554169 0.554169 0.554169
0.555620 0.555620 0.555620
0.557399 0.557399 0.557399
0.559519 0.559519 0.559519
0.561993 0.561993 0.561993
0.564831 0.564831 0.564831
0.568040 0.568040 0.568040
0.571626 0.571626 0.571626
0.575592 0.575592 0.575592
0.579940 0.579940 0.579940
0.584672 0.584672 0.584672
0.589784 0.589784 0.589784
0.595275 0.595275 0.595275
0.601140 0.601140 0.601140
0.607374 0.607374 0.607374
0.613972 0.613972 0.613972
0.620925 0.620925 0.620925
0.628226 0.628226 0.628226
0.635866 0.635866 0.635866
0.643836 0.643836 0.643836
0.652127 0.652127 0.652127
0.660729 0.660729 0.660729
0.669632 0.669632 0.669632
0.678825 0.678825 0.678825
0.688299 0.688299 0.688299
0.698042 0.698042 0.698042
0.708046 0.708046 0.708046
0.718299 0.718299 0.718299
0.728791 0.728791 0.728791
0.575161 0.575161 0.575161
0.575658 0.575658 0.575658
0.576220 0.576220 0.576220
0.577024 0.577024 0.577024
0.578102 0.578102 0.578102
0.579472 0.579472 0.579472
0.581153 0.581153 0.581153
0.583158 0.583158 0.583158
0.585498 0.585498 0.585498
0.588184 0.588184 0.588184
0.591223 0.591223 0.591223
0.594622 0.594622 0.594622
0.598384 0.598384 0.598384
0.602513 0.602513 0.602513
0.607008 0.607008 0.607008
0.611870 0.611870 0.611870
0.617098 0.617098 0.617098
0.622687 0.622687 0.622687
0.628635 0.628635 0.628635
0.634936 0.634936 0.634936
0.641584 0.641584 0.641584
0.648572 0.648572 0.648572
0.655894 0.655894 0.655894
0.663541 0.663541 0.663541
0.671505 0.671505 0.671505
0.679777 0.679777 0.679777
0.688348 0.688348 0.688348
0.697209 0.697209 0.697209
0.706350 0.706350 0.706350
0.715762 0.715762 0.715762
0.725436 0.725436 0.725436
0.735362 0.735362 0.735362
0.745530 0.745530 0.745530
0.599267 0.599267 0.599267
0.599737 0.599737 0.599737
0.600269 0.600269 0.600269
0.601030 0.601030 0.601030
0.602050 0.602050 0.602050
0.603348 0.603348 0.603348
0.604939 0.604939 0.604939
0.606839 0.606839 0.606839
0.609057 0.609057 0.609057
0.611604 0.611604 0.611604
0.614488 0.614488 0.614488
0.617715 0.617715 0.617715
0.621290 0.621290 0.621290
0.625215 0.625215 0.625215
0.629493 0.629493 0.629493
0.634124 0.634124 0.634124
0.639107 0.639107 0.639107
0.644440 0.644440 0.644440
0.650121 0.650121 0.650121
0.656144 0.656144 0.656144
0.662506 0.662506 0.662506
0.669201 0.669201 0.669201
0.676222 0.676222 0.676222
0.683563 0.683563 0.683563
0.691216 0.691216 0.691216
0.699174 0.699174 0.699174
0.707429 0.707429 0.707429
0.715971 0.715971 0.715971
0.724793 0.724793 0.724793
0.733886 0.733886 0.733886
0.743241 0.743241 0.743241
0.752850 0.752850 0.752850
0.762703 0.762703 0.762703
0.623372 0.623372 0.623372
0.623818 0.623818 0.623818
0.624322 0.624322 0.624322
0.625044 0.625044 0.625044
0.626012 0.626012 0.626012
0.627243 0.627243 0.627243
0.628754 0.628754 0.628754
0.630557 0.630557 0.630557
0.632663 0.632663 0.632663
0.635083 0.635083 0.635083
0.637825 0.637825 0.637825
0.640894 0.640894 0.640894
0.644296 0.644296 0.644296
0.648034 0.648034 0.648034
0.652111 0.652111 0.652111
0.656527 0.656527 0.656527
0.661283 0.661283 0.661283
0.666378 0.666378 0.666378
0.671809 0.671809 0.671809
0.677573 0.677573 0.677573
0.683666 0.683666 0.683666
0.690085 0.690085 0.690085
0.696823 0.696823 0.696823
0.703874 0.703874 0.703874
0.711233 0.711233 0.711233
0.718892 0.718892 0.718892
0.726844 0.726844 0.726844
0.735082 0.735082 0.735082
0.743598 0.743598 0.743598
0.752384 0.752384 0.752384
0.761432 0.761432 0.761432
0.770734 0.770734 0.770734
0.780282 0.780282 0.780282
0.647478 0.647478 0.647478
0.647902 0.647902 0.647902
0.648381 0.648381 0.648381
0.649067 0.649067 0.649067
0.649986 0.649986 0.649986
0.651157 0.651157 0.651157
0.652593 0.652593 0.652593
0.654307 0.654307 0.654307
0.656311 0.656311 0.656311
0.658615 0.658615 0.658615
0.661225 0.661225 0.661225
0.664149 0.664149 0.664149
0.667391 0.667391 0.667391
0.670956 0.670956 0.670956
0.674847 0.674847 0.674847
0.679064 0.679064 0.679064
0.683609 0.683609 0.683609
0.688481 0.688481 0.688481
0.693679 0.693679 0.693679
0.699200 0.699200 0.699200
0.705042 0.705042 0.705042
0.711200 0.711200 0.711200
0.717670 0.717670 0.717670
0.724448 0.724448 0.724448
