docs/luts/fuji_recipes/Acros_RR_Cyanotype.cube
TITLE "Fujifilm Recipe: RR Cyanotype (Acros)"
# FilmSim=Acros HL=3 SH=3 Col=0 WB=Auto WBR=-9 WBB=0
LUT_3D_SIZE 9
DOMAIN_MIN 0.0 0.0 0.0
DOMAIN_MAX 1.0 1.0 1.0
0.000000 0.000000 0.000000
0.028488 0.028488 0.028488
0.077344 0.077344 0.077344
0.126537 0.126537 0.126537
0.175730 0.175730 0.175730
0.224923 0.224923 0.224923
0.274116 0.274116 0.274116
0.323309 0.323309 0.323309
0.334759 0.334759 0.334759
0.103128 0.103128 0.103128
0.114759 0.114759 0.114759
0.137772 0.137772 0.137772
0.170271 0.170271 0.170271
0.208756 0.208756 0.208756
0.250828 0.250828 0.250828
0.295082 0.295082 0.295082
0.340711 0.340711 0.340711
0.351474 0.351474 0.351474
0.208355 0.208355 0.208355
0.214125 0.214125 0.214125
0.226713 0.226713 0.226713
0.246836 0.246836 0.246836
0.273584 0.273584 0.273584
0.305627 0.305627 0.305627
0.341682 0.341682 0.341682
0.380710 0.380710 0.380710
0.390132 0.390132 0.390132
0.313582 0.313582 0.313582
0.317181 0.317181 0.317181
0.325242 0.325242 0.325242
0.338688 0.338688 0.338688
0.357523 0.357523 0.357523
0.381340 0.381340 0.381340
0.409509 0.409509 0.409509
0.501706 0.501706 0.501706
0.511713 0.511713 0.511713
0.418810 0.418810 0.418810
0.421335 0.421335 0.421335
0.427049 0.427049 0.427049
0.436749 0.436749 0.436749
0.513580 0.513580 0.513580
0.536630 0.536630 0.536630
0.564729 0.564729 0.564729
0.597437 0.597437 0.597437
0.605656 0.605656 0.605656
0.606957 0.606957 0.606957
0.609379 0.609379 0.609379
0.614885 0.614885 0.614885
0.624311 0.624311 0.624311
0.638007 0.638007 0.638007
0.656106 0.656106 0.656106
0.678566 0.678566 0.678566
0.705212 0.705212 0.705212
0.711986 0.711986 0.711986
0.740883 0.740883 0.740883
0.742796 0.742796 0.742796
0.747158 0.747158 0.747158
0.754660 0.754660 0.754660
0.765636 0.765636 0.765636
0.780272 0.780272 0.780272
0.798634 0.798634 0.798634
0.820685 0.820685 0.820685
0.826335 0.826335 0.826335
0.874808 0.874808 0.874808
0.876373 0.876373 0.876373
0.879943 0.879943 0.879943
0.886102 0.886102 0.886102
0.895149 0.895149 0.895149
0.907282 0.907282 0.907282
0.922609 0.922609 0.922609
0.941163 0.941163 0.941163
0.945942 0.945942 0.945942
0.905979 0.905979 0.905979
0.907478 0.907478 0.907478
0.910899 0.910899 0.910899
0.916802 0.916802 0.916802
0.925481 0.925481 0.925481
0.937131 0.937131 0.937131
0.951866 0.951866 0.951866
0.969731 0.969731 0.969731
0.974336 0.974336 0.974336
0.014807 0.014807 0.014807
0.042736 0.042736 0.042736
0.085267 0.085267 0.085267
0.131645 0.131645 0.131645
0.179373 0.179373 0.179373
0.227694 0.227694 0.227694
0.276319 0.276319 0.276319
0.325118 0.325118 0.325118
0.336492 0.336492 0.336492
0.109323 0.109323 0.109323
0.120370 0.120370 0.120370
0.142466 0.142466 0.142466
0.174039 0.174039 0.174039
0.211771 0.211771 0.211771
0.253273 0.253273 0.253273
0.297100 0.297100 0.297100
0.342408 0.342408 0.342408
0.353107 0.353107 0.353107
0.211376 0.211376 0.211376
0.217054 0.217054 0.217054
0.229459 0.229459 0.229459
0.249326 0.249326 0.249326
0.275792 0.275792 0.275792
0.307562 0.307562 0.307562
0.343373 0.343373 0.343373
0.382191 0.382191 0.382191
0.391568 0.391568 0.391568
0.315459 0.315459 0.315459
0.319032 0.319032 0.319032
0.327037 0.327037 0.327037
0.340397 0.340397 0.340397
0.359123 0.359123 0.359123
0.382817 0.382817 0.382817
0.410862 0.410862 0.410862
0.503274 0.503274 0.503274
0.513246 0.513246 0.513246
0.420125 0.420125 0.420125
0.422640 0.422640 0.422640
0.428333 0.428333 0.428333
0.437997 0.437997 0.437997
0.515106 0.515106 0.515106
0.538082 0.538082 0.538082
0.566099 0.566099 0.566099
0.598720 0.598720 0.598720
0.606919 0.606919 0.606919
0.608217 0.608217 0.608217
0.610633 0.610633 0.610633
0.616126 0.616126 0.616126
0.625531 0.625531 0.625531
0.639196 0.639196 0.639196
0.657256 0.657256 0.657256
0.679672 0.679672 0.679672
0.706268 0.706268 0.706268
0.713031 0.713031 0.713031
0.741878 0.741878 0.741878
0.743789 0.743789 0.743789
0.748144 0.748144 0.748144
0.755634 0.755634 0.755634
0.766593 0.766593 0.766593
0.781207 0.781207 0.781207
0.799543 0.799543 0.799543
0.821564 0.821564 0.821564
0.827207 0.827207 0.827207
0.875622 0.875622 0.875622
0.877185 0.877185 0.877185
0.880751 0.880751 0.880751
0.886903 0.886903 0.886903
0.895940 0.895940 0.895940
0.908060 0.908060 0.908060
0.923371 0.923371 0.923371
0.941907 0.941907 0.941907
0.946681 0.946681 0.946681
0.906758 0.906758 0.906758
0.908255 0.908255 0.908255
0.911673 0.911673 0.911673
0.917570 0.917570 0.917570
0.926240 0.926240 0.926240
0.937878 0.937878 0.937878
0.952599 0.952599 0.952599
0.970447 0.970447 0.970447
0.975049 0.975049 0.975049
0.050356 0.050356 0.050356
0.069907 0.069907 0.069907
0.102941 0.102941 0.102941
0.143808 0.143808 0.143808
0.188296 0.188296 0.188296
0.234578 0.234578 0.234578
0.281835 0.281835 0.281835
0.329667 0.329667 0.329667
0.340857 0.340857 0.340857
0.123729 0.123729 0.123729
0.133589 0.133589 0.133589
0.153740 0.153740 0.153740
0.183250 0.183250 0.183250
0.219232 0.219232 0.219232
0.259373 0.259373 0.259373
0.302165 0.302165 0.302165
0.346681 0.346681 0.346681
0.357224 0.357224 0.357224
0.218853 0.218853 0.218853
0.224315 0.224315 0.224315
0.236283 0.236283 0.236283
0.255538 0.255538 0.255538
0.281320 0.281320 0.281320
0.312423 0.312423 0.312423
0.347632 0.347632 0.347632
0.385928 0.385928 0.385928
0.395195 0.395195 0.395195
0.320175 0.320175 0.320175
0.323685 0.323685 0.323685
0.331554 0.331554 0.331554
0.344701 0.344701 0.344701
0.363156 0.363156 0.363156
0.386547 0.386547 0.386547
0.414279 0.414279 0.414279
0.507238 0.507238 0.507238
0.517124 0.517124 0.517124
0.423449 0.423449 0.423449
0.425940 0.425940 0.425940
0.431577 0.431577 0.431577
0.501467 0.501467 0.501467
0.518968 0.518968 0.518968
0.541759 0.541759 0.541759
0.569569 0.569569 0.569569
0.601973 0.601973 0.601973
0.610121 0.610121 0.610121
0.611411 0.611411 0.611411
0.613813 0.613813 0.613813
0.619273 0.619273 0.619273
0.628622 0.628622 0.628622
0.642211 0.642211 0.642211
0.660174 0.660174 0.660174
0.682476 0.682476 0.682476
0.708948 0.708948 0.708948
0.715680 0.715680 0.715680
0.744405 0.744405 0.744405
0.746308 0.746308 0.746308
0.750645 0.750645 0.750645
0.758106 0.758106 0.758106
0.769022 0.769022 0.769022
0.783582 0.783582 0.783582
0.801852 0.801852 0.801852
0.823798 0.823798 0.823798
0.829423 0.829423 0.829423
0.877689 0.877689 0.877689
0.879247 0.879247 0.879247
0.882803 0.882803 0.882803
0.888937 0.888937 0.888937
0.897949 0.897949 0.897949
0.910036 0.910036 0.910036
0.925307 0.925307 0.925307
0.943796 0.943796 0.943796
0.948558 0.948558 0.948558
0.908738 0.908738 0.908738
0.910231 0.910231 0.910231
0.913639 0.913639 0.913639
0.919521 0.919521 0.919521
0.928168 0.928168 0.928168
0.939777 0.939777 0.939777
0.954462 0.954462 0.954462
0.972267 0.972267 0.972267
0.976858 0.976858 0.976858
0.090830 0.090830 0.090830
0.103782 0.103782 0.103782
0.128769 0.128769 0.128769
0.163165 0.163165 0.163165
0.203135 0.203135 0.203135
0.246304 0.246304 0.246304
0.291363 0.291363 0.291363
0.337594 0.337594 0.337594
0.348475 0.348475 0.348475
0.145900 0.145900 0.145900
0.154302 0.154302 0.154302
0.171910 0.171910 0.171910
0.198510 0.198510 0.198510
0.231860 0.231860 0.231860
0.269851 0.269851 0.269851
0.310952 0.310952 0.310952
0.354146 0.354146 0.354146
0.364424 0.364424 0.364424
0.231504 0.231504 0.231504
0.236632 0.236632 0.236632
0.247916 0.247916 0.247916
0.266194 0.266194 0.266194
0.290868 0.290868 0.290868
0.320872 0.320872 0.320872
0.355072 0.355072 0.355072
0.392483 0.392483 0.392483
0.401563 0.401563 0.401563
0.328383 0.328383 0.328383
0.331787 0.331787 0.331787
0.339428 0.339428 0.339428
0.352217 0.352217 0.352217
0.370214 0.370214 0.370214
0.393089 0.393089 0.393089
0.420287 0.420287 0.420287
0.514222 0.514222 0.514222
0.523959 0.523959 0.523959
0.429297 0.429297 0.429297
0.431745 0.431745 0.431745
0.437289 0.437289 0.437289
0.508541 0.508541 0.508541
0.525776 0.525776 0.525776
0.548245 0.548245 0.548245
0.575697 0.575697 0.575697
0.607725 0.607725 0.607725
0.615784 0.615784 0.615784
0.617060 0.617060 0.617060
0.619436 0.619436 0.619436
0.624839 0.624839 0.624839
0.634092 0.634092 0.634092
0.647546 0.647546 0.647546
0.665339 0.665339 0.665339
0.687444 0.687444 0.687444
0.713696 0.713696 0.713696
0.720376 0.720376 0.720376
0.748885 0.748885 0.748885
0.750775 0.750775 0.750775
0.755081 0.755081 0.755081
0.762490 0.762490 0.762490
0.773331 0.773331 0.773331
0.787795 0.787795 0.787795
0.805949 0.805949 0.805949
0.827764 0.827764 0.827764
0.833356 0.833356 0.833356
0.881359 0.881359 0.881359
0.882910 0.882910 0.882910
0.886448 0.886448 0.886448
0.892551 0.892551 0.892551
0.901519 0.901519 0.901519
0.913547 0.913547 0.913547
0.928747 0.928747 0.928747
0.947153 0.947153 0.947153
0.951895 0.951895 0.951895
0.912256 0.912256 0.912256
0.913741 0.913741 0.913741
0.917134 0.917134 0.917134
0.922988 0.922988 0.922988
0.931595 0.931595 0.931595
0.943152 0.943152 0.943152
0.957773 0.957773 0.957773
0.975503 0.975503 0.975503
0.980075 0.980075 0.980075
0.131304 0.131304 0.131304
0.140622 0.140622 0.140622
0.159847 0.159847 0.159847
0.188324 0.188324 0.188324
0.223396 0.223396 0.223396
0.262808 0.262808 0.262808
0.305034 0.305034 0.305034
0.349111 0.349111 0.349111
0.359566 0.359566 0.359566
0.173786 0.173786 0.173786
0.180806 0.180806 0.180806
0.195846 0.195846 0.195846
0.219256 0.219256 0.219256
0.249484 0.249484 0.249484
0.284765 0.284765 0.284765
0.323634 0.323634 0.323634
0.365026 0.365026 0.365026
0.374939 0.374939 0.374939
0.249158 0.249158 0.249158
0.253873 0.253873 0.253873
0.264302 0.264302 0.264302
0.281338 0.281338 0.281338
0.304566 0.304566 0.304566
0.333098 0.333098 0.333098
0.365919 0.365919 0.365919
0.402097 0.402097 0.402097
0.410913 0.410913 0.410913
0.340281 0.340281 0.340281
0.343542 0.343542 0.343542
0.350871 0.350871 0.350871
0.363169 0.363169 0.363169
0.380531 0.380531 0.380531
0.402685 0.402685 0.402685
0.429131 0.429131 0.429131
0.524534 0.524534 0.524534
0.534058 0.534058 0.534058
0.437912 0.437912 0.437912
0.500383 0.500383 0.500383
0.507269 0.507269 0.507269
0.518981 0.518981 0.518981
0.535837 0.535837 0.535837
0.557844 0.557844 0.557844
0.584780 0.584780 0.584780
0.616261 0.616261 0.616261
0.624192 0.624192 0.624192
0.625448 0.625448 0.625448
0.627787 0.627787 0.627787
0.633106 0.633106 0.633106
0.642220 0.642220 0.642220
0.655478 0.655478 0.655478
0.673024 0.673024 0.673024
0.694840 0.694840 0.694840
0.720772 0.720772 0.720772
0.727374 0.727374 0.727374
0.755568 0.755568 0.755568
0.757437 0.757437 0.757437
0.761698 0.761698 0.761698
0.769030 0.769030 0.769030
0.779762 0.779762 0.779762
0.794084 0.794084 0.794084
0.812068 0.812068 0.812068
0.833688 0.833688 0.833688
0.839232 0.839232 0.839232
0.886848 0.886848 0.886848
0.888386 0.888386 0.888386
0.891898 0.891898 0.891898
0.897956 0.897956 0.897956
0.906857 0.906857 0.906857
0.918800 0.918800 0.918800
0.933894 0.933894 0.933894
0.952177 0.952177 0.952177
0.956888 0.956888 0.956888
0.917518 0.917518 0.917518
0.918993 0.918993 0.918993
0.922361 0.922361 0.922361
0.928174 0.928174 0.928174
0.936723 0.936723 0.936723
0.948203 0.948203 0.948203
0.962728 0.962728 0.962728
0.980348 0.980348 0.980348
0.984892 0.984892 0.984892
0.171778 0.171778 0.171778
0.178884 0.178884 0.178884
0.194089 0.194089 0.194089
0.217712 0.217712 0.217712
0.248156 0.248156 0.248156
0.283631 0.283631 0.283631
0.322662 0.322662 0.322662
0.364189 0.364189 0.364189
0.374128 0.374128 0.374128
0.205507 0.205507 0.205507
0.211365 0.211365 0.211365
0.224131 0.224131 0.224131
0.244499 0.244499 0.244499
0.271516 0.271516 0.271516
0.303818 0.303818 0.303818
0.340104 0.340104 0.340104
0.379330 0.379330 0.379330
0.388794 0.388794 0.388794
0.271221 0.271221 0.271221
0.275494 0.275494 0.275494
0.284996 0.284996 0.284996
0.300650 0.300650 0.300650
0.322225 0.322225 0.322225
0.349027 0.349027 0.349027
0.380181 0.380181 0.380181
0.414836 0.414836 0.414836
0.423322 0.423322 0.423322
0.355819 0.355819 0.355819
0.358907 0.358907 0.358907
0.365860 0.365860 0.365860
0.377560 0.377560 0.377560
0.394144 0.394144 0.394144
0.415402 0.415402 0.415402
0.501147 0.501147 0.501147
0.538316 0.538316 0.538316
0.547567 0.547567 0.547567
0.511957 0.511957 0.511957
0.514899 0.514899 0.514899
0.521569 0.521569 0.521569
0.532926 0.532926 0.532926
0.549296 0.549296 0.549296
0.570711 0.570711 0.570711
0.596979 0.596979 0.596979
0.627752 0.627752 0.627752
0.635515 0.635515 0.635515
0.636745 0.636745 0.636745
0.639035 0.639035 0.639035
0.644245 0.644245 0.644245
0.653177 0.653177 0.653177
0.666178 0.666178 0.666178
0.683401 0.683401 0.683401
0.704835 0.704835 0.704835
0.730346 0.730346 0.730346
0.736845 0.736845 0.736845
0.764620 0.764620 0.764620
0.766463 0.766463 0.766463
0.770664 0.770664 0.770664
0.777894 0.777894 0.777894
0.788480 0.788480 0.788480
0.802614 0.802614 0.802614
0.820371 0.820371 0.820371
0.841732 0.841732 0.841732
0.847211 0.847211 0.847211
0.894310 0.894310 0.894310
0.895833 0.895833 0.895833
0.899309 0.899309 0.899309
0.905305 0.905305 0.905305
0.914119 0.914119 0.914119
0.925946 0.925946 0.925946
0.940898 0.940898 0.940898
0.959016 0.959016 0.959016
0.963686 0.963686 0.963686
0.924676 0.924676 0.924676
0.926137 0.926137 0.926137
0.929473 0.929473 0.929473
0.935232 0.935232 0.935232
0.943701 0.943701 0.943701
0.955077 0.955077 0.955077
0.969475 0.969475 0.969475
0.986945 0.986945 0.986945
0.991452 0.991452 0.991452
0.212252 0.212252 0.212252
0.217904 0.217904 0.217904
0.230256 0.230256 0.230256
0.250050 0.250050 0.250050
0.276435 0.276435 0.276435
0.308126 0.308126 0.308126
0.343867 0.343867 0.343867
0.382623 0.382623 0.382623
0.391988 0.391988 0.391988
0.239739 0.239739 0.239739
0.244667 0.244667 0.244667
0.255539 0.255539 0.255539
0.273221 0.273221 0.273221
0.297206 0.297206 0.297206
0.326514 0.326514 0.326514
0.360066 0.360066 0.360066
0.396901 0.396901 0.396901
0.405858 0.405858 0.405858
0.296941 0.296941 0.296941
0.300781 0.300781 0.300781
0.309362 0.309362 0.309362
0.323614 0.323614 0.323614
0.343462 0.343462 0.343462
0.368399 0.368399 0.368399
0.397706 0.397706 0.397706
0.430627 0.430627 0.430627
0.438731 0.438731 0.438731
0.374761 0.374761 0.374761
0.377659 0.377659 0.377659
0.384196 0.384196 0.384196
0.395228 0.395228 0.395228
0.410933 0.410933 0.410933
0.431166 0.431166 0.431166
0.519814 0.519814 0.519814
0.555574 0.555574 0.555574
0.564502 0.564502 0.564502
0.530195 0.530195 0.530195
0.533023 0.533023 0.533023
0.539439 0.539439 0.539439
0.550377 0.550377 0.550377
0.566171 0.566171 0.566171
0.586880 0.586880 0.586880
0.612347 0.612347 0.612347
0.642264 0.642264 0.642264
0.649824 0.649824 0.649824
0.651022 0.651022 0.651022
0.653254 0.653254 0.653254
0.658332 0.658332 0.658332
0.667042 0.667042 0.667042
0.679730 0.679730 0.679730
0.696556 0.696556 0.696556
0.717524 0.717524 0.717524
0.742515 0.742515 0.742515
0.748887 0.748887 0.748887
0.776146 0.776146 0.776146
0.777956 0.777956 0.777956
0.782082 0.782082 0.782082
0.789186 0.789186 0.789186
0.799591 0.799591 0.799591
0.813491 0.813491 0.813491
0.830966 0.830966 0.830966
0.852004 0.852004 0.852004
0.857403 0.857403 0.857403
0.903854 0.903854 0.903854
0.905357 0.905357 0.905357
0.908788 0.908788 0.908788
0.914708 0.914708 0.914708
0.923411 0.923411 0.923411
0.935093 0.935093 0.935093
0.949867 0.949867 0.949867
0.967778 0.967778 0.967778
0.972395 0.972395 0.972395
0.933838 0.933838 0.933838
0.935282 0.935282 0.935282
0.938578 0.938578 0.938578
0.944268 0.944268 0.944268
0.952638 0.952638 0.952638
0.963883 0.963883 0.963883
0.978120 0.978120 0.978120
0.995402 0.995402 0.995402
0.999861 0.999861 0.999861
0.252726 0.252726 0.252726
0.257364 0.257364 0.257364
0.267634 0.267634 0.267634
0.284433 0.284433 0.284433
0.307382 0.307382 0.307382
0.335626 0.335626 0.335626
0.368174 0.368174 0.368174
0.404104 0.404104 0.404104
0.412866 0.412866 0.412866
0.275633 0.275633 0.275633
0.279826 0.279826 0.279826
0.289158 0.289158 0.289158
0.304557 0.304557 0.304557
0.325821 0.325821 0.325821
0.352291 0.352291 0.352291
0.383121 0.383121 0.383121
0.417475 0.417475 0.417475
0.425895 0.425895 0.425895
0.325584 0.325584 0.325584
0.329024 0.329024 0.329024
0.336741 0.336741 0.336741
0.349651 0.349651 0.349651
0.367802 0.367802 0.367802
0.390851 0.390851 0.390851
0.418230 0.418230 0.418230
0.511829 0.511829 0.511829
0.521616 0.521616 0.521616
0.396770 0.396770 0.396770
0.399471 0.399471 0.399471
0.405573 0.405573 0.405573
0.415905 0.415905 0.415905
0.430676 0.430676 0.430676
0.512480 0.512480 0.512480
0.542010 0.542010 0.542010
0.576205 0.576205 0.576205
0.584771 0.584771 0.584771
0.551916 0.551916 0.551916
0.554618 0.554618 0.554618
0.560752 0.560752 0.560752
0.571223 0.571223 0.571223
0.586374 0.586374 0.586374
0.606287 0.606287 0.606287
0.630846 0.630846 0.630846
0.659785 0.659785 0.659785
0.667111 0.667111 0.667111
0.668272 0.668272 0.668272
0.670436 0.670436 0.670436
0.675362 0.675362 0.675362
0.683815 0.683815 0.683815
0.696142 0.696142 0.696142
0.712508 0.712508 0.712508
0.732934 0.732934 0.732934
0.757317 0.757317 0.757317
0.763541 0.763541 0.763541
0.790192 0.790192 0.790192
0.791963 0.791963 0.791963
0.796001 0.796001 0.796001
0.802956 0.802956 0.802956
0.813147 0.813147 0.813147
0.826771 0.826771 0.826771
0.843912 0.843912 0.843912
0.864566 0.864566 0.864566
0.869869 0.869869 0.869869
0.915548 0.915548 0.915548
0.917027 0.917027 0.917027
0.920404 0.920404 0.920404
0.926233 0.926233 0.926233
0.934803 0.934803 0.934803
0.946312 0.946312 0.946312
0.960873 0.960873 0.960873
0.978534 0.978534 0.978534
0.983088 0.983088 0.983088
0.945075 0.945075 0.945075
0.946498 0.946498 0.946498
0.949746 0.949746 0.949746
0.955353 0.955353 0.955353
0.963604 0.963604 0.963604
0.974692 0.974692 0.974692
0.988737 0.988737 0.988737
1.000000 1.000000 1.000000
1.000000 1.000000 1.000000
0.262146 0.262146 0.262146
0.266592 0.266592 0.266592
0.276458 0.276458 0.276458
0.292658 0.292658 0.292658
0.314894 0.314894 0.314894
0.342392 0.342392 0.342392
0.374224 0.374224 0.374224
0.409502 0.409502 0.409502
0.418124 0.418124 0.418124
0.284163 0.284163 0.284163
0.288208 0.288208 0.288208
0.297228 0.297228 0.297228
0.312150 0.312150 0.312150
0.332831 0.332831 0.332831
0.358674 0.358674 0.358674
0.388885 0.388885 0.388885
0.422660 0.422660 0.422660
0.430954 0.430954 0.430954
0.332600 0.332600 0.332600
0.335952 0.335952 0.335952
0.343480 0.343480 0.343480
0.356091 0.356091 0.356091
0.373860 0.373860 0.373860
0.396475 0.396475 0.396475
0.423404 0.423404 0.423404
0.517852 0.517852 0.517852
0.527513 0.527513 0.527513
0.402291 0.402291 0.402291
0.404946 0.404946 0.404946
0.410947 0.410947 0.410947
0.421114 0.421114 0.421114
0.435665 0.435665 0.435665
0.518495 0.518495 0.518495
0.547657 0.547657 0.547657
0.581472 0.581472 0.581472
0.589950 0.589950 0.589950
0.557449 0.557449 0.557449
0.560120 0.560120 0.560120
0.566186 0.566186 0.566186
0.576543 0.576543 0.576543
0.591536 0.591536 0.591536
0.611255 0.611255 0.611255
0.635590 0.635590 0.635590
0.664286 0.664286 0.664286
0.671554 0.671554 0.671554
0.672707 0.672707 0.672707
0.674854 0.674854 0.674854
0.679742 0.679742 0.679742
0.688131 0.688131 0.688131
0.700367 0.700367 0.700367
0.716619 0.716619 0.716619
0.736908 0.736908 0.736908
0.761139 0.761139 0.761139
0.767325 0.767325 0.767325
0.793823 0.793823 0.793823
0.795584 0.795584 0.795584
0.799601 0.799601 0.799601
0.806517 0.806517 0.806517
0.816655 0.816655 0.816655
0.830208 0.830208 0.830208
0.847265 0.847265 0.847265
0.867821 0.867821 0.867821
0.873100 0.873100 0.873100
0.918582 0.918582 0.918582
0.920055 0.920055 0.920055
0.923419 0.923419 0.923419
0.929224 0.929224 0.929224
0.937761 0.937761 0.937761
0.949225 0.949225 0.949225
0.963731 0.963731 0.963731
0.981328 0.981328 0.981328
0.985867 0.985867 0.985867
0.947993 0.947993 0.947993
0.949410 0.949410 0.949410
0.952646 0.952646 0.952646
0.958232 0.958232 0.958232
0.966453 0.966453 0.966453
0.977501 0.977501 0.977501
0.991496 0.991496 0.991496
1.000000 1.000000 1.000000
1.000000 1.000000 1.000000
