docs/luts/fuji_recipes/Acros_PE_Winogrand.cube
TITLE "Fujifilm Recipe: PE Winogrand (Acros)"
# FilmSim=Acros HL=-2 SH=-2 Col=0 WB=Auto WBR=0 WBB=0
LUT_3D_SIZE 9
DOMAIN_MIN 0.0 0.0 0.0
DOMAIN_MAX 1.0 1.0 1.0
0.080000 0.080000 0.080000
0.116263 0.116263 0.116263
0.176599 0.176599 0.176599
0.236927 0.236927 0.236927
0.297254 0.297254 0.297254
0.357582 0.357582 0.357582
0.417910 0.417910 0.417910
0.478237 0.478237 0.478237
0.538565 0.538565 0.538565
0.173414 0.173414 0.173414
0.189909 0.189909 0.189909
0.223778 0.223778 0.223778
0.269300 0.269300 0.269300
0.320942 0.320942 0.320942
0.375809 0.375809 0.375809
0.432481 0.432481 0.432481
0.490231 0.490231 0.490231
0.508289 0.508289 0.508289
0.273424 0.273424 0.273424
0.281749 0.281749 0.281749
0.301374 0.301374 0.301374
0.332148 0.332148 0.332148
0.371556 0.371556 0.371556
0.417022 0.417022 0.417022
0.466592 0.466592 0.466592
0.518943 0.518943 0.518943
0.531766 0.531766 0.531766
0.373434 0.373434 0.373434
0.378649 0.378649 0.378649
0.391455 0.391455 0.391455
0.412838 0.412838 0.412838
0.442183 0.442183 0.442183
0.478225 0.478225 0.478225
0.519573 0.519573 0.519573
0.523907 0.523907 0.523907
0.570302 0.570302 0.570302
0.473444 0.473444 0.473444
0.477110 0.477110 0.477110
0.486257 0.486257 0.486257
0.501961 0.501961 0.501961
0.524303 0.524303 0.524303
0.512271 0.512271 0.512271
0.544755 0.544755 0.544755
0.581628 0.581628 0.581628
0.622113 0.622113 0.622113
0.531999 0.531999 0.531999
0.534643 0.534643 0.534643
0.541292 0.541292 0.541292
0.552867 0.552867 0.552867
0.569659 0.569659 0.569659
0.591604 0.591604 0.591604
0.618383 0.618383 0.618383
0.649525 0.649525 0.649525
0.684492 0.684492 0.684492
0.627660 0.627660 0.627660
0.629751 0.629751 0.629751
0.635028 0.635028 0.635028
0.644287 0.644287 0.644287
0.657873 0.657873 0.657873
0.675884 0.675884 0.675884
0.698222 0.698222 0.698222
0.724647 0.724647 0.724647
0.754826 0.754826 0.754826
0.723322 0.723322 0.723322
0.725031 0.725031 0.725031
0.729356 0.729356 0.729356
0.736980 0.736980 0.736980
0.748246 0.748246 0.748246
0.763318 0.763318 0.763318
0.782216 0.782216 0.782216
0.804841 0.804841 0.804841
0.831004 0.831004 0.831004
0.818984 0.818984 0.818984
0.820417 0.820417 0.820417
0.824049 0.824049 0.824049
0.830471 0.830471 0.830471
0.840004 0.840004 0.840004
0.852836 0.852836 0.852836
0.869046 0.869046 0.869046
0.888617 0.888617 0.888617
0.911459 0.911459 0.911459
0.092315 0.092315 0.092315
0.127526 0.127526 0.127526
0.182318 0.182318 0.182318
0.240515 0.240515 0.240515
0.299779 0.299779 0.299779
0.359486 0.359486 0.359486
0.419415 0.419415 0.419415
0.479468 0.479468 0.479468
0.539597 0.539597 0.539597
0.179302 0.179302 0.179302
0.195000 0.195000 0.195000
0.227703 0.227703 0.227703
0.272239 0.272239 0.272239
0.323187 0.323187 0.323187
0.377576 0.377576 0.377576
0.433911 0.433911 0.433911
0.491418 0.491418 0.491418
0.509250 0.509250 0.509250
0.276295 0.276295 0.276295
0.284491 0.284491 0.284491
0.303845 0.303845 0.303845
0.334278 0.334278 0.334278
0.373353 0.373353 0.373353
0.418532 0.418532 0.418532
0.467869 0.467869 0.467869
0.520034 0.520034 0.520034
0.532667 0.532667 0.532667
0.375217 0.375217 0.375217
0.380395 0.380395 0.380395
0.393116 0.393116 0.393116
0.414372 0.414372 0.414372
0.443567 0.443567 0.443567
0.479456 0.479456 0.479456
0.520662 0.520662 0.520662
0.524827 0.524827 0.524827
0.571117 0.571117 0.571117
0.474693 0.474693 0.474693
0.478345 0.478345 0.478345
0.487458 0.487458 0.487458
0.503107 0.503107 0.503107
0.525377 0.525377 0.525377
0.513221 0.513221 0.513221
0.545625 0.545625 0.545625
0.582421 0.582421 0.582421
0.622833 0.622833 0.622833
0.532899 0.532899 0.532899
0.535537 0.535537 0.535537
0.542170 0.542170 0.542170
0.553719 0.553719 0.553719
0.570475 0.570475 0.570475
0.592378 0.592378 0.592378
0.619109 0.619109 0.619109
0.650202 0.650202 0.650202
0.685121 0.685121 0.685121
0.628372 0.628372 0.628372
0.630459 0.630459 0.630459
0.635728 0.635728 0.635728
0.644972 0.644972 0.644972
0.658538 0.658538 0.658538
0.676524 0.676524 0.676524
0.698833 0.698833 0.698833
0.725227 0.725227 0.725227
0.755373 0.755373 0.755373
0.723903 0.723903 0.723903
0.725610 0.725610 0.725610
0.729931 0.729931 0.729931
0.737546 0.737546 0.737546
0.748800 0.748800 0.748800
0.763857 0.763857 0.763857
0.782736 0.782736 0.782736
0.805340 0.805340 0.805340
0.831481 0.831481 0.831481
0.819471 0.819471 0.819471
0.820903 0.820903 0.820903
0.824532 0.824532 0.824532
0.830948 0.830948 0.830948
0.840473 0.840473 0.840473
0.853296 0.853296 0.853296
0.869493 0.869493 0.869493
0.889051 0.889051 0.889051
0.911878 0.911878 0.911878
0.123259 0.123259 0.123259
0.150150 0.150150 0.150150
0.195670 0.195670 0.195670
0.249285 0.249285 0.249285
0.306060 0.306060 0.306060
0.364266 0.364266 0.364266
0.423212 0.423212 0.423212
0.482581 0.482581 0.482581
0.502116 0.502116 0.502116
0.192994 0.192994 0.192994
0.207060 0.207060 0.207060
0.237233 0.237233 0.237233
0.279506 0.279506 0.279506
0.328795 0.328795 0.328795
0.382016 0.382016 0.382016
0.437520 0.437520 0.437520
0.494419 0.494419 0.494419
0.511684 0.511684 0.511684
0.283401 0.283401 0.283401
0.291289 0.291289 0.291289
0.310000 0.310000 0.310000
0.339608 0.339608 0.339608
0.377869 0.377869 0.377869
0.422341 0.422341 0.422341
0.471097 0.471097 0.471097
0.522795 0.522795 0.522795
0.534950 0.534950 0.534950
0.379700 0.379700 0.379700
0.384787 0.384787 0.384787
0.397297 0.397297 0.397297
0.418237 0.418237 0.418237
0.447060 0.447060 0.447060
0.482569 0.482569 0.482569
0.523418 0.523418 0.523418
0.527158 0.527158 0.527158
0.573184 0.573184 0.573184
0.477852 0.477852 0.477852
0.481469 0.481469 0.481469
0.490495 0.490495 0.490495
0.506006 0.506006 0.506006
0.528097 0.528097 0.528097
0.515628 0.515628 0.515628
0.547831 0.547831 0.547831
0.584431 0.584431 0.584431
0.624661 0.624661 0.624661
0.535181 0.535181 0.535181
0.537803 0.537803 0.537803
0.544396 0.544396 0.544396
0.555879 0.555879 0.555879
0.572546 0.572546 0.572546
0.594340 0.594340 0.594340
0.620952 0.620952 0.620952
0.651921 0.651921 0.651921
0.686717 0.686717 0.686717
0.630176 0.630176 0.630176
0.632255 0.632255 0.632255
0.637503 0.637503 0.637503
0.646711 0.646711 0.646711
0.660227 0.660227 0.660227
0.678149 0.678149 0.678149
0.700385 0.700385 0.700385
0.726699 0.726699 0.726699
0.756762 0.756762 0.756762
0.725379 0.725379 0.725379
0.727082 0.727082 0.727082
0.731389 0.731389 0.731389
0.738984 0.738984 0.738984
0.750207 0.750207 0.750207
0.765224 0.765224 0.765224
0.784057 0.784057 0.784057
0.806609 0.806609 0.806609
0.832694 0.832694 0.832694
0.820709 0.820709 0.820709
0.822138 0.822138 0.822138
0.825759 0.825759 0.825759
0.832162 0.832162 0.832162
0.841668 0.841668 0.841668
0.854465 0.854465 0.854465
0.870632 0.870632 0.870632
0.890154 0.890154 0.890154
0.912942 0.912942 0.912942
0.161726 0.161726 0.161726
0.180008 0.180008 0.180008
0.216330 0.216330 0.216330
0.263813 0.263813 0.263813
0.316791 0.316791 0.316791
0.372560 0.372560 0.372560
0.429857 0.429857 0.429857
0.488059 0.488059 0.488059
0.506532 0.506532 0.506532
0.214066 0.214066 0.214066
0.226106 0.226106 0.226106
0.252857 0.252857 0.252857
0.291779 0.291779 0.291779
0.338446 0.338446 0.338446
0.389747 0.389747 0.389747
0.443848 0.443848 0.443848
0.499706 0.499706 0.499706
0.515984 0.515984 0.515984
0.295425 0.295425 0.295425
0.302835 0.302835 0.302835
0.320530 0.320530 0.320530
0.348808 0.348808 0.348808
0.385725 0.385725 0.385725
0.429007 0.429007 0.429007
0.476773 0.476773 0.476773
0.527666 0.527666 0.527666
0.538987 0.538987 0.538987
0.387500 0.387500 0.387500
0.392435 0.392435 0.392435
0.404592 0.404592 0.404592
0.425000 0.425000 0.425000
0.453190 0.453190 0.453190
0.488047 0.488047 0.488047
0.528280 0.528280 0.528280
0.531281 0.531281 0.531281
0.576845 0.576845 0.576845
0.483410 0.483410 0.483410
0.486965 0.486965 0.486965
0.495844 0.495844 0.495844
0.511116 0.511116 0.511116
0.532896 0.532896 0.532896
0.519882 0.519882 0.519882
0.551735 0.551735 0.551735
0.587993 0.587993 0.587993
0.627902 0.627902 0.627902
0.539216 0.539216 0.539216
0.541810 0.541810 0.541810
0.548335 0.548335 0.548335
0.559703 0.559703 0.559703
0.576213 0.576213 0.576213
0.597818 0.597818 0.597818
0.624221 0.624221 0.624221
0.654971 0.654971 0.654971
0.689551 0.689551 0.689551
0.633377 0.633377 0.633377
0.635441 0.635441 0.635441
0.640651 0.640651 0.640651
0.649797 0.649797 0.649797
0.663223 0.663223 0.663223
0.681033 0.681033 0.681033
0.703141 0.703141 0.703141
0.729314 0.729314 0.729314
0.759232 0.759232 0.759232
0.728001 0.728001 0.728001
0.729695 0.729695 0.729695
0.733981 0.733981 0.733981
0.741537 0.741537 0.741537
0.752707 0.752707 0.752707
0.767655 0.767655 0.767655
0.786406 0.786406 0.786406
0.808865 0.808865 0.808865
0.834851 0.834851 0.834851
0.822910 0.822910 0.822910
0.824334 0.824334 0.824334
0.827942 0.827942 0.827942
0.834321 0.834321 0.834321
0.843792 0.843792 0.843792
0.856544 0.856544 0.856544
0.872657 0.872657 0.872657
0.892117 0.892117 0.892117
0.914835 0.914835 0.914835
0.200193 0.200193 0.200193
0.213508 0.213508 0.213508
0.242450 0.242450 0.242450
0.283557 0.283557 0.283557
0.331956 0.331956 0.331956
0.384536 0.384536 0.384536
0.439577 0.439577 0.439577
0.496134 0.496134 0.496134
0.513077 0.513077 0.513077
0.240569 0.240569 0.240569
0.250667 0.250667 0.250667
0.273833 0.273833 0.273833
0.308861 0.308861 0.308861
0.352222 0.352222 0.352222
0.400961 0.400961 0.400961
0.453124 0.453124 0.453124
0.507508 0.507508 0.507508
0.522359 0.522359 0.522359
0.312204 0.312204 0.312204
0.319023 0.319023 0.319023
0.335439 0.335439 0.335439
0.361992 0.361992 0.361992
0.397110 0.397110 0.397110
0.438754 0.438754 0.438754
0.485128 0.485128 0.485128
0.534872 0.534872 0.534872
0.544982 0.544982 0.544982
0.398809 0.398809 0.398809
0.403537 0.403537 0.403537
0.415210 0.415210 0.415210
0.434882 0.434882 0.434882
0.462187 0.462187 0.462187
0.496122 0.496122 0.496122
0.535475 0.535475 0.535475
0.537399 0.537399 0.537399
0.582292 0.582292 0.582292
0.491599 0.491599 0.491599
0.495067 0.495067 0.495067
0.503735 0.503735 0.503735
0.518665 0.518665 0.518665
0.540000 0.540000 0.540000
0.526190 0.526190 0.526190
0.557535 0.557535 0.557535
0.593294 0.593294 0.593294
0.632734 0.632734 0.632734
0.545207 0.545207 0.545207
0.547761 0.547761 0.547761
0.554186 0.554186 0.554186
0.565387 0.565387 0.565387
0.581668 0.581668 0.581668
0.602997 0.602997 0.602997
0.629093 0.629093 0.629093
0.659524 0.659524 0.659524
0.693784 0.693784 0.693784
0.638150 0.638150 0.638150
0.640192 0.640192 0.640192
0.645348 0.645348 0.645348
0.654400 0.654400 0.654400
0.667695 0.667695 0.667695
0.685342 0.685342 0.685342
0.707259 0.707259 0.707259
0.733225 0.733225 0.733225
0.762926 0.762926 0.762926
0.731922 0.731922 0.731922
0.733603 0.733603 0.733603
0.737856 0.737856 0.737856
0.745357 0.745357 0.745357
0.756446 0.756446 0.756446
0.771293 0.771293 0.771293
0.789921 0.789921 0.789921
0.812243 0.812243 0.812243
0.838081 0.838081 0.838081
0.826207 0.826207 0.826207
0.827623 0.827623 0.827623
0.831210 0.831210 0.831210
0.837554 0.837554 0.837554
0.846975 0.846975 0.846975
0.859660 0.859660 0.859660
0.875691 0.875691 0.875691
0.895058 0.895058 0.895058
0.917674 0.917674 0.917674
0.238660 0.238660 0.238660
0.248880 0.248880 0.248880
0.272280 0.272280 0.272280
0.307576 0.307576 0.307576
0.351172 0.351172 0.351172
0.400099 0.400099 0.400099
0.452407 0.452407 0.452407
0.506903 0.506903 0.506903
0.521864 0.521864 0.521864
0.270717 0.270717 0.270717
0.279168 0.279168 0.279168
0.299053 0.299053 0.299053
0.330153 0.330153 0.330153
0.369877 0.369877 0.369877
0.415613 0.415613 0.415613
0.465403 0.465403 0.465403
0.517929 0.517929 0.517929
0.530928 0.530928 0.530928
0.333173 0.333173 0.333173
0.339358 0.339358 0.339358
0.354371 0.354371 0.354371
0.378968 0.378968 0.378968
0.411968 0.411968 0.411968
0.451619 0.451619 0.451619
0.496252 0.496252 0.496252
0.504333 0.504333 0.504333
0.553056 0.553056 0.553056
0.413576 0.413576 0.413576
0.418055 0.418055 0.418055
0.429143 0.429143 0.429143
0.447913 0.447913 0.447913
0.474120 0.474120 0.474120
0.506892 0.506892 0.506892
0.504894 0.504894 0.504894
0.545633 0.545633 0.545633
0.589648 0.589648 0.589648
0.502512 0.502512 0.502512
0.505869 0.505869 0.505869
0.514269 0.514269 0.514269
0.528763 0.528763 0.528763
0.509111 0.509111 0.509111
0.534672 0.534672 0.534672
0.565355 0.565355 0.565355
0.600459 0.600459 0.600459
0.639278 0.639278 0.639278
0.553276 0.553276 0.553276
0.555777 0.555777 0.555777
0.562072 0.562072 0.562072
0.573054 0.573054 0.573054
0.589036 0.589036 0.589036
0.610000 0.610000 0.610000
0.635691 0.635691 0.635691
0.665697 0.665697 0.665697
0.699531 0.699531 0.699531
0.644616 0.644616 0.644616
0.646629 0.646629 0.646629
0.651713 0.651713 0.651713
0.660641 0.660641 0.660641
0.673762 0.673762 0.673762
0.691189 0.691189 0.691189
0.712853 0.712853 0.712853
0.738541 0.738541 0.738541
0.767953 0.767953 0.767953
0.737252 0.737252 0.737252
0.738915 0.738915 0.738915
0.743126 0.743126 0.743126
0.750552 0.750552 0.750552
0.761534 0.761534 0.761534
0.776243 0.776243 0.776243
0.794708 0.794708 0.794708
0.816845 0.816845 0.816845
0.842484 0.842484 0.842484
0.830700 0.830700 0.830700
0.832105 0.832105 0.832105
0.835665 0.835665 0.835665
0.841962 0.841962 0.841962
0.851313 0.851313 0.851313
0.863908 0.863908 0.863908
0.879830 0.879830 0.879830
0.899071 0.899071 0.899071
0.921548 0.921548 0.921548
0.277127 0.277127 0.277127
0.285286 0.285286 0.285286
0.304563 0.304563 0.304563
0.334898 0.334898 0.334898
0.373876 0.373876 0.373876
0.418973 0.418973 0.418973
0.468243 0.468243 0.468243
0.520353 0.520353 0.520353
0.532930 0.532930 0.532930
0.303252 0.303252 0.303252
0.310376 0.310376 0.310376
0.327456 0.327456 0.327456
0.354911 0.354911 0.354911
0.390977 0.390977 0.390977
0.433491 0.433491 0.433491
0.480608 0.480608 0.480608
0.530969 0.530969 0.530969
0.541731 0.541731 0.541731
0.357618 0.357618 0.357618
0.363181 0.363181 0.363181
0.376787 0.376787 0.376787
0.399354 0.399354 0.399354
0.430072 0.430072 0.430072
0.467494 0.467494 0.467494
0.510119 0.510119 0.510119
0.515940 0.515940 0.515940
0.563260 0.563260 0.563260
0.431579 0.431579 0.431579
0.435784 0.435784 0.435784
0.446221 0.446221 0.446221
0.463977 0.463977 0.463977
0.488926 0.488926 0.488926
0.520342 0.520342 0.520342
0.516483 0.516483 0.516483
0.556032 0.556032 0.556032
0.598977 0.598977 0.598977
0.516131 0.516131 0.516131
0.519359 0.519359 0.519359
0.527443 0.527443 0.527443
0.501359 0.501359 0.501359
0.520566 0.520566 0.520566
0.545369 0.545369 0.545369
0.575250 0.575250 0.575250
0.609554 0.609554 0.609554
0.647607 0.647607 0.647607
0.563474 0.563474 0.563474
0.565911 0.565911 0.565911
0.572048 0.572048 0.572048
0.582764 0.582764 0.582764
0.598378 0.598378 0.598378
0.618896 0.618896 0.618896
0.644086 0.644086 0.644086
0.673566 0.673566 0.673566
0.706871 0.706871 0.706871
0.652849 0.652849 0.652849
0.654826 0.654826 0.654826
0.659820 0.659820 0.659820
0.668595 0.668595 0.668595
0.681499 0.681499 0.681499
0.698654 0.698654 0.698654
0.720000 0.720000 0.720000
0.745342 0.745342 0.745342
0.774390 0.774390 0.774390
0.744069 0.744069 0.744069
0.745711 0.745711 0.745711
0.749868 0.749868 0.749868
0.757200 0.757200 0.757200
0.768048 0.768048 0.768048
0.782583 0.782583 0.782583
0.800842 0.800842 0.800842
0.822747 0.822747 0.822747
0.848134 0.848134 0.848134
0.836463 0.836463 0.836463
0.837854 0.837854 0.837854
0.841380 0.841380 0.841380
0.847616 0.847616 0.847616
0.856880 0.856880 0.856880
0.869362 0.869362 0.869362
0.885145 0.885145 0.885145
0.904227 0.904227 0.904227
0.926528 0.926528 0.926528
0.315594 0.315594 0.315594
0.322304 0.322304 0.322304
0.338479 0.338479 0.338479
0.364701 0.364701 0.364701
0.399467 0.399467 0.399467
0.440785 0.440785 0.440785
0.486876 0.486876 0.486876
0.536386 0.536386 0.536386
0.546244 0.546244 0.546244
0.337366 0.337366 0.337366
0.343436 0.343436 0.343436
0.358191 0.358191 0.358191
0.382422 0.382422 0.382422
0.415016 0.415016 0.415016
0.454278 0.454278 0.454278
0.498564 0.498564 0.498564
0.506261 0.506261 0.506261
0.554746 0.554746 0.554746
0.384840 0.384840 0.384840
0.389827 0.389827 0.389827
0.402102 0.402102 0.402102
0.422689 0.422689 0.422689
0.451092 0.451092 0.451092
0.486171 0.486171 0.486171
0.526613 0.526613 0.526613
0.529866 0.529866 0.529866
0.575588 0.575588 0.575588
0.452496 0.452496 0.452496
0.456416 0.456416 0.456416
0.466173 0.466173 0.466173
0.482854 0.482854 0.482854
0.506448 0.506448 0.506448
0.536375 0.536375 0.536375
0.530389 0.530389 0.530389
0.568583 0.568583 0.568583
0.610293 0.610293 0.610293
0.532352 0.532352 0.532352
0.535435 0.535435 0.535435
0.503031 0.503031 0.503031
0.515849 0.515849 0.515849
0.534321 0.534321 0.534321
0.558264 0.558264 0.558264
0.587221 0.587221 0.587221
0.620596 0.620596 0.620596
0.657754 0.657754 0.657754
0.575796 0.575796 0.575796
0.578159 0.578159 0.578159
0.584113 0.584113 0.584113
0.594521 0.594521 0.594521
0.609709 0.609709 0.609709
0.629706 0.629706 0.629706
0.654310 0.654310 0.654310
0.683169 0.683169 0.683169
0.715847 0.715847 0.715847
0.662882 0.662882 0.662882
0.664816 0.664816 0.664816
0.669705 0.669705 0.669705
0.678299 0.678299 0.678299
0.690946 0.690946 0.690946
0.707777 0.707777 0.707777
0.728747 0.728747 0.728747
0.753675 0.753675 0.753675
0.782288 0.782288 0.782288
0.752422 0.752422 0.752422
0.754038 0.754038 0.754038
0.758130 0.758130 0.758130
0.765350 0.765350 0.765350
0.776037 0.776037 0.776037
0.790365 0.790365 0.790365
0.808375 0.808375 0.808375
0.830000 0.830000 0.830000
0.855085 0.855085 0.855085
0.843550 0.843550 0.843550
0.844924 0.844924 0.844924
0.848409 0.848409 0.848409
0.854573 0.854573 0.854573
0.863731 0.863731 0.863731
0.876075 0.876075 0.876075
0.891691 0.891691 0.891691
0.910579 0.910579 0.910579
0.932666 0.932666 0.932666
0.354061 0.354061 0.354061
0.359709 0.359709 0.359709
0.373505 0.373505 0.373505
0.396353 0.396353 0.396353
0.427390 0.427390 0.427390
0.465130 0.465130 0.465130
0.508044 0.508044 0.508044
0.514197 0.514197 0.514197
0.561723 0.561723 0.561723
0.372548 0.372548 0.372548
0.377782 0.377782 0.377782
0.390630 0.390630 0.390630
0.412078 0.412078 0.412078
0.441497 0.441497 0.441497
0.477615 0.477615 0.477615
0.519034 0.519034 0.519034
0.523451 0.523451 0.523451
0.569898 0.569898 0.569898
0.414240 0.414240 0.414240
0.418709 0.418709 0.418709
0.429771 0.429771 0.429771
0.448503 0.448503 0.448503
0.474661 0.474661 0.474661
0.507382 0.507382 0.507382
0.505316 0.505316 0.505316
0.546010 0.546010 0.546010
0.589985 0.589985 0.589985
0.475963 0.475963 0.475963
0.479600 0.479600 0.479600
0.488678 0.488678 0.488678
0.504271 0.504271 0.504271
0.526469 0.526469 0.526469
0.514187 0.514187 0.514187
0.546511 0.546511 0.546511
0.583227 0.583227 0.583227
0.623566 0.623566 0.623566
0.510528 0.510528 0.510528
0.513332 0.513332 0.513332
0.520373 0.520373 0.520373
0.532601 0.532601 0.532601
0.550279 0.550279 0.550279
0.573284 0.573284 0.573284
0.601225 0.601225 0.601225
0.633565 0.633565 0.633565
0.669713 0.669713 0.669713
0.590186 0.590186 0.590186
0.592468 0.592468 0.592468
0.598220 0.598220 0.598220
0.608286 0.608286 0.608286
0.623001 0.623001 0.623001
0.642414 0.642414 0.642414
0.666358 0.666358 0.666358
0.694512 0.694512 0.694512
0.726473 0.726473 0.726473
0.674712 0.674712 0.674712
0.676599 0.676599 0.676599
0.681368 0.681368 0.681368
0.689756 0.689756 0.689756
0.702112 0.702112 0.702112
0.718574 0.718574 0.718574
0.739112 0.739112 0.739112
0.763563 0.763563 0.763563
0.791673 0.791673 0.791673
0.762333 0.762333 0.762333
0.763920 0.763920 0.763920
0.767937 0.767937 0.767937
0.775028 0.775028 0.775028
0.785529 0.785529 0.785529
0.799616 0.799616 0.799616
0.817340 0.817340 0.817340
0.838638 0.838638 0.838638
0.863370 0.863370 0.863370
0.851995 0.851995 0.851995
0.853350 0.853350 0.853350
0.856785 0.856785 0.856785
0.862865 0.862865 0.862865
0.871900 0.871900 0.871900
0.884083 0.884083 0.884083
0.899502 0.899502 0.899502
0.918164 0.918164 0.918164
0.940000 0.940000 0.940000
