docs/luts/fuji_recipes/Acros_JP_Acros.cube
TITLE "Fujifilm Recipe: JP Acros (Acros)"
# FilmSim=Acros HL=1 SH=0 Col=0 WB=Auto WBR=0 WBB=0
LUT_3D_SIZE 5
DOMAIN_MIN 0.0 0.0 0.0
DOMAIN_MAX 1.0 1.0 1.0
0.000000 0.000000 0.000000
0.104999 0.104999 0.104999
0.236146 0.236146 0.236146
0.367293 0.367293 0.367293
0.498440 0.498440 0.498440
0.210243 0.210243 0.210243
0.240624 0.240624 0.240624
0.316908 0.316908 0.316908
0.420209 0.420209 0.420209
0.537541 0.537541 0.537541
0.427656 0.427656 0.427656
0.441583 0.441583 0.441583
0.482938 0.482938 0.482938
0.552892 0.552892 0.552892
0.644316 0.644316 0.644316
0.650871 0.650871 0.650871
0.659579 0.659579 0.659579
0.686577 0.686577 0.686577
0.734263 0.734263 0.734263
0.801158 0.801158 0.801158
0.876981 0.876981 0.876981
0.882967 0.882967 0.882967
0.901822 0.901822 0.901822
0.936145 0.936145 0.936145
0.986270 0.986270 0.986270
0.047021 0.047021 0.047021
0.125728 0.125728 0.125728
0.245717 0.245717 0.245717
0.373056 0.373056 0.373056
0.502500 0.502500 0.502500
0.221088 0.221088 0.221088
0.250000 0.250000 0.250000
0.323770 0.323770 0.323770
0.425106 0.425106 0.425106
0.541304 0.541304 0.541304
0.432448 0.432448 0.432448
0.446190 0.446190 0.446190
0.487062 0.487062 0.487062
0.556528 0.556528 0.556528
0.647327 0.647327 0.647327
0.653845 0.653845 0.653845
0.662503 0.662503 0.662503
0.689359 0.689359 0.689359
0.736819 0.736819 0.736819
0.803446 0.803446 0.803446
0.879020 0.879020 0.879020
0.884988 0.884988 0.884988
0.903789 0.903789 0.903789
0.938019 0.938019 0.938019
0.988022 0.988022 0.988022
0.130645 0.130645 0.130645
0.176576 0.176576 0.176576
0.273865 0.273865 0.273865
0.390844 0.390844 0.390844
0.515454 0.515454 0.515454
0.252395 0.252395 0.252395
0.277651 0.277651 0.277651
0.344685 0.344685 0.344685
0.440356 0.440356 0.440356
0.553161 0.553161 0.553161
0.447390 0.447390 0.447390
0.460581 0.460581 0.460581
0.500000 0.500000 0.500000
0.567996 0.567996 0.567996
0.656867 0.656867 0.656867
0.663268 0.663268 0.663268
0.671775 0.671775 0.671775
0.698185 0.698185 0.698185
0.744942 0.744942 0.744942
0.810731 0.810731 0.810731
0.885518 0.885518 0.885518
0.891430 0.891430 0.891430
0.910061 0.910061 0.910061
0.943999 0.943999 0.943999
0.993615 0.993615 0.993615
0.214269 0.214269 0.214269
0.244091 0.244091 0.244091
0.319431 0.319431 0.319431
0.422003 0.422003 0.422003
0.538917 0.538917 0.538917
0.301758 0.301758 0.301758
0.322594 0.322594 0.322594
0.380513 0.380513 0.380513
0.467521 0.467521 0.467521
0.574762 0.574762 0.574762
0.474056 0.474056 0.474056
0.486351 0.486351 0.486351
0.524305 0.524305 0.524305
0.588931 0.588931 0.588931
0.674445 0.674445 0.674445
0.680640 0.680640 0.680640
0.688878 0.688878 0.688878
0.714499 0.714499 0.714499
0.760000 0.760000 0.760000
0.824279 0.824279 0.824279
0.897638 0.897638 0.897638
0.903449 0.903449 0.903449
0.921768 0.921768 0.921768
0.955172 0.955172 0.955172
1.000000 1.000000 1.000000
0.297893 0.297893 0.297893
0.319028 0.319028 0.319028
0.377597 0.377597 0.377597
0.465266 0.465266 0.465266
0.572946 0.572946 0.572946
0.363304 0.363304 0.363304
0.380186 0.380186 0.380186
0.428980 0.428980 0.428980
0.506282 0.506282 0.506282
0.606346 0.606346 0.606346
0.512442 0.512442 0.512442
0.524077 0.524077 0.524077
0.559421 0.559421 0.559421
0.619629 0.619629 0.619629
0.700570 0.700570 0.700570
0.706478 0.706478 0.706478
0.714343 0.714343 0.714343
0.738859 0.738859 0.738859
0.782587 0.782587 0.782587
0.844705 0.844705 0.844705
0.915994 0.915994 0.915994
0.921656 0.921656 0.921656
0.939518 0.939518 0.939518
0.972139 0.972139 0.972139
1.000000 1.000000 1.000000
