docs/luts/fuji_recipes/Acros_VM_Double_A.cube
TITLE "Fujifilm Recipe: VM Double A (Acros)"
# FilmSim=Acros HL=-2 SH=-1 Col=0 WB=Auto WBR=0 WBB=0
LUT_3D_SIZE 5
DOMAIN_MIN 0.0 0.0 0.0
DOMAIN_MAX 1.0 1.0 1.0
0.040000 0.040000 0.040000
0.140799 0.140799 0.140799
0.266700 0.266700 0.266700
0.392601 0.392601 0.392601
0.518502 0.518502 0.518502
0.241834 0.241834 0.241834
0.270999 0.270999 0.270999
0.344232 0.344232 0.344232
0.443401 0.443401 0.443401
0.531766 0.531766 0.531766
0.450550 0.450550 0.450550
0.463920 0.463920 0.463920
0.503621 0.503621 0.503621
0.544755 0.544755 0.544755
0.622113 0.622113 0.622113
0.627660 0.627660 0.627660
0.635028 0.635028 0.635028
0.657873 0.657873 0.657873
0.698222 0.698222 0.698222
0.754826 0.754826 0.754826
0.818984 0.818984 0.818984
0.824049 0.824049 0.824049
0.840004 0.840004 0.840004
0.869046 0.869046 0.869046
0.911459 0.911459 0.911459
0.085140 0.085140 0.085140
0.160699 0.160699 0.160699
0.275889 0.275889 0.275889
0.398134 0.398134 0.398134
0.502116 0.502116 0.502116
0.252245 0.252245 0.252245
0.280000 0.280000 0.280000
0.350819 0.350819 0.350819
0.448101 0.448101 0.448101
0.534950 0.534950 0.534950
0.455150 0.455150 0.455150
0.468343 0.468343 0.468343
0.507579 0.507579 0.507579
0.547831 0.547831 0.547831
0.624661 0.624661 0.624661
0.630176 0.630176 0.630176
0.637503 0.637503 0.637503
0.660227 0.660227 0.660227
0.700385 0.700385 0.700385
0.756762 0.756762 0.756762
0.820709 0.820709 0.820709
0.825759 0.825759 0.825759
0.841668 0.841668 0.841668
0.870632 0.870632 0.870632
0.912942 0.912942 0.912942
0.165419 0.165419 0.165419
0.209513 0.209513 0.209513
0.302911 0.302911 0.302911
0.415211 0.415211 0.415211
0.513077 0.513077 0.513077
0.282300 0.282300 0.282300
0.306545 0.306545 0.306545
0.370897 0.370897 0.370897
0.462742 0.462742 0.462742
0.544982 0.544982 0.544982
0.469494 0.469494 0.469494
0.482158 0.482158 0.482158
0.520000 0.520000 0.520000
0.557535 0.557535 0.557535
0.632734 0.632734 0.632734
0.638150 0.638150 0.638150
0.645348 0.645348 0.645348
0.667695 0.667695 0.667695
0.707259 0.707259 0.707259
0.762926 0.762926 0.762926
0.826207 0.826207 0.826207
0.831210 0.831210 0.831210
0.846975 0.846975 0.846975
0.875691 0.875691 0.875691
0.917674 0.917674 0.917674
0.245698 0.245698 0.245698
0.274327 0.274327 0.274327
0.346654 0.346654 0.346654
0.445123 0.445123 0.445123
0.532930 0.532930 0.532930
0.329688 0.329688 0.329688
0.349691 0.349691 0.349691
0.405292 0.405292 0.405292
0.488820 0.488820 0.488820
0.563260 0.563260 0.563260
0.495093 0.495093 0.495093
0.506897 0.506897 0.506897
0.520566 0.520566 0.520566
0.575250 0.575250 0.575250
0.647607 0.647607 0.647607
0.652849 0.652849 0.652849
0.659820 0.659820 0.659820
0.681499 0.681499 0.681499
0.720000 0.720000 0.720000
0.774390 0.774390 0.774390
0.836463 0.836463 0.836463
0.841380 0.841380 0.841380
0.856880 0.856880 0.856880
0.885145 0.885145 0.885145
0.926528 0.926528 0.926528
0.325977 0.325977 0.325977
0.346267 0.346267 0.346267
0.402493 0.402493 0.402493
0.486655 0.486655 0.486655
0.561723 0.561723 0.561723
0.388772 0.388772 0.388772
0.404979 0.404979 0.404979
0.451821 0.451821 0.451821
0.505316 0.505316 0.505316
0.589985 0.589985 0.589985
0.510528 0.510528 0.510528
0.520373 0.520373 0.520373
0.550279 0.550279 0.550279
0.601225 0.601225 0.601225
0.669713 0.669713 0.669713
0.674712 0.674712 0.674712
0.681368 0.681368 0.681368
0.702112 0.702112 0.702112
0.739112 0.739112 0.739112
0.791673 0.791673 0.791673
0.851995 0.851995 0.851995
0.856785 0.856785 0.856785
0.871900 0.871900 0.871900
0.899502 0.899502 0.899502
0.940000 0.940000 0.940000
