docs/luts/fuji_recipes/Acros_RR_Acros_Push_Process.cube
TITLE "Fujifilm Recipe: RR Acros Push Process (Acros)"
# FilmSim=Acros HL=4 SH=3 Col=0 WB=Auto WBR=0 WBB=0
LUT_3D_SIZE 5
DOMAIN_MIN 0.0 0.0 0.0
DOMAIN_MAX 1.0 1.0 1.0
0.000000 0.000000 0.000000
0.139545 0.139545 0.139545
0.293597 0.293597 0.293597
0.438627 0.438627 0.438627
0.438627 0.438627 0.438627
0.263171 0.263171 0.263171
0.298857 0.298857 0.298857
0.388465 0.388465 0.388465
0.581970 0.581970 0.581970
0.581970 0.581970 0.581970
0.603552 0.603552 0.603552
0.625116 0.625116 0.625116
0.689151 0.689151 0.689151
0.787196 0.787196 0.787196
0.787196 0.787196 0.787196
0.920478 0.920478 0.920478
0.933775 0.933775 0.933775
0.974944 0.974944 0.974944
1.000000 1.000000 1.000000
1.000000 1.000000 1.000000
0.920478 0.920478 0.920478
0.933775 0.933775 0.933775
0.974944 0.974944 0.974944
1.000000 1.000000 1.000000
1.000000 1.000000 1.000000
0.071440 0.071440 0.071440
0.163893 0.163893 0.163893
0.304840 0.304840 0.304840
0.507342 0.507342 0.507342
0.507342 0.507342 0.507342
0.275910 0.275910 0.275910
0.309871 0.309871 0.309871
0.396526 0.396526 0.396526
0.589698 0.589698 0.589698
0.589698 0.589698 0.589698
0.610972 0.610972 0.610972
0.632250 0.632250 0.632250
0.695536 0.695536 0.695536
0.792667 0.792667 0.792667
0.792667 0.792667 0.792667
0.925020 0.925020 0.925020
0.938238 0.938238 0.938238
0.979180 0.979180 0.979180
1.000000 1.000000 1.000000
1.000000 1.000000 1.000000
0.925020 0.925020 0.925020
0.938238 0.938238 0.938238
0.979180 0.979180 0.979180
1.000000 1.000000 1.000000
1.000000 1.000000 1.000000
0.169670 0.169670 0.169670
0.223623 0.223623 0.223623
0.337905 0.337905 0.337905
0.535545 0.535545 0.535545
0.535545 0.535545 0.535545
0.312685 0.312685 0.312685
0.342351 0.342351 0.342351
0.421093 0.421093 0.421093
0.613743 0.613743 0.613743
0.613743 0.613743 0.613743
0.634108 0.634108 0.634108
0.654533 0.654533 0.654533
0.715570 0.715570 0.715570
0.809919 0.809919 0.809919
0.809919 0.809919 0.809919
0.939406 0.939406 0.939406
0.952383 0.952383 0.952383
0.992618 0.992618 0.992618
1.000000 1.000000 1.000000
1.000000 1.000000 1.000000
0.939406 0.939406 0.939406
0.952383 0.952383 0.952383
0.992618 0.992618 0.992618
1.000000 1.000000 1.000000
1.000000 1.000000 1.000000
0.262146 0.262146 0.262146
0.297977 0.297977 0.297977
0.387828 0.387828 0.387828
0.581363 0.581363 0.581363
0.581363 0.581363 0.581363
0.366814 0.366814 0.366814
0.391586 0.391586 0.391586
0.526719 0.526719 0.526719
0.653483 0.653483 0.653483
0.653483 0.653483 0.653483
0.672481 0.672481 0.672481
0.691612 0.691612 0.691612
0.749184 0.749184 0.749184
0.839142 0.839142 0.839142
0.839142 0.839142 0.839142
0.963993 0.963993 0.963993
0.976574 0.976574 0.976574
1.000000 1.000000 1.000000
1.000000 1.000000 1.000000
1.000000 1.000000 1.000000
0.963993 0.963993 0.963993
0.976574 0.976574 0.976574
1.000000 1.000000 1.000000
1.000000 1.000000 1.000000
1.000000 1.000000 1.000000
0.262146 0.262146 0.262146
0.297977 0.297977 0.297977
0.387828 0.387828 0.387828
0.581363 0.581363 0.581363
0.581363 0.581363 0.581363
0.366814 0.366814 0.366814
0.391586 0.391586 0.391586
0.526719 0.526719 0.526719
0.653483 0.653483 0.653483
0.653483 0.653483 0.653483
0.672481 0.672481 0.672481
0.691612 0.691612 0.691612
0.749184 0.749184 0.749184
0.839142 0.839142 0.839142
0.839142 0.839142 0.839142
0.963993 0.963993 0.963993
0.976574 0.976574 0.976574
1.000000 1.000000 1.000000
1.000000 1.000000 1.000000
1.000000 1.000000 1.000000
0.963993 0.963993 0.963993
0.976574 0.976574 0.976574
1.000000 1.000000 1.000000
1.000000 1.000000 1.000000
1.000000 1.000000 1.000000
