docs/luts/fuji_recipes/Acros_RR_Ilford_HP-5_.cube
TITLE "Fujifilm Recipe: RR Ilford HP-5+ (Acros)"
# FilmSim=Acros HL=4 SH=2 Col=0 WB=Auto WBR=0 WBB=0
LUT_3D_SIZE 9
DOMAIN_MIN 0.0 0.0 0.0
DOMAIN_MAX 1.0 1.0 1.0
0.000000 0.000000 0.000000
0.036263 0.036263 0.036263
0.096599 0.096599 0.096599
0.156927 0.156927 0.156927
0.217254 0.217254 0.217254
0.277582 0.277582 0.277582
0.337910 0.337910 0.337910
0.398237 0.398237 0.398237
0.458565 0.458565 0.458565
0.093414 0.093414 0.093414
0.109909 0.109909 0.109909
0.143778 0.143778 0.143778
0.189300 0.189300 0.189300
0.240942 0.240942 0.240942
0.295809 0.295809 0.295809
0.352481 0.352481 0.352481
0.410231 0.410231 0.410231
0.510926 0.510926 0.510926
0.193424 0.193424 0.193424
0.201749 0.201749 0.201749
0.221374 0.221374 0.221374
0.252148 0.252148 0.252148
0.291556 0.291556 0.291556
0.337022 0.337022 0.337022
0.386592 0.386592 0.386592
0.438943 0.438943 0.438943
0.541873 0.541873 0.541873
0.293434 0.293434 0.293434
0.298649 0.298649 0.298649
0.311455 0.311455 0.311455
0.332838 0.332838 0.332838
0.362183 0.362183 0.362183
0.398225 0.398225 0.398225
0.439573 0.439573 0.439573
0.531513 0.531513 0.531513
0.592670 0.592670 0.592670
0.393444 0.393444 0.393444
0.397110 0.397110 0.397110
0.406257 0.406257 0.406257
0.421961 0.421961 0.421961
0.444303 0.444303 0.444303
0.516175 0.516175 0.516175
0.558995 0.558995 0.558995
0.607601 0.607601 0.607601
0.660967 0.660967 0.660967
0.542180 0.542180 0.542180
0.545666 0.545666 0.545666
0.554430 0.554430 0.554430
0.569688 0.569688 0.569688
0.591823 0.591823 0.591823
0.620751 0.620751 0.620751
0.656050 0.656050 0.656050
0.697100 0.697100 0.697100
0.743195 0.743195 0.743195
0.668280 0.668280 0.668280
0.671035 0.671035 0.671035
0.677992 0.677992 0.677992
0.690197 0.690197 0.690197
0.708105 0.708105 0.708105
0.731847 0.731847 0.731847
0.761293 0.761293 0.761293
0.796126 0.796126 0.796126
0.835907 0.835907 0.835907
0.794379 0.794379 0.794379
0.796632 0.796632 0.796632
0.802333 0.802333 0.802333
0.812383 0.812383 0.812383
0.827233 0.827233 0.827233
0.847101 0.847101 0.847101
0.872012 0.872012 0.872012
0.901835 0.901835 0.901835
0.936323 0.936323 0.936323
0.920478 0.920478 0.920478
0.922368 0.922368 0.922368
0.927156 0.927156 0.927156
0.935620 0.935620 0.935620
0.948186 0.948186 0.948186
0.965102 0.965102 0.965102
0.986469 0.986469 0.986469
1.000000 1.000000 1.000000
1.000000 1.000000 1.000000
0.012315 0.012315 0.012315
0.047526 0.047526 0.047526
0.102318 0.102318 0.102318
0.160515 0.160515 0.160515
0.219779 0.219779 0.219779
0.279486 0.279486 0.279486
0.339415 0.339415 0.339415
0.399468 0.399468 0.399468
0.459597 0.459597 0.459597
0.099302 0.099302 0.099302
0.115000 0.115000 0.115000
0.147703 0.147703 0.147703
0.192239 0.192239 0.192239
0.243187 0.243187 0.243187
0.297576 0.297576 0.297576
0.353911 0.353911 0.353911
0.411418 0.411418 0.411418
0.512193 0.512193 0.512193
0.196295 0.196295 0.196295
0.204491 0.204491 0.204491
0.223845 0.223845 0.223845
0.254278 0.254278 0.254278
0.293353 0.293353 0.293353
0.338532 0.338532 0.338532
0.387869 0.387869 0.387869
0.440034 0.440034 0.440034
0.543060 0.543060 0.543060
0.295217 0.295217 0.295217
0.300395 0.300395 0.300395
0.313116 0.313116 0.313116
0.334372 0.334372 0.334372
0.363567 0.363567 0.363567
0.399456 0.399456 0.399456
0.440662 0.440662 0.440662
0.532726 0.532726 0.532726
0.593745 0.593745 0.593745
0.394693 0.394693 0.394693
0.398345 0.398345 0.398345
0.407458 0.407458 0.407458
0.423107 0.423107 0.423107
0.445377 0.445377 0.445377
0.517428 0.517428 0.517428
0.560142 0.560142 0.560142
0.608645 0.608645 0.608645
0.661917 0.661917 0.661917
0.543367 0.543367 0.543367
0.546845 0.546845 0.546845
0.555588 0.555588 0.555588
0.570811 0.570811 0.570811
0.592900 0.592900 0.592900
0.621770 0.621770 0.621770
0.657008 0.657008 0.657008
0.697993 0.697993 0.697993
0.744023 0.744023 0.744023
0.669217 0.669217 0.669217
0.671968 0.671968 0.671968
0.678914 0.678914 0.678914
0.691100 0.691100 0.691100
0.708982 0.708982 0.708982
0.732691 0.732691 0.732691
0.762098 0.762098 0.762098
0.796890 0.796890 0.796890
0.836628 0.836628 0.836628
0.795145 0.795145 0.795145
0.797396 0.797396 0.797396
0.803090 0.803090 0.803090
0.813129 0.813129 0.813129
0.827963 0.827963 0.827963
0.847811 0.847811 0.847811
0.872698 0.872698 0.872698
0.902494 0.902494 0.902494
0.936952 0.936952 0.936952
0.921121 0.921121 0.921121
0.923008 0.923008 0.923008
0.927792 0.927792 0.927792
0.936250 0.936250 0.936250
0.948806 0.948806 0.948806
0.965708 0.965708 0.965708
0.987060 0.987060 0.987060
1.000000 1.000000 1.000000
1.000000 1.000000 1.000000
0.043259 0.043259 0.043259
0.070150 0.070150 0.070150
0.115670 0.115670 0.115670
0.169285 0.169285 0.169285
0.226060 0.226060 0.226060
0.284266 0.284266 0.284266
0.343212 0.343212 0.343212
0.402581 0.402581 0.402581
0.502789 0.502789 0.502789
0.112994 0.112994 0.112994
0.127060 0.127060 0.127060
0.157233 0.157233 0.157233
0.199506 0.199506 0.199506
0.248795 0.248795 0.248795
0.302016 0.302016 0.302016
0.357520 0.357520 0.357520
0.414419 0.414419 0.414419
0.515401 0.515401 0.515401
0.203401 0.203401 0.203401
0.211289 0.211289 0.211289
0.230000 0.230000 0.230000
0.259608 0.259608 0.259608
0.297869 0.297869 0.297869
0.342341 0.342341 0.342341
0.391097 0.391097 0.391097
0.442795 0.442795 0.442795
0.546070 0.546070 0.546070
0.299700 0.299700 0.299700
0.304787 0.304787 0.304787
0.317297 0.317297 0.317297
0.338237 0.338237 0.338237
0.367060 0.367060 0.367060
0.402569 0.402569 0.402569
0.443418 0.443418 0.443418
0.535800 0.535800 0.535800
0.596470 0.596470 0.596470
0.397852 0.397852 0.397852
0.401469 0.401469 0.401469
0.410495 0.410495 0.410495
0.426006 0.426006 0.426006
0.448097 0.448097 0.448097
0.520601 0.520601 0.520601
0.563051 0.563051 0.563051
0.611296 0.611296 0.611296
0.664326 0.664326 0.664326
0.546375 0.546375 0.546375
0.549831 0.549831 0.549831
0.558522 0.558522 0.558522
0.573659 0.573659 0.573659
0.595629 0.595629 0.595629
0.624358 0.624358 0.624358
0.659437 0.659437 0.659437
0.700260 0.700260 0.700260
0.746127 0.746127 0.746127
0.671596 0.671596 0.671596
0.674336 0.674336 0.674336
0.681254 0.681254 0.681254
0.693392 0.693392 0.693392
0.711208 0.711208 0.711208
0.734833 0.734833 0.734833
0.764144 0.764144 0.764144
0.798830 0.798830 0.798830
0.838459 0.838459 0.838459
0.797091 0.797091 0.797091
0.799335 0.799335 0.799335
0.805013 0.805013 0.805013
0.815024 0.815024 0.815024
0.829818 0.829818 0.829818
0.849614 0.849614 0.849614
0.874439 0.874439 0.874439
0.904166 0.904166 0.904166
0.938551 0.938551 0.938551
0.922753 0.922753 0.922753
0.924636 0.924636 0.924636
0.929410 0.929410 0.929410
0.937850 0.937850 0.937850
0.950380 0.950380 0.950380
0.967249 0.967249 0.967249
0.988560 0.988560 0.988560
1.000000 1.000000 1.000000
1.000000 1.000000 1.000000
0.081726 0.081726 0.081726
0.100008 0.100008 0.100008
0.136330 0.136330 0.136330
0.183813 0.183813 0.183813
0.236791 0.236791 0.236791
0.292560 0.292560 0.292560
0.349857 0.349857 0.349857
0.408059 0.408059 0.408059
0.508611 0.508611 0.508611
0.134066 0.134066 0.134066
0.146106 0.146106 0.146106
0.172857 0.172857 0.172857
0.211779 0.211779 0.211779
0.258446 0.258446 0.258446
0.309747 0.309747 0.309747
0.363848 0.363848 0.363848
0.419706 0.419706 0.419706
0.521069 0.521069 0.521069
0.215425 0.215425 0.215425
0.222835 0.222835 0.222835
0.240530 0.240530 0.240530
0.268808 0.268808 0.268808
0.305725 0.305725 0.305725
0.349007 0.349007 0.349007
0.396773 0.396773 0.396773
0.447666 0.447666 0.447666
0.551392 0.551392 0.551392
0.307500 0.307500 0.307500
0.312435 0.312435 0.312435
0.324592 0.324592 0.324592
0.345000 0.345000 0.345000
0.373190 0.373190 0.373190
0.408047 0.408047 0.408047
0.448280 0.448280 0.448280
0.541233 0.541233 0.541233
0.601296 0.601296 0.601296
0.403410 0.403410 0.403410
0.406965 0.406965 0.406965
0.415844 0.415844 0.415844
0.431116 0.431116 0.431116
0.452896 0.452896 0.452896
0.526208 0.526208 0.526208
0.568196 0.568196 0.568196
0.615990 0.615990 0.615990
0.668598 0.668598 0.668598
0.551693 0.551693 0.551693
0.555113 0.555113 0.555113
0.563714 0.563714 0.563714
0.578699 0.578699 0.578699
0.600462 0.600462 0.600462
0.628941 0.628941 0.628941
0.663745 0.663745 0.663745
0.704280 0.704280 0.704280
0.749862 0.749862 0.749862
0.675815 0.675815 0.675815
0.678535 0.678535 0.678535
0.685404 0.685404 0.685404
0.697459 0.697459 0.697459
0.715157 0.715157 0.715157
0.738635 0.738635 0.738635
0.767776 0.767776 0.767776
0.802278 0.802278 0.802278
0.841714 0.841714 0.841714
0.800547 0.800547 0.800547
0.802780 0.802780 0.802780
0.808429 0.808429 0.808429
0.818390 0.818390 0.818390
0.833113 0.833113 0.833113
0.852818 0.852818 0.852818
0.877535 0.877535 0.877535
0.907140 0.907140 0.907140
0.941394 0.941394 0.941394
0.925654 0.925654 0.925654
0.927531 0.927531 0.927531
0.932287 0.932287 0.932287
0.940696 0.940696 0.940696
0.953181 0.953181 0.953181
0.969990 0.969990 0.969990
0.991229 0.991229 0.991229
1.000000 1.000000 1.000000
1.000000 1.000000 1.000000
0.120193 0.120193 0.120193
0.133508 0.133508 0.133508
0.162450 0.162450 0.162450
0.203557 0.203557 0.203557
0.251956 0.251956 0.251956
0.304536 0.304536 0.304536
0.359577 0.359577 0.359577
0.416134 0.416134 0.416134
0.517237 0.517237 0.517237
0.160569 0.160569 0.160569
0.170667 0.170667 0.170667
0.193833 0.193833 0.193833
0.228861 0.228861 0.228861
0.272222 0.272222 0.272222
0.320961 0.320961 0.320961
0.373124 0.373124 0.373124
0.427508 0.427508 0.427508
0.529474 0.529474 0.529474
0.232204 0.232204 0.232204
0.239023 0.239023 0.239023
0.255439 0.255439 0.255439
0.281992 0.281992 0.281992
0.317110 0.317110 0.317110
0.358754 0.358754 0.358754
0.405128 0.405128 0.405128
0.454872 0.454872 0.454872
0.559294 0.559294 0.559294
0.318809 0.318809 0.318809
0.323537 0.323537 0.323537
0.335210 0.335210 0.335210
0.354882 0.354882 0.354882
0.382187 0.382187 0.382187
0.416122 0.416122 0.416122
0.455475 0.455475 0.455475
0.549298 0.549298 0.549298
0.608476 0.608476 0.608476
0.411599 0.411599 0.411599
0.415067 0.415067 0.415067
0.423735 0.423735 0.423735
0.438665 0.438665 0.438665
0.460000 0.460000 0.460000
0.534523 0.534523 0.534523
0.575842 0.575842 0.575842
0.622979 0.622979 0.622979
0.674967 0.674967 0.674967
0.559591 0.559591 0.559591
0.562958 0.562958 0.562958
0.571427 0.571427 0.571427
0.586192 0.586192 0.586192
0.607654 0.607654 0.607654
0.635769 0.635769 0.635769
0.670168 0.670168 0.670168
0.710281 0.710281 0.710281
0.755442 0.755442 0.755442
0.682107 0.682107 0.682107
0.684798 0.684798 0.684798
0.691595 0.691595 0.691595
0.703527 0.703527 0.703527
0.721053 0.721053 0.721053
0.744314 0.744314 0.744314
0.773205 0.773205 0.773205
0.807433 0.807433 0.807433
0.846585 0.846585 0.846585
0.805715 0.805715 0.805715
0.807931 0.807931 0.807931
0.813538 0.813538 0.813538
0.823425 0.823425 0.823425
0.838043 0.838043 0.838043
0.857613 0.857613 0.857613
0.882169 0.882169 0.882169
0.911593 0.911593 0.911593
0.945653 0.945653 0.945653
0.930001 0.930001 0.930001
0.931866 0.931866 0.931866
0.936596 0.936596 0.936596
0.944958 0.944958 0.944958
0.957376 0.957376 0.957376
0.974097 0.974097 0.974097
0.995230 0.995230 0.995230
1.000000 1.000000 1.000000
1.000000 1.000000 1.000000
0.158660 0.158660 0.158660
0.168880 0.168880 0.168880
0.192280 0.192280 0.192280
0.227576 0.227576 0.227576
0.271172 0.271172 0.271172
0.320099 0.320099 0.320099
0.372407 0.372407 0.372407
0.426903 0.426903 0.426903
0.528821 0.528821 0.528821
0.190717 0.190717 0.190717
0.199168 0.199168 0.199168
0.219053 0.219053 0.219053
0.250153 0.250153 0.250153
0.289877 0.289877 0.289877
0.335613 0.335613 0.335613
0.385403 0.385403 0.385403
0.437929 0.437929 0.437929
0.540769 0.540769 0.540769
0.253173 0.253173 0.253173
0.259358 0.259358 0.259358
0.274371 0.274371 0.274371
0.298968 0.298968 0.298968
0.331968 0.331968 0.331968
0.371619 0.371619 0.371619
0.416252 0.416252 0.416252
0.505712 0.505712 0.505712
0.569937 0.569937 0.569937
0.333576 0.333576 0.333576
0.338055 0.338055 0.338055
0.349143 0.349143 0.349143
0.367913 0.367913 0.367913
0.394120 0.394120 0.394120
0.426892 0.426892 0.426892
0.506452 0.506452 0.506452
0.560153 0.560153 0.560153
0.618173 0.618173 0.618173
0.422512 0.422512 0.422512
0.425869 0.425869 0.425869
0.434269 0.434269 0.434269
0.448763 0.448763 0.448763
0.512010 0.512010 0.512010
0.545704 0.545704 0.545704
0.586149 0.586149 0.586149
0.632424 0.632424 0.632424
0.683594 0.683594 0.683594
0.570228 0.570228 0.570228
0.573524 0.573524 0.573524
0.581822 0.581822 0.581822
0.596299 0.596299 0.596299
0.617365 0.617365 0.617365
0.645000 0.645000 0.645000
0.678865 0.678865 0.678865
0.718418 0.718418 0.718418
0.763019 0.763019 0.763019
0.690630 0.690630 0.690630
0.693284 0.693284 0.693284
0.699985 0.699985 0.699985
0.711754 0.711754 0.711754
0.729050 0.729050 0.729050
0.752022 0.752022 0.752022
0.780578 0.780578 0.780578
0.814441 0.814441 0.814441
0.853211 0.853211 0.853211
0.812741 0.812741 0.812741
0.814934 0.814934 0.814934
0.820484 0.820484 0.820484
0.830273 0.830273 0.830273
0.844750 0.844750 0.844750
0.864138 0.864138 0.864138
0.888479 0.888479 0.888479
0.917660 0.917660 0.917660
0.951457 0.951457 0.951457
0.935923 0.935923 0.935923
0.937774 0.937774 0.937774
0.942468 0.942468 0.942468
0.950767 0.950767 0.950767
0.963094 0.963094 0.963094
0.979697 0.979697 0.979697
1.000000 1.000000 1.000000
1.000000 1.000000 1.000000
1.000000 1.000000 1.000000
0.197127 0.197127 0.197127
0.205286 0.205286 0.205286
0.224563 0.224563 0.224563
0.254898 0.254898 0.254898
0.293876 0.293876 0.293876
0.338973 0.338973 0.338973
0.388243 0.388243 0.388243
0.440353 0.440353 0.440353
0.543408 0.543408 0.543408
0.223252 0.223252 0.223252
0.230376 0.230376 0.230376
0.247456 0.247456 0.247456
0.274911 0.274911 0.274911
0.310977 0.310977 0.310977
0.353491 0.353491 0.353491
0.400608 0.400608 0.400608
0.450969 0.450969 0.450969
0.555010 0.555010 0.555010
0.277618 0.277618 0.277618
0.283181 0.283181 0.283181
0.296787 0.296787 0.296787
0.319354 0.319354 0.319354
0.350072 0.350072 0.350072
0.387494 0.387494 0.387494
0.430119 0.430119 0.430119
0.521011 0.521011 0.521011
0.583388 0.583388 0.583388
0.351579 0.351579 0.351579
0.355784 0.355784 0.355784
0.366221 0.366221 0.366221
0.383977 0.383977 0.383977
0.408926 0.408926 0.408926
0.440342 0.440342 0.440342
0.521727 0.521727 0.521727
0.573860 0.573860 0.573860
0.630470 0.630470 0.630470
0.436131 0.436131 0.436131
0.439359 0.439359 0.439359
0.447443 0.447443 0.447443
0.501791 0.501791 0.501791
0.527110 0.527110 0.527110
0.559805 0.559805 0.559805
0.599193 0.599193 0.599193
0.644412 0.644412 0.644412
0.694573 0.694573 0.694573
0.583671 0.583671 0.583671
0.586883 0.586883 0.586883
0.594972 0.594972 0.594972
0.609097 0.609097 0.609097
0.629680 0.629680 0.629680
0.656726 0.656726 0.656726
0.689932 0.689932 0.689932
0.728791 0.728791 0.728791
0.772694 0.772694 0.772694
0.701483 0.701483 0.701483
0.704089 0.704089 0.704089
0.710672 0.710672 0.710672
0.722239 0.722239 0.722239
0.739249 0.739249 0.739249
0.761862 0.761862 0.761862
0.790000 0.790000 0.790000
0.823405 0.823405 0.823405
0.861696 0.861696 0.861696
0.821727 0.821727 0.821727
0.823892 0.823892 0.823892
0.829371 0.829371 0.829371
0.839036 0.839036 0.839036
0.853336 0.853336 0.853336
0.872496 0.872496 0.872496
0.896564 0.896564 0.896564
0.925439 0.925439 0.925439
0.958904 0.958904 0.958904
0.943520 0.943520 0.943520
0.945353 0.945353 0.945353
0.950001 0.950001 0.950001
0.958222 0.958222 0.958222
0.970433 0.970433 0.970433
0.986886 0.986886 0.986886
1.000000 1.000000 1.000000
1.000000 1.000000 1.000000
1.000000 1.000000 1.000000
0.235594 0.235594 0.235594
0.242304 0.242304 0.242304
0.258479 0.258479 0.258479
0.284701 0.284701 0.284701
0.319467 0.319467 0.319467
0.360785 0.360785 0.360785
0.406876 0.406876 0.406876
0.456386 0.456386 0.456386
0.560958 0.560958 0.560958
0.257366 0.257366 0.257366
0.263436 0.263436 0.263436
0.278191 0.278191 0.278191
0.302422 0.302422 0.302422
0.335016 0.335016 0.335016
0.374278 0.374278 0.374278
0.418564 0.418564 0.418564
0.508254 0.508254 0.508254
0.572165 0.572165 0.572165
0.304840 0.304840 0.304840
0.309827 0.309827 0.309827
0.322102 0.322102 0.322102
0.342689 0.342689 0.342689
0.371092 0.371092 0.371092
0.406171 0.406171 0.406171
0.446613 0.446613 0.446613
0.539369 0.539369 0.539369
0.599638 0.599638 0.599638
0.372496 0.372496 0.372496
0.376416 0.376416 0.376416
0.386173 0.386173 0.386173
0.402854 0.402854 0.402854
0.426448 0.426448 0.426448
0.456375 0.456375 0.456375
0.540058 0.540058 0.540058
0.590405 0.590405 0.590405
0.645386 0.645386 0.645386
0.452352 0.452352 0.452352
0.455435 0.455435 0.455435
0.503995 0.503995 0.503995
0.520892 0.520892 0.520892
0.545241 0.545241 0.545241
0.576802 0.576802 0.576802
0.614974 0.614974 0.614974
0.658968 0.658968 0.658968
0.707948 0.707948 0.707948
0.599913 0.599913 0.599913
0.603028 0.603028 0.603028
0.610876 0.610876 0.610876
0.624595 0.624595 0.624595
0.644617 0.644617 0.644617
0.670976 0.670976 0.670976
0.703409 0.703409 0.703409
0.741450 0.741450 0.741450
0.784525 0.784525 0.784525
0.714708 0.714708 0.714708
0.717258 0.717258 0.717258
0.723701 0.723701 0.723701
0.735030 0.735030 0.735030
0.751702 0.751702 0.751702
0.773889 0.773889 0.773889
0.801530 0.801530 0.801530
0.834389 0.834389 0.834389
0.872106 0.872106 0.872106
0.832738 0.832738 0.832738
0.834868 0.834868 0.834868
0.840262 0.840262 0.840262
0.849780 0.849780 0.849780
0.863867 0.863867 0.863867
0.882754 0.882754 0.882754
0.906495 0.906495 0.906495
0.935000 0.935000 0.935000
0.968066 0.968066 0.968066
0.952861 0.952861 0.952861
0.954673 0.954673 0.954673
0.959266 0.959266 0.959266
0.967391 0.967391 0.967391
0.979464 0.979464 0.979464
0.995735 0.995735 0.995735
1.000000 1.000000 1.000000
1.000000 1.000000 1.000000
1.000000 1.000000 1.000000
0.274061 0.274061 0.274061
0.279709 0.279709 0.279709
0.293505 0.293505 0.293505
0.316353 0.316353 0.316353
0.347390 0.347390 0.347390
0.385130 0.385130 0.385130
0.428044 0.428044 0.428044
0.518714 0.518714 0.518714
0.581363 0.581363 0.581363
0.292548 0.292548 0.292548
0.297782 0.297782 0.297782
0.310630 0.310630 0.310630
0.332078 0.332078 0.332078
0.361497 0.361497 0.361497
0.397615 0.397615 0.397615
0.439034 0.439034 0.439034
0.530913 0.530913 0.530913
0.592139 0.592139 0.592139
0.334240 0.334240 0.334240
0.338709 0.338709 0.338709
0.349771 0.349771 0.349771
0.368503 0.368503 0.368503
0.394661 0.394661 0.394661
0.427382 0.427382 0.427382
0.507007 0.507007 0.507007
0.560649 0.560649 0.560649
0.618617 0.618617 0.618617
0.395963 0.395963 0.395963
0.399600 0.399600 0.399600
0.408678 0.408678 0.408678
0.424271 0.424271 0.424271
0.446469 0.446469 0.446469
0.518702 0.518702 0.518702
0.561309 0.561309 0.561309
0.609709 0.609709 0.609709
0.662883 0.662883 0.662883
0.513878 0.513878 0.513878
0.517574 0.517574 0.517574
0.526855 0.526855 0.526855
0.542974 0.542974 0.542974
0.566277 0.566277 0.566277
0.596601 0.596601 0.596601
0.633433 0.633433 0.633433
0.676062 0.676062 0.676062
0.723713 0.723713 0.723713
0.618882 0.618882 0.618882
0.621890 0.621890 0.621890
0.629472 0.629472 0.629472
0.642741 0.642741 0.642741
0.662138 0.662138 0.662138
0.687728 0.687728 0.687728
0.719289 0.719289 0.719289
0.756403 0.756403 0.756403
0.798533 0.798533 0.798533
0.730303 0.730303 0.730303
0.732789 0.732789 0.732789
0.739075 0.739075 0.739075
0.750133 0.750133 0.750133
0.766420 0.766420 0.766420
0.788120 0.788120 0.788120
0.815193 0.815193 0.815193
0.847424 0.847424 0.847424
0.884478 0.884478 0.884478
0.845803 0.845803 0.845803
0.847894 0.847894 0.847894
0.853190 0.853190 0.853190
0.862537 0.862537 0.862537
0.876379 0.876379 0.876379
0.894949 0.894949 0.894949
0.918311 0.918311 0.918311
0.946387 0.946387 0.946387
0.978987 0.978987 0.978987
0.963993 0.963993 0.963993
0.965779 0.965779 0.965779
0.970308 0.970308 0.970308
0.978322 0.978322 0.978322
0.990232 0.990232 0.990232
1.000000 1.000000 1.000000
1.000000 1.000000 1.000000
1.000000 1.000000 1.000000
1.000000 1.000000 1.000000
