docs/luts/fuji_recipes/AcrosG_BLP_Ilford_Delta_3200.cube
TITLE "Fujifilm Recipe: BLP Ilford Delta 3200 (AcrosG)"
# FilmSim=AcrosG HL=-2 SH=4 Col=0 WB=Auto WBR=0 WBB=0
LUT_3D_SIZE 33
DOMAIN_MIN 0.0 0.0 0.0
DOMAIN_MAX 1.0 1.0 1.0
0.000000 0.000000 0.000000
0.003863 0.003863 0.003863
0.008233 0.008233 0.008233
0.014500 0.014500 0.014500
0.022916 0.022916 0.022916
0.033650 0.033650 0.033650
0.045468 0.045468 0.045468
0.057281 0.057281 0.057281
0.069094 0.069094 0.069094
0.080906 0.080906 0.080906
0.092719 0.092719 0.092719
0.104532 0.104532 0.104532
0.116345 0.116345 0.116345
0.128158 0.128158 0.128158
0.139971 0.139971 0.139971
0.151784 0.151784 0.151784
0.163597 0.163597 0.163597
0.175409 0.175409 0.175409
0.187222 0.187222 0.187222
0.199035 0.199035 0.199035
0.210848 0.210848 0.210848
0.222661 0.222661 0.222661
0.234474 0.234474 0.234474
0.246287 0.246287 0.246287
0.258100 0.258100 0.258100
0.269912 0.269912 0.269912
0.281725 0.281725 0.281725
0.293538 0.293538 0.293538
0.305351 0.305351 0.305351
0.317164 0.317164 0.317164
0.328977 0.328977 0.328977
0.340790 0.340790 0.340790
0.352602 0.352602 0.352602
0.017176 0.017176 0.017176
0.021038 0.021038 0.021038
0.025409 0.025409 0.025409
0.031676 0.031676 0.031676
0.039700 0.039700 0.039700
0.048626 0.048626 0.048626
0.058206 0.058206 0.058206
0.068268 0.068268 0.068268
0.078685 0.078685 0.078685
0.089368 0.089368 0.089368
0.100254 0.100254 0.100254
0.111297 0.111297 0.111297
0.122462 0.122462 0.122462
0.133724 0.133724 0.133724
0.145065 0.145065 0.145065
0.156470 0.156470 0.156470
0.167926 0.167926 0.167926
0.179427 0.179427 0.179427
0.190963 0.190963 0.190963
0.202531 0.202531 0.202531
0.214124 0.214124 0.214124
0.225740 0.225740 0.225740
0.237375 0.237375 0.237375
0.249027 0.249027 0.249027
0.260694 0.260694 0.260694
0.272373 0.272373 0.272373
0.284064 0.284064 0.284064
0.295765 0.295765 0.295765
0.307474 0.307474 0.307474
0.319192 0.319192 0.319192
0.330916 0.330916 0.330916
0.342647 0.342647 0.342647
0.354384 0.354384 0.354384
0.036511 0.036511 0.036511
0.040040 0.040040 0.040040
0.043805 0.043805 0.043805
0.048847 0.048847 0.048847
0.055079 0.055079 0.055079
0.062323 0.062323 0.062323
0.070398 0.070398 0.070398
0.079143 0.079143 0.079143
0.088423 0.088423 0.088423
0.098128 0.098128 0.098128
0.108173 0.108173 0.108173
0.118491 0.118491 0.118491
0.129029 0.129029 0.129029
0.139746 0.139746 0.139746
0.150610 0.150610 0.150610
0.161595 0.161595 0.161595
0.172683 0.172683 0.172683
0.183855 0.183855 0.183855
0.195099 0.195099 0.195099
0.206405 0.206405 0.206405
0.217763 0.217763 0.217763
0.229166 0.229166 0.229166
0.240609 0.240609 0.240609
0.252086 0.252086 0.252086
0.263593 0.263593 0.263593
0.275126 0.275126 0.275126
0.286683 0.286683 0.286683
0.298260 0.298260 0.298260
0.309856 0.309856 0.309856
0.321468 0.321468 0.321468
0.333095 0.333095 0.333095
0.344735 0.344735 0.344735
0.356387 0.356387 0.356387
0.058508 0.058508 0.058508
0.061077 0.061077 0.061077
0.063884 0.063884 0.063884
0.067743 0.067743 0.067743
0.072652 0.072652 0.072652
0.078530 0.078530 0.078530
0.085269 0.085269 0.085269
0.092753 0.092753 0.092753
0.100871 0.100871 0.100871
0.109524 0.109524 0.109524
0.118624 0.118624 0.118624
0.128098 0.128098 0.128098
0.137884 0.137884 0.137884
0.147931 0.147931 0.147931
0.158198 0.158198 0.158198
0.168650 0.168650 0.168650
0.179260 0.179260 0.179260
0.190004 0.190004 0.190004
0.200862 0.200862 0.200862
0.211819 0.211819 0.211819
0.222861 0.222861 0.222861
0.233978 0.233978 0.233978
0.245159 0.245159 0.245159
0.256397 0.256397 0.256397
0.267685 0.267685 0.267685
0.279017 0.279017 0.279017
0.290388 0.290388 0.290388
0.301795 0.301795 0.301795
0.313232 0.313232 0.313232
0.324697 0.324697 0.324697
0.336188 0.336188 0.336188
0.347701 0.347701 0.347701
0.359234 0.359234 0.359234
0.080506 0.080506 0.080506
0.082485 0.082485 0.082485
0.084675 0.084675 0.084675
0.087728 0.087728 0.087728
0.091680 0.091680 0.091680
0.096503 0.096503 0.096503
0.102140 0.102140 0.102140
0.108520 0.108520 0.108520
0.115566 0.115566 0.115566
0.123200 0.123200 0.123200
0.131345 0.131345 0.131345
0.139936 0.139936 0.139936
0.148910 0.148910 0.148910
0.158216 0.158216 0.158216
0.167806 0.167806 0.167806
0.177642 0.177642 0.177642
0.187691 0.187691 0.187691
0.197923 0.197923 0.197923
0.208316 0.208316 0.208316
0.218848 0.218848 0.218848
0.229501 0.229501 0.229501
0.240262 0.240262 0.240262
0.251116 0.251116 0.251116
0.262054 0.262054 0.262054
0.273065 0.273065 0.273065
0.284141 0.284141 0.284141
0.295276 0.295276 0.295276
0.306463 0.306463 0.306463
0.317697 0.317697 0.317697
0.328973 0.328973 0.328973
0.340287 0.340287 0.340287
0.351635 0.351635 0.351635
0.363015 0.363015 0.363015
0.102503 0.102503 0.102503
0.104091 0.104091 0.104091
0.105859 0.105859 0.105859
0.108346 0.108346 0.108346
0.111599 0.111599 0.111599
0.115618 0.115618 0.115618
0.120378 0.120378 0.120378
0.125841 0.125841 0.125841
0.131956 0.131956 0.131956
0.138668 0.138668 0.138668
0.145920 0.145920 0.145920
0.153655 0.153655 0.153655
0.161821 0.161821 0.161821
0.170366 0.170366 0.170366
0.179248 0.179248 0.179248
0.188425 0.188425 0.188425
0.197864 0.197864 0.197864
0.207532 0.207532 0.207532
0.217402 0.217402 0.217402
0.227452 0.227452 0.227452
0.237660 0.237660 0.237660
0.248008 0.248008 0.248008
0.258481 0.258481 0.258481
0.269065 0.269065 0.269065
0.279748 0.279748 0.279748
0.290520 0.290520 0.290520
0.301372 0.301372 0.301372
0.312295 0.312295 0.312295
0.323283 0.323283 0.323283
0.334330 0.334330 0.334330
0.345429 0.345429 0.345429
0.356576 0.356576 0.356576
0.367767 0.367767 0.367767
0.124501 0.124501 0.124501
0.125812 0.125812 0.125812
0.127279 0.127279 0.127279
0.129353 0.129353 0.129353
0.132085 0.132085 0.132085
0.135488 0.135488 0.135488
0.139555 0.139555 0.139555
0.144269 0.144269 0.144269
0.149600 0.149600 0.149600
0.155512 0.155512 0.155512
0.161962 0.161962 0.161962
0.168909 0.168909 0.168909
0.176308 0.176308 0.176308
0.184117 0.184117 0.184117
0.192296 0.192296 0.192296
0.200808 0.200808 0.200808
0.209618 0.209618 0.209618
0.218696 0.218696 0.218696
0.228013 0.228013 0.228013
0.237544 0.237544 0.237544
0.247268 0.247268 0.247268
0.257164 0.257164 0.257164
0.267214 0.267214 0.267214
0.277403 0.277403 0.277403
0.287717 0.287717 0.287717
0.298144 0.298144 0.298144
0.308673 0.308673 0.308673
0.319294 0.319294 0.319294
0.329999 0.329999 0.329999
0.340779 0.340779 0.340779
0.351629 0.351629 0.351629
0.362541 0.362541 0.362541
0.373511 0.373511 0.373511
0.146498 0.146498 0.146498
0.147606 0.147606 0.147606
0.148850 0.148850 0.148850
0.150613 0.150613 0.150613
0.152948 0.152948 0.152948
0.155871 0.155871 0.155871
0.159388 0.159388 0.159388
0.163493 0.163493 0.163493
0.168171 0.168171 0.168171
0.173399 0.173399 0.173399
0.179149 0.179149 0.179149
0.185390 0.185390 0.185390
0.192088 0.192088 0.192088
0.199208 0.199208 0.199208
0.206717 0.206717 0.206717
0.214582 0.214582 0.214582
0.222772 0.222772 0.222772
0.231257 0.231257 0.231257
0.240011 0.240011 0.240011
0.249009 0.249009 0.249009
0.258227 0.258227 0.258227
0.267646 0.267646 0.267646
0.277246 0.277246 0.277246
0.287011 0.287011 0.287011
0.296926 0.296926 0.296926
0.306976 0.306976 0.306976
0.317151 0.317151 0.317151
0.327438 0.327438 0.327438
0.337828 0.337828 0.337828
0.348312 0.348312 0.348312
0.358882 0.358882 0.358882
0.369530 0.369530 0.369530
0.380251 0.380251 0.380251
0.168496 0.168496 0.168496
0.169449 0.169449 0.169449
0.170521 0.170521 0.170521
0.172045 0.172045 0.172045
0.174068 0.174068 0.174068
0.176612 0.176612 0.176612
0.179687 0.179687 0.179687
0.183295 0.183295 0.183295
0.187430 0.187430 0.187430
0.192080 0.192080 0.192080
0.197225 0.197225 0.197225
0.202845 0.202845 0.202845
0.208914 0.208914 0.208914
0.215405 0.215405 0.215405
0.222292 0.222292 0.222292
0.229546 0.229546 0.229546
0.237141 0.237141 0.237141
0.245050 0.245050 0.245050
0.253248 0.253248 0.253248
0.261712 0.261712 0.261712
0.270420 0.270420 0.270420
0.279352 0.279352 0.279352
0.288488 0.288488 0.288488
0.297812 0.297812 0.297812
0.307308 0.307308 0.307308
0.316961 0.316961 0.316961
0.326759 0.326759 0.326759
0.336688 0.336688 0.336688
0.346739 0.346739 0.346739
0.356902 0.356902 0.356902
0.367167 0.367167 0.367167
0.377527 0.377527 0.377527
0.387973 0.387973 0.387973
0.190493 0.190493 0.190493
0.191325 0.191325 0.191325
0.192262 0.192262 0.192262
0.193597 0.193597 0.193597
0.195372 0.195372 0.195372
0.197611 0.197611 0.197611
0.200327 0.200327 0.200327
0.203526 0.203526 0.203526
0.207208 0.207208 0.207208
0.211368 0.211368 0.211368
0.215994 0.215994 0.215994
0.221072 0.221072 0.221072
0.226583 0.226583 0.226583
0.232509 0.232509 0.232509
0.238828 0.238828 0.238828
0.245516 0.245516 0.245516
0.252552 0.252552 0.252552
0.259912 0.259912 0.259912
0.267575 0.267575 0.267575
0.275519 0.275519 0.275519
0.283724 0.283724 0.283724
0.292171 0.292171 0.292171
0.300841 0.300841 0.300841
0.309718 0.309718 0.309718
0.318785 0.318785 0.318785
0.328029 0.328029 0.328029
0.337435 0.337435 0.337435
0.346991 0.346991 0.346991
0.356686 0.356686 0.356686
0.366509 0.366509 0.366509
0.376451 0.376451 0.376451
0.386503 0.386503 0.386503
0.396655 0.396655 0.396655
0.212491 0.212491 0.212491
0.213226 0.213226 0.213226
0.214054 0.214054 0.214054
0.215236 0.215236 0.215236
0.216811 0.216811 0.216811
0.218801 0.218801 0.218801
0.221221 0.221221 0.221221
0.224080 0.224080 0.224080
0.227382 0.227382 0.227382
0.231126 0.231126 0.231126
0.235305 0.235305 0.235305
0.239912 0.239912 0.239912
0.244933 0.244933 0.244933
0.250354 0.250354 0.250354
0.256159 0.256159 0.256159
0.262330 0.262330 0.262330
0.268849 0.268849 0.268849
0.275695 0.275695 0.275695
0.282851 0.282851 0.282851
0.290298 0.290298 0.290298
0.298017 0.298017 0.298017
0.305990 0.305990 0.305990
0.314201 0.314201 0.314201
0.322633 0.322633 0.322633
0.331271 0.331271 0.331271
0.340101 0.340101 0.340101
0.349110 0.349110 0.349110
0.358284 0.358284 0.358284
0.367613 0.367613 0.367613
0.377084 0.377084 0.377084
0.386689 0.386689 0.386689
0.396418 0.396418 0.396418
0.406263 0.406263 0.406263
0.234488 0.234488 0.234488
0.235144 0.235144 0.235144
0.235884 0.235884 0.235884
0.236940 0.236940 0.236940
0.238350 0.238350 0.238350
0.240134 0.240134 0.240134
0.242308 0.242308 0.242308
0.244882 0.244882 0.244882
0.247862 0.247862 0.247862
0.251251 0.251251 0.251251
0.255046 0.255046 0.255046
0.259243 0.259243 0.259243
0.263833 0.263833 0.263833
0.268806 0.268806 0.268806
0.274150 0.274150 0.274150
0.279852 0.279852 0.279852
0.285896 0.285896 0.285896
0.292267 0.292267 0.292267
0.298949 0.298949 0.298949
0.305926 0.305926 0.305926
0.313181 0.313181 0.313181
0.320699 0.320699 0.320699
0.328464 0.328464 0.328464
0.336462 0.336462 0.336462
0.344677 0.344677 0.344677
0.353097 0.353097 0.353097
0.361708 0.361708 0.361708
0.370498 0.370498 0.370498
0.379456 0.379456 0.379456
0.388570 0.388570 0.388570
0.397831 0.397831 0.397831
0.407228 0.407228 0.407228
0.416754 0.416754 0.416754
0.256486 0.256486 0.256486
0.257076 0.257076 0.257076
0.257742 0.257742 0.257742
0.258694 0.258694 0.258694
0.259966 0.259966 0.259966
0.261577 0.261577 0.261577
0.263543 0.263543 0.263543
0.265876 0.265876 0.265876
0.268583 0.268583 0.268583
0.271667 0.271667 0.271667
0.275130 0.275130 0.275130
0.278969 0.278969 0.278969
0.283180 0.283180 0.283180
0.287756 0.287756 0.287756
0.292689 0.292689 0.292689
0.297966 0.297966 0.297966
0.303579 0.303579 0.303579
0.309512 0.309512 0.309512
0.315755 0.315755 0.315755
0.322292 0.322292 0.322292
0.329110 0.329110 0.329110
0.336195 0.336195 0.336195
0.343533 0.343533 0.343533
0.351111 0.351111 0.351111
0.358916 0.358916 0.358916
0.366934 0.366934 0.366934
0.375154 0.375154 0.375154
0.383563 0.383563 0.383563
0.392151 0.392151 0.392151
0.400906 0.400906 0.400906
0.409820 0.409820 0.409820
0.418881 0.418881 0.418881
0.508467 0.508467 0.508467
0.278483 0.278483 0.278483
0.279018 0.279018 0.279018
0.279623 0.279623 0.279623
0.280487 0.280487 0.280487
0.281641 0.281641 0.281641
0.283106 0.283106 0.283106
0.284896 0.284896 0.284896
0.287023 0.287023 0.287023
0.289494 0.289494 0.289494
0.292316 0.292316 0.292316
0.295490 0.295490 0.295490
0.299017 0.299017 0.299017
0.302894 0.302894 0.302894
0.307118 0.307118 0.307118
0.311682 0.311682 0.311682
0.316578 0.316578 0.316578
0.321798 0.321798 0.321798
0.327332 0.327332 0.327332
0.333170 0.333170 0.333170
0.339299 0.339299 0.339299
0.345708 0.345708 0.345708
0.352385 0.352385 0.352385
0.359318 0.359318 0.359318
0.366495 0.366495 0.366495
0.373904 0.373904 0.373904
0.381533 0.381533 0.381533
0.389371 0.389371 0.389371
0.397407 0.397407 0.397407
0.405630 0.405630 0.405630
0.414031 0.414031 0.414031
0.502722 0.502722 0.502722
0.511862 0.511862 0.511862
0.521159 0.521159 0.521159
0.300481 0.300481 0.300481
0.300969 0.300969 0.300969
0.301521 0.301521 0.301521
0.302309 0.302309 0.302309
0.303365 0.303365 0.303365
0.304704 0.304704 0.304704
0.306343 0.306343 0.306343
0.308292 0.308292 0.308292
0.310560 0.310560 0.310560
0.313153 0.313153 0.313153
0.316075 0.316075 0.316075
0.319328 0.319328 0.319328
0.322910 0.322910 0.322910
0.326821 0.326821 0.326821
0.331056 0.331056 0.331056
0.335609 0.335609 0.335609
0.340474 0.340474 0.340474
0.345643 0.345643 0.345643
0.351109 0.351109 0.351109
0.356860 0.356860 0.356860
0.362889 0.362889 0.362889
0.369184 0.369184 0.369184
0.375735 0.375735 0.375735
0.382532 0.382532 0.382532
0.389563 0.389563 0.389563
0.396819 0.396819 0.396819
0.404289 0.404289 0.404289
0.411962 0.411962 0.411962
0.419830 0.419830 0.419830
0.508256 0.508256 0.508256
0.516874 0.516874 0.516874
0.525666 0.525666 0.525666
0.534622 0.534622 0.534622
0.322478 0.322478 0.322478
0.322926 0.322926 0.322926
0.323433 0.323433 0.323433
0.324157 0.324157 0.324157
0.325126 0.325126 0.325126
0.326358 0.326358 0.326358
0.327865 0.327865 0.327865
0.329660 0.329660 0.329660
0.331751 0.331751 0.331751
0.334144 0.334144 0.334144
0.336845 0.336845 0.336845
0.339856 0.339856 0.339856
0.343177 0.343177 0.343177
0.346809 0.346809 0.346809
0.350749 0.350749 0.350749
0.354993 0.354993 0.354993
0.359537 0.359537 0.359537
0.364374 0.364374 0.364374
0.369499 0.369499 0.369499
0.374903 0.374903 0.374903
0.380579 0.380579 0.380579
0.386518 0.386518 0.386518
0.392711 0.392711 0.392711
0.399149 0.399149 0.399149
0.405823 0.405823 0.405823
0.412722 0.412722 0.412722
0.419839 0.419839 0.419839
0.507504 0.507504 0.507504
0.515385 0.515385 0.515385
0.523464 0.523464 0.523464
0.531732 0.531732 0.531732
0.540181 0.540181 0.540181
0.548802 0.548802 0.548802
0.344476 0.344476 0.344476
0.344889 0.344889 0.344889
0.345356 0.345356 0.345356
0.346024 0.346024 0.346024
0.346919 0.346919 0.346919
0.348056 0.348056 0.348056
0.349450 0.349450 0.349450
0.351109 0.351109 0.351109
0.353045 0.353045 0.353045
0.355263 0.355263 0.355263
0.357768 0.357768 0.357768
0.360565 0.360565 0.360565
0.363654 0.363654 0.363654
0.367037 0.367037 0.367037
0.370712 0.370712 0.370712
0.374678 0.374678 0.374678
0.378931 0.378931 0.378931
0.383466 0.383466 0.383466
0.388279 0.388279 0.388279
0.393364 0.393364 0.393364
0.398714 0.398714 0.398714
0.404322 0.404322 0.404322
0.410180 0.410180 0.410180
0.416281 0.416281 0.416281
0.502741 0.502741 0.502741
0.509616 0.509616 0.509616
0.516719 0.516719 0.516719
0.524041 0.524041 0.524041
0.531574 0.531574 0.531574
0.539310 0.539310 0.539310
0.547239 0.547239 0.547239
0.555353 0.555353 0.555353
0.563645 0.563645 0.563645
0.366473 0.366473 0.366473
0.366856 0.366856 0.366856
0.367289 0.367289 0.367289
0.367908 0.367908 0.367908
0.368737 0.368737 0.368737
0.369792 0.369792 0.369792
0.371085 0.371085 0.371085
0.372626 0.372626 0.372626
0.374424 0.374424 0.374424
0.376487 0.376487 0.376487
0.378819 0.378819 0.378819
0.381425 0.381425 0.381425
0.384308 0.384308 0.384308
0.387467 0.387467 0.387467
0.390905 0.390905 0.390905
0.394619 0.394619 0.394619
0.398608 0.398608 0.398608
0.402868 0.402868 0.402868
0.407396 0.407396 0.407396
0.412187 0.412187 0.412187
0.417236 0.417236 0.417236
0.502658 0.502658 0.502658
0.508469 0.508469 0.508469
0.514530 0.514530 0.514530
0.520835 0.520835 0.520835
0.527375 0.527375 0.527375
0.534143 0.534143 0.534143
0.541131 0.541131 0.541131
0.548332 0.548332 0.548332
0.555737 0.555737 0.555737
0.563338 0.563338 0.563338
0.571129 0.571129 0.571129
0.579101 0.579101 0.579101
0.388471 0.388471 0.388471
0.388827 0.388827 0.388827
0.389229 0.389229 0.389229
0.389805 0.389805 0.389805
0.390577 0.390577 0.390577
0.391559 0.391559 0.391559
0.392763 0.392763 0.392763
0.394199 0.394199 0.394199
0.395876 0.395876 0.395876
0.397800 0.397800 0.397800
0.399978 0.399978 0.399978
0.402414 0.402414 0.402414
0.405111 0.405111 0.405111
0.408070 0.408070 0.408070
0.411293 0.411293 0.411293
0.414780 0.414780 0.414780
0.418529 0.418529 0.418529
0.502659 0.502659 0.502659
0.507130 0.507130 0.507130
0.511866 0.511866 0.511866
0.516865 0.516865 0.516865
0.522120 0.522120 0.522120
0.527627 0.527627 0.527627
0.533380 0.533380 0.533380
0.539373 0.539373 0.539373
0.545598 0.545598 0.545598
0.552050 0.552050 0.552050
0.558721 0.558721 0.558721
0.565604 0.565604 0.565604
0.572693 0.572693 0.572693
0.579980 0.579980 0.579980
0.587458 0.587458 0.587458
0.595121 0.595121 0.595121
0.410468 0.410468 0.410468
0.410800 0.410800 0.410800
0.411176 0.411176 0.411176
0.411714 0.411714 0.411714
0.412435 0.412435 0.412435
0.413352 0.413352 0.413352
0.414477 0.414477 0.414477
0.415819 0.415819 0.415819
0.417388 0.417388 0.417388
0.419189 0.419189 0.419189
0.501288 0.501288 0.501288
0.503679 0.503679 0.503679
0.506329 0.506329 0.506329
0.509241 0.509241 0.509241
0.512414 0.512414 0.512414
0.515851 0.515851 0.515851
0.519550 0.519550 0.519550
0.523510 0.523510 0.523510
0.527730 0.527730 0.527730
0.532207 0.532207 0.532207
0.536937 0.536937 0.536937
0.541917 0.541917 0.541917
0.547142 0.547142 0.547142
0.552607 0.552607 0.552607
0.558307 0.558307 0.558307
0.564237 0.564237 0.564237
0.570390 0.570390 0.570390
0.576761 0.576761 0.576761
0.583343 0.583343 0.583343
0.590130 0.590130 0.590130
0.597116 0.597116 0.597116
0.604294 0.604294 0.604294
0.611658 0.611658 0.611658
0.513059 0.513059 0.513059
0.513385 0.513385 0.513385
0.513754 0.513754 0.513754
0.514281 0.514281 0.514281
0.514989 0.514989 0.514989
0.515889 0.515889 0.515889
0.516994 0.516994 0.516994
0.518312 0.518312 0.518312
0.519854 0.519854 0.519854
0.521625 0.521625 0.521625
0.523632 0.523632 0.523632
0.525880 0.525880 0.525880
0.528372 0.528372 0.528372
0.531112 0.531112 0.531112
0.534101 0.534101 0.534101
0.537341 0.537341 0.537341
0.540832 0.540832 0.540832
0.544574 0.544574 0.544574
0.548564 0.548564 0.548564
0.552802 0.552802 0.552802
0.557285 0.557285 0.557285
0.562009 0.562009 0.562009
0.566972 0.566972 0.566972
0.572169 0.572169 0.572169
0.577595 0.577595 0.577595
0.583247 0.583247 0.583247
0.589120 0.589120 0.589120
0.595207 0.595207 0.595207
0.601503 0.601503 0.601503
0.608003 0.608003 0.608003
0.614702 0.614702 0.614702
0.621593 0.621593 0.621593
0.628670 0.628670 0.628670
0.536104 0.536104 0.536104
0.536410 0.536410 0.536410
0.536756 0.536756 0.536756
0.537252 0.537252 0.537252
0.537916 0.537916 0.537916
0.538762 0.538762 0.538762
0.539801 0.539801 0.539801
0.541041 0.541041 0.541041
0.542491 0.542491 0.542491
0.544157 0.544157 0.544157
0.546047 0.546047 0.546047
0.548165 0.548165 0.548165
0.550514 0.550514 0.550514
0.553099 0.553099 0.553099
0.555920 0.555920 0.555920
0.558981 0.558981 0.558981
0.562282 0.562282 0.562282
0.565822 0.565822 0.565822
0.569602 0.569602 0.569602
0.573620 0.573620 0.573620
0.577874 0.577874 0.577874
0.582362 0.582362 0.582362
0.587081 0.587081 0.587081
0.592028 0.592028 0.592028
0.597200 0.597200 0.597200
0.602592 0.602592 0.602592
0.608199 0.608199 0.608199
0.614019 0.614019 0.614019
0.620045 0.620045 0.620045
0.626273 0.626273 0.626273
0.632698 0.632698 0.632698
0.639314 0.639314 0.639314
0.646117 0.646117 0.646117
0.559149 0.559149 0.559149
0.559437 0.559437 0.559437
0.559763 0.559763 0.559763
0.560230 0.560230 0.560230
0.560856 0.560856 0.560856
0.561653 0.561653 0.561653
0.562631 0.562631 0.562631
0.563800 0.563800 0.563800
0.565168 0.565168 0.565168
0.566740 0.566740 0.566740
0.568523 0.568523 0.568523
0.570523 0.570523 0.570523
0.572742 0.572742 0.572742
0.575185 0.575185 0.575185
0.577854 0.577854 0.577854
0.580752 0.580752 0.580752
0.583878 0.583878 0.583878
0.587234 0.587234 0.587234
0.590820 0.590820 0.590820
0.594635 0.594635 0.594635
0.598678 0.598678 0.598678
0.602946 0.602946 0.602946
0.607439 0.607439 0.607439
0.612154 0.612154 0.612154
0.617087 0.617087 0.617087
0.622235 0.622235 0.622235
0.627594 0.627594 0.627594
0.633162 0.633162 0.633162
0.638932 0.638932 0.638932
0.644903 0.644903 0.644903
0.651067 0.651067 0.651067
0.657423 0.657423 0.657423
0.663963 0.663963 0.663963
0.582194 0.582194 0.582194
0.582466 0.582466 0.582466
0.582774 0.582774 0.582774
0.583215 0.583215 0.583215
0.583806 0.583806 0.583806
0.584558 0.584558 0.584558
0.585483 0.585483 0.585483
0.586587 0.586587 0.586587
0.587879 0.587879 0.587879
0.589366 0.589366 0.589366
0.591052 0.591052 0.591052
0.592944 0.592944 0.592944
0.595045 0.595045 0.595045
0.597359 0.597359 0.597359
0.599889 0.599889 0.599889
0.602636 0.602636 0.602636
0.605603 0.605603 0.605603
0.608789 0.608789 0.608789
0.612196 0.612196 0.612196
0.615824 0.615824 0.615824
0.619671 0.619671 0.619671
0.623737 0.623737 0.623737
0.628019 0.628019 0.628019
0.632517 0.632517 0.632517
0.637227 0.637227 0.637227
0.642146 0.642146 0.642146
0.647273 0.647273 0.647273
0.652603 0.652603 0.652603
0.658133 0.658133 0.658133
0.663859 0.663859 0.663859
0.669777 0.669777 0.669777
0.675883 0.675883 0.675883
0.682174 0.682174 0.682174
0.605239 0.605239 0.605239
0.605496 0.605496 0.605496
0.605788 0.605788 0.605788
0.606205 0.606205 0.606205
0.606764 0.606764 0.606764
0.607476 0.607476 0.607476
0.608351 0.608351 0.608351
0.609397 0.609397 0.609397
0.610621 0.610621 0.610621
0.612029 0.612029 0.612029
0.613628 0.613628 0.613628
0.615421 0.615421 0.615421
0.617414 0.617414 0.617414
0.619610 0.619610 0.619610
0.622012 0.622012 0.622012
0.624621 0.624621 0.624621
0.627441 0.627441 0.627441
0.630471 0.630471 0.630471
0.633714 0.633714 0.633714
0.637168 0.637168 0.637168
0.640834 0.640834 0.640834
0.644711 0.644711 0.644711
0.648797 0.648797 0.648797
0.653093 0.653093 0.653093
0.657594 0.657594 0.657594
0.662300 0.662300 0.662300
0.667208 0.667208 0.667208
0.672314 0.672314 0.672314
0.677617 0.677617 0.677617
0.683112 0.683112 0.683112
0.688796 0.688796 0.688796
0.694667 0.694667 0.694667
0.700719 0.700719 0.700719
0.628284 0.628284 0.628284
0.628528 0.628528 0.628528
0.628804 0.628804 0.628804
0.629200 0.629200 0.629200
0.629730 0.629730 0.629730
0.630406 0.630406 0.630406
0.631236 0.631236 0.631236
0.632228 0.632228 0.632228
0.633389 0.633389 0.633389
0.634726 0.634726 0.634726
0.636244 0.636244 0.636244
0.637948 0.637948 0.637948
0.639841 0.639841 0.639841
0.641929 0.641929 0.641929
0.644212 0.644212 0.644212
0.646695 0.646695 0.646695
0.649379 0.649379 0.649379
0.652266 0.652266 0.652266
0.655355 0.655355 0.655355
0.658649 0.658649 0.658649
0.662147 0.662147 0.662147
0.665849 0.665849 0.665849
0.669753 0.669753 0.669753
0.673859 0.673859 0.673859
0.678166 0.678166 0.678166
0.682672 0.682672 0.682672
0.687374 0.687374 0.687374
0.692270 0.692270 0.692270
0.697358 0.697358 0.697358
0.702635 0.702635 0.702635
0.708098 0.708098 0.708098
0.713744 0.713744 0.713744
0.719570 0.719570 0.719570
0.651329 0.651329 0.651329
0.651561 0.651561 0.651561
0.651823 0.651823 0.651823
0.652199 0.652199 0.652199
0.652703 0.652703 0.652703
0.653345 0.653345 0.653345
0.654134 0.654134 0.654134
0.655077 0.655077 0.655077
0.656181 0.656181 0.656181
0.657452 0.657452 0.657452
0.658896 0.658896 0.658896
0.660517 0.660517 0.660517
0.662320 0.662320 0.662320
0.664307 0.664307 0.664307
0.666482 0.666482 0.666482
0.668848 0.668848 0.668848
0.671407 0.671407 0.671407
0.674160 0.674160 0.674160
0.677109 0.677109 0.677109
0.680254 0.680254 0.680254
0.683595 0.683595 0.683595
0.687134 0.687134 0.687134
0.690868 0.690868 0.690868
0.694798 0.694798 0.694798
