docs/luts/fuji_recipes/AcrosY_KM_Night.cube
TITLE "Fujifilm Recipe: KM Night (AcrosY)"
# FilmSim=AcrosY HL=0 SH=1 Col=0 WB=Auto WBR=0 WBB=0
LUT_3D_SIZE 33
DOMAIN_MIN 0.0 0.0 0.0
DOMAIN_MAX 1.0 1.0 1.0
0.000000 0.000000 0.000000
0.006888 0.006888 0.006888
0.014683 0.014683 0.014683
0.025859 0.025859 0.025859
0.040803 0.040803 0.040803
0.057053 0.057053 0.057053
0.073304 0.073304 0.073304
0.089554 0.089554 0.089554
0.105805 0.105805 0.105805
0.122055 0.122055 0.122055
0.138305 0.138305 0.138305
0.154556 0.154556 0.154556
0.170806 0.170806 0.170806
0.187057 0.187057 0.187057
0.203307 0.203307 0.203307
0.219558 0.219558 0.219558
0.235808 0.235808 0.235808
0.252059 0.252059 0.252059
0.268309 0.268309 0.268309
0.284560 0.284560 0.284560
0.300810 0.300810 0.300810
0.317061 0.317061 0.317061
0.333311 0.333311 0.333311
0.349562 0.349562 0.349562
0.365812 0.365812 0.365812
0.382062 0.382062 0.382062
0.398313 0.398313 0.398313
0.414563 0.414563 0.414563
0.430814 0.430814 0.430814
0.447064 0.447064 0.447064
0.463315 0.463315 0.463315
0.479565 0.479565 0.479565
0.516475 0.516475 0.516475
0.022314 0.022314 0.022314
0.029202 0.029202 0.029202
0.036997 0.036997 0.036997
0.047443 0.047443 0.047443
0.059435 0.059435 0.059435
0.072521 0.072521 0.072521
0.086373 0.086373 0.086373
0.100770 0.100770 0.100770
0.115559 0.115559 0.115559
0.130637 0.130637 0.130637
0.145931 0.145931 0.145931
0.161391 0.161391 0.161391
0.176979 0.176979 0.176979
0.192668 0.192668 0.192668
0.208439 0.208439 0.208439
0.224275 0.224275 0.224275
0.240164 0.240164 0.240164
0.256098 0.256098 0.256098
0.272070 0.272070 0.272070
0.288072 0.288072 0.288072
0.304101 0.304101 0.304101
0.320153 0.320153 0.320153
0.336225 0.336225 0.336225
0.352313 0.352313 0.352313
0.368416 0.368416 0.368416
0.384532 0.384532 0.384532
0.400660 0.400660 0.400660
0.416798 0.416798 0.416798
0.432944 0.432944 0.432944
0.449099 0.449099 0.449099
0.465261 0.465261 0.465261
0.501488 0.501488 0.501488
0.518336 0.518336 0.518336
0.046913 0.046913 0.046913
0.052693 0.052693 0.052693
0.058741 0.058741 0.058741
0.066685 0.066685 0.066685
0.076313 0.076313 0.076313
0.087297 0.087297 0.087297
0.099345 0.099345 0.099345
0.112216 0.112216 0.112216
0.125720 0.125720 0.125720
0.139715 0.139715 0.139715
0.154094 0.154094 0.154094
0.168774 0.168774 0.168774
0.183695 0.183695 0.183695
0.198809 0.198809 0.198809
0.214080 0.214080 0.214080
0.229480 0.229480 0.229480
0.244986 0.244986 0.244986
0.260582 0.260582 0.260582
0.276252 0.276252 0.276252
0.291986 0.291986 0.291986
0.307775 0.307775 0.307775
0.323610 0.323610 0.323610
0.339485 0.339485 0.339485
0.355395 0.355395 0.355395
0.371336 0.371336 0.371336
0.387304 0.387304 0.387304
0.403295 0.403295 0.403295
0.419308 0.419308 0.419308
0.435339 0.435339 0.435339
0.451387 0.451387 0.451387
0.467450 0.467450 0.467450
0.503674 0.503674 0.503674
0.520432 0.520432 0.520432
0.073432 0.073432 0.073432
0.077658 0.077658 0.077658
0.082219 0.082219 0.082219
0.088406 0.088406 0.088406
0.096160 0.096160 0.096160
0.105298 0.105298 0.105298
0.115614 0.115614 0.115614
0.126911 0.126911 0.126911
0.139013 0.139013 0.139013
0.151772 0.151772 0.151772
0.165066 0.165066 0.165066
0.178796 0.178796 0.178796
0.192883 0.192883 0.192883
0.207264 0.207264 0.207264
0.221889 0.221889 0.221889
0.236717 0.236717 0.236717
0.251716 0.251716 0.251716
0.266859 0.266859 0.266859
0.282123 0.282123 0.282123
0.297493 0.297493 0.297493
0.312952 0.312952 0.312952
0.328490 0.328490 0.328490
0.344095 0.344095 0.344095
0.359759 0.359759 0.359759
0.375474 0.375474 0.375474
0.391236 0.391236 0.391236
0.407038 0.407038 0.407038
0.422875 0.422875 0.422875
0.438745 0.438745 0.438745
0.454643 0.454643 0.454643
0.470567 0.470567 0.470567
0.506786 0.506786 0.506786
0.523420 0.523420 0.523420
0.099952 0.099952 0.099952
0.103214 0.103214 0.103214
0.106795 0.106795 0.106795
0.111740 0.111740 0.111740
0.118071 0.118071 0.118071
0.125698 0.125698 0.125698
0.134498 0.134498 0.134498
0.144330 0.144330 0.144330
0.155057 0.155057 0.155057
0.166546 0.166546 0.166546
0.178683 0.178683 0.178683
0.191367 0.191367 0.191367
0.204512 0.204512 0.204512
0.218046 0.218046 0.218046
0.231910 0.231910 0.231910
0.246055 0.246055 0.246055
0.260437 0.260437 0.260437
0.275025 0.275025 0.275025
0.289787 0.289787 0.289787
0.304702 0.304702 0.304702
0.319748 0.319748 0.319748
0.334908 0.334908 0.334908
0.350169 0.350169 0.350169
0.365518 0.365518 0.365518
0.380945 0.380945 0.380945
0.396440 0.396440 0.396440
0.411996 0.411996 0.411996
0.427607 0.427607 0.427607
0.443267 0.443267 0.443267
0.458970 0.458970 0.458970
0.474713 0.474713 0.474713
0.510928 0.510928 0.510928
0.527397 0.527397 0.527397
0.126471 0.126471 0.126471
0.129091 0.129091 0.129091
0.131993 0.131993 0.131993
0.136046 0.136046 0.136046
0.141305 0.141305 0.141305
0.147736 0.147736 0.147736
0.155273 0.155273 0.155273
0.163826 0.163826 0.163826
0.173294 0.173294 0.173294
0.183576 0.183576 0.183576
0.194573 0.194573 0.194573
0.206193 0.206193 0.206193
0.218354 0.218354 0.218354
0.230983 0.230983 0.230983
0.244017 0.244017 0.244017
0.257403 0.257403 0.257403
0.271092 0.271092 0.271092
0.285045 0.285045 0.285045
0.299228 0.299228 0.299228
0.313612 0.313612 0.313612
0.328172 0.328172 0.328172
0.342886 0.342886 0.342886
0.357737 0.357737 0.357737
0.372708 0.372708 0.372708
0.387785 0.387785 0.387785
0.402958 0.402958 0.402958
0.418216 0.418216 0.418216
0.433550 0.433550 0.433550
0.448953 0.448953 0.448953
0.464416 0.464416 0.464416
0.479935 0.479935 0.479935
0.516151 0.516151 0.516151
0.532417 0.532417 0.532417
0.152990 0.152990 0.152990
0.155156 0.155156 0.155156
0.157570 0.157570 0.157570
0.160964 0.160964 0.160964
0.165406 0.165406 0.165406
0.170896 0.170896 0.170896
0.177401 0.177401 0.177401
0.184870 0.184870 0.184870
0.193235 0.193235 0.193235
0.202421 0.202421 0.202421
0.212350 0.212350 0.212350
0.222945 0.222945 0.222945
0.234133 0.234133 0.234133
0.245847 0.245847 0.245847
0.258025 0.258025 0.258025
0.270613 0.270613 0.270613
0.283562 0.283562 0.283562
0.296830 0.296830 0.296830
0.310378 0.310378 0.310378
0.324175 0.324175 0.324175
0.338192 0.338192 0.338192
0.352403 0.352403 0.352403
0.366788 0.366788 0.366788
0.381327 0.381327 0.381327
0.396003 0.396003 0.396003
0.410804 0.410804 0.410804
0.425715 0.425715 0.425715
0.440726 0.440726 0.440726
0.455827 0.455827 0.455827
0.471009 0.471009 0.471009
0.506525 0.506525 0.506525
0.522486 0.522486 0.522486
0.538511 0.538511 0.538511
0.179510 0.179510 0.179510
0.181341 0.181341 0.181341
0.183389 0.183389 0.183389
0.186283 0.186283 0.186283
0.190094 0.190094 0.190094
0.194837 0.194837 0.194837
0.200504 0.200504 0.200504
0.207066 0.207066 0.207066
0.214482 0.214482 0.214482
0.222700 0.222700 0.222700
0.231660 0.231660 0.231660
0.241302 0.241302 0.241302
0.251565 0.251565 0.251565
0.262390 0.262390 0.262390
0.273720 0.273720 0.273720
0.285505 0.285505 0.285505
0.297697 0.297697 0.297697
0.310253 0.310253 0.310253
0.323134 0.323134 0.323134
0.336307 0.336307 0.336307
0.349740 0.349740 0.349740
0.363406 0.363406 0.363406
0.377282 0.377282 0.377282
0.391346 0.391346 0.391346
0.405578 0.405578 0.405578
0.419964 0.419964 0.419964
0.434486 0.434486 0.434486
0.449134 0.449134 0.449134
0.463894 0.463894 0.463894
0.478756 0.478756 0.478756
0.514283 0.514283 0.514283
0.529950 0.529950 0.529950
0.545698 0.545698 0.545698
0.206029 0.206029 0.206029
0.207605 0.207605 0.207605
0.209372 0.209372 0.209372
0.211878 0.211878 0.211878
0.215191 0.215191 0.215191
0.219336 0.219336 0.219336
0.224317 0.224317 0.224317
0.230124 0.230124 0.230124
0.236731 0.236731 0.236731
0.244105 0.244105 0.244105
0.252204 0.252204 0.252204
0.260980 0.260980 0.260980
0.270385 0.270385 0.270385
0.280370 0.280370 0.280370
0.290886 0.290886 0.290886
0.301886 0.301886 0.301886
0.313326 0.313326 0.313326
0.325167 0.325167 0.325167
0.337369 0.337369 0.337369
0.349899 0.349899 0.349899
0.362725 0.362725 0.362725
0.375819 0.375819 0.375819
0.389156 0.389156 0.389156
0.402713 0.402713 0.402713
0.416468 0.416468 0.416468
0.430405 0.430405 0.430405
0.444505 0.444505 0.444505
0.458755 0.458755 0.458755
0.473140 0.473140 0.473140
0.507969 0.507969 0.507969
0.523201 0.523201 0.523201
0.538541 0.538541 0.538541
0.553981 0.553981 0.553981
0.232548 0.232548 0.232548
0.233925 0.233925 0.233925
0.235471 0.235471 0.235471
0.237667 0.237667 0.237667
0.240581 0.240581 0.240581
0.244240 0.244240 0.244240
0.248657 0.248657 0.248657
0.253832 0.253832 0.253832
0.259752 0.259752 0.259752
0.266396 0.266396 0.266396
0.273736 0.273736 0.273736
0.281737 0.281737 0.281737
0.290360 0.290360 0.290360
0.299566 0.299566 0.299566
0.309315 0.309315 0.309315
0.319566 0.319566 0.319566
0.330279 0.330279 0.330279
0.341417 0.341417 0.341417
0.352945 0.352945 0.352945
0.364830 0.364830 0.364830
0.377041 0.377041 0.377041
0.389550 0.389550 0.389550
0.402330 0.402330 0.402330
0.415359 0.415359 0.415359
0.428615 0.428615 0.428615
0.442077 0.442077 0.442077
0.455729 0.455729 0.455729
0.469554 0.469554 0.469554
0.503686 0.503686 0.503686
0.518404 0.518404 0.518404
0.533261 0.533261 0.533261
0.548247 0.548247 0.548247
0.563350 0.563350 0.563350
0.259068 0.259068 0.259068
0.260284 0.260284 0.260284
0.261652 0.261652 0.261652
0.263599 0.263599 0.263599
0.266187 0.266187 0.266187
0.269446 0.269446 0.269446
0.273395 0.273395 0.273395
0.278038 0.278038 0.278038
0.283372 0.283372 0.283372
0.289387 0.289387 0.289387
0.296061 0.296061 0.296061
0.303372 0.303372 0.303372
0.311291 0.311291 0.311291
0.319786 0.319786 0.319786
0.328823 0.328823 0.328823
0.338369 0.338369 0.338369
0.348390 0.348390 0.348390
0.358853 0.358853 0.358853
0.369725 0.369725 0.369725
0.380975 0.380975 0.380975
0.392574 0.392574 0.392574
0.404496 0.404496 0.404496
0.416713 0.416713 0.416713
0.429204 0.429204 0.429204
0.441946 0.441946 0.441946
0.454919 0.454919 0.454919
0.468105 0.468105 0.468105
0.501549 0.501549 0.501549
0.515675 0.515675 0.515675
0.529975 0.529975 0.529975
0.544435 0.544435 0.544435
0.559042 0.559042 0.559042
0.573785 0.573785 0.573785
0.285587 0.285587 0.285587
0.286672 0.286672 0.286672
0.287894 0.287894 0.287894
0.289636 0.289636 0.289636
0.291955 0.291955 0.291955
0.294882 0.294882 0.294882
0.298437 0.298437 0.298437
0.302630 0.302630 0.302630
0.307464 0.307464 0.307464
0.312933 0.312933 0.312933
0.319026 0.319026 0.319026
0.325727 0.325727 0.325727
0.333013 0.333013 0.333013
0.340862 0.340862 0.340862
0.349247 0.349247 0.349247
0.358139 0.358139 0.358139
0.367510 0.367510 0.367510
0.377331 0.377331 0.377331
0.387572 0.387572 0.387572
0.398208 0.398208 0.398208
0.409209 0.409209 0.409209
0.420551 0.420551 0.420551
0.432210 0.432210 0.432210
0.444162 0.444162 0.444162
0.456386 0.456386 0.456386
0.468862 0.468862 0.468862
0.501636 0.501636 0.501636
0.515100 0.515100 0.515100
0.528772 0.528772 0.528772
0.542638 0.542638 0.542638
0.556682 0.556682 0.556682
0.570892 0.570892 0.570892
0.585257 0.585257 0.585257
0.312107 0.312107 0.312107
0.313083 0.313083 0.313083
0.314184 0.314184 0.314184
0.315754 0.315754 0.315754
0.317849 0.317849 0.317849
0.320496 0.320496 0.320496
0.323718 0.323718 0.323718
0.327527 0.327527 0.327527
0.331930 0.331930 0.331930
0.336926 0.336926 0.336926
0.342509 0.342509 0.342509
0.348669 0.348669 0.348669
0.355392 0.355392 0.355392
0.362658 0.362658 0.362658
0.370447 0.370447 0.370447
0.378736 0.378736 0.378736
0.387502 0.387502 0.387502
0.396720 0.396720 0.396720
0.406364 0.406364 0.406364
0.416411 0.416411 0.416411
0.426835 0.426835 0.426835
0.437614 0.437614 0.437614
0.448724 0.448724 0.448724
0.460143 0.460143 0.460143
0.471852 0.471852 0.471852
0.503989 0.503989 0.503989
0.516728 0.516728 0.516728
0.529710 0.529710 0.529710
0.542919 0.542919 0.542919
0.556339 0.556339 0.556339
0.569956 0.569956 0.569956
0.583757 0.583757 0.583757
0.597728 0.597728 0.597728
0.338626 0.338626 0.338626
0.339512 0.339512 0.339512
0.340510 0.340510 0.340510
0.341936 0.341936 0.341936
0.343840 0.343840 0.343840
0.346249 0.346249 0.346249
0.349186 0.349186 0.349186
0.352665 0.352665 0.352665
0.356695 0.356695 0.356695
0.361279 0.361279 0.361279
0.366415 0.366415 0.366415
0.372097 0.372097 0.372097
0.378316 0.378316 0.378316
0.385057 0.385057 0.385057
0.392305 0.392305 0.392305
0.400042 0.400042 0.400042
0.408248 0.408248 0.408248
0.416903 0.416903 0.416903
0.425986 0.425986 0.425986
0.435475 0.435475 0.435475
0.445348 0.445348 0.445348
0.455583 0.455583 0.455583
0.466161 0.466161 0.466161
0.477060 0.477060 0.477060
0.508606 0.508606 0.508606
0.520569 0.520569 0.520569
0.532810 0.532810 0.532810
0.545310 0.545310 0.545310
0.558053 0.558053 0.558053
0.571024 0.571024 0.571024
0.584207 0.584207 0.584207
0.597589 0.597589 0.597589
0.611158 0.611158 0.611158
0.365145 0.365145 0.365145
0.365953 0.365953 0.365953
0.366865 0.366865 0.366865
0.368168 0.368168 0.368168
0.369908 0.369908 0.369908
0.372114 0.372114 0.372114
0.374805 0.374805 0.374805
0.377999 0.377999 0.377999
0.381704 0.381704 0.381704
0.385928 0.385928 0.385928
0.390670 0.390670 0.390670
0.395928 0.395928 0.395928
0.401696 0.401696 0.401696
0.407964 0.407964 0.407964
0.414722 0.414722 0.414722
0.421954 0.421954 0.421954
0.429645 0.429645 0.429645
0.437779 0.437779 0.437779
0.446336 0.446336 0.446336
0.455299 0.455299 0.455299
0.464649 0.464649 0.464649
0.474366 0.474366 0.474366
0.504616 0.504616 0.504616
0.515445 0.515445 0.515445
0.526599 0.526599 0.526599
0.538060 0.538060 0.538060
0.549810 0.549810 0.549810
0.561833 0.561833 0.561833
0.574112 0.574112 0.574112
0.586632 0.586632 0.586632
0.599379 0.599379 0.599379
0.612339 0.612339 0.612339
0.625500 0.625500 0.625500
0.391665 0.391665 0.391665
0.392406 0.392406 0.392406
0.393243 0.393243 0.393243
0.394440 0.394440 0.394440
0.396039 0.396039 0.396039
0.398068 0.398068 0.398068
0.400547 0.400547 0.400547
0.403491 0.403491 0.403491
0.406913 0.406913 0.406913
0.410819 0.410819 0.410819
0.415212 0.415212 0.415212
0.420093 0.420093 0.420093
0.425459 0.425459 0.425459
0.431302 0.431302 0.431302
0.437615 0.437615 0.437615
0.444387 0.444387 0.444387
0.451605 0.451605 0.451605
0.459256 0.459256 0.459256
0.467325 0.467325 0.467325
0.475796 0.475796 0.475796
0.504846 0.504846 0.504846
0.514455 0.514455 0.514455
0.524431 0.524431 0.524431
0.534756 0.534756 0.534756
0.545413 0.545413 0.545413
0.556385 0.556385 0.556385
0.567656 0.567656 0.567656
0.579209 0.579209 0.579209
0.591030 0.591030 0.591030
0.603104 0.603104 0.603104
0.615416 0.615416 0.615416
0.627954 0.627954 0.627954
0.640705 0.640705 0.640705
0.418184 0.418184 0.418184
0.418868 0.418868 0.418868
0.419640 0.419640 0.419640
0.420744 0.420744 0.420744
0.422221 0.422221 0.422221
0.424096 0.424096 0.424096
0.426389 0.426389 0.426389
0.429115 0.429115 0.429115
0.432287 0.432287 0.432287
0.435912 0.435912 0.435912
0.439996 0.439996 0.439996
0.444541 0.444541 0.444541
0.449545 0.449545 0.449545
0.455005 0.455005 0.455005
0.460915 0.460915 0.460915
0.467267 0.467267 0.467267
0.474052 0.474052 0.474052
0.501310 0.501310 0.501310
0.509243 0.509243 0.509243
0.517588 0.517588 0.517588
0.526330 0.526330 0.526330
0.535455 0.535455 0.535455
0.544947 0.544947 0.544947
0.554791 0.554791 0.554791
0.564971 0.564971 0.564971
0.575471 0.575471 0.575471
0.586277 0.586277 0.586277
0.597373 0.597373 0.597373
0.608746 0.608746 0.608746
0.620380 0.620380 0.620380
0.632263 0.632263 0.632263
0.644382 0.644382 0.644382
0.656724 0.656724 0.656724
0.444703 0.444703 0.444703
0.445337 0.445337 0.445337
0.446052 0.446052 0.446052
0.447076 0.447076 0.447076
0.448445 0.448445 0.448445
0.450185 0.450185 0.450185
0.452313 0.452313 0.452313
0.454847 0.454847 0.454847
0.457798 0.457798 0.457798
0.461174 0.461174 0.461174
0.464982 0.464982 0.464982
0.469226 0.469226 0.469226
0.473906 0.473906 0.473906
0.479020 0.479020 0.479020
0.504754 0.504754 0.504754
0.510973 0.510973 0.510973
0.517626 0.517626 0.517626
0.524705 0.524705 0.524705
0.532200 0.532200 0.532200
0.540099 0.540099 0.540099
0.548390 0.548390 0.548390
0.557059 0.557059 0.557059
0.566094 0.566094 0.566094
0.575480 0.575480 0.575480
0.585204 0.585204 0.585204
0.595251 0.595251 0.595251
0.605608 0.605608 0.605608
0.616261 0.616261 0.616261
0.627197 0.627197 0.627197
0.638402 0.638402 0.638402
0.649863 0.649863 0.649863
0.661569 0.661569 0.661569
0.673506 0.673506 0.673506
0.471223 0.471223 0.471223
0.471812 0.471812 0.471812
0.472477 0.472477 0.472477
0.473430 0.473430 0.473430
0.474704 0.474704 0.474704
0.476324 0.476324 0.476324
0.478308 0.478308 0.478308
0.500698 0.500698 0.500698
0.503567 0.503567 0.503567
0.506853 0.506853 0.506853
0.510563 0.510563 0.510563
0.514702 0.514702 0.514702
0.519272 0.519272 0.519272
0.524272 0.524272 0.524272
0.529702 0.529702 0.529702
0.535557 0.535557 0.535557
0.541830 0.541830 0.541830
0.548516 0.548516 0.548516
0.555606 0.555606 0.555606
0.563091 0.563091 0.563091
0.570960 0.570960 0.570960
0.579202 0.579202 0.579202
0.587805 0.587805 0.587805
0.596758 0.596758 0.596758
0.606048 0.606048 0.606048
0.615662 0.615662 0.615662
0.625588 0.625588 0.625588
0.635814 0.635814 0.635814
0.646326 0.646326 0.646326
0.657113 0.657113 0.657113
0.668163 0.668163 0.668163
0.679464 0.679464 0.679464
0.691004 0.691004 0.691004
0.518481 0.518481 0.518481
0.519054 0.519054 0.519054
0.519701 0.519701 0.519701
0.520627 0.520627 0.520627
0.521868 0.521868 0.521868
0.523444 0.523444 0.523444
0.525376 0.525376 0.525376
0.527678 0.527678 0.527678
0.530364 0.530364 0.530364
0.533442 0.533442 0.533442
0.536921 0.536921 0.536921
0.540807 0.540807 0.540807
0.545101 0.545101 0.545101
0.549806 0.549806 0.549806
0.554921 0.554921 0.554921
0.560443 0.560443 0.560443
0.566368 0.566368 0.566368
0.572692 0.572692 0.572692
0.579408 0.579408 0.579408
0.586507 0.586507 0.586507
0.593983 0.593983 0.593983
0.601824 0.601824 0.601824
0.610022 0.610022 0.610022
0.618565 0.618565 0.618565
0.627443 0.627443 0.627443
0.636645 0.636645 0.636645
0.646159 0.646159 0.646159
0.655974 0.655974 0.655974
0.666079 0.666079 0.666079
0.676462 0.676462 0.676462
0.687111 0.687111 0.687111
0.698017 0.698017 0.698017
0.709168 0.709168 0.709168
0.546106 0.546106 0.546106
0.546642 0.546642 0.546642
0.547248 0.547248 0.547248
0.548115 0.548115 0.548115
0.549278 0.549278 0.549278
0.550755 0.550755 0.550755
0.552567 0.552567 0.552567
0.554727 0.554727 0.554727
0.557248 0.557248 0.557248
0.560140 0.560140 0.560140
0.563411 0.563411 0.563411
0.567066 0.567066 0.567066
0.571111 0.571111 0.571111
0.575547 0.575547 0.575547
0.580375 0.580375 0.580375
0.585593 0.585593 0.585593
0.591199 0.591199 0.591199
0.597189 0.597189 0.597189
0.603558 0.603558 0.603558
0.610300 0.610300 0.610300
0.617409 0.617409 0.617409
0.624875 0.624875 0.624875
0.632692 0.632692 0.632692
0.640849 0.640849 0.640849
0.649338 0.649338 0.649338
0.658147 0.658147 0.658147
0.667269 0.667269 0.667269
0.676691 0.676691 0.676691
0.686403 0.686403 0.686403
0.696396 0.696396 0.696396
0.706659 0.706659 0.706659
0.717181 0.717181 0.717181
0.727953 0.727953 0.727953
0.573730 0.573730 0.573730
0.574234 0.574234 0.574234
0.574803 0.574803 0.574803
0.575618 0.575618 0.575618
0.576710 0.576710 0.576710
0.578099 0.578099 0.578099
0.579802 0.579802 0.579802
0.581834 0.581834 0.581834
0.584206 0.584206 0.584206
0.586930 0.586930 0.586930
0.590012 0.590012 0.590012
0.593460 0.593460 0.593460
0.597278 0.597278 0.597278
0.601469 0.601469 0.601469
0.606034 0.606034 0.606034
0.610973 0.610973 0.610973
0.616285 0.616285 0.616285
0.621967 0.621967 0.621967
0.628016 0.628016 0.628016
0.634427 0.634427 0.634427
0.641193 0.641193 0.641193
0.648310 0.648310 0.648310
0.655769 0.655769 0.655769
0.663562 0.663562 0.663562
0.671683 0.671683 0.671683
0.680121 0.680121 0.680121
0.688868 0.688868 0.688868
0.697915 0.697915 0.697915
0.707252 0.707252 0.707252
0.716870 0.716870 0.716870
0.726760 0.726760 0.726760
0.736911 0.736911 0.736911
0.747315 0.747315 0.747315
0.601355 0.601355 0.601355
0.601829 0.601829 0.601829
0.602365 0.602365 0.602365
0.603132 0.603132 0.603132
0.604161 0.604161 0.604161
0.605470 0.605470 0.605470
0.607075 0.607075 0.607075
0.608991 0.608991 0.608991
0.611230 0.611230 0.611230
0.613801 0.613801 0.613801
0.616712 0.616712 0.616712
0.619971 0.619971 0.619971
0.623582 0.623582 0.623582
0.627548 0.627548 0.627548
0.631873 0.631873 0.631873
0.636556 0.636556 0.636556
0.641597 0.641597 0.641597
0.646995 0.646995 0.646995
0.652747 0.652747 0.652747
0.658850 0.658850 0.658850
0.665298 0.665298 0.665298
0.672087 0.672087 0.672087
0.679211 0.679211 0.679211
0.686663 0.686663 0.686663
0.694436 0.694436 0.694436
0.702522 0.702522 0.702522
0.710914 0.710914 0.710914
0.719603 0.719603 0.719603
0.728582 0.728582 0.728582
0.737840 0.737840 0.737840
0.747371 0.747371 0.747371
0.757165 0.757165 0.757165
0.767212 0.767212 0.767212
0.628979 0.628979 0.628979
0.629426 0.629426 0.629426
0.629932 0.629932 0.629932
0.630657 0.630657 0.630657
0.631629 0.631629 0.631629
0.632865 0.632865 0.632865
0.634382 0.634382 0.634382
0.636193 0.636193 0.636193
0.638309 0.638309 0.638309
0.640741 0.640741 0.640741
0.643497 0.643497 0.643497
0.646583 0.646583 0.646583
0.650005 0.650005 0.650005
0.653766 0.653766 0.653766
0.657870 0.657870 0.657870
0.662318 0.662318 0.662318
0.667109 0.667109 0.667109
0.672245 0.672245 0.672245
0.677722 0.677722 0.677722
0.683538 0.683538 0.683538
0.689689 0.689689 0.689689
0.696172 0.696172 0.696172
0.702982 0.702982 0.702982
0.710112 0.710112 0.710112
0.717557 0.717557 0.717557
0.725311 0.725311 0.725311
0.733366 0.733366 0.733366
0.741715 0.741715 0.741715
0.750351 0.750351 0.750351
0.759266 0.759266 0.759266
0.768452 0.768452 0.768452
0.777901 0.777901 0.777901
0.787606 0.787606 0.787606
0.656603 0.656603 0.656603
0.657027 0.657027 0.657027
0.657506 0.657506 0.657506
0.658191 0.658191 0.658191
0.659111 0.659111 0.659111
0.660281 0.660281 0.660281
0.661717 0.661717 0.661717
0.663433 0.663433 0.663433
0.665438 0.665438 0.665438
0.667743 0.667743 0.667743
0.670357 0.670357 0.670357
0.673285 0.673285 0.673285
0.676533 0.676533 0.676533
0.680106 0.680106 0.680106
0.684007 0.684007 0.684007
0.688237 0.688237 0.688237
0.692798 0.692798 0.692798
0.697690 0.697690 0.697690
0.702912 0.702912 0.702912
0.708461 0.708461 0.708461
0.714336 0.714336 0.714336
0.720533 0.720533 0.720533
0.727048 0.727048 0.727048
0.733877 0.733877 0.733877
0.741013 0.741013 0.741013
0.748452 0.748452 0.748452
0.756188 0.756188 0.756188
0.764215 0.764215 0.764215
0.772524 0.772524 0.772524
0.781111 0.781111 0.781111
0.789967 0.789967 0.789967
0.799085 0.799085 0.799085
0.808459 0.808459 0.808459
0.684228 0.684228 0.684228
0.684629 0.684629 0.684629
0.685083 0.685083 0.685083
0.685733 0.685733 0.685733
0.686605 0.686605 0.686605
0.687715 0.687715 0.687715
0.689078 0.689078 0.689078
0.690706 0.690706 0.690706
0.692610 0.692610 0.692610
0.694799 0.694799 0.694799
0.697282 0.697282 0.697282
0.700065 0.700065 0.700065
0.703154 0.703154 0.703154
0.706554 0.706554 0.706554
0.710267 0.710267 0.710267
0.714297 0.714297 0.714297
0.718645 0.718645 0.718645
0.723311 0.723311 0.723311
0.728296 0.728296 0.728296
0.733597 0.733597 0.733597
0.739214 0.739214 0.739214
0.745143 0.745143 0.745143
0.751382 0.751382 0.751382
0.757926 0.757926 0.757926
0.764772 0.764772 0.764772
0.771914 0.771914 0.771914
0.779348 0.779348 0.779348
0.787067 0.787067 0.787067
0.795067 0.795067 0.795067
0.803340 0.803340 0.803340
0.811880 0.811880 0.811880
0.820682 0.820682 0.820682
0.829737 0.829737 0.829737
0.711852 0.711852 0.711852
0.712233 0.712233 0.712233
0.712665 0.712665 0.712665
0.713282 0.713282 0.713282
0.714111 0.714111 0.714111
0.715166 0.715166 0.715166
0.716462 0.716462 0.716462
0.718009 0.718009 0.718009
0.719820 0.719820 0.719820
0.721903 0.721903 0.721903
0.724265 0.724265 0.724265
0.726915 0.726915 0.726915
0.729857 0.729857 0.729857
0.733097 0.733097 0.733097
0.736637 0.736637 0.736637
0.740482 0.740482 0.740482
0.744632 0.744632 0.744632
0.749089 0.749089 0.749089
0.753852 0.753852 0.753852
0.758922 0.758922 0.758922
0.764298 0.764298 0.764298
0.769977 0.769977 0.769977
0.775957 0.775957 0.775957
0.782234 0.782234 0.782234
0.788806 0.788806 0.788806
