docs/luts/fuji_recipes/AcrosG_DC_Acros.cube
TITLE "Fujifilm Recipe: DC Acros (AcrosG)"
# FilmSim=AcrosG HL=-1 SH=3 Col=0 WB=Auto WBR=0 WBB=0
LUT_3D_SIZE 5
DOMAIN_MIN 0.0 0.0 0.0
DOMAIN_MAX 1.0 1.0 1.0
0.000000 0.000000 0.000000
0.084462 0.084462 0.084462
0.193365 0.193365 0.193365
0.302268 0.302268 0.302268
0.411171 0.411171 0.411171
0.199010 0.199010 0.199010
0.220830 0.220830 0.220830
0.278116 0.278116 0.278116
0.358975 0.358975 0.358975
0.512746 0.512746 0.512746
0.401806 0.401806 0.401806
0.411681 0.411681 0.411681
0.501614 0.501614 0.501614
0.555390 0.555390 0.555390
0.626952 0.626952 0.626952
0.675824 0.675824 0.675824
0.682148 0.682148 0.682148
0.701911 0.701911 0.701911
0.737341 0.737341 0.737341
0.788012 0.788012 0.788012
0.892447 0.892447 0.892447
0.896790 0.896790 0.896790
0.910530 0.910530 0.910530
0.935759 0.935759 0.935759
0.970000 0.970000 0.970000
0.036317 0.036317 0.036317
0.101675 0.101675 0.101675
0.201313 0.201313 0.201313
0.307054 0.307054 0.307054
0.414463 0.414463 0.414463
0.206715 0.206715 0.206715
0.227702 0.227702 0.227702
0.283395 0.283395 0.283395
0.362866 0.362866 0.362866
0.515870 0.515870 0.515870
0.405193 0.405193 0.405193
0.414968 0.414968 0.414968
0.504832 0.504832 0.504832
0.558198 0.558198 0.558198
0.629338 0.629338 0.629338
0.677981 0.677981 0.677981
0.684277 0.684277 0.684277
0.703960 0.703960 0.703960
0.739258 0.739258 0.739258
0.789764 0.789764 0.789764
0.893925 0.893925 0.893925
0.898259 0.898259 0.898259
0.911968 0.911968 0.911968
0.937144 0.937144 0.937144
0.970000 0.970000 0.970000
0.105758 0.105758 0.105758
0.143899 0.143899 0.143899
0.224687 0.224687 0.224687
0.321825 0.321825 0.321825
0.424806 0.424806 0.424806
0.229466 0.229466 0.229466
0.248272 0.248272 0.248272
0.299581 0.299581 0.299581
0.375009 0.375009 0.375009
0.525725 0.525725 0.525725
0.415825 0.415825 0.415825
0.425295 0.425295 0.425295
0.514970 0.514970 0.514970
0.567079 0.567079 0.567079
0.636910 0.636910 0.636910
0.684835 0.684835 0.684835
0.691047 0.691047 0.691047
0.710477 0.710477 0.710477
0.745360 0.745360 0.745360
0.795345 0.795345 0.795345
0.898644 0.898644 0.898644
0.902946 0.902946 0.902946
0.916560 0.916560 0.916560
0.941570 0.941570 0.941570
0.970000 0.970000 0.970000
0.175198 0.175198 0.175198
0.199962 0.199962 0.199962
0.262524 0.262524 0.262524
0.347699 0.347699 0.347699
0.503782 0.503782 0.503782
0.266522 0.266522 0.266522
0.282489 0.282489 0.282489
0.327597 0.327597 0.327597
0.396724 0.396724 0.396724
0.543706 0.543706 0.543706
0.435045 0.435045 0.435045
0.504277 0.504277 0.504277
0.533438 0.533438 0.533438
0.583375 0.583375 0.583375
0.650902 0.650902 0.650902
0.697545 0.697545 0.697545
0.703606 0.703606 0.703606
0.722580 0.722580 0.722580
0.756713 0.756713 0.756713
0.805753 0.805753 0.805753
0.907473 0.907473 0.907473
0.911719 0.911719 0.911719
0.925157 0.925157 0.925157
0.949859 0.949859 0.949859
0.970000 0.970000 0.970000
0.244639 0.244639 0.244639
0.262189 0.262189 0.262189
0.310825 0.310825 0.310825
0.383624 0.383624 0.383624
0.532804 0.532804 0.532804
0.314100 0.314100 0.314100
0.327340 0.327340 0.327340
0.365947 0.365947 0.365947
0.427674 0.427674 0.427674
0.570056 0.570056 0.570056
0.524400 0.524400 0.524400
0.533264 0.533264 0.533264
0.560435 0.560435 0.560435
0.607451 0.607451 0.607451
0.671789 0.671789 0.671789
0.716620 0.716620 0.716620
0.722465 0.722465 0.722465
0.740789 0.740789 0.740789
0.773843 0.773843 0.773843
0.821511 0.821511 0.821511
0.920913 0.920913 0.920913
0.925075 0.925075 0.925075
0.938253 0.938253 0.938253
0.962498 0.962498 0.962498
0.970000 0.970000 0.970000
