docs/luts/fuji_recipes/Acros_RR_Ilford_HP-5__Push_Process.cube
TITLE "Fujifilm Recipe: RR Ilford HP-5+ Push Process (Acros)"
# FilmSim=Acros HL=3 SH=4 Col=0 WB=Auto WBR=0 WBB=0
LUT_3D_SIZE 5
DOMAIN_MIN 0.0 0.0 0.0
DOMAIN_MAX 1.0 1.0 1.0
0.000000 0.000000 0.000000
0.101639 0.101639 0.101639
0.222818 0.222818 0.222818
0.343998 0.343998 0.343998
0.418690 0.418690 0.418690
0.198884 0.198884 0.198884
0.226956 0.226956 0.226956
0.297442 0.297442 0.297442
0.392892 0.392892 0.392892
0.550679 0.550679 0.550679
0.399773 0.399773 0.399773
0.412642 0.412642 0.412642
0.541138 0.541138 0.541138
0.624815 0.624815 0.624815
0.689215 0.689215 0.689215
0.740883 0.740883 0.740883
0.751197 0.751197 0.751197
0.783180 0.783180 0.783180
0.839669 0.839669 0.839669
0.886046 0.886046 0.886046
0.905979 0.905979 0.905979
0.914074 0.914074 0.914074
0.939456 0.939456 0.939456
0.985251 0.985251 0.985251
1.000000 1.000000 1.000000
0.048067 0.048067 0.048067
0.120792 0.120792 0.120792
0.231662 0.231662 0.231662
0.349323 0.349323 0.349323
0.503827 0.503827 0.503827
0.208905 0.208905 0.208905
0.235619 0.235619 0.235619
0.303783 0.303783 0.303783
0.397416 0.397416 0.397416
0.555659 0.555659 0.555659
0.404201 0.404201 0.404201
0.416899 0.416899 0.416899
0.546219 0.546219 0.546219
0.629122 0.629122 0.629122
0.693054 0.693054 0.693054
0.744405 0.744405 0.744405
0.754662 0.754662 0.754662
0.786475 0.786475 0.786475
0.842697 0.842697 0.842697
0.888882 0.888882 0.888882
0.908738 0.908738 0.908738
0.916803 0.916803 0.916803
0.942094 0.942094 0.942094
0.987738 0.987738 0.987738
1.000000 1.000000 1.000000
0.125336 0.125336 0.125336
0.167776 0.167776 0.167776
0.257671 0.257671 0.257671
0.365759 0.365759 0.365759
0.521251 0.521251 0.521251
0.237833 0.237833 0.237833
0.261169 0.261169 0.261169
0.323108 0.323108 0.323108
0.411508 0.411508 0.411508
0.571297 0.571297 0.571297
0.418007 0.418007 0.418007
0.513594 0.513594 0.513594
0.562158 0.562158 0.562158
0.642708 0.642708 0.642708
0.705197 0.705197 0.705197
0.755568 0.755568 0.755568
0.765645 0.765645 0.765645
0.796931 0.796931 0.796931
0.852320 0.852320 0.852320
0.897901 0.897901 0.897901
0.917518 0.917518 0.917518
0.925488 0.925488 0.925488
0.950494 0.950494 0.950494
0.995662 0.995662 0.995662
1.000000 1.000000 1.000000
0.202604 0.202604 0.202604
0.230159 0.230159 0.230159
0.299773 0.299773 0.299773
0.394549 0.394549 0.394549
0.552501 0.552501 0.552501
0.283444 0.283444 0.283444
0.302696 0.302696 0.302696
0.356213 0.356213 0.356213
0.522144 0.522144 0.522144
0.599584 0.599584 0.599584
0.530195 0.530195 0.530195
0.545343 0.545343 0.545343
0.590950 0.590950 0.590950
0.667508 0.667508 0.667508
0.727498 0.727498 0.727498
0.776146 0.776146 0.776146
0.785906 0.785906 0.785906
0.816256 0.816256 0.816256
0.870158 0.870158 0.870158
0.914655 0.914655 0.914655
0.933838 0.933838 0.933838
0.941638 0.941638 0.941638
0.966128 0.966128 0.966128
1.000000 1.000000 1.000000
1.000000 1.000000 1.000000
0.250230 0.250230 0.250230
0.272325 0.272325 0.272325
0.331812 0.331812 0.331812
0.417996 0.417996 0.417996
0.578557 0.578557 0.578557
0.317482 0.317482 0.317482
0.334397 0.334397 0.334397
0.382620 0.382620 0.382620
0.549853 0.549853 0.549853
0.623383 0.623383 0.623383
0.557449 0.557449 0.557449
0.571774 0.571774 0.571774
0.615138 0.615138 0.615138
0.688580 0.688580 0.688580
0.746572 0.746572 0.746572
0.793823 0.793823 0.793823
0.803323 0.803323 0.803323
0.832906 0.832906 0.832906
0.885578 0.885578 0.885578
0.929172 0.929172 0.929172
0.947993 0.947993 0.947993
0.955650 0.955650 0.955650
0.979707 0.979707 0.979707
1.000000 1.000000 1.000000
1.000000 1.000000 1.000000
