docs/luts/fuji_recipes/Acros_PE_Winogrand.cube
TITLE "Fujifilm Recipe: PE Winogrand (Acros)"
# FilmSim=Acros HL=-2 SH=-2 Col=0 WB=Auto WBR=0 WBB=0
LUT_3D_SIZE 5
DOMAIN_MIN 0.0 0.0 0.0
DOMAIN_MAX 1.0 1.0 1.0
0.080000 0.080000 0.080000
0.176599 0.176599 0.176599
0.297254 0.297254 0.297254
0.417910 0.417910 0.417910
0.538565 0.538565 0.538565
0.273424 0.273424 0.273424
0.301374 0.301374 0.301374
0.371556 0.371556 0.371556
0.466592 0.466592 0.466592
0.531766 0.531766 0.531766
0.473444 0.473444 0.473444
0.486257 0.486257 0.486257
0.524303 0.524303 0.524303
0.544755 0.544755 0.544755
0.622113 0.622113 0.622113
0.627660 0.627660 0.627660
0.635028 0.635028 0.635028
0.657873 0.657873 0.657873
0.698222 0.698222 0.698222
0.754826 0.754826 0.754826
0.818984 0.818984 0.818984
0.824049 0.824049 0.824049
0.840004 0.840004 0.840004
0.869046 0.869046 0.869046
0.911459 0.911459 0.911459
0.123259 0.123259 0.123259
0.195670 0.195670 0.195670
0.306060 0.306060 0.306060
0.423212 0.423212 0.423212
0.502116 0.502116 0.502116
0.283401 0.283401 0.283401
0.310000 0.310000 0.310000
0.377869 0.377869 0.377869
0.471097 0.471097 0.471097
0.534950 0.534950 0.534950
0.477852 0.477852 0.477852
0.490495 0.490495 0.490495
0.528097 0.528097 0.528097
0.547831 0.547831 0.547831
0.624661 0.624661 0.624661
0.630176 0.630176 0.630176
0.637503 0.637503 0.637503
0.660227 0.660227 0.660227
0.700385 0.700385 0.700385
0.756762 0.756762 0.756762
0.820709 0.820709 0.820709
0.825759 0.825759 0.825759
0.841668 0.841668 0.841668
0.870632 0.870632 0.870632
0.912942 0.912942 0.912942
0.200193 0.200193 0.200193
0.242450 0.242450 0.242450
0.331956 0.331956 0.331956
0.439577 0.439577 0.439577
0.513077 0.513077 0.513077
0.312204 0.312204 0.312204
0.335439 0.335439 0.335439
0.397110 0.397110 0.397110
0.485128 0.485128 0.485128
0.544982 0.544982 0.544982
0.491599 0.491599 0.491599
0.503735 0.503735 0.503735
0.540000 0.540000 0.540000
0.557535 0.557535 0.557535
0.632734 0.632734 0.632734
0.638150 0.638150 0.638150
0.645348 0.645348 0.645348
0.667695 0.667695 0.667695
0.707259 0.707259 0.707259
0.762926 0.762926 0.762926
0.826207 0.826207 0.826207
0.831210 0.831210 0.831210
0.846975 0.846975 0.846975
0.875691 0.875691 0.875691
0.917674 0.917674 0.917674
0.277127 0.277127 0.277127
0.304563 0.304563 0.304563
0.373876 0.373876 0.373876
0.468243 0.468243 0.468243
0.532930 0.532930 0.532930
0.357618 0.357618 0.357618
0.376787 0.376787 0.376787
0.430072 0.430072 0.430072
0.510119 0.510119 0.510119
0.563260 0.563260 0.563260
0.516131 0.516131 0.516131
0.527443 0.527443 0.527443
0.520566 0.520566 0.520566
0.575250 0.575250 0.575250
0.647607 0.647607 0.647607
0.652849 0.652849 0.652849
0.659820 0.659820 0.659820
0.681499 0.681499 0.681499
0.720000 0.720000 0.720000
0.774390 0.774390 0.774390
0.836463 0.836463 0.836463
0.841380 0.841380 0.841380
0.856880 0.856880 0.856880
0.885145 0.885145 0.885145
0.926528 0.926528 0.926528
0.354061 0.354061 0.354061
0.373505 0.373505 0.373505
0.427390 0.427390 0.427390
0.508044 0.508044 0.508044
0.561723 0.561723 0.561723
0.414240 0.414240 0.414240
0.429771 0.429771 0.429771
0.474661 0.474661 0.474661
0.505316 0.505316 0.505316
0.589985 0.589985 0.589985
0.510528 0.510528 0.510528
0.520373 0.520373 0.520373
0.550279 0.550279 0.550279
0.601225 0.601225 0.601225
0.669713 0.669713 0.669713
0.674712 0.674712 0.674712
0.681368 0.681368 0.681368
0.702112 0.702112 0.702112
0.739112 0.739112 0.739112
0.791673 0.791673 0.791673
0.851995 0.851995 0.851995
0.856785 0.856785 0.856785
0.871900 0.871900 0.871900
0.899502 0.899502 0.899502
0.940000 0.940000 0.940000
