docs/luts/fuji_recipes/Acros_RR_Bleach_Bypass_2_2.cube
TITLE "Fujifilm Recipe: RR Bleach Bypass 2/2 (Acros)"
# FilmSim=Acros HL=3 SH=4 Col=2 WB=Auto WBR=-1 WBB=3
LUT_3D_SIZE 33
DOMAIN_MIN 0.0 0.0 0.0
DOMAIN_MAX 1.0 1.0 1.0
0.000000 0.000000 0.000000
0.006840 0.006840 0.006840
0.014443 0.014443 0.014443
0.025298 0.025298 0.025298
0.039474 0.039474 0.039474
0.054243 0.054243 0.054243
0.069011 0.069011 0.069011
0.083780 0.083780 0.083780
0.098549 0.098549 0.098549
0.113318 0.113318 0.113318
0.128086 0.128086 0.128086
0.142855 0.142855 0.142855
0.157624 0.157624 0.157624
0.172393 0.172393 0.172393
0.187161 0.187161 0.187161
0.201930 0.201930 0.201930
0.216699 0.216699 0.216699
0.231468 0.231468 0.231468
0.246236 0.246236 0.246236
0.261005 0.261005 0.261005
0.275774 0.275774 0.275774
0.290543 0.290543 0.290543
0.305311 0.305311 0.305311
0.320080 0.320080 0.320080
0.334849 0.334849 0.334849
0.349617 0.349617 0.349617
0.364386 0.364386 0.364386
0.379155 0.379155 0.379155
0.393924 0.393924 0.393924
0.407673 0.407673 0.407673
0.407673 0.407673 0.407673
0.407673 0.407673 0.407673
0.407673 0.407673 0.407673
0.023599 0.023599 0.023599
0.030439 0.030439 0.030439
0.037843 0.037843 0.037843
0.047109 0.047109 0.047109
0.057800 0.057800 0.057800
0.069511 0.069511 0.069511
0.081947 0.081947 0.081947
0.094904 0.094904 0.094904
0.108238 0.108238 0.108238
0.121853 0.121853 0.121853
0.135678 0.135678 0.135678
0.149665 0.149665 0.149665
0.163778 0.163778 0.163778
0.177990 0.177990 0.177990
0.192282 0.192282 0.192282
0.206639 0.206639 0.206639
0.221049 0.221049 0.221049
0.235503 0.235503 0.235503
0.249994 0.249994 0.249994
0.264515 0.264515 0.264515
0.279064 0.279064 0.279064
0.293634 0.293634 0.293634
0.308225 0.308225 0.308225
0.322832 0.322832 0.322832
0.337454 0.337454 0.337454
0.352088 0.352088 0.352088
0.366734 0.366734 0.366734
0.381390 0.381390 0.381390
0.396056 0.396056 0.396056
0.409716 0.409716 0.409716
0.409716 0.409716 0.409716
0.409716 0.409716 0.409716
0.409716 0.409716 0.409716
0.048218 0.048218 0.048218
0.053369 0.053369 0.053369
0.058688 0.058688 0.058688
0.065686 0.065686 0.065686
0.074195 0.074195 0.074195
0.083941 0.083941 0.083941
0.094669 0.094669 0.094669
0.106168 0.106168 0.106168
0.118265 0.118265 0.118265
0.130831 0.130831 0.130831
0.143765 0.143765 0.143765
0.156991 0.156991 0.156991
0.170450 0.170450 0.170450
0.184097 0.184097 0.184097
0.197897 0.197897 0.197897
0.211824 0.211824 0.211824
0.225855 0.225855 0.225855
0.239974 0.239974 0.239974
0.254166 0.254166 0.254166
0.268422 0.268422 0.268422
0.282731 0.282731 0.282731
0.297086 0.297086 0.297086
0.311481 0.311481 0.311481
0.325911 0.325911 0.325911
0.340371 0.340371 0.340371
0.354858 0.354858 0.354858
0.369369 0.369369 0.369369
0.383900 0.383900 0.383900
0.398451 0.398451 0.398451
0.412011 0.412011 0.412011
0.412011 0.412011 0.412011
0.412011 0.412011 0.412011
0.412011 0.412011 0.412011
0.073329 0.073329 0.073329
0.077091 0.077091 0.077091
0.081092 0.081092 0.081092
0.086517 0.086517 0.086517
0.093331 0.093331 0.093331
0.101384 0.101384 0.101384
0.110507 0.110507 0.110507
0.120532 0.120532 0.120532
0.131303 0.131303 0.131303
0.142691 0.142691 0.142691
0.154584 0.154584 0.154584
0.166892 0.166892 0.166892
0.179543 0.179543 0.179543
0.192476 0.192476 0.192476
0.205646 0.205646 0.205646
0.219013 0.219013 0.219013
0.232545 0.232545 0.232545
0.246219 0.246219 0.246219
0.260012 0.260012 0.260012
0.273907 0.273907 0.273907
0.287892 0.287892 0.287892
0.301952 0.301952 0.301952
0.316080 0.316080 0.316080
0.330265 0.330265 0.330265
0.344502 0.344502 0.344502
0.358784 0.358784 0.358784
0.373107 0.373107 0.373107
0.387464 0.387464 0.387464
0.401854 0.401854 0.401854
0.415275 0.415275 0.415275
0.415275 0.415275 0.415275
0.415275 0.415275 0.415275
0.415275 0.415275 0.415275
0.098440 0.098440 0.098440
0.101343 0.101343 0.101343
0.104479 0.104479 0.104479
0.108805 0.108805 0.108805
0.114346 0.114346 0.114346
0.121037 0.121037 0.121037
0.128777 0.128777 0.128777
0.137452 0.137452 0.137452
0.146944 0.146944 0.146944
0.157140 0.157140 0.157140
0.167940 0.167940 0.167940
0.179252 0.179252 0.179252
0.191000 0.191000 0.191000
0.203119 0.203119 0.203119
0.215554 0.215554 0.215554
0.228257 0.228257 0.228257
0.241190 0.241190 0.241190
0.254321 0.254321 0.254321
0.267623 0.267623 0.267623
0.281073 0.281073 0.281073
0.294651 0.294651 0.294651
0.308341 0.308341 0.308341
0.322129 0.322129 0.322129
0.336004 0.336004 0.336004
0.349955 0.349955 0.349955
0.363974 0.363974 0.363974
0.378053 0.378053 0.378053
0.392186 0.392186 0.392186
0.406367 0.406367 0.406367
0.419608 0.419608 0.419608
0.419608 0.419608 0.419608
0.419608 0.419608 0.419608
0.419608 0.419608 0.419608
0.123551 0.123551 0.123551
0.125882 0.125882 0.125882
0.128421 0.128421 0.128421
0.131961 0.131961 0.131961
0.136552 0.136552 0.136552
0.142175 0.142175 0.142175
0.148778 0.148778 0.148778
0.156290 0.156290 0.156290
0.164629 0.164629 0.164629
0.173709 0.173709 0.173709
0.183445 0.183445 0.183445
0.193759 0.193759 0.193759
0.204577 0.204577 0.204577
0.215835 0.215835 0.215835
0.227476 0.227476 0.227476
0.239451 0.239451 0.239451
0.251716 0.251716 0.251716
0.264233 0.264233 0.264233
0.276973 0.276973 0.276973
0.289906 0.289906 0.289906
0.303009 0.303009 0.303009
0.316263 0.316263 0.316263
0.329649 0.329649 0.329649
0.343153 0.343153 0.343153
0.356762 0.356762 0.356762
0.370463 0.370463 0.370463
0.384248 0.384248 0.384248
0.398108 0.398108 0.398108
0.412034 0.412034 0.412034
0.506739 0.506739 0.506739
0.506739 0.506739 0.506739
0.506739 0.506739 0.506739
0.506739 0.506739 0.506739
0.148662 0.148662 0.148662
0.150589 0.150589 0.150589
0.152699 0.152699 0.152699
0.155660 0.155660 0.155660
0.159533 0.159533 0.159533
0.164321 0.164321 0.164321
0.170004 0.170004 0.170004
0.176542 0.176542 0.176542
0.183880 0.183880 0.183880
0.191959 0.191959 0.191959
0.200712 0.200712 0.200712
0.210075 0.210075 0.210075
0.219985 0.219985 0.219985
0.230383 0.230383 0.230383
0.241215 0.241215 0.241215
0.252433 0.252433 0.252433
0.263991 0.263991 0.263991
0.275852 0.275852 0.275852
0.287980 0.287980 0.287980
0.300347 0.300347 0.300347
0.312924 0.312924 0.312924
0.325689 0.325689 0.325689
0.338622 0.338622 0.338622
0.351705 0.351705 0.351705
0.364921 0.364921 0.364921
0.378258 0.378258 0.378258
0.391703 0.391703 0.391703
0.405245 0.405245 0.405245
0.418876 0.418876 0.418876
0.515516 0.515516 0.515516
0.515516 0.515516 0.515516
0.515516 0.515516 0.515516
0.515516 0.515516 0.515516
0.173773 0.173773 0.173773
0.175402 0.175402 0.175402
0.177193 0.177193 0.177193
0.179715 0.179715 0.179715
0.183034 0.183034 0.183034
0.187164 0.187164 0.187164
0.192104 0.192104 0.192104
0.197833 0.197833 0.197833
0.204320 0.204320 0.204320
0.211522 0.211522 0.211522
0.219393 0.219393 0.219393
0.227882 0.227882 0.227882
0.236938 0.236938 0.236938
0.246510 0.246510 0.246510
0.256549 0.256549 0.256549
0.267011 0.267011 0.267011
0.277854 0.277854 0.277854
0.289039 0.289039 0.289039
0.300532 0.300532 0.300532
0.312301 0.312301 0.312301
0.324318 0.324318 0.324318
0.336558 0.336558 0.336558
0.349000 0.349000 0.349000
0.361622 0.361622 0.361622
0.374407 0.374407 0.374407
0.387340 0.387340 0.387340
0.400406 0.400406 0.400406
0.413593 0.413593 0.413593
0.509186 0.509186 0.509186
0.525812 0.525812 0.525812
0.525812 0.525812 0.525812
0.525812 0.525812 0.525812
0.525812 0.525812 0.525812
0.198884 0.198884 0.198884
0.200286 0.200286 0.200286
0.201831 0.201831 0.201831
0.204013 0.204013 0.204013
0.206896 0.206896 0.206896
0.210501 0.210501 0.210501
0.214837 0.214837 0.214837
0.219896 0.219896 0.219896
0.225662 0.225662 0.225662
0.232108 0.232108 0.232108
0.239201 0.239201 0.239201
0.246903 0.246903 0.246903
0.255174 0.255174 0.255174
0.263973 0.263973 0.263973
0.273258 0.273258 0.273258
0.282990 0.282990 0.282990
0.293130 0.293130 0.293130
0.303642 0.303642 0.303642
0.314493 0.314493 0.314493
0.325652 0.325652 0.325652
0.337092 0.337092 0.337092
0.348785 0.348785 0.348785
0.360710 0.360710 0.360710
0.372844 0.372844 0.372844
0.385169 0.385169 0.385169
0.397667 0.397667 0.397667
0.410324 0.410324 0.410324
0.504167 0.504167 0.504167
0.521410 0.521410 0.521410
0.537608 0.537608 0.537608
0.537608 0.537608 0.537608
0.537608 0.537608 0.537608
0.537608 0.537608 0.537608
0.223995 0.223995 0.223995
0.225219 0.225219 0.225219
0.226570 0.226570 0.226570
0.228483 0.228483 0.228483
0.231017 0.231017 0.231017
0.234197 0.234197 0.234197
0.238037 0.238037 0.238037
0.242539 0.242539 0.242539
0.247695 0.247695 0.247695
0.253491 0.253491 0.253491
0.259904 0.259904 0.259904
0.266907 0.266907 0.266907
0.274469 0.274469 0.274469
0.282558 0.282558 0.282558
0.291139 0.291139 0.291139
0.300179 0.300179 0.300179
0.309644 0.309644 0.309644
0.319502 0.319502 0.319502
0.329722 0.329722 0.329722
0.340275 0.340275 0.340275
0.351133 0.351133 0.351133
0.362271 0.362271 0.362271
0.373666 0.373666 0.373666
0.385296 0.385296 0.385296
0.397142 0.397142 0.397142
0.409185 0.409185 0.409185
0.501880 0.501880 0.501880
0.518402 0.518402 0.518402
0.535127 0.535127 0.535127
0.550867 0.550867 0.550867
0.550867 0.550867 0.550867
0.550867 0.550867 0.550867
0.550867 0.550867 0.550867
0.249107 0.249107 0.249107
0.250188 0.250188 0.250188
0.251383 0.251383 0.251383
0.253078 0.253078 0.253078
0.255328 0.255328 0.255328
0.258159 0.258159 0.258159
0.261588 0.261588 0.261588
0.265623 0.265623 0.265623
0.270263 0.270263 0.270263
0.275500 0.275500 0.275500
0.281320 0.281320 0.281320
0.287705 0.287705 0.287705
0.294633 0.294633 0.294633
0.302077 0.302077 0.302077
0.310011 0.310011 0.310011
0.318406 0.318406 0.318406
0.327235 0.327235 0.327235
0.336468 0.336468 0.336468
0.346078 0.346078 0.346078
0.356038 0.356038 0.356038
0.366323 0.366323 0.366323
0.376908 0.376908 0.376908
0.387772 0.387772 0.387772
0.398893 0.398893 0.398893
0.410250 0.410250 0.410250
0.502436 0.502436 0.502436
0.518141 0.518141 0.518141
0.534095 0.534095 0.534095
0.550278 0.550278 0.550278
0.565537 0.565537 0.565537
0.565537 0.565537 0.565537
0.565537 0.565537 0.565537
0.565537 0.565537 0.565537
0.274218 0.274218 0.274218
0.275182 0.275182 0.275182
0.276250 0.276250 0.276250
0.277766 0.277766 0.277766
0.279781 0.279781 0.279781
0.282322 0.282322 0.282322
0.285408 0.285408 0.285408
0.289048 0.289048 0.289048
0.293248 0.293248 0.293248
0.298003 0.298003 0.298003
0.303308 0.303308 0.303308
0.309149 0.309149 0.309149
0.315511 0.315511 0.315511
0.322374 0.322374 0.322374
0.329718 0.329718 0.329718
0.337519 0.337519 0.337519
0.345754 0.345754 0.345754
0.354398 0.354398 0.354398
0.363427 0.363427 0.363427
0.372818 0.372818 0.372818
0.382547 0.382547 0.382547
0.392591 0.392591 0.392591
0.402930 0.402930 0.402930
0.413543 0.413543 0.413543
0.505882 0.505882 0.505882
0.520690 0.520690 0.520690
0.535791 0.535791 0.535791
0.551165 0.551165 0.551165
0.566792 0.566792 0.566792
0.581553 0.581553 0.581553
0.581553 0.581553 0.581553
0.581553 0.581553 0.581553
0.581553 0.581553 0.581553
0.299329 0.299329 0.299329
0.300197 0.300197 0.300197
0.301159 0.301159 0.301159
0.302526 0.302526 0.302526
0.304345 0.304345 0.304345
0.306642 0.306642 0.306642
0.309437 0.309437 0.309437
0.312741 0.312741 0.312741
0.316563 0.316563 0.316563
0.320902 0.320902 0.320902
0.325757 0.325757 0.325757
0.331119 0.331119 0.331119
0.336978 0.336978 0.336978
0.343320 0.343320 0.343320
0.350128 0.350128 0.350128
0.357385 0.357385 0.357385
0.365071 0.365071 0.365071
0.373165 0.373165 0.373165
0.381648 0.381648 0.381648
0.390497 0.390497 0.390497
0.399693 0.399693 0.399693
0.409214 0.409214 0.409214
0.419042 0.419042 0.419042
0.512210 0.512210 0.512210
0.526057 0.526057 0.526057
0.540239 0.540239 0.540239
0.554735 0.554735 0.554735
0.569525 0.569525 0.569525
0.584590 0.584590 0.584590
0.598845 0.598845 0.598845
0.598845 0.598845 0.598845
0.598845 0.598845 0.598845
0.598845 0.598845 0.598845
0.324440 0.324440 0.324440
0.325227 0.325227 0.325227
0.326100 0.326100 0.326100
0.327341 0.327341 0.327341
0.328994 0.328994 0.328994
0.331084 0.331084 0.331084
0.333630 0.333630 0.333630
0.336647 0.336647 0.336647
0.340142 0.340142 0.340142
0.344120 0.344120 0.344120
0.348581 0.348581 0.348581
0.353521 0.353521 0.353521
0.358933 0.358933 0.358933
0.364807 0.364807 0.364807
0.371132 0.371132 0.371132
0.377892 0.377892 0.377892
0.385073 0.385073 0.385073
0.392658 0.392658 0.392658
0.400629 0.400629 0.400629
0.408968 0.408968 0.408968
0.417658 0.417658 0.417658
0.508905 0.508905 0.508905
0.521353 0.521353 0.521353
0.534196 0.534196 0.534196
0.547412 0.547412 0.547412
0.560980 0.560980 0.560980
0.574878 0.574878 0.574878
0.589088 0.589088 0.589088
0.603589 0.603589 0.603589
0.617336 0.617336 0.617336
0.617336 0.617336 0.617336
0.617336 0.617336 0.617336
0.617336 0.617336 0.617336
0.349551 0.349551 0.349551
0.350269 0.350269 0.350269
0.351066 0.351066 0.351066
0.352199 0.352199 0.352199
0.353710 0.353710 0.353710
0.355623 0.355623 0.355623
0.357956 0.357956 0.357956
0.360724 0.360724 0.360724
0.363936 0.363936 0.363936
0.367598 0.367598 0.367598
0.371713 0.371713 0.371713
0.376279 0.376279 0.376279
0.381293 0.381293 0.381293
0.386749 0.386749 0.386749
0.392636 0.392636 0.392636
0.398946 0.398946 0.398946
0.405664 0.405664 0.405664
0.412779 0.412779 0.412779
0.500366 0.500366 0.500366
0.510848 0.510848 0.510848
0.521797 0.521797 0.521797
0.533192 0.533192 0.533192
0.545012 0.545012 0.545012
0.557236 0.557236 0.557236
0.569842 0.569842 0.569842
0.582811 0.582811 0.582811
0.596124 0.596124 0.596124
0.609761 0.609761 0.609761
0.623704 0.623704 0.623704
0.636946 0.636946 0.636946
0.636946 0.636946 0.636946
0.636946 0.636946 0.636946
0.636946 0.636946 0.636946
0.374662 0.374662 0.374662
0.375321 0.375321 0.375321
0.376053 0.376053 0.376053
0.377093 0.377093 0.377093
0.378482 0.378482 0.378482
0.380241 0.380241 0.380241
0.382389 0.382389 0.382389
0.384940 0.384940 0.384940
0.387904 0.387904 0.387904
0.391289 0.391289 0.391289
0.395099 0.395099 0.395099
0.399334 0.399334 0.399334
0.403993 0.403993 0.403993
0.409073 0.409073 0.409073
0.414566 0.414566 0.414566
0.500621 0.500621 0.500621
0.509015 0.509015 0.509015
0.517924 0.517924 0.517924
0.527331 0.527331 0.527331
0.537220 0.537220 0.537220
0.547572 0.547572 0.547572
0.558369 0.558369 0.558369
0.569593 0.569593 0.569593
0.581224 0.581224 0.581224
0.593245 0.593245 0.593245
0.605636 0.605636 0.605636
0.618379 0.618379 0.618379
0.631458 0.631458 0.631458
0.644854 0.644854 0.644854
0.657596 0.657596 0.657596
0.657596 0.657596 0.657596
0.657596 0.657596 0.657596
0.657596 0.657596 0.657596
0.399773 0.399773 0.399773
0.400381 0.400381 0.400381
0.401056 0.401056 0.401056
0.402016 0.402016 0.402016
0.403298 0.403298 0.403298
0.404924 0.404924 0.404924
0.406910 0.406910 0.406910
0.409271 0.409271 0.409271
0.412017 0.412017 0.412017
0.415158 0.415158 0.415158
0.418697 0.418697 0.418697
0.503516 0.503516 0.503516
0.509305 0.509305 0.509305
0.515627 0.515627 0.515627
0.522477 0.522477 0.522477
0.529846 0.529846 0.529846
0.537726 0.537726 0.537726
0.546105 0.546105 0.546105
0.554970 0.554970 0.554970
0.564307 0.564307 0.564307
0.574101 0.574101 0.574101
0.584336 0.584336 0.584336
0.594997 0.594997 0.594997
0.606066 0.606066 0.606066
0.617526 0.617526 0.617526
0.629362 0.629362 0.629362
0.641556 0.641556 0.641556
0.654093 0.654093 0.654093
0.666956 0.666956 0.666956
0.679210 0.679210 0.679210
0.679210 0.679210 0.679210
0.679210 0.679210 0.679210
0.679210 0.679210 0.679210
0.506512 0.506512 0.506512
0.507263 0.507263 0.507263
0.508096 0.508096 0.508096
0.509284 0.509284 0.509284
0.510869 0.510869 0.510869
0.512879 0.512879 0.512879
0.515337 0.515337 0.515337
0.518262 0.518262 0.518262
0.521668 0.521668 0.521668
0.525566 0.525566 0.525566
0.529963 0.529963 0.529963
0.534866 0.534866 0.534866
0.540276 0.540276 0.540276
0.546192 0.546192 0.546192
0.552612 0.552612 0.552612
0.559530 0.559530 0.559530
0.566939 0.566939 0.566939
0.574832 0.574832 0.574832
0.583196 0.583196 0.583196
0.592022 0.592022 0.592022
0.601296 0.601296 0.601296
0.611005 0.611005 0.611005
0.621135 0.621135 0.621135
0.631671 0.631671 0.631671
0.642600 0.642600 0.642600
0.653905 0.653905 0.653905
0.665572 0.665572 0.665572
0.677586 0.677586 0.677586
0.689933 0.689933 0.689933
0.701713 0.701713 0.701713
0.701713 0.701713 0.701713
0.701713 0.701713 0.701713
0.701713 0.701713 0.701713
0.539994 0.539994 0.539994
0.540692 0.540692 0.540692
0.541467 0.541467 0.541467
0.542572 0.542572 0.542572
0.544047 0.544047 0.544047
0.545919 0.545919 0.545919
0.548209 0.548209 0.548209
0.550936 0.550936 0.550936
0.554114 0.554114 0.554114
0.557754 0.557754 0.557754
0.561865 0.561865 0.561865
0.566453 0.566453 0.566453
0.571521 0.571521 0.571521
0.577071 0.577071 0.577071
0.583101 0.583101 0.583101
0.589608 0.589608 0.589608
0.596588 0.596588 0.596588
0.604034 0.604034 0.604034
0.611937 0.611937 0.611937
0.620289 0.620289 0.620289
0.629079 0.629079 0.629079
0.638296 0.638296 0.638296
0.647928 0.647928 0.647928
0.657963 0.657963 0.657963
0.668387 0.668387 0.668387
0.679187 0.679187 0.679187
0.690351 0.690351 0.690351
0.701863 0.701863 0.701863
0.713712 0.713712 0.713712
0.725033 0.725033 0.725033
0.725033 0.725033 0.725033
0.725033 0.725033 0.725033
0.725033 0.725033 0.725033
0.573475 0.573475 0.573475
0.574127 0.574127 0.574127
0.574850 0.574850 0.574850
0.575882 0.575882 0.575882
0.577259 0.577259 0.577259
0.579009 0.579009 0.579009
0.581150 0.581150 0.581150
0.583700 0.583700 0.583700
0.586674 0.586674 0.586674
0.590083 0.590083 0.590083
0.593937 0.593937 0.593937
0.598241 0.598241 0.598241
0.603002 0.603002 0.603002
0.608220 0.608220 0.608220
0.613896 0.613896 0.613896
0.620029 0.620029 0.620029
0.626616 0.626616 0.626616
0.633651 0.633651 0.633651
0.641129 0.641129 0.641129
0.649042 0.649042 0.649042
0.657383 0.657383 0.657383
0.666141 0.666141 0.666141
0.675306 0.675306 0.675306
0.684869 0.684869 0.684869
0.694816 0.694816 0.694816
0.705138 0.705138 0.705138
0.715821 0.715821 0.715821
0.726854 0.726854 0.726854
0.738225 0.738225 0.738225
0.749103 0.749103 0.749103
0.749103 0.749103 0.749103
0.749103 0.749103 0.749103
0.749103 0.749103 0.749103
0.606957 0.606957 0.606957
0.607567 0.607567 0.607567
0.608244 0.608244 0.608244
0.609210 0.609210 0.609210
0.610501 0.610501 0.610501
0.612140 0.612140 0.612140
0.614148 0.614148 0.614148
0.616540 0.616540 0.616540
0.619331 0.619331 0.619331
0.622533 0.622533 0.622533
0.626155 0.626155 0.626155
0.630204 0.630204 0.630204
0.634685 0.634685 0.634685
0.639602 0.639602 0.639602
0.644957 0.644957 0.644957
0.650748 0.650748 0.650748
0.656974 0.656974 0.656974
0.663632 0.663632 0.663632
0.670718 0.670718 0.670718
0.678225 0.678225 0.678225
0.686148 0.686148 0.686148
0.694478 0.694478 0.694478
0.703207 0.703207 0.703207
0.712325 0.712325 0.712325
0.721824 0.721824 0.721824
0.731692 0.731692 0.731692
0.741919 0.741919 0.741919
0.752495 0.752495 0.752495
0.763409 0.763409 0.763409
0.773862 0.773862 0.773862
0.773862 0.773862 0.773862
0.773862 0.773862 0.773862
0.773862 0.773862 0.773862
0.640438 0.640438 0.640438
0.641011 0.641011 0.641011
0.641648 0.641648 0.641648
0.642555 0.642555 0.642555
0.643768 0.643768 0.643768
0.645308 0.645308 0.645308
0.647195 0.647195 0.647195
0.649445 0.649445 0.649445
0.652072 0.652072 0.652072
0.655087 0.655087 0.655087
0.658499 0.658499 0.658499
0.662316 0.662316 0.662316
0.666545 0.666545 0.666545
0.671188 0.671188 0.671188
0.676248 0.676248 0.676248
0.681726 0.681726 0.681726
0.687622 0.687622 0.687622
0.693933 0.693933 0.693933
0.700657 0.700657 0.700657
0.707788 0.707788 0.707788
0.715323 0.715323 0.715323
0.723253 0.723253 0.723253
0.731574 0.731574 0.731574
0.740276 0.740276 0.740276
0.749351 0.749351 0.749351
0.758791 0.758791 0.758791
0.768587 0.768587 0.768587
0.778728 0.778728 0.778728
0.789205 0.789205 0.789205
0.799252 0.799252 0.799252
0.799252 0.799252 0.799252
0.799252 0.799252 0.799252
0.799252 0.799252 0.799252
0.673920 0.673920 0.673920
0.674459 0.674459 0.674459
0.675059 0.675059 0.675059
0.675913 0.675913 0.675913
0.677056 0.677056 0.677056
0.678507 0.678507 0.678507
0.680286 0.680286 0.680286
0.682407 0.682407 0.682407
0.684885 0.684885 0.684885
0.687730 0.687730 0.687730
0.690952 0.690952 0.690952
0.694559 0.694559 0.694559
0.698557 0.698557 0.698557
0.702950 0.702950 0.702950
0.707741 0.707741 0.707741
0.712933 0.712933 0.712933
0.718524 0.718524 0.718524
0.724516 0.724516 0.724516
0.730905 0.730905 0.730905
0.737688 0.737688 0.737688
0.744861 0.744861 0.744861
0.752420 0.752420 0.752420
0.760359 0.760359 0.760359
0.768670 0.768670 0.768670
0.777348 0.777348 0.777348
0.786384 0.786384 0.786384
0.795770 0.795770 0.795770
0.805499 0.805499 0.805499
0.815560 0.815560 0.815560
0.825218 0.825218 0.825218
0.825218 0.825218 0.825218
0.825218 0.825218 0.825218
0.825218 0.825218 0.825218
0.707401 0.707401 0.707401
0.707910 0.707910 0.707910
0.708476 0.708476 0.708476
0.709283 0.709283 0.709283
0.710362 0.710362 0.710362
0.711733 0.711733 0.711733
0.713414 0.713414 0.713414
0.715419 0.715419 0.715419
0.717761 0.717761 0.717761
0.720452 0.720452 0.720452
0.723501 0.723501 0.723501
0.726916 0.726916 0.726916
0.730703 0.730703 0.730703
0.734867 0.734867 0.734867
0.739412 0.739412 0.739412
0.744340 0.744340 0.744340
0.749652 0.749652 0.749652
0.755348 0.755348 0.755348
0.761427 0.761427 0.761427
0.767887 0.767887 0.767887
0.774725 0.774725 0.774725
0.781937 0.781937 0.781937
0.789519 0.789519 0.789519
0.797464 0.797464 0.797464
0.805768 0.805768 0.805768
0.814423 0.814423 0.814423
0.823422 0.823422 0.823422
0.832759 0.832759 0.832759
0.842425 0.842425 0.842425
0.851714 0.851714 0.851714
0.851714 0.851714 0.851714
0.851714 0.851714 0.851714
0.851714 0.851714 0.851714
0.740883 0.740883 0.740883
0.741364 0.741364 0.741364
0.741900 0.741900 0.741900
0.742663 0.742663 0.742663
0.743684 0.743684 0.743684
0.744982 0.744982 0.744982
0.746573 0.746573 0.746573
0.748472 0.748472 0.748472
0.750691 0.750691 0.750691
0.753242 0.753242 0.753242
0.756133 0.756133 0.756133
0.759372 0.759372 0.759372
0.762966 0.762966 0.762966
0.766920 0.766920 0.766920
0.771238 0.771238 0.771238
0.775924 0.775924 0.775924
0.780978 0.780978 0.780978
0.786401 0.786401 0.786401
0.792194 0.792194 0.792194
0.798354 0.798354 0.798354
0.804880 0.804880 0.804880
0.811768 0.811768 0.811768
0.819016 0.819016 0.819016
0.826618 0.826618 0.826618
0.834570 0.834570 0.834570
0.842866 0.842866 0.842866
0.851500 0.851500 0.851500
0.860466 0.860466 0.860466
0.869757 0.869757 0.869757
0.878692 0.878692 0.878692
0.878692 0.878692 0.878692
0.878692 0.878692 0.878692
0.878692 0.878692 0.878692
0.774364 0.774364 0.774364
0.774821 0.774821 0.774821
0.775329 0.775329 0.775329
0.776052 0.776052 0.776052
0.777021 0.777021 0.777021
0.778252 0.778252 0.778252
0.779762 0.779762 0.779762
0.781563 0.781563 0.781563
0.783670 0.783670 0.783670
0.786092 0.786092 0.786092
0.788838 0.788838 0.788838
0.791916 0.791916 0.791916
0.795333 0.795333 0.795333
0.799094 0.799094 0.799094
0.803203 0.803203 0.803203
0.807665 0.807665 0.807665
0.812480 0.812480 0.812480
0.817651 0.817651 0.817651
0.823178 0.823178 0.823178
0.829059 0.829059 0.829059
0.835294 0.835294 0.835294
0.841880 0.841880 0.841880
0.848816 0.848816 0.848816
0.856096 0.856096 0.856096
0.863717 0.863717 0.863717
0.871675 0.871675 0.871675
0.879964 0.879964 0.879964
0.888579 0.888579 0.888579
0.897514 0.897514 0.897514
0.906114 0.906114 0.906114
0.906114 0.906114 0.906114
0.906114 0.906114 0.906114
0.906114 0.906114 0.906114
0.807845 0.807845 0.807845
0.808280 0.808280 0.808280
0.808762 0.808762 0.808762
0.809450 0.809450 0.809450
0.810370 0.810370 0.810370
0.811540 0.811540 0.811540
0.812975 0.812975 0.812975
0.814688 0.814688 0.814688
0.816691 0.816691 0.816691
0.818994 0.818994 0.818994
0.821607 0.821607 0.821607
0.824537 0.824537 0.824537
0.827791 0.827791 0.827791
0.831374 0.831374 0.831374
0.835291 0.835291 0.835291
0.839546 0.839546 0.839546
0.844141 0.844141 0.844141
0.849077 0.849077 0.849077
0.854356 0.854356 0.854356
0.859978 0.859978 0.859978
0.865942 0.865942 0.865942
0.872246 0.872246 0.872246
0.878889 0.878889 0.878889
0.885867 0.885867 0.885867
