docs/luts/fuji_recipes/Acros_EM_Acros.cube
TITLE "Fujifilm Recipe: EM Acros (Acros)"
# FilmSim=Acros HL=2 SH=2 Col=0 WB=Auto WBR=0 WBB=0
LUT_3D_SIZE 5
DOMAIN_MIN 0.0 0.0 0.0
DOMAIN_MAX 1.0 1.0 1.0
0.000000 0.000000 0.000000
0.096599 0.096599 0.096599
0.217254 0.217254 0.217254
0.337910 0.337910 0.337910
0.458565 0.458565 0.458565
0.193424 0.193424 0.193424
0.221374 0.221374 0.221374
0.291556 0.291556 0.291556
0.386592 0.386592 0.386592
0.538985 0.538985 0.538985
0.393444 0.393444 0.393444
0.406257 0.406257 0.406257
0.444303 0.444303 0.444303
0.554927 0.554927 0.554927
0.649866 0.649866 0.649866
0.656674 0.656674 0.656674
0.665716 0.665716 0.665716
0.693753 0.693753 0.693753
0.743273 0.743273 0.743273
0.812741 0.812741 0.812741
0.891480 0.891480 0.891480
0.897697 0.897697 0.897697
0.917277 0.917277 0.917277
0.952920 0.952920 0.952920
1.000000 1.000000 1.000000
0.043259 0.043259 0.043259
0.115670 0.115670 0.115670
0.226060 0.226060 0.226060
0.343212 0.343212 0.343212
0.502597 0.502597 0.502597
0.203401 0.203401 0.203401
0.230000 0.230000 0.230000
0.297869 0.297869 0.297869
0.391097 0.391097 0.391097
0.542893 0.542893 0.542893
0.397852 0.397852 0.397852
0.410495 0.410495 0.410495
0.448097 0.448097 0.448097
0.558702 0.558702 0.558702
0.652993 0.652993 0.652993
0.659762 0.659762 0.659762
0.668753 0.668753 0.668753
0.696642 0.696642 0.696642
0.745927 0.745927 0.745927
0.815117 0.815117 0.815117
0.893597 0.893597 0.893597
0.899795 0.899795 0.899795
0.919320 0.919320 0.919320
0.954866 0.954866 0.954866
1.000000 1.000000 1.000000
0.120193 0.120193 0.120193
0.162450 0.162450 0.162450
0.251956 0.251956 0.251956
0.359577 0.359577 0.359577
0.516049 0.516049 0.516049
0.232204 0.232204 0.232204
0.255439 0.255439 0.255439
0.317110 0.317110 0.317110
0.405128 0.405128 0.405128
0.555205 0.555205 0.555205
0.411599 0.411599 0.411599
0.423735 0.423735 0.423735
0.460000 0.460000 0.460000
0.570612 0.570612 0.570612
0.662900 0.662900 0.662900
0.669548 0.669548 0.669548
0.678382 0.678382 0.678382
0.705808 0.705808 0.705808
0.754363 0.754363 0.754363
0.822682 0.822682 0.822682
0.900345 0.900345 0.900345
0.906486 0.906486 0.906486
0.925832 0.925832 0.925832
0.961076 0.961076 0.961076
1.000000 1.000000 1.000000
0.197127 0.197127 0.197127
0.224563 0.224563 0.224563
0.293876 0.293876 0.293876
0.388243 0.388243 0.388243
0.540414 0.540414 0.540414
0.277618 0.277618 0.277618
0.296787 0.296787 0.296787
0.350072 0.350072 0.350072
0.430119 0.430119 0.430119
0.577637 0.577637 0.577637
0.436131 0.436131 0.436131
0.447443 0.447443 0.447443
0.525240 0.525240 0.525240
0.592352 0.592352 0.592352
0.681154 0.681154 0.681154
0.687587 0.687587 0.687587
0.696143 0.696143 0.696143
0.722749 0.722749 0.722749
0.770000 0.770000 0.770000
0.836752 0.836752 0.836752
0.912932 0.912932 0.912932
0.918966 0.918966 0.918966
0.937989 0.937989 0.937989
0.972678 0.972678 0.972678
1.000000 1.000000 1.000000
0.274061 0.274061 0.274061
0.293505 0.293505 0.293505
0.347390 0.347390 0.347390
0.428044 0.428044 0.428044
0.575751 0.575751 0.575751
0.334240 0.334240 0.334240
0.349771 0.349771 0.349771
0.394661 0.394661 0.394661
0.506524 0.506524 0.506524
0.610437 0.610437 0.610437
0.512921 0.512921 0.512921
0.525003 0.525003 0.525003
0.561706 0.561706 0.561706
0.624231 0.624231 0.624231
0.708285 0.708285 0.708285
0.714420 0.714420 0.714420
0.722587 0.722587 0.722587
0.748046 0.748046 0.748046
0.793455 0.793455 0.793455
0.857963 0.857963 0.857963
0.931993 0.931993 0.931993
0.937873 0.937873 0.937873
0.956423 0.956423 0.956423
0.990298 0.990298 0.990298
1.000000 1.000000 1.000000
