docs/luts/fuji_recipes/Acros_VM_Double_A.cube
TITLE "Fujifilm Recipe: VM Double A (Acros)"
# FilmSim=Acros HL=-2 SH=-1 Col=0 WB=Auto WBR=0 WBB=0
LUT_3D_SIZE 9
DOMAIN_MIN 0.0 0.0 0.0
DOMAIN_MAX 1.0 1.0 1.0
0.040000 0.040000 0.040000
0.077839 0.077839 0.077839
0.140799 0.140799 0.140799
0.203750 0.203750 0.203750
0.266700 0.266700 0.266700
0.329651 0.329651 0.329651
0.392601 0.392601 0.392601
0.455552 0.455552 0.455552
0.518502 0.518502 0.518502
0.137476 0.137476 0.137476
0.154688 0.154688 0.154688
0.190029 0.190029 0.190029
0.237530 0.237530 0.237530
0.291418 0.291418 0.291418
0.348670 0.348670 0.348670
0.407806 0.407806 0.407806
0.468067 0.468067 0.468067
0.508289 0.508289 0.508289
0.241834 0.241834 0.241834
0.250521 0.250521 0.250521
0.270999 0.270999 0.270999
0.303111 0.303111 0.303111
0.344232 0.344232 0.344232
0.391675 0.391675 0.391675
0.443401 0.443401 0.443401
0.498028 0.498028 0.498028
0.531766 0.531766 0.531766
0.346192 0.346192 0.346192
0.351634 0.351634 0.351634
0.364996 0.364996 0.364996
0.387310 0.387310 0.387310
0.417930 0.417930 0.417930
0.455539 0.455539 0.455539
0.498685 0.498685 0.498685
0.523907 0.523907 0.523907
0.570302 0.570302 0.570302
0.450550 0.450550 0.450550
0.454375 0.454375 0.454375
0.463920 0.463920 0.463920
0.480307 0.480307 0.480307
0.503621 0.503621 0.503621
0.512271 0.512271 0.512271
0.544755 0.544755 0.544755
0.581628 0.581628 0.581628
0.622113 0.622113 0.622113
0.531999 0.531999 0.531999
0.534643 0.534643 0.534643
0.541292 0.541292 0.541292
0.552867 0.552867 0.552867
0.569659 0.569659 0.569659
0.591604 0.591604 0.591604
0.618383 0.618383 0.618383
0.649525 0.649525 0.649525
0.684492 0.684492 0.684492
0.627660 0.627660 0.627660
0.629751 0.629751 0.629751
0.635028 0.635028 0.635028
0.644287 0.644287 0.644287
0.657873 0.657873 0.657873
0.675884 0.675884 0.675884
0.698222 0.698222 0.698222
0.724647 0.724647 0.724647
0.754826 0.754826 0.754826
0.723322 0.723322 0.723322
0.725031 0.725031 0.725031
0.729356 0.729356 0.729356
0.736980 0.736980 0.736980
0.748246 0.748246 0.748246
0.763318 0.763318 0.763318
0.782216 0.782216 0.782216
0.804841 0.804841 0.804841
0.831004 0.831004 0.831004
0.818984 0.818984 0.818984
0.820417 0.820417 0.820417
0.824049 0.824049 0.824049
0.830471 0.830471 0.830471
0.840004 0.840004 0.840004
0.852836 0.852836 0.852836
0.869046 0.869046 0.869046
0.888617 0.888617 0.888617
0.911459 0.911459 0.911459
0.052850 0.052850 0.052850
0.089593 0.089593 0.089593
0.146767 0.146767 0.146767
0.207494 0.207494 0.207494
0.269334 0.269334 0.269334
0.331638 0.331638 0.331638
0.394172 0.394172 0.394172
0.456836 0.456836 0.456836
0.519580 0.519580 0.519580
0.143620 0.143620 0.143620
0.160000 0.160000 0.160000
0.194125 0.194125 0.194125
0.240598 0.240598 0.240598
0.293760 0.293760 0.293760
0.350514 0.350514 0.350514
0.409298 0.409298 0.409298
0.469305 0.469305 0.469305
0.509250 0.509250 0.509250
0.244830 0.244830 0.244830
0.253381 0.253381 0.253381
0.273578 0.273578 0.273578
0.305333 0.305333 0.305333
0.346107 0.346107 0.346107
0.393251 0.393251 0.393251
0.444733 0.444733 0.444733
0.499166 0.499166 0.499166
0.532667 0.532667 0.532667
0.348053 0.348053 0.348053
0.353456 0.353456 0.353456
0.366729 0.366729 0.366729
0.388910 0.388910 0.388910
0.419374 0.419374 0.419374
0.456824 0.456824 0.456824
0.499821 0.499821 0.499821
0.524827 0.524827 0.524827
0.571117 0.571117 0.571117
0.451854 0.451854 0.451854
0.455664 0.455664 0.455664
0.465173 0.465173 0.465173
0.481503 0.481503 0.481503
0.504741 0.504741 0.504741
0.513221 0.513221 0.513221
0.545625 0.545625 0.545625
0.582421 0.582421 0.582421
0.622833 0.622833 0.622833
0.532899 0.532899 0.532899
0.535537 0.535537 0.535537
0.542170 0.542170 0.542170
0.553719 0.553719 0.553719
0.570475 0.570475 0.570475
0.592378 0.592378 0.592378
0.619109 0.619109 0.619109
0.650202 0.650202 0.650202
0.685121 0.685121 0.685121
0.628372 0.628372 0.628372
0.630459 0.630459 0.630459
0.635728 0.635728 0.635728
0.644972 0.644972 0.644972
0.658538 0.658538 0.658538
0.676524 0.676524 0.676524
0.698833 0.698833 0.698833
0.725227 0.725227 0.725227
0.755373 0.755373 0.755373
0.723903 0.723903 0.723903
0.725610 0.725610 0.725610
0.729931 0.729931 0.729931
0.737546 0.737546 0.737546
0.748800 0.748800 0.748800
0.763857 0.763857 0.763857
0.782736 0.782736 0.782736
0.805340 0.805340 0.805340
0.831481 0.831481 0.831481
0.819471 0.819471 0.819471
0.820903 0.820903 0.820903
0.824532 0.824532 0.824532
0.830948 0.830948 0.830948
0.840473 0.840473 0.840473
0.853296 0.853296 0.853296
0.869493 0.869493 0.869493
0.889051 0.889051 0.889051
0.911878 0.911878 0.911878
0.085140 0.085140 0.085140
0.113200 0.113200 0.113200
0.160699 0.160699 0.160699
0.216645 0.216645 0.216645
0.275889 0.275889 0.275889
0.336625 0.336625 0.336625
0.398134 0.398134 0.398134
0.460085 0.460085 0.460085
0.502116 0.502116 0.502116
0.157907 0.157907 0.157907
0.172584 0.172584 0.172584
0.204070 0.204070 0.204070
0.248180 0.248180 0.248180
0.299612 0.299612 0.299612
0.355147 0.355147 0.355147
0.413065 0.413065 0.413065
0.472437 0.472437 0.472437
0.511684 0.511684 0.511684
0.252245 0.252245 0.252245
0.260475 0.260475 0.260475
0.280000 0.280000 0.280000
0.310896 0.310896 0.310896
0.350819 0.350819 0.350819
0.397225 0.397225 0.397225
0.448101 0.448101 0.448101
0.502047 0.502047 0.502047
0.534950 0.534950 0.534950
0.352730 0.352730 0.352730
0.358038 0.358038 0.358038
0.371092 0.371092 0.371092
0.392943 0.392943 0.392943
0.423019 0.423019 0.423019
0.460072 0.460072 0.460072
0.502697 0.502697 0.502697
0.527158 0.527158 0.527158
0.573184 0.573184 0.573184
0.455150 0.455150 0.455150
0.458924 0.458924 0.458924
0.468343 0.468343 0.468343
0.484528 0.484528 0.484528
0.507579 0.507579 0.507579
0.515628 0.515628 0.515628
0.547831 0.547831 0.547831
0.584431 0.584431 0.584431
0.624661 0.624661 0.624661
0.535181 0.535181 0.535181
0.537803 0.537803 0.537803
0.544396 0.544396 0.544396
0.555879 0.555879 0.555879
0.572546 0.572546 0.572546
0.594340 0.594340 0.594340
0.620952 0.620952 0.620952
0.651921 0.651921 0.651921
0.686717 0.686717 0.686717
0.630176 0.630176 0.630176
0.632255 0.632255 0.632255
0.637503 0.637503 0.637503
0.646711 0.646711 0.646711
0.660227 0.660227 0.660227
0.678149 0.678149 0.678149
0.700385 0.700385 0.700385
0.726699 0.726699 0.726699
0.756762 0.756762 0.756762
0.725379 0.725379 0.725379
0.727082 0.727082 0.727082
0.731389 0.731389 0.731389
0.738984 0.738984 0.738984
0.750207 0.750207 0.750207
0.765224 0.765224 0.765224
0.784057 0.784057 0.784057
0.806609 0.806609 0.806609
0.832694 0.832694 0.832694
0.820709 0.820709 0.820709
0.822138 0.822138 0.822138
0.825759 0.825759 0.825759
0.832162 0.832162 0.832162
0.841668 0.841668 0.841668
0.854465 0.854465 0.854465
0.870632 0.870632 0.870632
0.890154 0.890154 0.890154
0.912942 0.912942 0.912942
0.125280 0.125280 0.125280
0.144356 0.144356 0.144356
0.182258 0.182258 0.182258
0.231805 0.231805 0.231805
0.287087 0.287087 0.287087
0.345280 0.345280 0.345280
0.405069 0.405069 0.405069
0.465801 0.465801 0.465801
0.506532 0.506532 0.506532
0.179895 0.179895 0.179895
0.192458 0.192458 0.192458
0.220372 0.220372 0.220372
0.260987 0.260987 0.260987
0.309683 0.309683 0.309683
0.363214 0.363214 0.363214
0.419668 0.419668 0.419668
0.477954 0.477954 0.477954
0.515984 0.515984 0.515984
0.264792 0.264792 0.264792
0.272523 0.272523 0.272523
0.290988 0.290988 0.290988
0.320496 0.320496 0.320496
0.359017 0.359017 0.359017
0.404181 0.404181 0.404181
0.454024 0.454024 0.454024
0.507130 0.507130 0.507130
0.538987 0.538987 0.538987
0.360870 0.360870 0.360870
0.366019 0.366019 0.366019
0.378705 0.378705 0.378705
0.400000 0.400000 0.400000
0.429415 0.429415 0.429415
0.465788 0.465788 0.465788
0.507771 0.507771 0.507771
0.531281 0.531281 0.531281
0.576845 0.576845 0.576845
0.460950 0.460950 0.460950
0.464659 0.464659 0.464659
0.473924 0.473924 0.473924
0.489860 0.489860 0.489860
0.512587 0.512587 0.512587
0.519882 0.519882 0.519882
0.551735 0.551735 0.551735
0.587993 0.587993 0.587993
0.627902 0.627902 0.627902
0.539216 0.539216 0.539216
0.541810 0.541810 0.541810
0.548335 0.548335 0.548335
0.559703 0.559703 0.559703
0.576213 0.576213 0.576213
0.597818 0.597818 0.597818
0.624221 0.624221 0.624221
0.654971 0.654971 0.654971
0.689551 0.689551 0.689551
0.633377 0.633377 0.633377
0.635441 0.635441 0.635441
0.640651 0.640651 0.640651
0.649797 0.649797 0.649797
0.663223 0.663223 0.663223
0.681033 0.681033 0.681033
0.703141 0.703141 0.703141
0.729314 0.729314 0.729314
0.759232 0.759232 0.759232
0.728001 0.728001 0.728001
0.729695 0.729695 0.729695
0.733981 0.733981 0.733981
0.741537 0.741537 0.741537
0.752707 0.752707 0.752707
0.767655 0.767655 0.767655
0.786406 0.786406 0.786406
0.808865 0.808865 0.808865
0.834851 0.834851 0.834851
0.822910 0.822910 0.822910
0.824334 0.824334 0.824334
0.827942 0.827942 0.827942
0.834321 0.834321 0.834321
0.843792 0.843792 0.843792
0.856544 0.856544 0.856544
0.872657 0.872657 0.872657
0.892117 0.892117 0.892117
0.914835 0.914835 0.914835
0.165419 0.165419 0.165419
0.179313 0.179313 0.179313
0.209513 0.209513 0.209513
0.252407 0.252407 0.252407
0.302911 0.302911 0.302911
0.357777 0.357777 0.357777
0.415211 0.415211 0.415211
0.474227 0.474227 0.474227
0.513077 0.513077 0.513077
0.207551 0.207551 0.207551
0.218087 0.218087 0.218087
0.242260 0.242260 0.242260
0.278811 0.278811 0.278811
0.324057 0.324057 0.324057
0.374915 0.374915 0.374915
0.429346 0.429346 0.429346
0.486095 0.486095 0.486095
0.522359 0.522359 0.522359
0.282300 0.282300 0.282300
0.289415 0.289415 0.289415
0.306545 0.306545 0.306545
0.334253 0.334253 0.334253
0.370897 0.370897 0.370897
0.414352 0.414352 0.414352
0.462742 0.462742 0.462742
0.514650 0.514650 0.514650
0.544982 0.544982 0.544982
0.372670 0.372670 0.372670
0.377604 0.377604 0.377604
0.389785 0.389785 0.389785
0.410312 0.410312 0.410312
0.438804 0.438804 0.438804
0.474215 0.474215 0.474215
0.515278 0.515278 0.515278
0.537399 0.537399 0.537399
0.582292 0.582292 0.582292
0.469494 0.469494 0.469494
0.473113 0.473113 0.473113
0.482158 0.482158 0.482158
0.497737 0.497737 0.497737
0.520000 0.520000 0.520000
0.526190 0.526190 0.526190
0.557535 0.557535 0.557535
0.593294 0.593294 0.593294
0.632734 0.632734 0.632734
0.545207 0.545207 0.545207
0.547761 0.547761 0.547761
0.554186 0.554186 0.554186
0.565387 0.565387 0.565387
0.581668 0.581668 0.581668
0.602997 0.602997 0.602997
0.629093 0.629093 0.629093
0.659524 0.659524 0.659524
0.693784 0.693784 0.693784
0.638150 0.638150 0.638150
0.640192 0.640192 0.640192
0.645348 0.645348 0.645348
0.654400 0.654400 0.654400
0.667695 0.667695 0.667695
0.685342 0.685342 0.685342
0.707259 0.707259 0.707259
0.733225 0.733225 0.733225
0.762926 0.762926 0.762926
0.731922 0.731922 0.731922
0.733603 0.733603 0.733603
0.737856 0.737856 0.737856
0.745357 0.745357 0.745357
0.756446 0.756446 0.756446
0.771293 0.771293 0.771293
0.789921 0.789921 0.789921
0.812243 0.812243 0.812243
0.838081 0.838081 0.838081
0.826207 0.826207 0.826207
0.827623 0.827623 0.827623
0.831210 0.831210 0.831210
0.837554 0.837554 0.837554
0.846975 0.846975 0.846975
0.859660 0.859660 0.859660
0.875691 0.875691 0.875691
0.895058 0.895058 0.895058
0.917674 0.917674 0.917674
0.205559 0.205559 0.205559
0.216223 0.216223 0.216223
0.240640 0.240640 0.240640
0.277470 0.277470 0.277470
0.322962 0.322962 0.322962
0.374017 0.374017 0.374017
0.428599 0.428599 0.428599
0.485464 0.485464 0.485464
0.521864 0.521864 0.521864
0.239009 0.239009 0.239009
0.247828 0.247828 0.247828
0.268577 0.268577 0.268577
0.301029 0.301029 0.301029
0.342480 0.342480 0.342480
0.390205 0.390205 0.390205
0.442160 0.442160 0.442160
0.496969 0.496969 0.496969
0.530928 0.530928 0.530928
0.304180 0.304180 0.304180
0.310635 0.310635 0.310635
0.326300 0.326300 0.326300
0.351966 0.351966 0.351966
0.386401 0.386401 0.386401
0.427777 0.427777 0.427777
0.474350 0.474350 0.474350
0.504333 0.504333 0.504333
0.553056 0.553056 0.553056
0.388079 0.388079 0.388079
0.392753 0.392753 0.392753
0.404323 0.404323 0.404323
0.423909 0.423909 0.423909
0.451255 0.451255 0.451255
0.485452 0.485452 0.485452
0.504894 0.504894 0.504894
0.545633 0.545633 0.545633
0.589648 0.589648 0.589648
0.480882 0.480882 0.480882
0.484385 0.484385 0.484385
0.493150 0.493150 0.493150
0.508275 0.508275 0.508275
0.509111 0.509111 0.509111
0.534672 0.534672 0.534672
0.565355 0.565355 0.565355
0.600459 0.600459 0.600459
0.639278 0.639278 0.639278
0.553276 0.553276 0.553276
0.555777 0.555777 0.555777
0.562072 0.562072 0.562072
0.573054 0.573054 0.573054
0.589036 0.589036 0.589036
0.610000 0.610000 0.610000
0.635691 0.635691 0.635691
0.665697 0.665697 0.665697
0.699531 0.699531 0.699531
0.644616 0.644616 0.644616
0.646629 0.646629 0.646629
0.651713 0.651713 0.651713
0.660641 0.660641 0.660641
0.673762 0.673762 0.673762
0.691189 0.691189 0.691189
0.712853 0.712853 0.712853
0.738541 0.738541 0.738541
0.767953 0.767953 0.767953
0.737252 0.737252 0.737252
0.738915 0.738915 0.738915
0.743126 0.743126 0.743126
0.750552 0.750552 0.750552
0.761534 0.761534 0.761534
0.776243 0.776243 0.776243
0.794708 0.794708 0.794708
0.816845 0.816845 0.816845
0.842484 0.842484 0.842484
0.830700 0.830700 0.830700
0.832105 0.832105 0.832105
0.835665 0.835665 0.835665
0.841962 0.841962 0.841962
0.851313 0.851313 0.851313
0.863908 0.863908 0.863908
0.879830 0.879830 0.879830
0.899071 0.899071 0.899071
0.921548 0.921548 0.921548
0.245698 0.245698 0.245698
0.254211 0.254211 0.254211
0.274327 0.274327 0.274327
0.305980 0.305980 0.305980
0.346654 0.346654 0.346654
0.393711 0.393711 0.393711
0.445123 0.445123 0.445123
0.499499 0.499499 0.499499
0.532930 0.532930 0.532930
0.272959 0.272959 0.272959
0.280392 0.280392 0.280392
0.298215 0.298215 0.298215
0.326863 0.326863 0.326863
0.364498 0.364498 0.364498
0.408860 0.408860 0.408860
0.458026 0.458026 0.458026
0.510576 0.510576 0.510576
0.541731 0.541731 0.541731
0.329688 0.329688 0.329688
0.335493 0.335493 0.335493
0.349691 0.349691 0.349691
0.373239 0.373239 0.373239
0.405292 0.405292 0.405292
0.444342 0.444342 0.444342
0.488820 0.488820 0.488820
0.515940 0.515940 0.515940
0.563260 0.563260 0.563260
0.406865 0.406865 0.406865
0.411253 0.411253 0.411253
0.422144 0.422144 0.422144
0.440671 0.440671 0.440671
0.466705 0.466705 0.466705
0.499487 0.499487 0.499487
0.516483 0.516483 0.516483
0.556032 0.556032 0.556032
0.598977 0.598977 0.598977
0.495093 0.495093 0.495093
0.498461 0.498461 0.498461
0.506897 0.506897 0.506897
0.501359 0.501359 0.501359
0.520566 0.520566 0.520566
0.545369 0.545369 0.545369
0.575250 0.575250 0.575250
0.609554 0.609554 0.609554
0.647607 0.647607 0.647607
0.563474 0.563474 0.563474
0.565911 0.565911 0.565911
0.572048 0.572048 0.572048
0.582764 0.582764 0.582764
0.598378 0.598378 0.598378
0.618896 0.618896 0.618896
0.644086 0.644086 0.644086
0.673566 0.673566 0.673566
0.706871 0.706871 0.706871
0.652849 0.652849 0.652849
0.654826 0.654826 0.654826
0.659820 0.659820 0.659820
0.668595 0.668595 0.668595
0.681499 0.681499 0.681499
0.698654 0.698654 0.698654
0.720000 0.720000 0.720000
0.745342 0.745342 0.745342
0.774390 0.774390 0.774390
0.744069 0.744069 0.744069
0.745711 0.745711 0.745711
0.749868 0.749868 0.749868
0.757200 0.757200 0.757200
0.768048 0.768048 0.768048
0.782583 0.782583 0.782583
0.800842 0.800842 0.800842
0.822747 0.822747 0.822747
0.848134 0.848134 0.848134
0.836463 0.836463 0.836463
0.837854 0.837854 0.837854
0.841380 0.841380 0.841380
0.847616 0.847616 0.847616
0.856880 0.856880 0.856880
0.869362 0.869362 0.869362
0.885145 0.885145 0.885145
0.904227 0.904227 0.904227
0.926528 0.926528 0.926528
0.285838 0.285838 0.285838
0.292839 0.292839 0.292839
0.309717 0.309717 0.309717
0.337080 0.337080 0.337080
0.373357 0.373357 0.373357
0.416471 0.416471 0.416471
0.464567 0.464567 0.464567
0.516229 0.516229 0.516229
0.546244 0.546244 0.546244
0.308556 0.308556 0.308556
0.314890 0.314890 0.314890
0.330287 0.330287 0.330287
0.355570 0.355570 0.355570
0.389582 0.389582 0.389582
0.430551 0.430551 0.430551
0.476762 0.476762 0.476762
0.506261 0.506261 0.506261
0.554746 0.554746 0.554746
0.358094 0.358094 0.358094
0.363297 0.363297 0.363297
0.376106 0.376106 0.376106
0.397589 0.397589 0.397589
0.427227 0.427227 0.427227
0.463830 0.463830 0.463830
0.506031 0.506031 0.506031
0.529866 0.529866 0.529866
0.575588 0.575588 0.575588
0.428692 0.428692 0.428692
0.432782 0.432782 0.432782
0.442963 0.442963 0.442963
0.460370 0.460370 0.460370
0.484989 0.484989 0.484989
0.516218 0.516218 0.516218
0.530389 0.530389 0.530389
0.568583 0.568583 0.568583
0.610293 0.610293 0.610293
0.512019 0.512019 0.512019
0.515237 0.515237 0.515237
0.503031 0.503031 0.503031
0.515849 0.515849 0.515849
0.534321 0.534321 0.534321
0.558264 0.558264 0.558264
0.587221 0.587221 0.587221
0.620596 0.620596 0.620596
0.657754 0.657754 0.657754
0.575796 0.575796 0.575796
0.578159 0.578159 0.578159
0.584113 0.584113 0.584113
0.594521 0.594521 0.594521
0.609709 0.609709 0.609709
0.629706 0.629706 0.629706
0.654310 0.654310 0.654310
0.683169 0.683169 0.683169
0.715847 0.715847 0.715847
0.662882 0.662882 0.662882
0.664816 0.664816 0.664816
0.669705 0.669705 0.669705
0.678299 0.678299 0.678299
0.690946 0.690946 0.690946
0.707777 0.707777 0.707777
0.728747 0.728747 0.728747
0.753675 0.753675 0.753675
0.782288 0.782288 0.782288
0.752422 0.752422 0.752422
0.754038 0.754038 0.754038
0.758130 0.758130 0.758130
0.765350 0.765350 0.765350
0.776037 0.776037 0.776037
0.790365 0.790365 0.790365
0.808375 0.808375 0.808375
0.830000 0.830000 0.830000
0.855085 0.855085 0.855085
0.843550 0.843550 0.843550
0.844924 0.844924 0.844924
0.848409 0.848409 0.848409
0.854573 0.854573 0.854573
0.863731 0.863731 0.863731
0.876075 0.876075 0.876075
0.891691 0.891691 0.891691
0.910579 0.910579 0.910579
0.932666 0.932666 0.932666
0.325977 0.325977 0.325977
0.331870 0.331870 0.331870
0.346267 0.346267 0.346267
0.370107 0.370107 0.370107
0.402493 0.402493 0.402493
0.441874 0.441874 0.441874
0.486655 0.486655 0.486655
0.514197 0.514197 0.514197
0.561723 0.561723 0.561723
0.345268 0.345268 0.345268
0.350729 0.350729 0.350729
0.364136 0.364136 0.364136
0.386516 0.386516 0.386516
0.417214 0.417214 0.417214
0.454903 0.454903 0.454903
0.498123 0.498123 0.498123
0.523451 0.523451 0.523451
0.569898 0.569898 0.569898
0.388772 0.388772 0.388772
0.393435 0.393435 0.393435
0.404979 0.404979 0.404979
0.424525 0.424525 0.424525
0.451821 0.451821 0.451821
0.485964 0.485964 0.485964
0.505316 0.505316 0.505316
0.546010 0.546010 0.546010
0.589985 0.589985 0.589985
0.453178 0.453178 0.453178
0.456974 0.456974 0.456974
0.466446 0.466446 0.466446
0.482718 0.482718 0.482718
0.505881 0.505881 0.505881
0.514187 0.514187 0.514187
0.546511 0.546511 0.546511
0.583227 0.583227 0.583227
0.623566 0.623566 0.623566
0.510528 0.510528 0.510528
0.513332 0.513332 0.513332
0.520373 0.520373 0.520373
0.532601 0.532601 0.532601
0.550279 0.550279 0.550279
0.573284 0.573284 0.573284
0.601225 0.601225 0.601225
0.633565 0.633565 0.633565
0.669713 0.669713 0.669713
0.590186 0.590186 0.590186
0.592468 0.592468 0.592468
0.598220 0.598220 0.598220
0.608286 0.608286 0.608286
0.623001 0.623001 0.623001
0.642414 0.642414 0.642414
0.666358 0.666358 0.666358
0.694512 0.694512 0.694512
0.726473 0.726473 0.726473
0.674712 0.674712 0.674712
0.676599 0.676599 0.676599
0.681368 0.681368 0.681368
0.689756 0.689756 0.689756
0.702112 0.702112 0.702112
0.718574 0.718574 0.718574
0.739112 0.739112 0.739112
0.763563 0.763563 0.763563
0.791673 0.791673 0.791673
0.762333 0.762333 0.762333
0.763920 0.763920 0.763920
0.767937 0.767937 0.767937
0.775028 0.775028 0.775028
0.785529 0.785529 0.785529
0.799616 0.799616 0.799616
0.817340 0.817340 0.817340
0.838638 0.838638 0.838638
0.863370 0.863370 0.863370
0.851995 0.851995 0.851995
0.853350 0.853350 0.853350
0.856785 0.856785 0.856785
0.862865 0.862865 0.862865
0.871900 0.871900 0.871900
0.884083 0.884083 0.884083
0.899502 0.899502 0.899502
0.918164 0.918164 0.918164
0.940000 0.940000 0.940000
