docs/luts/fuji_recipes/AcrosG_SS_Acros.cube
TITLE "Fujifilm Recipe: SS Acros (AcrosG)"
# FilmSim=AcrosG HL=-2 SH=2 Col=0 WB=Auto WBR=0 WBB=0
LUT_3D_SIZE 9
DOMAIN_MIN 0.0 0.0 0.0
DOMAIN_MAX 1.0 1.0 1.0
0.000000 0.000000 0.000000
0.031549 0.031549 0.031549
0.088301 0.088301 0.088301
0.145228 0.145228 0.145228
0.202154 0.202154 0.202154
0.259081 0.259081 0.259081
0.316008 0.316008 0.316008
0.372934 0.372934 0.372934
0.429861 0.429861 0.429861
0.102050 0.102050 0.102050
0.115512 0.115512 0.115512
0.144289 0.144289 0.144289
0.184461 0.184461 0.184461
0.231182 0.231182 0.231182
0.281554 0.281554 0.281554
0.334037 0.334037 0.334037
0.387808 0.387808 0.387808
0.442405 0.442405 0.442405
0.208056 0.208056 0.208056
0.214770 0.214770 0.214770
0.230868 0.230868 0.230868
0.256751 0.256751 0.256751
0.290758 0.290758 0.290758
0.330851 0.330851 0.330851
0.375292 0.375292 0.375292
0.422797 0.422797 0.422797
0.511932 0.511932 0.511932
0.314063 0.314063 0.314063
0.318256 0.318256 0.318256
0.328637 0.328637 0.328637
0.346224 0.346224 0.346224
0.370799 0.370799 0.370799
0.401558 0.401558 0.401558
0.437467 0.437467 0.437467
0.516746 0.516746 0.516746
0.558152 0.558152 0.558152
0.420070 0.420070 0.420070
0.423014 0.423014 0.423014
0.430394 0.430394 0.430394
0.443175 0.443175 0.443175
0.501511 0.501511 0.501511
0.524309 0.524309 0.524309
0.551854 0.551854 0.551854
0.583570 0.583570 0.583570
0.618848 0.618848 0.618848
0.563204 0.563204 0.563204
0.565326 0.565326 0.565326
0.570678 0.570678 0.570678
0.580048 0.580048 0.580048
0.593754 0.593754 0.593754
0.611852 0.611852 0.611852
0.634194 0.634194 0.634194
0.660492 0.660492 0.660492
0.690375 0.690375 0.690375
0.664601 0.664601 0.664601
0.666279 0.666279 0.666279
0.670521 0.670521 0.670521
0.677994 0.677994 0.677994
0.689023 0.689023 0.689023
0.703755 0.703755 0.703755
0.722192 0.722192 0.722192
0.744217 0.744217 0.744217
0.769629 0.769629 0.769629
0.765999 0.765999 0.765999
0.767370 0.767370 0.767370
0.770845 0.770845 0.770845
0.776987 0.776987 0.776987
0.786101 0.786101 0.786101
0.798365 0.798365 0.798365
0.813849 0.813849 0.813849
0.832532 0.832532 0.832532
0.854323 0.854323 0.854323
0.867397 0.867397 0.867397
0.868546 0.868546 0.868546
0.871463 0.871463 0.871463
0.876630 0.876630 0.876630
0.884326 0.884326 0.884326
0.894730 0.894730 0.894730
0.907944 0.907944 0.907944
0.924001 0.924001 0.924001
0.940000 0.940000 0.940000
0.010714 0.010714 0.010714
0.041994 0.041994 0.041994
0.093697 0.093697 0.093697
0.148614 0.148614 0.148614
0.204536 0.204536 0.204536
0.260878 0.260878 0.260878
0.317428 0.317428 0.317428
0.374096 0.374096 0.374096
0.430835 0.430835 0.430835
0.106803 0.106803 0.106803
0.119752 0.119752 0.119752
0.147698 0.147698 0.147698
0.187094 0.187094 0.187094
0.233231 0.233231 0.233231
0.283184 0.283184 0.283184
0.335366 0.335366 0.335366
0.388915 0.388915 0.388915
0.443345 0.443345 0.443345
0.210364 0.210364 0.210364
0.216997 0.216997 0.216997
0.232920 0.232920 0.232920
0.258567 0.258567 0.258567
0.292327 0.292327 0.292327
0.332195 0.332195 0.332195
0.376445 0.376445 0.376445
0.423792 0.423792 0.423792
0.512760 0.512760 0.512760
0.315494 0.315494 0.315494
0.319664 0.319664 0.319664
0.329993 0.329993 0.329993
0.347496 0.347496 0.347496
0.371969 0.371969 0.371969
0.402618 0.402618 0.402618
0.438420 0.438420 0.438420
0.517562 0.517562 0.517562
0.558884 0.558884 0.558884
0.421072 0.421072 0.421072
0.424008 0.424008 0.424008
0.431366 0.431366 0.431366
0.444113 0.444113 0.444113
0.502363 0.502363 0.502363
0.525108 0.525108 0.525108
0.552597 0.552597 0.552597
0.584257 0.584257 0.584257
0.619480 0.619480 0.619480
0.563926 0.563926 0.563926
0.566044 0.566044 0.566044
0.571386 0.571386 0.571386
0.580740 0.580740 0.580740
0.594424 0.594424 0.594424
0.612493 0.612493 0.612493
0.634803 0.634803 0.634803
0.661067 0.661067 0.661067
0.690916 0.690916 0.690916
0.665172 0.665172 0.665172
0.666847 0.666847 0.666847
0.671085 0.671085 0.671085
0.678548 0.678548 0.678548
0.689565 0.689565 0.689565
0.704281 0.704281 0.704281
0.722699 0.722699 0.722699
0.744702 0.744702 0.744702
0.770092 0.770092 0.770092
0.766465 0.766465 0.766465
0.767835 0.767835 0.767835
0.771307 0.771307 0.771307
0.777443 0.777443 0.777443
0.786550 0.786550 0.786550
0.798804 0.798804 0.798804
0.814276 0.814276 0.814276
0.832946 0.832946 0.832946
0.854723 0.854723 0.854723
0.867788 0.867788 0.867788
0.868936 0.868936 0.868936
0.871851 0.871851 0.871851
0.877015 0.877015 0.877015
0.884706 0.884706 0.884706
0.895104 0.895104 0.895104
0.908310 0.908310 0.908310
0.924358 0.924358 0.924358
0.940000 0.940000 0.940000
0.037968 0.037968 0.037968
0.063343 0.063343 0.063343
0.106296 0.106296 0.106296
0.156889 0.156889 0.156889
0.210463 0.210463 0.210463
0.265388 0.265388 0.265388
0.321011 0.321011 0.321011
0.377033 0.377033 0.377033
0.433302 0.433302 0.433302
0.118077 0.118077 0.118077
0.129927 0.129927 0.129927
0.156024 0.156024 0.156024
0.193620 0.193620 0.193620
0.238355 0.238355 0.238355
0.287284 0.287284 0.287284
0.338720 0.338720 0.338720
0.391716 0.391716 0.391716
0.445726 0.445726 0.445726
0.216111 0.216111 0.216111
0.222550 0.222550 0.222550
0.238052 0.238052 0.238052
0.263123 0.263123 0.263123
0.296277 0.296277 0.296277
0.335588 0.335588 0.335588
0.379360 0.379360 0.379360
0.426310 0.426310 0.426310
0.514857 0.514857 0.514857
0.319103 0.319103 0.319103
0.323217 0.323217 0.323217
0.333412 0.333412 0.333412
0.350709 0.350709 0.350709
0.374927 0.374927 0.374927
0.405302 0.405302 0.405302
0.440834 0.440834 0.440834
0.519633 0.519633 0.519633
0.560739 0.560739 0.560739
0.423611 0.423611 0.423611
0.426525 0.426525 0.426525
0.433830 0.433830 0.433830
0.446489 0.446489 0.446489
0.504523 0.504523 0.504523
0.527136 0.527136 0.527136
0.554483 0.554483 0.554483
0.585998 0.585998 0.585998
0.621083 0.621083 0.621083
0.565758 0.565758 0.565758
0.567867 0.567867 0.567867
0.573185 0.573185 0.573185
0.582497 0.582497 0.582497
0.596123 0.596123 0.596123
0.614122 0.614122 0.614122
0.636351 0.636351 0.636351
0.662528 0.662528 0.662528
0.692288 0.692288 0.692288
0.666620 0.666620 0.666620
0.668290 0.668290 0.668290
0.672515 0.672515 0.672515
0.679957 0.679957 0.679957
0.690941 0.690941 0.690941
0.705617 0.705617 0.705617
0.723986 0.723986 0.723986
0.745936 0.745936 0.745936
0.771268 0.771268 0.771268
0.767650 0.767650 0.767650
0.769017 0.769017 0.769017
0.772481 0.772481 0.772481
0.778604 0.778604 0.778604
0.787692 0.787692 0.787692
0.799921 0.799921 0.799921
0.815363 0.815363 0.815363
0.833999 0.833999 0.833999
0.855737 0.855737 0.855737
0.868781 0.868781 0.868781
0.869928 0.869928 0.869928
0.872838 0.872838 0.872838
0.877994 0.877994 0.877994
0.885672 0.885672 0.885672
0.896054 0.896054 0.896054
0.909242 0.909242 0.909242
0.925266 0.925266 0.925266
0.940000 0.940000 0.940000
0.074267 0.074267 0.074267
0.091517 0.091517 0.091517
0.125792 0.125792 0.125792
0.170598 0.170598 0.170598
0.220590 0.220590 0.220590
0.273214 0.273214 0.273214
0.327282 0.327282 0.327282
0.382202 0.382202 0.382202
0.437660 0.437660 0.437660
0.135913 0.135913 0.135913
0.146309 0.146309 0.146309
0.169807 0.169807 0.169807
0.204688 0.204688 0.204688
0.247189 0.247189 0.247189
0.294427 0.294427 0.294427
0.344602 0.344602 0.344602
0.396649 0.396649 0.396649
0.449932 0.449932 0.449932
0.225951 0.225951 0.225951
0.232081 0.232081 0.232081
0.246899 0.246899 0.246899
0.271026 0.271026 0.271026
0.303168 0.303168 0.303168
0.341536 0.341536 0.341536
0.384490 0.384490 0.384490
0.430756 0.430756 0.430756
0.518569 0.518569 0.518569
0.325419 0.325419 0.325419
0.329437 0.329437 0.329437
0.339407 0.339407 0.339407
0.356352 0.356352 0.356352
0.380131 0.380131 0.380131
0.410034 0.410034 0.410034
0.445099 0.445099 0.445099
0.523296 0.523296 0.523296
0.564027 0.564027 0.564027
0.428092 0.428092 0.428092
0.430968 0.430968 0.430968
0.438181 0.438181 0.438181
0.450687 0.450687 0.450687
0.508343 0.508343 0.508343
0.530725 0.530725 0.530725
0.557824 0.557824 0.557824
0.589087 0.589087 0.589087
0.623926 0.623926 0.623926
0.569004 0.569004 0.569004
0.571096 0.571096 0.571096
0.576371 0.576371 0.576371
0.585612 0.585612 0.585612
0.599138 0.599138 0.599138
0.617012 0.617012 0.617012
0.639099 0.639099 0.639099
0.665123 0.665123 0.665123
0.694726 0.694726 0.694726
0.669192 0.669192 0.669192
0.670853 0.670853 0.670853
0.675055 0.675055 0.675055
0.682458 0.682458 0.682458
0.693386 0.693386 0.693386
0.707990 0.707990 0.707990
0.726274 0.726274 0.726274
0.748129 0.748129 0.748129
0.773360 0.773360 0.773360
0.769756 0.769756 0.769756
0.771117 0.771117 0.771117
0.774568 0.774568 0.774568
0.780668 0.780668 0.780668
0.789722 0.789722 0.789722
0.801908 0.801908 0.801908
0.817297 0.817297 0.817297
0.835872 0.835872 0.835872
0.857543 0.857543 0.857543
0.870548 0.870548 0.870548
0.871692 0.871692 0.871692
0.874594 0.874594 0.874594
0.879735 0.879735 0.879735
0.887392 0.887392 0.887392
0.897746 0.897746 0.897746
0.910899 0.910899 0.910899
0.926883 0.926883 0.926883
0.940000 0.940000 0.940000
0.110565 0.110565 0.110565
0.123129 0.123129 0.123129
0.150440 0.150440 0.150440
0.189229 0.189229 0.189229
0.234900 0.234900 0.234900
0.284516 0.284516 0.284516
0.336453 0.336453 0.336453
0.389822 0.389822 0.389822
0.444115 0.444115 0.444115
0.158954 0.158954 0.158954
0.167866 0.167866 0.167866
0.188523 0.188523 0.188523
0.220177 0.220177 0.220177
0.259831 0.259831 0.259831
0.304803 0.304803 0.304803
0.353231 0.353231 0.353231
0.403934 0.403934 0.403934
0.456171 0.456171 0.456171
0.239896 0.239896 0.239896
0.245628 0.245628 0.245628
0.259558 0.259558 0.259558
0.282431 0.282431 0.282431
0.313198 0.313198 0.313198
0.350257 0.350257 0.350257
0.392055 0.392055 0.392055
0.437340 0.437340 0.437340
0.524083 0.524083 0.524083
0.334652 0.334652 0.334652
0.338538 0.338538 0.338538
0.348193 0.348193 0.348193
0.364642 0.364642 0.364642
0.387801 0.387801 0.387801
0.417029 0.417029 0.417029
0.451422 0.451422 0.451422
0.528739 0.528739 0.528739
0.568923 0.568923 0.568923
0.434726 0.434726 0.434726
0.437547 0.437547 0.437547
0.444627 0.444627 0.444627
0.456912 0.456912 0.456912
0.514015 0.514015 0.514015
0.536062 0.536062 0.536062
0.562797 0.562797 0.562797
0.593691 0.593691 0.593691
0.628171 0.628171 0.628171
0.573840 0.573840 0.573840
0.575907 0.575907 0.575907
0.581120 0.581120 0.581120
0.590255 0.590255 0.590255
0.603633 0.603633 0.603633
0.621324 0.621324 0.621324
0.643202 0.643202 0.643202
0.669001 0.669001 0.669001
0.698372 0.698372 0.698372
0.673037 0.673037 0.673037
0.674684 0.674684 0.674684
0.678853 0.678853 0.678853
0.686197 0.686197 0.686197
0.697042 0.697042 0.697042
0.711540 0.711540 0.711540
0.729698 0.729698 0.729698
0.751413 0.751413 0.751413
0.776493 0.776493 0.776493
0.772909 0.772909 0.772909
0.774263 0.774263 0.774263
0.777694 0.777694 0.777694
0.783760 0.783760 0.783760
0.792764 0.792764 0.792764
0.804884 0.804884 0.804884
0.820194 0.820194 0.820194
0.838678 0.838678 0.838678
0.860250 0.860250 0.860250
0.873198 0.873198 0.873198
0.874337 0.874337 0.874337
0.877226 0.877226 0.877226
0.882346 0.882346 0.882346
0.889971 0.889971 0.889971
0.900283 0.900283 0.900283
0.913384 0.913384 0.913384
0.929308 0.929308 0.929308
0.940000 0.940000 0.940000
0.146864 0.146864 0.146864
0.156507 0.156507 0.156507
0.178588 0.178588 0.178588
0.211894 0.211894 0.211894
0.253033 0.253033 0.253033
0.299201 0.299201 0.299201
0.348560 0.348560 0.348560
0.399984 0.399984 0.399984
0.452784 0.452784 0.452784
0.185730 0.185730 0.185730
0.193316 0.193316 0.193316
0.211272 0.211272 0.211272
0.239596 0.239596 0.239596
0.276082 0.276082 0.276082
0.318381 0.318381 0.318381
0.364663 0.364663 0.364663
0.413668 0.413668 0.413668
0.504360 0.504360 0.504360
0.257624 0.257624 0.257624
0.262909 0.262909 0.262909
0.275827 0.275827 0.275827
0.297239 0.297239 0.297239
0.326358 0.326358 0.326358
0.361804 0.361804 0.361804
0.402147 0.402147 0.402147
0.446174 0.446174 0.446174
0.531514 0.531514 0.531514
0.346836 0.346836 0.346836
0.350558 0.350558 0.350558
0.359821 0.359821 0.359821
0.375650 0.375650 0.375650
0.398027 0.398027 0.398027
0.426392 0.426392 0.426392
0.459918 0.459918 0.459918
0.536079 0.536079 0.536079
0.575544 0.575544 0.575544
0.443626 0.443626 0.443626
0.446377 0.446377 0.446377
0.453284 0.453284 0.453284
0.505053 0.505053 0.505053
0.521652 0.521652 0.521652
0.543261 0.543261 0.543261
0.569519 0.569519 0.569519
0.599926 0.599926 0.599926
0.633929 0.633929 0.633929
0.580381 0.580381 0.580381
0.582414 0.582414 0.582414
0.587545 0.587545 0.587545
0.596541 0.596541 0.596541
0.609723 0.609723 0.609723
0.627171 0.627171 0.627171
0.648770 0.648770 0.648770
0.674269 0.674269 0.674269
0.703330 0.703330 0.703330
0.678260 0.678260 0.678260
0.679890 0.679890 0.679890
0.684013 0.684013 0.684013
0.691279 0.691279 0.691279
0.702013 0.702013 0.702013
0.716369 0.716369 0.716369
0.734359 0.734359 0.734359
0.755884 0.755884 0.755884
0.780762 0.780762 0.780762
0.777206 0.777206 0.777206
0.778549 0.778549 0.778549
0.781953 0.781953 0.781953
0.787973 0.787973 0.787973
0.796910 0.796910 0.796910
0.808942 0.808942 0.808942
0.824145 0.824145 0.824145
0.842507 0.842507 0.842507
0.863944 0.863944 0.863944
0.876815 0.876815 0.876815
0.877947 0.877947 0.877947
0.880820 0.880820 0.880820
0.885910 0.885910 0.885910
0.893492 0.893492 0.893492
0.903748 0.903748 0.903748
0.916779 0.916779 0.916779
0.932621 0.932621 0.932621
0.940000 0.940000 0.940000
0.183162 0.183162 0.183162
0.190860 0.190860 0.190860
0.209051 0.209051 0.209051
0.237675 0.237675 0.237675
0.274457 0.274457 0.274457
0.317011 0.317011 0.317011
0.363503 0.363503 0.363503
0.412676 0.412676 0.412676
0.503540 0.503540 0.503540
0.215081 0.215081 0.215081
0.221555 0.221555 0.221555
0.237131 0.237131 0.237131
0.262303 0.262303 0.262303
0.295565 0.295565 0.295565
0.334976 0.334976 0.334976
0.378833 0.378833 0.378833
0.425855 0.425855 0.425855
0.514478 0.514478 0.514478
0.278637 0.278637 0.278637
0.283464 0.283464 0.283464
0.295330 0.295330 0.295330
0.315182 0.315182 0.315182
0.342488 0.342488 0.342488
0.376106 0.376106 0.376106
0.414757 0.414757 0.414757
0.457290 0.457290 0.457290
0.540916 0.540916 0.540916
0.361865 0.361865 0.361865
0.365401 0.365401 0.365401
0.374216 0.374216 0.374216
0.389331 0.389331 0.389331
0.410794 0.410794 0.410794
0.438140 0.438140 0.438140
0.510165 0.510165 0.510165
0.545369 0.545369 0.545369
0.583952 0.583952 0.583952
0.454820 0.454820 0.454820
0.457486 0.457486 0.457486
0.504004 0.504004 0.504004
0.515151 0.515151 0.515151
0.531303 0.531303 0.531303
0.552379 0.552379 0.552379
0.578053 0.578053 0.578053
0.607859 0.607859 0.607859
0.641270 0.641270 0.641270
0.588691 0.588691 0.588691
0.590684 0.590684 0.590684
0.595714 0.595714 0.595714
0.604537 0.604537 0.604537
0.617478 0.617478 0.617478
0.634624 0.634624 0.634624
0.655876 0.655876 0.655876
0.681000 0.681000 0.681000
0.709673 0.709673 0.709673
0.684936 0.684936 0.684936
0.686543 0.686543 0.686543
0.690609 0.690609 0.690609
0.697778 0.697778 0.697778
0.708373 0.708373 0.708373
0.722550 0.722550 0.722550
0.740327 0.740327 0.740327
0.761615 0.761615 0.761615
0.786237 0.786237 0.786237
0.782716 0.782716 0.782716
0.784046 0.784046 0.784046
0.787417 0.787417 0.787417
0.793377 0.793377 0.793377
0.802229 0.802229 0.802229
0.814150 0.814150 0.814150
0.829219 0.829219 0.829219
0.847425 0.847425 0.847425
0.868691 0.868691 0.868691
0.881464 0.881464 0.881464
0.882588 0.882588 0.882588
0.885439 0.885439 0.885439
0.890492 0.890492 0.890492
0.898020 0.898020 0.898020
0.908203 0.908203 0.908203
0.921145 0.921145 0.921145
0.936882 0.936882 0.936882
0.940000 0.940000 0.940000
0.219460 0.219460 0.219460
0.225792 0.225792 0.225792
0.241055 0.241055 0.241055
0.265799 0.265799 0.265799
0.298604 0.298604 0.298604
0.337593 0.337593 0.337593
0.381086 0.381086 0.381086
0.427805 0.427805 0.427805
0.516104 0.516104 0.516104
0.246199 0.246199 0.246199
0.251765 0.251765 0.251765
0.265321 0.265321 0.265321
0.287658 0.287658 0.287658
0.317827 0.317827 0.317827
0.354305 0.354305 0.354305
0.395584 0.395584 0.395584
0.440422 0.440422 0.440422
0.526671 0.526671 0.526671
0.302391 0.302391 0.302391
0.306776 0.306776 0.306776
0.317611 0.317611 0.317611
0.335898 0.335898 0.335898
0.361330 0.361330 0.361330
0.393000 0.393000 0.393000
0.429795 0.429795 0.429795
0.510187 0.510187 0.510187
0.552287 0.552287 0.552287
0.379541 0.379541 0.379541
0.382877 0.382877 0.382877
0.391210 0.391210 0.391210
0.405548 0.405548 0.405548
0.426006 0.426006 0.426006
0.452215 0.452215 0.452215
0.522503 0.522503 0.522503
0.556611 0.556611 0.556611
0.594171 0.594171 0.594171
0.507909 0.507909 0.507909
0.510368 0.510368 0.510368
0.516551 0.516551 0.516551
0.527323 0.527323 0.527323
0.542963 0.542963 0.542963
0.563422 0.563422 0.563422
0.588418 0.588418 0.588418
0.617519 0.617519 0.617519
0.650233 0.650233 0.650233
0.598795 0.598795 0.598795
0.600740 0.600740 0.600740
0.605651 0.605651 0.605651
0.614272 0.614272 0.614272
0.626928 0.626928 0.626928
0.643718 0.643718 0.643718
0.664561 0.664561 0.664561
0.689238 0.689238 0.689238
0.717448 0.717448 0.717448
0.693107 0.693107 0.693107
0.694688 0.694688 0.694688
0.698687 0.698687 0.698687
0.705740 0.705740 0.705740
0.716168 0.716168 0.716168
0.730130 0.730130 0.730130
0.747653 0.747653 0.747653
0.768655 0.768655 0.768655
0.792969 0.792969 0.792969
0.789491 0.789491 0.789491
0.790805 0.790805 0.790805
0.794135 0.794135 0.794135
0.800024 0.800024 0.800024
0.808773 0.808773 0.808773
0.820560 0.820560 0.820560
0.835465 0.835465 0.835465
0.853484 0.853484 0.853484
0.874542 0.874542 0.874542
0.887196 0.887196 0.887196
0.888309 0.888309 0.888309
0.891135 0.891135 0.891135
0.896142 0.896142 0.896142
0.903603 0.903603 0.903603
0.913698 0.913698 0.913698
0.926532 0.926532 0.926532
0.940000 0.940000 0.940000
0.940000 0.940000 0.940000
0.255759 0.255759 0.255759
0.261088 0.261088 0.261088
0.274107 0.274107 0.274107
0.295666 0.295666 0.295666
0.324953 0.324953 0.324953
0.360566 0.360566 0.360566
0.401061 0.401061 0.401061
0.445221 0.445221 0.445221
0.530711 0.530711 0.530711
0.278546 0.278546 0.278546
0.283374 0.283374 0.283374
0.295244 0.295244 0.295244
0.315103 0.315103 0.315103
0.342416 0.342416 0.342416
0.376043 0.376043 0.376043
0.414701 0.414701 0.414701
0.457240 0.457240 0.457240
0.540874 0.540874 0.540874
0.328377 0.328377 0.328377
0.332353 0.332353 0.332353
0.342219 0.342219 0.342219
0.359003 0.359003 0.359003
0.382581 0.382581 0.382581
0.412265 0.412265 0.412265
0.447114 0.447114 0.447114
0.525028 0.525028 0.525028
0.565584 0.565584 0.565584
0.399611 0.399611 0.399611
0.402742 0.402742 0.402742
0.410579 0.410579 0.410579
0.424110 0.424110 0.424110
0.443510 0.443510 0.443510
0.508134 0.508134 0.508134
0.536862 0.536862 0.536862
0.569764 0.569764 0.569764
0.606182 0.606182 0.606182
0.522843 0.522843 0.522843
0.525202 0.525202 0.525202
0.531140 0.531140 0.531140
0.541501 0.541501 0.541501
0.556577 0.556577 0.556577
0.576355 0.576355 0.576355
0.600593 0.600593 0.600593
0.628902 0.628902 0.628902
0.660824 0.660824 0.660824
0.610677 0.610677 0.610677
0.612568 0.612568 0.612568
0.617346 0.617346 0.617346
0.625738 0.625738 0.625738
0.638073 0.638073 0.638073
0.654459 0.654459 0.654459
0.674834 0.674834 0.674834
0.699000 0.699000 0.699000
0.726676 0.726676 0.726676
0.702793 0.702793 0.702793
0.704343 0.704343 0.704343
0.708265 0.708265 0.708265
0.715184 0.715184 0.715184
0.725420 0.725420 0.725420
0.739135 0.739135 0.739135
0.756364 0.756364 0.756364
0.777033 0.777033 0.777033
0.800989 0.800989 0.800989
0.797561 0.797561 0.797561
0.798856 0.798856 0.798856
0.802138 0.802138 0.802138
0.807946 0.807946 0.807946
0.816574 0.816574 0.816574
0.828204 0.828204 0.828204
0.842919 0.842919 0.842919
0.860717 0.860717 0.860717
0.881532 0.881532 0.881532
0.894046 0.894046 0.894046
0.895148 0.895148 0.895148
0.897942 0.897942 0.897942
0.902896 0.902896 0.902896
0.910279 0.910279 0.910279
0.920271 0.920271 0.920271
0.932977 0.932977 0.932977
0.940000 0.940000 0.940000
0.940000 0.940000 0.940000
