docs/luts/fuji_recipes/Acros_RR_Cyanotype.cube
TITLE "Fujifilm Recipe: RR Cyanotype (Acros)"
# FilmSim=Acros HL=3 SH=3 Col=0 WB=Auto WBR=-9 WBB=0
LUT_3D_SIZE 5
DOMAIN_MIN 0.0 0.0 0.0
DOMAIN_MAX 1.0 1.0 1.0
0.000000 0.000000 0.000000
0.077344 0.077344 0.077344
0.175730 0.175730 0.175730
0.274116 0.274116 0.274116
0.334759 0.334759 0.334759
0.208355 0.208355 0.208355
0.226713 0.226713 0.226713
0.273584 0.273584 0.273584
0.341682 0.341682 0.341682
0.390132 0.390132 0.390132
0.418810 0.418810 0.418810
0.427049 0.427049 0.427049
0.513580 0.513580 0.513580
0.564729 0.564729 0.564729
0.605656 0.605656 0.605656
0.740883 0.740883 0.740883
0.747158 0.747158 0.747158
0.765636 0.765636 0.765636
0.798634 0.798634 0.798634
0.826335 0.826335 0.826335
0.905979 0.905979 0.905979
0.910899 0.910899 0.910899
0.925481 0.925481 0.925481
0.951866 0.951866 0.951866
0.974336 0.974336 0.974336
0.050356 0.050356 0.050356
0.102941 0.102941 0.102941
0.188296 0.188296 0.188296
0.281835 0.281835 0.281835
0.340857 0.340857 0.340857
0.218853 0.218853 0.218853
0.236283 0.236283 0.236283
0.281320 0.281320 0.281320
0.347632 0.347632 0.347632
0.395195 0.395195 0.395195
0.423449 0.423449 0.423449
0.431577 0.431577 0.431577
0.518968 0.518968 0.518968
0.569569 0.569569 0.569569
0.610121 0.610121 0.610121
0.744405 0.744405 0.744405
0.750645 0.750645 0.750645
0.769022 0.769022 0.769022
0.801852 0.801852 0.801852
0.829423 0.829423 0.829423
0.908738 0.908738 0.908738
0.913639 0.913639 0.913639
0.928168 0.928168 0.928168
0.954462 0.954462 0.954462
0.976858 0.976858 0.976858
0.131304 0.131304 0.131304
0.159847 0.159847 0.159847
0.223396 0.223396 0.223396
0.305034 0.305034 0.305034
0.359566 0.359566 0.359566
0.249158 0.249158 0.249158
0.264302 0.264302 0.264302
0.304566 0.304566 0.304566
0.365919 0.365919 0.365919
0.410913 0.410913 0.410913
0.437912 0.437912 0.437912
0.507269 0.507269 0.507269
0.535837 0.535837 0.535837
0.584780 0.584780 0.584780
0.624192 0.624192 0.624192
0.755568 0.755568 0.755568
0.761698 0.761698 0.761698
0.779762 0.779762 0.779762
0.812068 0.812068 0.812068
0.839232 0.839232 0.839232
0.917518 0.917518 0.917518
0.922361 0.922361 0.922361
0.936723 0.936723 0.936723
0.962728 0.962728 0.962728
0.984892 0.984892 0.984892
0.212252 0.212252 0.212252
0.230256 0.230256 0.230256
0.276435 0.276435 0.276435
0.343867 0.343867 0.343867
0.391988 0.391988 0.391988
0.296941 0.296941 0.296941
0.309362 0.309362 0.309362
0.343462 0.343462 0.343462
0.397706 0.397706 0.397706
0.438731 0.438731 0.438731
0.530195 0.530195 0.530195
0.539439 0.539439 0.539439
0.566171 0.566171 0.566171
0.612347 0.612347 0.612347
0.649824 0.649824 0.649824
0.776146 0.776146 0.776146
0.782082 0.782082 0.782082
0.799591 0.799591 0.799591
0.830966 0.830966 0.830966
0.857403 0.857403 0.857403
0.933838 0.933838 0.933838
0.938578 0.938578 0.938578
0.952638 0.952638 0.952638
0.978120 0.978120 0.978120
0.999861 0.999861 0.999861
0.262146 0.262146 0.262146
0.276458 0.276458 0.276458
0.314894 0.314894 0.314894
0.374224 0.374224 0.374224
0.418124 0.418124 0.418124
0.332600 0.332600 0.332600
0.343480 0.343480 0.343480
0.373860 0.373860 0.373860
0.423404 0.423404 0.423404
0.527513 0.527513 0.527513
0.557449 0.557449 0.557449
0.566186 0.566186 0.566186
0.591536 0.591536 0.591536
0.635590 0.635590 0.635590
0.671554 0.671554 0.671554
0.793823 0.793823 0.793823
0.799601 0.799601 0.799601
0.816655 0.816655 0.816655
0.847265 0.847265 0.847265
0.873100 0.873100 0.873100
0.947993 0.947993 0.947993
0.952646 0.952646 0.952646
0.966453 0.966453 0.966453
0.991496 0.991496 0.991496
1.000000 1.000000 1.000000
