docs/luts/fuji_recipes/AcrosR_HH_Fuji_Acros.cube
TITLE "Fujifilm Recipe: HH Fuji Acros (AcrosR)"
# FilmSim=AcrosR HL=0 SH=3 Col=0 WB=Auto WBR=0 WBB=0
LUT_3D_SIZE 33
DOMAIN_MIN 0.0 0.0 0.0
DOMAIN_MAX 1.0 1.0 1.0
0.000000 0.000000 0.000000
0.006723 0.006723 0.006723
0.014331 0.014331 0.014331
0.025240 0.025240 0.025240
0.039677 0.039677 0.039677
0.054968 0.054968 0.054968
0.070260 0.070260 0.070260
0.085551 0.085551 0.085551
0.100842 0.100842 0.100842
0.116133 0.116133 0.116133
0.131424 0.131424 0.131424
0.146716 0.146716 0.146716
0.162007 0.162007 0.162007
0.177298 0.177298 0.177298
0.192589 0.192589 0.192589
0.207880 0.207880 0.207880
0.223172 0.223172 0.223172
0.238463 0.238463 0.238463
0.253754 0.253754 0.253754
0.269045 0.269045 0.269045
0.284336 0.284336 0.284336
0.299628 0.299628 0.299628
0.314919 0.314919 0.314919
0.330210 0.330210 0.330210
0.345501 0.345501 0.345501
0.360792 0.360792 0.360792
0.376084 0.376084 0.376084
0.391375 0.391375 0.391375
0.406666 0.406666 0.406666
0.421957 0.421957 0.421957
0.437248 0.437248 0.437248
0.514250 0.514250 0.514250
0.531626 0.531626 0.531626
0.017111 0.017111 0.017111
0.023835 0.023835 0.023835
0.031443 0.031443 0.031443
0.041903 0.041903 0.041903
0.053801 0.053801 0.053801
0.066618 0.066618 0.066618
0.080059 0.080059 0.080059
0.093934 0.093934 0.093934
0.108116 0.108116 0.108116
0.122522 0.122522 0.122522
0.137094 0.137094 0.137094
0.151793 0.151793 0.151793
0.166588 0.166588 0.166588
0.181461 0.181461 0.181461
0.196394 0.196394 0.196394
0.211376 0.211376 0.211376
0.226399 0.226399 0.226399
0.241455 0.241455 0.241455
0.256539 0.256539 0.256539
0.271646 0.271646 0.271646
0.286773 0.286773 0.286773
0.301917 0.301917 0.301917
0.317075 0.317075 0.317075
0.332246 0.332246 0.332246
0.347428 0.347428 0.347428
0.362620 0.362620 0.362620
0.377820 0.377820 0.377820
0.393028 0.393028 0.393028
0.408242 0.408242 0.408242
0.423462 0.423462 0.423462
0.438688 0.438688 0.438688
0.515816 0.515816 0.515816
0.533128 0.533128 0.533128
0.036453 0.036453 0.036453
0.042650 0.042650 0.042650
0.049017 0.049017 0.049017
0.057241 0.057241 0.057241
0.067045 0.067045 0.067045
0.078069 0.078069 0.078069
0.090016 0.090016 0.090016
0.102654 0.102654 0.102654
0.115814 0.115814 0.115814
0.129370 0.129370 0.129370
0.143231 0.143231 0.143231
0.157329 0.157329 0.157329
0.171613 0.171613 0.171613
0.186047 0.186047 0.186047
0.200601 0.200601 0.200601
0.215254 0.215254 0.215254
0.229988 0.229988 0.229988
0.244789 0.244789 0.244789
0.259647 0.259647 0.259647
0.274553 0.274553 0.274553
0.289500 0.289500 0.289500
0.304482 0.304482 0.304482
0.319494 0.319494 0.319494
0.334532 0.334532 0.334532
0.349593 0.349593 0.349593
0.364674 0.364674 0.364674
0.379773 0.379773 0.379773
0.394888 0.394888 0.394888
0.410016 0.410016 0.410016
0.425157 0.425157 0.425157
0.500351 0.500351 0.500351
0.517581 0.517581 0.517581
0.534821 0.534821 0.534821
0.059020 0.059020 0.059020
0.063569 0.063569 0.063569
0.068423 0.068423 0.068423
0.074926 0.074926 0.074926
0.082968 0.082968 0.082968
0.092321 0.092321 0.092321
0.102751 0.102751 0.102751
0.114050 0.114050 0.114050
0.126043 0.126043 0.126043
0.138589 0.138589 0.138589
0.151577 0.151577 0.151577
0.164920 0.164920 0.164920
0.178550 0.178550 0.178550
0.192412 0.192412 0.192412
0.206467 0.206467 0.206467
0.220679 0.220679 0.220679
0.235024 0.235024 0.235024
0.249480 0.249480 0.249480
0.264030 0.264030 0.264030
0.278659 0.278659 0.278659
0.293357 0.293357 0.293357
0.308115 0.308115 0.308115
0.322923 0.322923 0.322923
0.337776 0.337776 0.337776
0.352668 0.352668 0.352668
0.367595 0.367595 0.367595
0.382552 0.382552 0.382552
0.397535 0.397535 0.397535
0.412543 0.412543 0.412543
0.427573 0.427573 0.427573
0.502978 0.502978 0.502978
0.520099 0.520099 0.520099
0.537237 0.537237 0.537237
0.081587 0.081587 0.081587
0.085107 0.085107 0.085107
0.088940 0.088940 0.088940
0.094187 0.094187 0.094187
0.100835 0.100835 0.100835
0.108755 0.108755 0.108755
0.117793 0.117793 0.117793
0.127785 0.127785 0.127785
0.138582 0.138582 0.138582
0.150049 0.150049 0.150049
0.162072 0.162072 0.162072
0.174555 0.174555 0.174555
0.187421 0.187421 0.187421
0.200606 0.200606 0.200606
0.214057 0.214057 0.214057
0.227732 0.227732 0.227732
0.241596 0.241596 0.241596
0.255620 0.255620 0.255620
0.269782 0.269782 0.269782
0.284062 0.284062 0.284062
0.298443 0.298443 0.298443
0.312913 0.312913 0.312913
0.327460 0.327460 0.327460
0.342074 0.342074 0.342074
0.356747 0.356747 0.356747
0.371472 0.371472 0.371472
0.386244 0.386244 0.386244
0.401057 0.401057 0.401057
0.415907 0.415907 0.415907
0.430789 0.430789 0.430789
0.506479 0.506479 0.506479
0.523455 0.523455 0.523455
0.540459 0.540459 0.540459
0.104154 0.104154 0.104154
0.106984 0.106984 0.106984
0.110102 0.110102 0.110102
0.114428 0.114428 0.114428
0.119996 0.119996 0.119996
0.126744 0.126744 0.126744
0.134577 0.134577 0.134577
0.143382 0.143382 0.143382
0.153042 0.153042 0.153042
0.163442 0.163442 0.163442
0.174478 0.174478 0.174478
0.186058 0.186058 0.186058
0.198101 0.198101 0.198101
0.210539 0.210539 0.210539
0.223314 0.223314 0.223314
0.236377 0.236377 0.236377
0.249687 0.249687 0.249687
0.263210 0.263210 0.263210
0.276915 0.276915 0.276915
0.290780 0.290780 0.290780
0.304783 0.304783 0.304783
0.318908 0.318908 0.318908
0.333138 0.333138 0.333138
0.347461 0.347461 0.347461
0.361867 0.361867 0.361867
0.376347 0.376347 0.376347
0.390891 0.390891 0.390891
0.405493 0.405493 0.405493
0.420148 0.420148 0.420148
0.434849 0.434849 0.434849
0.510901 0.510901 0.510901
0.527698 0.527698 0.527698
0.544535 0.544535 0.544535
0.126721 0.126721 0.126721
0.129063 0.129063 0.129063
0.131661 0.131661 0.131661
0.135298 0.135298 0.135298
0.140028 0.140028 0.140028
0.145830 0.145830 0.145830
0.152652 0.152652 0.152652
0.160420 0.160420 0.160420
0.169048 0.169048 0.169048
0.178446 0.178446 0.178446
0.188527 0.188527 0.188527
0.199207 0.199207 0.199207
0.210412 0.210412 0.210412
0.222073 0.222073 0.222073
0.234131 0.234131 0.234131
0.246535 0.246535 0.246535
0.259239 0.259239 0.259239
0.272206 0.272206 0.272206
0.285402 0.285402 0.285402
0.298799 0.298799 0.298799
0.312372 0.312372 0.312372
0.326100 0.326100 0.326100
0.339965 0.339965 0.339965
0.353952 0.353952 0.353952
0.368047 0.368047 0.368047
0.382239 0.382239 0.382239
0.396516 0.396516 0.396516
0.410870 0.410870 0.410870
0.425294 0.425294 0.425294
0.439780 0.439780 0.439780
0.516276 0.516276 0.516276
0.532860 0.532860 0.532860
0.549496 0.549496 0.549496
0.149288 0.149288 0.149288
0.151269 0.151269 0.151269
0.153477 0.153477 0.153477
0.156586 0.156586 0.156586
0.160660 0.160660 0.160660
0.165700 0.165700 0.165700
0.171682 0.171682 0.171682
0.178561 0.178561 0.178561
0.186278 0.186278 0.186278
0.194766 0.194766 0.194766
0.203954 0.203954 0.203954
0.213773 0.213773 0.213773
0.224156 0.224156 0.224156
0.235040 0.235040 0.235040
0.246369 0.246369 0.246369
0.258091 0.258091 0.258091
0.270161 0.270161 0.270161
0.282538 0.282538 0.282538
0.295186 0.295186 0.295186
0.308075 0.308075 0.308075
0.321177 0.321177 0.321177
0.334469 0.334469 0.334469
0.347929 0.347929 0.347929
0.361540 0.361540 0.361540
0.375285 0.375285 0.375285
0.389151 0.389151 0.389151
0.403125 0.403125 0.403125
0.417197 0.417197 0.417197
0.431357 0.431357 0.431357
0.506359 0.506359 0.506359
0.522623 0.522623 0.522623
0.538960 0.538960 0.538960
0.555366 0.555366 0.555366
0.171856 0.171856 0.171856
0.173561 0.173561 0.173561
0.175468 0.175468 0.175468
0.178165 0.178165 0.178165
0.181716 0.181716 0.181716
0.186137 0.186137 0.186137
0.191422 0.191422 0.191422
0.197546 0.197546 0.197546
0.204470 0.204470 0.204470
0.212146 0.212146 0.212146
0.220520 0.220520 0.220520
0.229537 0.229537 0.229537
0.239138 0.239138 0.239138
0.249269 0.249269 0.249269
0.259879 0.259879 0.259879
0.270918 0.270918 0.270918
0.282343 0.282343 0.282343
0.294113 0.294113 0.294113
0.306191 0.306191 0.306191
0.318547 0.318547 0.318547
0.331149 0.331149 0.331149
0.343974 0.343974 0.343974
0.356997 0.356997 0.356997
0.370200 0.370200 0.370200
0.383564 0.383564 0.383564
0.397073 0.397073 0.397073
0.410712 0.410712 0.410712
0.424471 0.424471 0.424471
0.438337 0.438337 0.438337
0.513979 0.513979 0.513979
0.529948 0.529948 0.529948
0.546009 0.546009 0.546009
0.562154 0.562154 0.562154
0.194423 0.194423 0.194423
0.195912 0.195912 0.195912
0.197582 0.197582 0.197582
0.199949 0.199949 0.199949
0.203079 0.203079 0.203079
0.206993 0.206993 0.206993
0.211698 0.211698 0.211698
0.217180 0.217180 0.217180
0.223419 0.223419 0.223419
0.230379 0.230379 0.230379
0.238022 0.238022 0.238022
0.246302 0.246302 0.246302
0.255175 0.255175 0.255175
0.264592 0.264592 0.264592
0.274509 0.274509 0.274509
0.284881 0.284881 0.284881
0.295667 0.295667 0.295667
0.306827 0.306827 0.306827
0.318328 0.318328 0.318328
0.330136 0.330136 0.330136
0.342222 0.342222 0.342222
0.354559 0.354559 0.354559
0.367124 0.367124 0.367124
0.379895 0.379895 0.379895
0.392852 0.392852 0.392852
0.405978 0.405978 0.405978
0.419258 0.419258 0.419258
0.432677 0.432677 0.432677
0.507073 0.507073 0.507073
0.522600 0.522600 0.522600
0.538247 0.538247 0.538247
0.554004 0.554004 0.554004
0.569863 0.569863 0.569863
0.216990 0.216990 0.216990
0.218306 0.218306 0.218306
0.219784 0.219784 0.219784
0.221884 0.221884 0.221884
0.224669 0.224669 0.224669
0.228164 0.228164 0.228164
0.232381 0.232381 0.232381
0.237319 0.237319 0.237319
0.242965 0.242965 0.242965
0.249297 0.249297 0.249297
0.256288 0.256288 0.256288
0.263903 0.263903 0.263903
0.272105 0.272105 0.272105
0.280856 0.280856 0.280856
0.290116 0.290116 0.290116
0.299848 0.299848 0.299848
0.310012 0.310012 0.310012
0.320574 0.320574 0.320574
0.331500 0.331500 0.331500
0.342759 0.342759 0.342759
0.354322 0.354322 0.354322
0.366161 0.366161 0.366161
0.378253 0.378253 0.378253
0.390575 0.390575 0.390575
0.403108 0.403108 0.403108
0.415832 0.415832 0.415832
0.428732 0.428732 0.428732
0.502037 0.502037 0.502037
0.517044 0.517044 0.517044
0.532205 0.532205 0.532205
0.547506 0.547506 0.547506
0.562935 0.562935 0.562935
0.578483 0.578483 0.578483
0.239557 0.239557 0.239557
0.240732 0.240732 0.240732
0.242053 0.242053 0.242053
0.243933 0.243933 0.243933
0.246431 0.246431 0.246431
0.249575 0.249575 0.249575
0.253381 0.253381 0.253381
0.257853 0.257853 0.257853
0.262987 0.262987 0.262987
0.268769 0.268769 0.268769
0.275181 0.275181 0.275181
0.282197 0.282197 0.282197
0.289788 0.289788 0.289788
0.297923 0.297923 0.297923
0.306570 0.306570 0.306570
0.315695 0.315695 0.315695
0.325265 0.325265 0.325265
0.335247 0.335247 0.335247
0.345611 0.345611 0.345611
0.356328 0.356328 0.356328
0.367369 0.367369 0.367369
0.378708 0.378708 0.378708
0.390321 0.390321 0.390321
0.402187 0.402187 0.402187
0.414284 0.414284 0.414284
0.426593 0.426593 0.426593
0.439099 0.439099 0.439099
0.513390 0.513390 0.513390
0.527993 0.527993 0.527993
0.542768 0.542768 0.542768
0.557703 0.557703 0.557703
0.572784 0.572784 0.572784
0.588002 0.588002 0.588002
0.262124 0.262124 0.262124
0.263182 0.263182 0.263182
0.264372 0.264372 0.264372
0.266068 0.266068 0.266068
0.268326 0.268326 0.268326
0.271173 0.271173 0.271173
0.274628 0.274628 0.274628
0.278700 0.278700 0.278700
0.283390 0.283390 0.283390
0.288690 0.288690 0.288690
0.294589 0.294589 0.294589
0.301068 0.301068 0.301068
0.308105 0.308105 0.308105
0.315676 0.315676 0.315676
0.323754 0.323754 0.323754
0.332311 0.332311 0.332311
0.341317 0.341317 0.341317
0.350746 0.350746 0.350746
0.360567 0.360567 0.360567
0.370755 0.370755 0.370755
0.381283 0.381283 0.381283
0.392127 0.392127 0.392127
0.403263 0.403263 0.403263
0.414669 0.414669 0.414669
0.426326 0.426326 0.426326
0.438213 0.438213 0.438213
0.511721 0.511721 0.511721
0.525697 0.525697 0.525697
0.539881 0.539881 0.539881
0.554256 0.554256 0.554256
0.568809 0.568809 0.568809
0.583526 0.583526 0.583526
0.598396 0.598396 0.598396
0.284691 0.284691 0.284691
0.285650 0.285650 0.285650
0.286731 0.286731 0.286731
0.288271 0.288271 0.288271
0.290325 0.290325 0.290325
0.292919 0.292919 0.292919
0.296073 0.296073 0.296073
0.299800 0.299800 0.299800
0.304102 0.304102 0.304102
0.308979 0.308979 0.308979
0.314423 0.314423 0.314423
0.320421 0.320421 0.320421
0.326958 0.326958 0.326958
0.334014 0.334014 0.334014
0.341568 0.341568 0.341568
0.349596 0.349596 0.349596
0.358073 0.358073 0.358073
0.366976 0.366976 0.366976
0.376279 0.376279 0.376279
0.385957 0.385957 0.385957
0.395987 0.395987 0.395987
0.406345 0.406345 0.406345
0.417011 0.417011 0.417011
0.427961 0.427961 0.427961
0.439177 0.439177 0.439177
0.512092 0.512092 0.512092
0.525379 0.525379 0.525379
0.538910 0.538910 0.538910
0.552665 0.552665 0.552665
0.566631 0.566631 0.566631
0.580791 0.580791 0.580791
0.595131 0.595131 0.595131
0.609641 0.609641 0.609641
0.307259 0.307259 0.307259
0.308134 0.308134 0.308134
0.309120 0.309120 0.309120
0.310528 0.310528 0.310528
0.312407 0.312407 0.312407
0.314783 0.314783 0.314783
0.317678 0.317678 0.317678
0.321103 0.321103 0.321103
0.325067 0.325067 0.325067
0.329570 0.329570 0.329570
0.334610 0.334610 0.334610
0.340178 0.340178 0.340178
0.346263 0.346263 0.346263
0.352851 0.352851 0.352851
0.359923 0.359923 0.359923
0.367461 0.367461 0.367461
0.375445 0.375445 0.375445
0.383853 0.383853 0.383853
0.392664 0.392664 0.392664
0.401855 0.401855 0.401855
0.411405 0.411405 0.411405
0.421293 0.421293 0.421293
0.431498 0.431498 0.431498
0.502273 0.502273 0.502273
0.514525 0.514525 0.514525
0.527072 0.527072 0.527072
0.539896 0.539896 0.539896
0.552978 0.552978 0.552978
0.566301 0.566301 0.566301
0.579850 0.579850 0.579850
0.593610 0.593610 0.593610
0.607566 0.607566 0.607566
0.621705 0.621705 0.621705
0.329826 0.329826 0.329826
0.330629 0.330629 0.330629
0.331535 0.331535 0.331535
0.332828 0.332828 0.332828
0.334555 0.334555 0.334555
0.336743 0.336743 0.336743
0.339411 0.339411 0.339411
0.342574 0.342574 0.342574
0.346240 0.346240 0.346240
0.350413 0.350413 0.350413
0.355093 0.355093 0.355093
0.360276 0.360276 0.360276
0.365953 0.365953 0.365953
0.372114 0.372114 0.372114
0.378745 0.378745 0.378745
0.385832 0.385832 0.385832
0.393357 0.393357 0.393357
0.401301 0.401301 0.401301
0.409648 0.409648 0.409648
0.418376 0.418376 0.418376
0.427467 0.427467 0.427467
0.436902 0.436902 0.436902
0.507570 0.507570 0.507570
0.519008 0.519008 0.519008
0.530775 0.530775 0.530775
0.542849 0.542849 0.542849
0.555213 0.555213 0.555213
0.567849 0.567849 0.567849
0.580741 0.580741 0.580741
0.593871 0.593871 0.593871
0.607226 0.607226 0.607226
0.620792 0.620792 0.620792
0.634554 0.634554 0.634554
0.352393 0.352393 0.352393
0.353134 0.353134 0.353134
0.353969 0.353969 0.353969
0.355163 0.355163 0.355163
0.356759 0.356759 0.356759
0.358782 0.358782 0.358782
0.361251 0.361251 0.361251
0.364182 0.364182 0.364182
0.367585 0.367585 0.367585
0.371465 0.371465 0.371465
0.375824 0.375824 0.375824
0.380660 0.380660 0.380660
0.385969 0.385969 0.385969
0.391743 0.391743 0.391743
0.397971 0.397971 0.397971
0.404641 0.404641 0.404641
0.411741 0.411741 0.411741
0.419253 0.419253 0.419253
0.427164 0.427164 0.427164
0.435455 0.435455 0.435455
0.504670 0.504670 0.504670
0.514898 0.514898 0.514898
0.525501 0.525501 0.525501
0.536459 0.536459 0.536459
0.547753 0.547753 0.547753
0.559365 0.559365 0.559365
0.571277 0.571277 0.571277
0.583472 0.583472 0.583472
0.595934 0.595934 0.595934
0.608648 0.608648 0.608648
0.621598 0.621598 0.621598
0.634771 0.634771 0.634771
0.648153 0.648153 0.648153
0.374960 0.374960 0.374960
0.375646 0.375646 0.375646
0.376421 0.376421 0.376421
0.377527 0.377527 0.377527
0.379008 0.379008 0.379008
0.380885 0.380885 0.380885
0.383180 0.383180 0.383180
0.385906 0.385906 0.385906
0.389075 0.389075 0.389075
0.392693 0.392693 0.392693
0.396765 0.396765 0.396765
0.401290 0.401290 0.401290
0.406265 0.406265 0.406265
0.411686 0.411686 0.411686
0.417546 0.417546 0.417546
0.423833 0.423833 0.423833
0.430539 0.430539 0.430539
0.437649 0.437649 0.437649
0.505854 0.505854 0.505854
0.514807 0.514807 0.514807
0.524173 0.524173 0.524173
0.533932 0.533932 0.533932
0.544068 0.544068 0.544068
0.554563 0.554563 0.554563
0.565400 0.565400 0.565400
0.576562 0.576562 0.576562
0.588032 0.588032 0.588032
0.599795 0.599795 0.599795
0.611833 0.611833 0.611833
0.624134 0.624134 0.624134
0.636682 0.636682 0.636682
0.649463 0.649463 0.649463
0.662465 0.662465 0.662465
0.397527 0.397527 0.397527
0.398165 0.398165 0.398165
0.398886 0.398886 0.398886
0.399916 0.399916 0.399916
0.401294 0.401294 0.401294
0.403043 0.403043 0.403043
0.405182 0.405182 0.405182
0.407727 0.407727 0.407727
0.410687 0.410687 0.410687
0.414071 0.414071 0.414071
0.417884 0.417884 0.417884
0.422128 0.422128 0.422128
0.426802 0.426802 0.426802
0.431902 0.431902 0.431902
0.437424 0.437424 0.437424
0.503818 0.503818 0.503818
0.511024 0.511024 0.511024
0.518679 0.518679 0.518679
0.526771 0.526771 0.526771
0.535285 0.535285 0.535285
0.544206 0.544206 0.544206
0.553521 0.553521 0.553521
0.563211 0.563211 0.563211
0.573263 0.573263 0.573263
0.583660 0.583660 0.583660
0.594387 0.594387 0.594387
0.605428 0.605428 0.605428
0.616767 0.616767 0.616767
0.628391 0.628391 0.628391
0.640285 0.640285 0.640285
0.652435 0.652435 0.652435
0.664828 0.664828 0.664828
0.677451 0.677451 0.677451
0.420095 0.420095 0.420095
0.420690 0.420690 0.420690
0.421362 0.421362 0.421362
0.422324 0.422324 0.422324
0.423612 0.423612 0.423612
0.425247 0.425247 0.425247
0.427248 0.427248 0.427248
0.429629 0.429629 0.429629
0.432403 0.432403 0.432403
0.435577 0.435577 0.435577
0.439157 0.439157 0.439157
0.503575 0.503575 0.503575
0.508574 0.508574 0.508574
0.514038 0.514038 0.514038
0.519961 0.519961 0.519961
0.526338 0.526338 0.526338
0.533162 0.533162 0.533162
0.540423 0.540423 0.540423
0.548111 0.548111 0.548111
0.556213 0.556213 0.556213
0.564717 0.564717 0.564717
0.573609 0.573609 0.573609
0.582877 0.582877 0.582877
0.592506 0.592506 0.592506
0.602481 0.602481 0.602481
0.612788 0.612788 0.612788
0.623413 0.623413 0.623413
0.634342 0.634342 0.634342
0.645561 0.645561 0.645561
0.657057 0.657057 0.657057
0.668816 0.668816 0.668816
0.680826 0.680826 0.680826
0.693074 0.693074 0.693074
0.503025 0.503025 0.503025
0.503658 0.503658 0.503658
0.504374 0.504374 0.504374
0.505398 0.505398 0.505398
0.506769 0.506769 0.506769
0.508511 0.508511 0.508511
0.510644 0.510644 0.510644
0.513184 0.513184 0.513184
0.516145 0.516145 0.516145
0.519536 0.519536 0.519536
0.523365 0.523365 0.523365
0.527636 0.527636 0.527636
0.532351 0.532351 0.532351
0.537511 0.537511 0.537511
0.543112 0.543112 0.543112
0.549151 0.549151 0.549151
0.555621 0.555621 0.555621
0.562516 0.562516 0.562516
0.569827 0.569827 0.569827
0.577543 0.577543 0.577543
0.585654 0.585654 0.585654
0.594149 0.594149 0.594149
0.603016 0.603016 0.603016
0.612241 0.612241 0.612241
0.621813 0.621813 0.621813
0.631717 0.631717 0.631717
0.641942 0.641942 0.641942
0.652474 0.652474 0.652474
0.663300 0.663300 0.663300
0.674407 0.674407 0.674407
0.685784 0.685784 0.685784
0.697418 0.697418 0.697418
0.709296 0.709296 0.709296
0.528669 0.528669 0.528669
0.529264 0.529264 0.529264
0.529936 0.529936 0.529936
0.530898 0.530898 0.530898
0.532187 0.532187 0.532187
0.533824 0.533824 0.533824
0.535831 0.535831 0.535831
0.538221 0.538221 0.538221
0.541010 0.541010 0.541010
0.544206 0.544206 0.544206
0.547818 0.547818 0.547818
0.551850 0.551850 0.551850
0.556306 0.556306 0.556306
0.561188 0.561188 0.561188
0.566493 0.566493 0.566493
0.572219 0.572219 0.572219
0.578363 0.578363 0.578363
0.584918 0.584918 0.584918
0.591878 0.591878 0.591878
0.599233 0.599233 0.599233
0.606976 0.606976 0.606976
0.615096 0.615096 0.615096
0.623583 0.623583 0.623583
0.632425 0.632425 0.632425
0.641612 0.641612 0.641612
0.651131 0.651131 0.651131
0.660971 0.660971 0.660971
0.671120 0.671120 0.671120
0.681565 0.681565 0.681565
0.692296 0.692296 0.692296
0.703299 0.703299 0.703299
0.714565 0.714565 0.714565
0.726082 0.726082 0.726082
0.554314 0.554314 0.554314
0.554874 0.554874 0.554874
0.555507 0.555507 0.555507
0.556413 0.556413 0.556413
0.557627 0.557627 0.557627
0.559171 0.559171 0.559171
0.561062 0.561062 0.561062
0.563318 0.563318 0.563318
0.565950 0.565950 0.565950
0.568969 0.568969 0.568969
0.572383 0.572383 0.572383
0.576197 0.576197 0.576197
0.580417 0.580417 0.580417
0.585043 0.585043 0.585043
0.590076 0.590076 0.590076
0.595515 0.595515 0.595515
0.601356 0.601356 0.601356
0.607596 0.607596 0.607596
0.614228 0.614228 0.614228
0.621246 0.621246 0.621246
0.628643 0.628643 0.628643
0.636410 0.636410 0.636410
0.644538 0.644538 0.644538
0.653017 0.653017 0.653017
0.661838 0.661838 0.661838
0.670989 0.670989 0.670989
0.680460 0.680460 0.680460
0.690240 0.690240 0.690240
0.700318 0.700318 0.700318
0.710683 0.710683 0.710683
0.721325 0.721325 0.721325
0.732233 0.732233 0.732233
0.743395 0.743395 0.743395
0.579958 0.579958 0.579958
0.580487 0.580487 0.580487
0.581085 0.581085 0.581085
0.581940 0.581940 0.581940
0.583087 0.583087 0.583087
0.584545 0.584545 0.584545
0.586333 0.586333 0.586333
0.588466 0.588466 0.588466
0.590955 0.590955 0.590955
0.593813 0.593813 0.593813
0.597046 0.597046 0.597046
0.600662 0.600662 0.600662
0.604664 0.604664 0.604664
0.609056 0.609056 0.609056
0.613838 0.613838 0.613838
0.619011 0.619011 0.619011
0.624572 0.624572 0.624572
0.630518 0.630518 0.630518
0.636846 0.636846 0.636846
0.643549 0.643549 0.643549
0.650621 0.650621 0.650621
0.658056 0.658056 0.658056
0.665845 0.665845 0.665845
0.673980 0.673980 0.673980
0.682452 0.682452 0.682452
0.691252 0.691252 0.691252
0.700370 0.700370 0.700370
0.709797 0.709797 0.709797
0.719521 0.719521 0.719521
0.729534 0.729534 0.729534
0.739826 0.739826 0.739826
0.750385 0.750385 0.750385
0.761202 0.761202 0.761202
0.605603 0.605603 0.605603
0.606103 0.606103 0.606103
0.606669 0.606669 0.606669
0.607478 0.607478 0.607478
0.608564 0.608564 0.608564
0.609944 0.609944 0.609944
0.611638 0.611638 0.611638
0.613658 0.613658 0.613658
0.616018 0.616018 0.616018
0.618728 0.618728 0.618728
0.621796 0.621796 0.621796
0.625229 0.625229 0.625229
0.629032 0.629032 0.629032
0.633208 0.633208 0.633208
0.637759 0.637759 0.637759
0.642685 0.642685 0.642685
0.647986 0.647986 0.647986
0.653660 0.653660 0.653660
0.659703 0.659703 0.659703
0.666111 0.666111 0.666111
0.672879 0.672879 0.672879
0.680001 0.680001 0.680001
0.687470 0.687470 0.687470
0.695280 0.695280 0.695280
0.703422 0.703422 0.703422
0.711888 0.711888 0.711888
0.720669 0.720669 0.720669
0.729757 0.729757 0.729757
0.739142 0.739142 0.739142
0.748815 0.748815 0.748815
0.758767 0.758767 0.758767
0.768989 0.768989 0.768989
0.779472 0.779472 0.779472
0.631247 0.631247 0.631247
0.631722 0.631722 0.631722
0.632258 0.632258 0.632258
0.633026 0.633026 0.633026
0.634055 0.634055 0.634055
0.635365 0.635365 0.635365
0.636972 0.636972 0.636972
0.638890 0.638890 0.638890
0.641131 0.641131 0.641131
0.643706 0.643706 0.643706
0.646622 0.646622 0.646622
0.649887 0.649887 0.649887
0.653506 0.653506 0.653506
0.657483 0.657483 0.657483
0.661820 0.661820 0.661820
0.666519 0.666519 0.666519
0.671578 0.671578 0.671578
0.676998 0.676998 0.676998
0.682775 0.682775 0.682775
0.688907 0.688907 0.688907
0.695390 0.695390 0.695390
0.702218 0.702218 0.702218
0.709386 0.709386 0.709386
0.716887 0.716887 0.716887
0.724716 0.724716 0.724716
0.732864 0.732864 0.732864
0.741323 0.741323 0.741323
0.750087 0.750087 0.750087
0.759147 0.759147 0.759147
0.768494 0.768494 0.768494
0.778119 0.778119 0.778119
0.788015 0.788015 0.788015
0.798172 0.798172 0.798172
0.656892 0.656892 0.656892
0.657342 0.657342 0.657342
0.657852 0.657852 0.657852
0.658582 0.658582 0.658582
0.659560 0.659560 0.659560
0.660805 0.660805 0.660805
0.662333 0.662333 0.662333
0.664157 0.664157 0.664157
0.666289 0.666289 0.666289
0.668739 0.668739 0.668739
0.671516 0.671516 0.671516
0.674626 0.674626 0.674626
0.678076 0.678076 0.678076
0.681868 0.681868 0.681868
0.686007 0.686007 0.686007
0.690494 0.690494 0.690494
0.695329 0.695329 0.695329
0.700512 0.700512 0.700512
0.706041 0.706041 0.706041
0.711915 0.711915 0.711915
0.718129 0.718129 0.718129
0.724681 0.724681 0.724681
0.731564 0.731564 0.731564
0.738775 0.738775 0.738775
