docs/luts/fuji_recipes/AcrosR_RR_Kodachrome_Monochrome.cube
TITLE "Fujifilm Recipe: RR Kodachrome Monochrome (AcrosR)"
# FilmSim=AcrosR HL=4 SH=-2 Col=0 WB=Auto WBR=0 WBB=9
LUT_3D_SIZE 33
DOMAIN_MIN 0.0 0.0 0.0
DOMAIN_MAX 1.0 1.0 1.0
0.080000 0.080000 0.080000
0.087029 0.087029 0.087029
0.094983 0.094983 0.094983
0.106388 0.106388 0.106388
0.121481 0.121481 0.121481
0.137467 0.137467 0.137467
0.153453 0.153453 0.153453
0.169440 0.169440 0.169440
0.185426 0.185426 0.185426
0.201412 0.201412 0.201412
0.217398 0.217398 0.217398
0.233385 0.233385 0.233385
0.249371 0.249371 0.249371
0.265357 0.265357 0.265357
0.281343 0.281343 0.281343
0.297330 0.297330 0.297330
0.313316 0.313316 0.313316
0.329302 0.329302 0.329302
0.345288 0.345288 0.345288
0.361275 0.361275 0.361275
0.377261 0.377261 0.377261
0.393247 0.393247 0.393247
0.409233 0.409233 0.409233
0.425220 0.425220 0.425220
0.441206 0.441206 0.441206
0.457192 0.457192 0.457192
0.473178 0.473178 0.473178
0.489165 0.489165 0.489165
0.505151 0.505151 0.505151
0.521137 0.521137 0.521137
0.537123 0.537123 0.537123
0.516529 0.516529 0.516529
0.536686 0.536686 0.536686
0.097889 0.097889 0.097889
0.104918 0.104918 0.104918
0.112872 0.112872 0.112872
0.123808 0.123808 0.123808
0.136247 0.136247 0.136247
0.149646 0.149646 0.149646
0.163698 0.163698 0.163698
0.178203 0.178203 0.178203
0.193031 0.193031 0.193031
0.208091 0.208091 0.208091
0.223326 0.223326 0.223326
0.238692 0.238692 0.238692
0.254161 0.254161 0.254161
0.269709 0.269709 0.269709
0.285321 0.285321 0.285321
0.300984 0.300984 0.300984
0.316690 0.316690 0.316690
0.332430 0.332430 0.332430
0.348200 0.348200 0.348200
0.363993 0.363993 0.363993
0.379808 0.379808 0.379808
0.395640 0.395640 0.395640
0.411488 0.411488 0.411488
0.427348 0.427348 0.427348
0.443220 0.443220 0.443220
0.459103 0.459103 0.459103
0.474994 0.474994 0.474994
0.490893 0.490893 0.490893
0.506798 0.506798 0.506798
0.522710 0.522710 0.522710
0.538628 0.538628 0.538628
0.518346 0.518346 0.518346
0.538428 0.538428 0.538428
0.118110 0.118110 0.118110
0.124589 0.124589 0.124589
0.131245 0.131245 0.131245
0.139843 0.139843 0.139843
0.150092 0.150092 0.150092
0.161618 0.161618 0.161618
0.174107 0.174107 0.174107
0.187321 0.187321 0.187321
0.201079 0.201079 0.201079
0.215251 0.215251 0.215251
0.229741 0.229741 0.229741
0.244480 0.244480 0.244480
0.259414 0.259414 0.259414
0.274504 0.274504 0.274504
0.289720 0.289720 0.289720
0.305039 0.305039 0.305039
0.320442 0.320442 0.320442
0.335916 0.335916 0.335916
0.351450 0.351450 0.351450
0.367033 0.367033 0.367033
0.382659 0.382659 0.382659
0.398322 0.398322 0.398322
0.414016 0.414016 0.414016
0.429738 0.429738 0.429738
0.445483 0.445483 0.445483
0.461250 0.461250 0.461250
0.477035 0.477035 0.477035
0.492837 0.492837 0.492837
0.508653 0.508653 0.508653
0.524482 0.524482 0.524482
0.500407 0.500407 0.500407
0.520394 0.520394 0.520394
0.540392 0.540392 0.540392
0.141702 0.141702 0.141702
0.146458 0.146458 0.146458
0.151533 0.151533 0.151533
0.158332 0.158332 0.158332
0.166740 0.166740 0.166740
0.176517 0.176517 0.176517
0.187421 0.187421 0.187421
0.199234 0.199234 0.199234
0.211772 0.211772 0.211772
0.224889 0.224889 0.224889
0.238467 0.238467 0.238467
0.252417 0.252417 0.252417
0.266665 0.266665 0.266665
0.281158 0.281158 0.281158
0.295851 0.295851 0.295851
0.310710 0.310710 0.310710
0.325707 0.325707 0.325707
0.340820 0.340820 0.340820
0.356031 0.356031 0.356031
0.371326 0.371326 0.371326
0.386692 0.386692 0.386692
0.402120 0.402120 0.402120
0.417601 0.417601 0.417601
0.433130 0.433130 0.433130
0.448699 0.448699 0.448699
0.464304 0.464304 0.464304
0.479940 0.479940 0.479940
0.495605 0.495605 0.495605
0.511295 0.511295 0.511295
0.527008 0.527008 0.527008
0.503455 0.503455 0.503455
0.523314 0.523314 0.523314
0.543195 0.543195 0.543195
0.165295 0.165295 0.165295
0.168976 0.168976 0.168976
0.172982 0.172982 0.172982
0.178468 0.178468 0.178468
0.185418 0.185418 0.185418
0.193699 0.193699 0.193699
0.203147 0.203147 0.203147
0.213594 0.213594 0.213594
0.224881 0.224881 0.224881
0.236869 0.236869 0.236869
0.249438 0.249438 0.249438
0.262489 0.262489 0.262489
0.275940 0.275940 0.275940
0.289724 0.289724 0.289724
0.303787 0.303787 0.303787
0.318083 0.318083 0.318083
0.332577 0.332577 0.332577
0.347239 0.347239 0.347239
0.362045 0.362045 0.362045
0.376974 0.376974 0.376974
0.392009 0.392009 0.392009
0.407136 0.407136 0.407136
0.422344 0.422344 0.422344
0.437622 0.437622 0.437622
0.452963 0.452963 0.452963
0.468357 0.468357 0.468357
0.483800 0.483800 0.483800
0.499287 0.499287 0.499287
0.514811 0.514811 0.514811
0.530371 0.530371 0.530371
0.507516 0.507516 0.507516
0.527208 0.527208 0.527208
0.546933 0.546933 0.546933
0.188888 0.188888 0.188888
0.191847 0.191847 0.191847
0.195106 0.195106 0.195106
0.199629 0.199629 0.199629
0.205450 0.205450 0.205450
0.212505 0.212505 0.212505
0.220694 0.220694 0.220694
0.229900 0.229900 0.229900
0.239998 0.239998 0.239998
0.250871 0.250871 0.250871
0.262409 0.262409 0.262409
0.274515 0.274515 0.274515
0.287105 0.287105 0.287105
0.300109 0.300109 0.300109
0.313465 0.313465 0.313465
0.327122 0.327122 0.327122
0.341037 0.341037 0.341037
0.355174 0.355174 0.355174
0.369502 0.369502 0.369502
0.383997 0.383997 0.383997
0.398637 0.398637 0.398637
0.413403 0.413403 0.413403
0.428280 0.428280 0.428280
0.443255 0.443255 0.443255
0.458316 0.458316 0.458316
0.473453 0.473453 0.473453
0.488659 0.488659 0.488659
0.503925 0.503925 0.503925
0.519246 0.519246 0.519246
0.534615 0.534615 0.534615
0.512645 0.512645 0.512645
0.532130 0.532130 0.532130
0.551660 0.551660 0.551660
0.212481 0.212481 0.212481
0.214929 0.214929 0.214929
0.217646 0.217646 0.217646
0.221447 0.221447 0.221447
0.226393 0.226393 0.226393
0.232459 0.232459 0.232459
0.239591 0.239591 0.239591
0.247712 0.247712 0.247712
0.256732 0.256732 0.256732
0.266558 0.266558 0.266558
0.277096 0.277096 0.277096
0.288262 0.288262 0.288262
0.299976 0.299976 0.299976
0.312167 0.312167 0.312167
0.324773 0.324773 0.324773
0.337741 0.337741 0.337741
0.351023 0.351023 0.351023
0.364579 0.364579 0.364579
0.378375 0.378375 0.378375
0.392381 0.392381 0.392381
0.406570 0.406570 0.406570
0.420923 0.420923 0.420923
0.435418 0.435418 0.435418
0.450041 0.450041 0.450041
0.464777 0.464777 0.464777
0.479613 0.479613 0.479613
0.494539 0.494539 0.494539
0.509546 0.509546 0.509546
0.524625 0.524625 0.524625
0.539770 0.539770 0.539770
0.518880 0.518880 0.518880
0.538117 0.538117 0.538117
0.557416 0.557416 0.557416
0.236074 0.236074 0.236074
0.238145 0.238145 0.238145
0.240454 0.240454 0.240454
0.243704 0.243704 0.243704
0.247963 0.247963 0.247963
0.253232 0.253232 0.253232
0.259486 0.259486 0.259486
0.266678 0.266678 0.266678
0.274745 0.274745 0.274745
0.283619 0.283619 0.283619
0.293225 0.293225 0.293225
0.303490 0.303490 0.303490
0.314345 0.314345 0.314345
0.325724 0.325724 0.325724
0.337568 0.337568 0.337568
0.349823 0.349823 0.349823
0.362441 0.362441 0.362441
0.375380 0.375380 0.375380
0.388604 0.388604 0.388604
0.402079 0.402079 0.402079
0.415776 0.415776 0.415776
0.429672 0.429672 0.429672
0.443744 0.443744 0.443744
0.457974 0.457974 0.457974
0.472344 0.472344 0.472344
0.486840 0.486840 0.486840
0.501449 0.501449 0.501449
0.516161 0.516161 0.516161
0.530964 0.530964 0.530964
0.507377 0.507377 0.507377
0.526242 0.526242 0.526242
0.545194 0.545194 0.545194
0.564225 0.564225 0.564225
0.259667 0.259667 0.259667
0.261450 0.261450 0.261450
0.263444 0.263444 0.263444
0.266263 0.266263 0.266263
0.269976 0.269976 0.269976
0.274598 0.274598 0.274598
0.280123 0.280123 0.280123
0.286526 0.286526 0.286526
0.293764 0.293764 0.293764
0.301789 0.301789 0.301789
0.310544 0.310544 0.310544
0.319970 0.319970 0.319970
0.330008 0.330008 0.330008
0.340600 0.340600 0.340600
0.351692 0.351692 0.351692
0.363233 0.363233 0.363233
0.375177 0.375177 0.375177
0.387482 0.387482 0.387482
0.400109 0.400109 0.400109
0.413026 0.413026 0.413026
0.426201 0.426201 0.426201
0.439609 0.439609 0.439609
0.453225 0.453225 0.453225
0.467027 0.467027 0.467027
0.480998 0.480998 0.480998
0.495121 0.495121 0.495121
0.509381 0.509381 0.509381
0.523765 0.523765 0.523765
0.538262 0.538262 0.538262
0.516215 0.516215 0.516215
0.534739 0.534739 0.534739
0.553370 0.553370 0.553370
0.572099 0.572099 0.572099
0.283260 0.283260 0.283260
0.284817 0.284817 0.284817
0.286563 0.286563 0.286563
0.289037 0.289037 0.289037
0.292309 0.292309 0.292309
0.296402 0.296402 0.296402
0.301320 0.301320 0.301320
0.307052 0.307052 0.307052
0.313574 0.313574 0.313574
0.320851 0.320851 0.320851
0.328841 0.328841 0.328841
0.337498 0.337498 0.337498
0.346774 0.346774 0.346774
0.356619 0.356619 0.356619
0.366987 0.366987 0.366987
0.377830 0.377830 0.377830
0.389106 0.389106 0.389106
0.400774 0.400774 0.400774
0.412798 0.412798 0.412798
0.425142 0.425142 0.425142
0.437778 0.437778 0.437778
0.450676 0.450676 0.450676
0.463811 0.463811 0.463811
0.477162 0.477162 0.477162
0.490708 0.490708 0.490708
0.504431 0.504431 0.504431
0.518315 0.518315 0.518315
0.532345 0.532345 0.532345
0.508205 0.508205 0.508205
0.526216 0.526216 0.526216
0.544366 0.544366 0.544366
0.562645 0.562645 0.562645
0.581041 0.581041 0.581041
0.306853 0.306853 0.306853
0.308229 0.308229 0.308229
0.309774 0.309774 0.309774
0.311970 0.311970 0.311970
0.314881 0.314881 0.314881
0.318535 0.318535 0.318535
0.322944 0.322944 0.322944
0.328106 0.328106 0.328106
0.334009 0.334009 0.334009
0.340629 0.340629 0.340629
0.347937 0.347937 0.347937
0.355898 0.355898 0.355898
0.364473 0.364473 0.364473
0.373622 0.373622 0.373622
0.383303 0.383303 0.383303
0.393477 0.393477 0.393477
0.404104 0.404104 0.404104
0.415146 0.415146 0.415146
0.426569 0.426569 0.426569
0.438339 0.438339 0.438339
0.450427 0.450427 0.450427
0.462805 0.462805 0.462805
0.475446 0.475446 0.475446
0.488329 0.488329 0.488329
0.501431 0.501431 0.501431
0.514734 0.514734 0.514734
0.528220 0.528220 0.528220
0.502362 0.502362 0.502362
0.519771 0.519771 0.519771
0.537358 0.537358 0.537358
0.555107 0.555107 0.555107
0.573005 0.573005 0.573005
0.591041 0.591041 0.591041
0.330446 0.330446 0.330446
0.331674 0.331674 0.331674
0.333055 0.333055 0.333055
0.335021 0.335021 0.335021
0.337632 0.337632 0.337632
0.340919 0.340919 0.340919
0.344898 0.344898 0.344898
0.349573 0.349573 0.349573
0.354940 0.354940 0.354940
0.360986 0.360986 0.360986
0.367689 0.367689 0.367689
0.375024 0.375024 0.375024
0.382960 0.382960 0.382960
0.391465 0.391465 0.391465
0.400505 0.400505 0.400505
0.410045 0.410045 0.410045
0.420050 0.420050 0.420050
0.430486 0.430486 0.430486
0.441321 0.441321 0.441321
0.452525 0.452525 0.452525
0.464067 0.464067 0.464067
0.475922 0.475922 0.475922
0.488063 0.488063 0.488063
0.500468 0.500468 0.500468
0.513115 0.513115 0.513115
0.525984 0.525984 0.525984
0.539058 0.539058 0.539058
0.515533 0.515533 0.515533
0.532471 0.532471 0.532471
0.549611 0.549611 0.549611
0.566935 0.566935 0.566935
0.584430 0.584430 0.584430
0.602082 0.602082 0.602082
0.354039 0.354039 0.354039
0.355145 0.355145 0.355145
0.356389 0.356389 0.356389
0.358162 0.358162 0.358162
0.360522 0.360522 0.360522
0.363499 0.363499 0.363499
0.367111 0.367111 0.367111
0.371369 0.371369 0.371369
0.376271 0.376271 0.376271
0.381813 0.381813 0.381813
0.387979 0.387979 0.387979
0.394753 0.394753 0.394753
0.402110 0.402110 0.402110
0.410025 0.410025 0.410025
0.418470 0.418470 0.418470
0.427416 0.427416 0.427416
0.436832 0.436832 0.436832
0.446689 0.446689 0.446689
0.456957 0.456957 0.456957
0.467608 0.467608 0.467608
0.478614 0.478614 0.478614
0.489951 0.489951 0.489951
0.501593 0.501593 0.501593
0.513518 0.513518 0.513518
0.525704 0.525704 0.525704
0.538132 0.538132 0.538132
0.513597 0.513597 0.513597
0.529809 0.529809 0.529809
0.546261 0.546261 0.546261
0.562937 0.562937 0.562937
0.579818 0.579818 0.579818
0.596891 0.596891 0.596891
0.614140 0.614140 0.614140
0.377632 0.377632 0.377632
0.378634 0.378634 0.378634
0.379764 0.379764 0.379764
0.381375 0.381375 0.381375
0.383521 0.383521 0.383521
0.386233 0.386233 0.386233
0.389531 0.389531 0.389531
0.393427 0.393427 0.393427
0.397925 0.397925 0.397925
0.403024 0.403024 0.403024
0.408715 0.408715 0.408715
0.414986 0.414986 0.414986
0.421820 0.421820 0.421820
0.429197 0.429197 0.429197
0.437094 0.437094 0.437094
0.445486 0.445486 0.445486
0.454349 0.454349 0.454349
0.463657 0.463657 0.463657
0.473382 0.473382 0.473382
0.483500 0.483500 0.483500
0.493986 0.493986 0.493986
0.504816 0.504816 0.504816
0.515966 0.515966 0.515966
0.527414 0.527414 0.527414
0.539140 0.539140 0.539140
0.514027 0.514027 0.514027
0.529440 0.529440 0.529440
0.545135 0.545135 0.545135
0.561092 0.561092 0.561092
0.577292 0.577292 0.577292
0.593717 0.593717 0.593717
0.610352 0.610352 0.610352
0.627183 0.627183 0.627183
0.401225 0.401225 0.401225
0.402140 0.402140 0.402140
0.403171 0.403171 0.403171
0.404643 0.404643 0.404643
0.406607 0.406607 0.406607
0.409091 0.409091 0.409091
0.412117 0.412117 0.412117
0.415699 0.415699 0.415699
0.419843 0.419843 0.419843
0.424551 0.424551 0.424551
0.429820 0.429820 0.429820
0.435641 0.435641 0.435641
0.442003 0.442003 0.442003
0.448889 0.448889 0.448889
0.456283 0.456283 0.456283
0.464164 0.464164 0.464164
0.472511 0.472511 0.472511
0.481301 0.481301 0.481301
0.490512 0.490512 0.490512
0.500121 0.500121 0.500121
0.510105 0.510105 0.510105
0.520443 0.520443 0.520443
0.531112 0.531112 0.531112
0.502637 0.502637 0.502637
0.516848 0.516848 0.516848
0.531403 0.531403 0.531403
0.546279 0.546279 0.546279
0.561454 0.561454 0.561454
0.576910 0.576910 0.576910
0.592627 0.592627 0.592627
0.608587 0.608587 0.608587
0.624776 0.624776 0.624776
0.641177 0.641177 0.641177
0.424818 0.424818 0.424818
0.425657 0.425657 0.425657
0.426604 0.426604 0.426604
0.427957 0.427957 0.427957
0.429762 0.429762 0.429762
0.432050 0.432050 0.432050
0.434839 0.434839 0.434839
0.438145 0.438145 0.438145
0.441978 0.441978 0.441978
0.446341 0.446341 0.446341
0.451233 0.451233 0.451233
0.456652 0.456652 0.456652
0.462587 0.462587 0.462587
0.469028 0.469028 0.469028
0.475961 0.475961 0.475961
0.483370 0.483370 0.483370
0.491236 0.491236 0.491236
0.499542 0.499542 0.499542
0.508268 0.508268 0.508268
0.517393 0.517393 0.517393
0.526898 0.526898 0.526898
0.536761 0.536761 0.536761
0.508781 0.508781 0.508781
0.522050 0.522050 0.522050
0.535699 0.535699 0.535699
0.549705 0.549705 0.549705
0.564047 0.564047 0.564047
0.578705 0.578705 0.578705
0.593659 0.593659 0.593659
0.608891 0.608891 0.608891
0.624382 0.624382 0.624382
0.640118 0.640118 0.640118
0.656083 0.656083 0.656083
0.448411 0.448411 0.448411
0.449185 0.449185 0.449185
0.450059 0.450059 0.450059
0.451307 0.451307 0.451307
0.452975 0.452975 0.452975
0.455090 0.455090 0.455090
0.457672 0.457672 0.457672
0.460736 0.460736 0.460736
0.464293 0.464293 0.464293
0.468350 0.468350 0.468350
0.472907 0.472907 0.472907
0.477963 0.477963 0.477963
0.483513 0.483513 0.483513
0.489549 0.489549 0.489549
0.496060 0.496060 0.496060
0.503034 0.503034 0.503034
0.510456 0.510456 0.510456
0.518310 0.518310 0.518310
0.526580 0.526580 0.526580
0.535248 0.535248 0.535248
0.505417 0.505417 0.505417
0.517282 0.517282 0.517282
0.529581 0.529581 0.529581
0.542293 0.542293 0.542293
0.555394 0.555394 0.555394
0.568863 0.568863 0.568863
0.582681 0.582681 0.582681
0.596828 0.596828 0.596828
0.611284 0.611284 0.611284
0.626031 0.626031 0.626031
0.641053 0.641053 0.641053
0.656334 0.656334 0.656334
0.671858 0.671858 0.671858
0.472004 0.472004 0.472004
0.472721 0.472721 0.472721
0.473531 0.473531 0.473531
0.474688 0.474688 0.474688
0.476235 0.476235 0.476235
0.478198 0.478198 0.478198
0.480597 0.480597 0.480597
0.483447 0.483447 0.483447
0.486760 0.486760 0.486760
0.490543 0.490543 0.490543
0.494799 0.494799 0.494799
0.499530 0.499530 0.499530
0.504732 0.504732 0.504732
0.510399 0.510399 0.510399
0.516525 0.516525 0.516525
0.523099 0.523099 0.523099
0.530109 0.530109 0.530109
0.537543 0.537543 0.537543
0.506791 0.506791 0.506791
0.517177 0.517177 0.517177
0.528040 0.528040 0.528040
0.539361 0.539361 0.539361
0.551119 0.551119 0.551119
0.563293 0.563293 0.563293
0.575864 0.575864 0.575864
0.588812 0.588812 0.588812
0.602118 0.602118 0.602118
0.615762 0.615762 0.615762
0.629727 0.629727 0.629727
0.643995 0.643995 0.643995
0.658551 0.658551 0.658551
0.673377 0.673377 0.673377
0.688459 0.688459 0.688459
0.495597 0.495597 0.495597
0.496264 0.496264 0.496264
0.497017 0.497017 0.497017
0.498094 0.498094 0.498094
0.499534 0.499534 0.499534
0.501363 0.501363 0.501363
0.503600 0.503600 0.503600
0.506260 0.506260 0.506260
0.509355 0.509355 0.509355
0.512893 0.512893 0.512893
0.516879 0.516879 0.516879
0.521316 0.521316 0.521316
0.526202 0.526202 0.526202
0.531534 0.531534 0.531534
0.537306 0.537306 0.537306
0.504428 0.504428 0.504428
0.512788 0.512788 0.512788
0.521668 0.521668 0.521668
0.531054 0.531054 0.531054
0.540930 0.540930 0.540930
0.551279 0.551279 0.551279
0.562084 0.562084 0.562084
0.573325 0.573325 0.573325
0.584985 0.584985 0.584985
0.597046 0.597046 0.597046
0.609489 0.609489 0.609489
0.622296 0.622296 0.622296
0.635450 0.635450 0.635450
0.648934 0.648934 0.648934
0.662731 0.662731 0.662731
0.676825 0.676825 0.676825
0.691200 0.691200 0.691200
0.705843 0.705843 0.705843
0.519190 0.519190 0.519190
0.519812 0.519812 0.519812
0.520515 0.520515 0.520515
0.521521 0.521521 0.521521
0.522867 0.522867 0.522867
0.524576 0.524576 0.524576
0.526668 0.526668 0.526668
0.529158 0.529158 0.529158
0.532058 0.532058 0.532058
0.535376 0.535376 0.535376
0.539119 0.539119 0.539119
0.504147 0.504147 0.504147
0.509946 0.509946 0.509946
0.516284 0.516284 0.516284
0.523155 0.523155 0.523155
0.530553 0.530553 0.530553
0.538468 0.538468 0.538468
0.546891 0.546891 0.546891
0.555808 0.555808 0.555808
0.565207 0.565207 0.565207
0.575071 0.575071 0.575071
0.585387 0.585387 0.585387
0.596137 0.596137 0.596137
0.607307 0.607307 0.607307
0.618878 0.618878 0.618878
0.630834 0.630834 0.630834
0.643159 0.643159 0.643159
0.655837 0.655837 0.655837
0.668851 0.668851 0.668851
0.682186 0.682186 0.682186
0.695827 0.695827 0.695827
0.709758 0.709758 0.709758
0.723966 0.723966 0.723966
0.503509 0.503509 0.503509
0.504244 0.504244 0.504244
0.505074 0.505074 0.505074
0.506262 0.506262 0.506262
0.507852 0.507852 0.507852
0.509873 0.509873 0.509873
0.512347 0.512347 0.512347
0.515294 0.515294 0.515294
0.518728 0.518728 0.518728
0.522662 0.522662 0.522662
0.527103 0.527103 0.527103
0.532058 0.532058 0.532058
0.537528 0.537528 0.537528
0.543512 0.543512 0.543512
0.550010 0.550010 0.550010
0.557015 0.557015 0.557015
0.564521 0.564521 0.564521
0.572519 0.572519 0.572519
0.580999 0.580999 0.580999
0.589950 0.589950 0.589950
0.599359 0.599359 0.599359
0.609213 0.609213 0.609213
0.619498 0.619498 0.619498
0.630200 0.630200 0.630200
0.641303 0.641303 0.641303
0.652792 0.652792 0.652792
0.664653 0.664653 0.664653
0.676870 0.676870 0.676870
0.689428 0.689428 0.689428
0.702312 0.702312 0.702312
0.715509 0.715509 0.715509
0.729004 0.729004 0.729004
0.742784 0.742784 0.742784
0.533256 0.533256 0.533256
0.533946 0.533946 0.533946
0.534726 0.534726 0.534726
0.535842 0.535842 0.535842
0.537337 0.537337 0.537337
0.539236 0.539236 0.539236
0.541564 0.541564 0.541564
0.544337 0.544337 0.544337
0.547571 0.547571 0.547571
0.551279 0.551279 0.551279
0.555468 0.555468 0.555468
0.560146 0.560146 0.560146
0.565315 0.565315 0.565315
0.570978 0.570978 0.570978
0.577132 0.577132 0.577132
0.583775 0.583775 0.583775
0.590901 0.590901 0.590901
0.598505 0.598505 0.598505
0.606578 0.606578 0.606578
0.615111 0.615111 0.615111
0.624092 0.624092 0.624092
0.633512 0.633512 0.633512
0.643356 0.643356 0.643356
0.653614 0.653614 0.653614
0.664270 0.664270 0.664270
0.675312 0.675312 0.675312
0.686726 0.686726 0.686726
0.698499 0.698499 0.698499
0.710616 0.710616 0.710616
0.723063 0.723063 0.723063
0.735827 0.735827 0.735827
0.748896 0.748896 0.748896
0.762255 0.762255 0.762255
0.563004 0.563004 0.563004
0.563654 0.563654 0.563654
0.564388 0.564388 0.564388
0.565439 0.565439 0.565439
0.566847 0.566847 0.566847
0.568638 0.568638 0.568638
0.570832 0.570832 0.570832
0.573449 0.573449 0.573449
0.576502 0.576502 0.576502
0.580004 0.580004 0.580004
0.583964 0.583964 0.583964
0.588389 0.588389 0.588389
0.593284 0.593284 0.593284
0.598650 0.598650 0.598650
0.604488 0.604488 0.604488
0.610797 0.610797 0.610797
0.617573 0.617573 0.617573
0.624811 0.624811 0.624811
0.632505 0.632505 0.632505
0.640646 0.640646 0.640646
0.649226 0.649226 0.649226
0.658236 0.658236 0.658236
0.667664 0.667664 0.667664
0.677500 0.677500 0.677500
0.687732 0.687732 0.687732
0.698347 0.698347 0.698347
0.709333 0.709333 0.709333
0.720678 0.720678 0.720678
0.732369 0.732369 0.732369
0.744393 0.744393 0.744393
0.756737 0.756737 0.756737
0.769390 0.769390 0.769390
0.782338 0.782338 0.782338
0.592752 0.592752 0.592752
0.593365 0.593365 0.593365
0.594058 0.594058 0.594058
0.595051 0.595051 0.595051
0.596381 0.596381 0.596381
0.598072 0.598072 0.598072
0.600146 0.600146 0.600146
0.602620 0.602620 0.602620
0.605508 0.605508 0.605508
0.608823 0.608823 0.608823
0.612574 0.612574 0.612574
0.616768 0.616768 0.616768
0.621410 0.621410 0.621410
0.626505 0.626505 0.626505
0.632053 0.632053 0.632053
0.638053 0.638053 0.638053
0.644504 0.644504 0.644504
0.651401 0.651401 0.651401
0.658741 0.658741 0.658741
0.666516 0.666516 0.666516
0.674720 0.674720 0.674720
0.683345 0.683345 0.683345
0.692380 0.692380 0.692380
0.701817 0.701817 0.701817
0.711645 0.711645 0.711645
0.721853 0.721853 0.721853
0.732430 0.732430 0.732430
0.743364 0.743364 0.743364
0.754645 0.754645 0.754645
0.766260 0.766260 0.766260
0.778198 0.778198 0.778198
0.790446 0.790446 0.790446
0.802995 0.802995 0.802995
0.622499 0.622499 0.622499
0.623080 0.623080 0.623080
0.623736 0.623736 0.623736
0.624675 0.624675 0.624675
0.625934 0.625934 0.625934
0.627535 0.627535 0.627535
0.629500 0.629500 0.629500
0.631843 0.631843 0.631843
0.634581 0.634581 0.634581
0.637724 0.637724 0.637724
0.641284 0.641284 0.641284
0.645266 0.645266 0.645266
0.649677 0.649677 0.649677
0.654521 0.654521 0.654521
0.659800 0.659800 0.659800
0.665515 0.665515 0.665515
0.671664 0.671664 0.671664
0.678246 0.678246 0.678246
0.685255 0.685255 0.685255
0.692689 0.692689 0.692689
0.700540 0.700540 0.700540
0.708801 0.708801 0.708801
0.717466 0.717466 0.717466
0.726525 0.726525 0.726525
0.735969 0.735969 0.735969
0.745790 0.745790 0.745790
0.755976 0.755976 0.755976
0.766518 0.766518 0.766518
0.777404 0.777404 0.777404
0.788625 0.788625 0.788625
0.800170 0.800170 0.800170
0.812028 0.812028 0.812028
0.824187 0.824187 0.824187
0.652247 0.652247 0.652247
0.652797 0.652797 0.652797
0.653419 0.653419 0.653419
0.654310 0.654310 0.654310
0.655504 0.655504 0.655504
0.657023 0.657023 0.657023
0.658887 0.658887 0.658887
0.661112 0.661112 0.661112
0.663712 0.663712 0.663712
0.666699 0.666699 0.666699
0.670082 0.670082 0.670082
0.673869 0.673869 0.673869
0.678067 0.678067 0.678067
0.682681 0.682681 0.682681
0.687711 0.687711 0.687711
0.693162 0.693162 0.693162
0.699031 0.699031 0.699031
0.705317 0.705317 0.705317
0.712019 0.712019 0.712019
0.719133 0.719133 0.719133
0.726652 0.726652 0.726652
0.734573 0.734573 0.734573
0.742887 0.742887 0.742887
0.751589 0.751589 0.751589
0.760670 0.760670 0.760670
0.770122 0.770122 0.770122
0.779935 0.779935 0.779935
0.790101 0.790101 0.790101
0.800610 0.800610 0.800610
0.811453 0.811453 0.811453
0.822618 0.822618 0.822618
0.834097 0.834097 0.834097
0.845880 0.845880 0.845880
0.681994 0.681994 0.681994
0.682517 0.682517 0.682517
0.683108 0.683108 0.683108
0.683955 0.683955 0.683955
0.685089 0.685089 0.685089
0.686534 0.686534 0.686534
0.688306 0.688306 0.688306
0.690422 0.690422 0.690422
0.692895 0.692895 0.692895
0.695737 0.695737 0.695737
0.698958 0.698958 0.698958
0.702566 0.702566 0.702566
0.706568 0.706568 0.706568
0.710967 0.710967 0.710967
0.715768 0.715768 0.715768
0.720973 0.720973 0.720973
0.726581 0.726581 0.726581
0.732594 0.732594 0.732594
0.739008 0.739008 0.739008
0.745821 0.745821 0.745821
0.753030 0.753030 0.753030
0.760630 0.760630 0.760630
0.768615 0.768615 0.768615
0.776979 0.776979 0.776979
