docs/luts/fuji_recipes/Acros_RR_Ilford_HP-5_.cube
TITLE "Fujifilm Recipe: RR Ilford HP-5+ (Acros)"
# FilmSim=Acros HL=4 SH=2 Col=0 WB=Auto WBR=0 WBB=0
LUT_3D_SIZE 33
DOMAIN_MIN 0.0 0.0 0.0
DOMAIN_MAX 1.0 1.0 1.0
0.000000 0.000000 0.000000
0.006112 0.006112 0.006112
0.013029 0.013029 0.013029
0.022946 0.022946 0.022946
0.036263 0.036263 0.036263
0.051354 0.051354 0.051354
0.066435 0.066435 0.066435
0.081517 0.081517 0.081517
0.096599 0.096599 0.096599
0.111681 0.111681 0.111681
0.126763 0.126763 0.126763
0.141845 0.141845 0.141845
0.156927 0.156927 0.156927
0.172009 0.172009 0.172009
0.187091 0.187091 0.187091
0.202173 0.202173 0.202173
0.217254 0.217254 0.217254
0.232336 0.232336 0.232336
0.247418 0.247418 0.247418
0.262500 0.262500 0.262500
0.277582 0.277582 0.277582
0.292664 0.292664 0.292664
0.307746 0.307746 0.307746
0.322828 0.322828 0.322828
0.337910 0.337910 0.337910
0.352991 0.352991 0.352991
0.368073 0.368073 0.368073
0.383155 0.383155 0.383155
0.398237 0.398237 0.398237
0.413319 0.413319 0.413319
0.428401 0.428401 0.428401
0.443483 0.443483 0.443483
0.458565 0.458565 0.458565
0.020562 0.020562 0.020562
0.026674 0.026674 0.026674
0.033591 0.033591 0.033591
0.043121 0.043121 0.043121
0.054151 0.054151 0.054151
0.066212 0.066212 0.066212
0.079000 0.079000 0.079000
0.092306 0.092306 0.092306
0.105986 0.105986 0.105986
0.119942 0.119942 0.119942
0.134105 0.134105 0.134105
0.148427 0.148427 0.148427
0.162872 0.162872 0.162872
0.177414 0.177414 0.177414
0.192034 0.192034 0.192034
0.206717 0.206717 0.206717
0.221451 0.221451 0.221451
0.236228 0.236228 0.236228
0.251041 0.251041 0.251041
0.265884 0.265884 0.265884
0.280753 0.280753 0.280753
0.295644 0.295644 0.295644
0.310553 0.310553 0.310553
0.325479 0.325479 0.325479
0.340419 0.340419 0.340419
0.355372 0.355372 0.355372
0.370335 0.370335 0.370335
0.385308 0.385308 0.385308
0.400290 0.400290 0.400290
0.415280 0.415280 0.415280
0.430276 0.430276 0.430276
0.445279 0.445279 0.445279
0.500362 0.500362 0.500362
0.043409 0.043409 0.043409
0.048665 0.048665 0.048665
0.054177 0.054177 0.054177
0.061436 0.061436 0.061436
0.070255 0.070255 0.070255
0.080340 0.080340 0.080340
0.091422 0.091422 0.091422
0.103279 0.103279 0.103279
0.115737 0.115737 0.115737
0.128660 0.128660 0.128660
0.141949 0.141949 0.141949
0.155525 0.155525 0.155525
0.169331 0.169331 0.169331
0.183321 0.183321 0.183321
0.197462 0.197462 0.197462
0.211726 0.211726 0.211726
0.226093 0.226093 0.226093
0.240545 0.240545 0.240545
0.255069 0.255069 0.255069
0.269654 0.269654 0.269654
0.284291 0.284291 0.284291
0.298973 0.298973 0.298973
0.313693 0.313693 0.313693
0.328448 0.328448 0.328448
0.343232 0.343232 0.343232
0.358041 0.358041 0.358041
0.372874 0.372874 0.372874
0.387727 0.387727 0.387727
0.402598 0.402598 0.402598
0.417484 0.417484 0.417484
0.432386 0.432386 0.432386
0.447300 0.447300 0.447300
0.502807 0.502807 0.502807
0.068412 0.068412 0.068412
0.072251 0.072251 0.072251
0.076402 0.076402 0.076402
0.082043 0.082043 0.082043
0.089126 0.089126 0.089126
0.097490 0.097490 0.097490
0.106950 0.106950 0.106950
0.117328 0.117328 0.117328
0.128461 0.128461 0.128461
0.140213 0.140213 0.140213
0.152471 0.152471 0.152471
0.165143 0.165143 0.165143
0.178153 0.178153 0.178153
0.191444 0.191444 0.191444
0.204967 0.204967 0.204967
0.218685 0.218685 0.218685
0.232565 0.232565 0.232565
0.246582 0.246582 0.246582
0.260717 0.260717 0.260717
0.274953 0.274953 0.274953
0.289274 0.289274 0.289274
0.303670 0.303670 0.303670
0.318131 0.318131 0.318131
0.332649 0.332649 0.332649
0.347216 0.347216 0.347216
0.361828 0.361828 0.361828
0.376478 0.376478 0.376478
0.391162 0.391162 0.391162
0.405878 0.405878 0.405878
0.420621 0.420621 0.420621
0.435388 0.435388 0.435388
0.450178 0.450178 0.450178
0.506290 0.506290 0.506290
0.093414 0.093414 0.093414
0.096378 0.096378 0.096378
0.099634 0.099634 0.099634
0.104137 0.104137 0.104137
0.109909 0.109909 0.109909
0.116875 0.116875 0.116875
0.124925 0.124925 0.124925
0.133935 0.133935 0.133935
0.143778 0.143778 0.143778
0.154336 0.154336 0.154336
0.165502 0.165502 0.165502
0.177183 0.177183 0.177183
0.189300 0.189300 0.189300
0.201786 0.201786 0.201786
0.214585 0.214585 0.214585
0.227650 0.227650 0.227650
0.240942 0.240942 0.240942
0.254429 0.254429 0.254429
0.268084 0.268084 0.268084
0.281884 0.281884 0.281884
0.295809 0.295809 0.295809
0.309844 0.309844 0.309844
0.323975 0.323975 0.323975
0.338191 0.338191 0.338191
0.352481 0.352481 0.352481
0.366836 0.366836 0.366836
0.381251 0.381251 0.381251
0.395718 0.395718 0.395718
0.410231 0.410231 0.410231
0.424787 0.424787 0.424787
0.439380 0.439380 0.439380
0.454007 0.454007 0.454007
0.510926 0.510926 0.510926
0.118417 0.118417 0.118417
0.120796 0.120796 0.120796
0.123434 0.123434 0.123434
0.127121 0.127121 0.127121
0.131910 0.131910 0.131910
0.137775 0.137775 0.137775
0.144658 0.144658 0.144658
0.152479 0.152479 0.152479
0.161150 0.161150 0.161150
0.170579 0.170579 0.170579
0.180675 0.180675 0.180675
0.191355 0.191355 0.191355
0.202543 0.202543 0.202543
0.214173 0.214173 0.214173
0.226185 0.226185 0.226185
0.238530 0.238530 0.238530
0.251162 0.251162 0.251162
0.264046 0.264046 0.264046
0.277148 0.277148 0.277148
0.290441 0.290441 0.290441
0.303902 0.303902 0.303902
0.317511 0.317511 0.317511
0.331249 0.331249 0.331249
0.345103 0.345103 0.345103
0.359059 0.359059 0.359059
0.373106 0.373106 0.373106
0.387234 0.387234 0.387234
0.401435 0.401435 0.401435
0.415702 0.415702 0.415702
0.430027 0.430027 0.430027
0.444406 0.444406 0.444406
0.458833 0.458833 0.458833
0.516774 0.516774 0.516774
0.143419 0.143419 0.143419
0.145386 0.145386 0.145386
0.147579 0.147579 0.147579
0.150665 0.150665 0.150665
0.154708 0.154708 0.154708
0.159708 0.159708 0.159708
0.165641 0.165641 0.165641
0.172461 0.172461 0.172461
0.180109 0.180109 0.180109
0.188517 0.188517 0.188517
0.197616 0.197616 0.197616
0.207337 0.207337 0.207337
0.217612 0.217612 0.217612
0.228380 0.228380 0.228380
0.239585 0.239585 0.239585
0.251176 0.251176 0.251176
0.263108 0.263108 0.263108
0.275341 0.275341 0.275341
0.287840 0.287840 0.287840
0.300575 0.300575 0.300575
0.313518 0.313518 0.313518
0.326648 0.326648 0.326648
0.339942 0.339942 0.339942
0.353383 0.353383 0.353383
0.366956 0.366956 0.366956
0.380646 0.380646 0.380646
0.394443 0.394443 0.394443
0.408335 0.408335 0.408335
0.422312 0.422312 0.422312
0.436368 0.436368 0.436368
0.450494 0.450494 0.450494
0.505907 0.505907 0.505907
0.523872 0.523872 0.523872
0.168422 0.168422 0.168422
0.170084 0.170084 0.170084
0.171945 0.171945 0.171945
0.174576 0.174576 0.174576
0.178042 0.178042 0.178042
0.182359 0.182359 0.182359
0.187522 0.187522 0.187522
0.193508 0.193508 0.193508
0.200279 0.200279 0.200279
0.207790 0.207790 0.207790
0.215989 0.215989 0.215989
0.224821 0.224821 0.224821
0.234232 0.234232 0.234232
0.244166 0.244166 0.244166
0.254575 0.254575 0.254575
0.265410 0.265410 0.265410
0.276627 0.276627 0.276627
0.288188 0.288188 0.288188
0.300056 0.300056 0.300056
0.312199 0.312199 0.312199
0.324589 0.324589 0.324589
0.337200 0.337200 0.337200
0.350010 0.350010 0.350010
0.362998 0.362998 0.362998
0.376148 0.376148 0.376148
0.389442 0.389442 0.389442
0.402868 0.402868 0.402868
0.416412 0.416412 0.416412
0.430065 0.430065 0.430065
0.443814 0.443814 0.443814
0.457653 0.457653 0.457653
0.514593 0.514593 0.514593
0.532238 0.532238 0.532238
0.193424 0.193424 0.193424
0.194855 0.194855 0.194855
0.196460 0.196460 0.196460
0.198737 0.198737 0.198737
0.201749 0.201749 0.201749
0.205520 0.205520 0.205520
0.210055 0.210055 0.210055
0.215347 0.215347 0.215347
0.221374 0.221374 0.221374
0.228106 0.228106 0.228106
0.235507 0.235507 0.235507
0.243536 0.243536 0.243536
0.252148 0.252148 0.252148
0.261299 0.261299 0.261299
0.270945 0.270945 0.270945
0.281044 0.281044 0.281044
0.291556 0.291556 0.291556
0.302443 0.302443 0.302443
0.313670 0.313670 0.313670
0.325206 0.325206 0.325206
0.337022 0.337022 0.337022
0.349091 0.349091 0.349091
0.361390 0.361390 0.361390
0.373897 0.373897 0.373897
0.386592 0.386592 0.386592
0.399460 0.399460 0.399460
0.412483 0.412483 0.412483
0.425648 0.425648 0.425648
0.438943 0.438943 0.438943
0.452357 0.452357 0.452357
0.507411 0.507411 0.507411
0.524585 0.524585 0.524585
0.541873 0.541873 0.541873
0.218426 0.218426 0.218426
0.219676 0.219676 0.219676
0.221080 0.221080 0.221080
0.223076 0.223076 0.223076
0.225724 0.225724 0.225724
0.229052 0.229052 0.229052
0.233071 0.233071 0.233071
0.237784 0.237784 0.237784
0.243179 0.243179 0.243179
0.249240 0.249240 0.249240
0.255941 0.255941 0.255941
0.263251 0.263251 0.263251
0.271138 0.271138 0.271138
0.279565 0.279565 0.279565
0.288497 0.288497 0.288497
0.297895 0.297895 0.297895
0.307726 0.307726 0.307726
0.317955 0.317955 0.317955
0.328548 0.328548 0.328548
0.339477 0.339477 0.339477
0.350713 0.350713 0.350713
0.362229 0.362229 0.362229
0.374001 0.374001 0.374001
0.386009 0.386009 0.386009
0.398230 0.398230 0.398230
0.410648 0.410648 0.410648
0.423245 0.423245 0.423245
0.436007 0.436007 0.436007
0.448920 0.448920 0.448920
0.502486 0.502486 0.502486
0.519102 0.519102 0.519102
0.535865 0.535865 0.535865
0.552765 0.552765 0.552765
0.243429 0.243429 0.243429
0.244533 0.244533 0.244533
0.245775 0.245775 0.245775
0.247544 0.247544 0.247544
0.249896 0.249896 0.249896
0.252859 0.252859 0.252859
0.256451 0.256451 0.256451
0.260677 0.260677 0.260677
0.265536 0.265536 0.265536
0.271017 0.271017 0.271017
0.277106 0.277106 0.277106
0.283780 0.283780 0.283780
0.291015 0.291015 0.291015
0.298783 0.298783 0.298783
0.307053 0.307053 0.307053
0.315796 0.315796 0.315796
0.324981 0.324981 0.324981
0.334578 0.334578 0.334578
0.344557 0.344557 0.344557
0.354890 0.354890 0.354890
0.365550 0.365550 0.365550
0.376514 0.376514 0.376514
0.387756 0.387756 0.387756
0.399255 0.399255 0.399255
0.410991 0.410991 0.410991
0.422946 0.422946 0.422946
0.435101 0.435101 0.435101
0.447442 0.447442 0.447442
0.459954 0.459954 0.459954
0.515917 0.515917 0.515917
0.532075 0.532075 0.532075
0.548403 0.548403 0.548403
0.564887 0.564887 0.564887
0.268431 0.268431 0.268431
0.269417 0.269417 0.269417
0.270526 0.270526 0.270526
0.272108 0.272108 0.272108
0.274215 0.274215 0.274215
0.276876 0.276876 0.276876
0.280109 0.280109 0.280109
0.283924 0.283924 0.283924
0.288324 0.288324 0.288324
0.293306 0.293306 0.293306
0.298860 0.298860 0.298860
0.304972 0.304972 0.304972
0.311624 0.311624 0.311624
0.318795 0.318795 0.318795
0.326460 0.326460 0.326460
0.334596 0.334596 0.334596
0.343176 0.343176 0.343176
0.352175 0.352175 0.352175
0.361565 0.361565 0.361565
0.371323 0.371323 0.371323
0.381424 0.381424 0.381424
0.391843 0.391843 0.391843
0.402559 0.402559 0.402559
0.413551 0.413551 0.413551
0.424799 0.424799 0.424799
0.436284 0.436284 0.436284
0.447989 0.447989 0.447989
0.459898 0.459898 0.459898
0.515126 0.515126 0.515126
0.530602 0.530602 0.530602
0.546283 0.546283 0.546283
0.562155 0.562155 0.562155
0.578204 0.578204 0.578204
0.293434 0.293434 0.293434
0.294321 0.294321 0.294321
0.295320 0.295320 0.295320
0.296746 0.296746 0.296746
0.298649 0.298649 0.298649
0.301055 0.301055 0.301055
0.303984 0.303984 0.303984
0.307448 0.307448 0.307448
0.311455 0.311455 0.311455
0.316003 0.316003 0.316003
0.321090 0.321090 0.321090
0.326706 0.326706 0.326706
0.332838 0.332838 0.332838
0.339471 0.339471 0.339471
0.346586 0.346586 0.346586
0.354164 0.354164 0.354164
0.362183 0.362183 0.362183
0.370621 0.370621 0.370621
0.379455 0.379455 0.379455
0.388664 0.388664 0.388664
0.398225 0.398225 0.398225
0.408117 0.408117 0.408117
0.418318 0.418318 0.418318
0.428810 0.428810 0.428810
0.439573 0.439573 0.439573
0.450589 0.450589 0.450589
0.502322 0.502322 0.502322
0.516788 0.516788 0.516788
0.531513 0.531513 0.531513
0.546480 0.546480 0.546480
0.561671 0.561671 0.561671
0.577073 0.577073 0.577073
0.592670 0.592670 0.592670
0.318436 0.318436 0.318436
0.319240 0.319240 0.319240
0.320147 0.320147 0.320147
0.321442 0.321442 0.321442
0.323171 0.323171 0.323171
0.325361 0.325361 0.325361
0.328030 0.328030 0.328030
0.331194 0.331194 0.331194
0.334860 0.334860 0.334860
0.339032 0.339032 0.339032
0.343709 0.343709 0.343709
0.348886 0.348886 0.348886
0.354555 0.354555 0.354555
0.360705 0.360705 0.360705
0.367321 0.367321 0.367321
0.374388 0.374388 0.374388
0.381889 0.381889 0.381889
0.389805 0.389805 0.389805
0.398118 0.398118 0.398118
0.406807 0.406807 0.406807
0.415854 0.415854 0.415854
0.425239 0.425239 0.425239
0.434943 0.434943 0.434943
0.444947 0.444947 0.444947
0.455235 0.455235 0.455235
0.507298 0.507298 0.507298
0.520920 0.520920 0.520920
0.534836 0.534836 0.534836
0.549029 0.549029 0.549029
0.563482 0.563482 0.563482
0.578177 0.578177 0.578177
0.593100 0.593100 0.593100
0.608236 0.608236 0.608236
0.343439 0.343439 0.343439
0.344172 0.344172 0.344172
0.345000 0.345000 0.345000
0.346183 0.346183 0.346183
0.347764 0.347764 0.347764
0.349768 0.349768 0.349768
0.352214 0.352214 0.352214
0.355117 0.355117 0.355117
0.358487 0.358487 0.358487
0.362330 0.362330 0.362330
0.366646 0.366646 0.366646
0.371435 0.371435 0.371435
0.376691 0.376691 0.376691
0.382406 0.382406 0.382406
0.388571 0.388571 0.388571
0.395172 0.395172 0.395172
0.402198 0.402198 0.402198
0.409631 0.409631 0.409631
0.417457 0.417457 0.417457
0.425658 0.425658 0.425658
0.434218 0.434218 0.434218
0.443120 0.443120 0.443120
0.452347 0.452347 0.452347
0.502372 0.502372 0.502372
0.514760 0.514760 0.514760
0.527497 0.527497 0.527497
0.540561 0.540561 0.540561
0.553934 0.553934 0.553934
0.567599 0.567599 0.567599
0.581538 0.581538 0.581538
0.595736 0.595736 0.595736
0.610177 0.610177 0.610177
0.624846 0.624846 0.624846
0.368441 0.368441 0.368441
0.369114 0.369114 0.369114
0.369874 0.369874 0.369874
0.370961 0.370961 0.370961
0.372414 0.372414 0.372414
0.374257 0.374257 0.374257
0.376509 0.376509 0.376509
0.379186 0.379186 0.379186
0.382297 0.382297 0.382297
0.385849 0.385849 0.385849
0.389847 0.389847 0.389847
0.394291 0.394291 0.394291
0.399178 0.399178 0.399178
0.404503 0.404503 0.404503
0.410259 0.410259 0.410259
0.416437 0.416437 0.416437
0.423026 0.423026 0.423026
0.430014 0.430014 0.430014
0.437387 0.437387 0.437387
0.445133 0.445133 0.445133
0.453235 0.453235 0.453235
0.502117 0.502117 0.502117
0.513177 0.513177 0.513177
0.524630 0.524630 0.524630
0.536457 0.536457 0.536457
0.548640 0.548640 0.548640
0.561162 0.561162 0.561162
0.574003 0.574003 0.574003
0.587147 0.587147 0.587147
0.600579 0.600579 0.600579
0.614282 0.614282 0.614282
0.628241 0.628241 0.628241
0.642443 0.642443 0.642443
0.393444 0.393444 0.393444
0.394064 0.394064 0.394064
0.394766 0.394766 0.394766
0.395768 0.395768 0.395768
0.397110 0.397110 0.397110
0.398813 0.398813 0.398813
0.400896 0.400896 0.400896
0.403373 0.403373 0.403373
0.406257 0.406257 0.406257
0.409553 0.409553 0.409553
0.413269 0.413269 0.413269
0.417405 0.417405 0.417405
0.421961 0.421961 0.421961
0.426935 0.426935 0.426935
0.432321 0.432321 0.432321
0.438113 0.438113 0.438113
0.444303 0.444303 0.444303
0.450881 0.450881 0.450881
0.457835 0.457835 0.457835
0.506500 0.506500 0.506500
0.516175 0.516175 0.516175
0.526279 0.526279 0.526279
0.536795 0.536795 0.536795
0.547706 0.547706 0.547706
0.558995 0.558995 0.558995
0.570646 0.570646 0.570646
0.582641 0.582641 0.582641
0.594965 0.594965 0.594965
0.607601 0.607601 0.607601
0.620534 0.620534 0.620534
0.633748 0.633748 0.633748
0.647231 0.647231 0.647231
0.660967 0.660967 0.660967
0.418446 0.418446 0.418446
0.419021 0.419021 0.419021
0.419671 0.419671 0.419671
0.420600 0.420600 0.420600
0.421844 0.421844 0.421844
0.423424 0.423424 0.423424
0.425358 0.425358 0.425358
0.427660 0.427660 0.427660
0.430342 0.430342 0.430342
0.433412 0.433412 0.433412
0.436876 0.436876 0.436876
0.440737 0.440737 0.440737
0.444996 0.444996 0.444996
0.449653 0.449653 0.449653
0.454704 0.454704 0.454704
0.500182 0.500182 0.500182
0.507526 0.507526 0.507526
0.515344 0.515344 0.515344
0.523624 0.523624 0.523624
0.532356 0.532356 0.532356
0.541525 0.541525 0.541525
0.551119 0.551119 0.551119
0.561121 0.561121 0.561121
0.571518 0.571518 0.571518
0.582294 0.582294 0.582294
0.593434 0.593434 0.593434
0.604923 0.604923 0.604923
0.616746 0.616746 0.616746
0.628888 0.628888 0.628888
0.641334 0.641334 0.641334
0.654071 0.654071 0.654071
0.667085 0.667085 0.667085
0.680362 0.680362 0.680362
0.443448 0.443448 0.443448
0.443983 0.443983 0.443983
0.444588 0.444588 0.444588
0.445452 0.445452 0.445452
0.446610 0.446610 0.446610
0.448081 0.448081 0.448081
0.449883 0.449883 0.449883
0.452030 0.452030 0.452030
0.454533 0.454533 0.454533
0.457400 0.457400 0.457400
0.500805 0.500805 0.500805
0.505363 0.505363 0.505363
0.510396 0.510396 0.510396
0.515906 0.515906 0.515906
0.521892 0.521892 0.521892
0.528348 0.528348 0.528348
0.535270 0.535270 0.535270
0.542650 0.542650 0.542650
0.550479 0.550479 0.550479
0.558749 0.558749 0.558749
0.567446 0.567446 0.567446
0.576561 0.576561 0.576561
0.586080 0.586080 0.586080
0.595991 0.595991 0.595991
0.606280 0.606280 0.606280
0.616933 0.616933 0.616933
0.627936 0.627936 0.627936
0.639277 0.639277 0.639277
0.650942 0.650942 0.650942
0.662916 0.662916 0.662916
0.675187 0.675187 0.675187
0.687742 0.687742 0.687742
0.700568 0.700568 0.700568
0.510656 0.510656 0.510656
0.511285 0.511285 0.511285
0.511996 0.511996 0.511996
0.513014 0.513014 0.513014
0.514377 0.514377 0.514377
0.516111 0.516111 0.516111
0.518235 0.518235 0.518235
0.520766 0.520766 0.520766
0.523720 0.523720 0.523720
0.527107 0.527107 0.527107
0.530936 0.530936 0.530936
0.535213 0.535213 0.535213
0.539942 0.539942 0.539942
0.545125 0.545125 0.545125
0.550761 0.550761 0.550761
0.556849 0.556849 0.556849
0.563384 0.563384 0.563384
0.570362 0.570362 0.570362
0.577775 0.577775 0.577775
0.585615 0.585615 0.585615
0.593874 0.593874 0.593874
0.602541 0.602541 0.602541
0.611606 0.611606 0.611606
0.621058 0.621058 0.621058
0.630885 0.630885 0.630885
0.641075 0.641075 0.641075
0.651615 0.651615 0.651615
0.662494 0.662494 0.662494
0.673699 0.673699 0.673699
0.685217 0.685217 0.685217
0.697036 0.697036 0.697036
0.709144 0.709144 0.709144
0.721530 0.721530 0.721530
0.542180 0.542180 0.542180
0.542770 0.542770 0.542770
0.543436 0.543436 0.543436
0.544389 0.544389 0.544389
0.545666 0.545666 0.545666
0.547291 0.547291 0.547291
0.549282 0.549282 0.549282
0.551658 0.551658 0.551658
0.554430 0.554430 0.554430
0.557612 0.557612 0.557612
0.561211 0.561211 0.561211
0.565235 0.565235 0.565235
0.569688 0.569688 0.569688
0.574573 0.574573 0.574573
0.579892 0.579892 0.579892
0.585643 0.585643 0.585643
0.591823 0.591823 0.591823
0.598430 0.598430 0.598430
0.605458 0.605458 0.605458
0.612901 0.612901 0.612901
0.620751 0.620751 0.620751
0.629000 0.629000 0.629000
0.637639 0.637639 0.637639
0.646660 0.646660 0.646660
0.656050 0.656050 0.656050
0.665800 0.665800 0.665800
0.675900 0.675900 0.675900
0.686337 0.686337 0.686337
0.697100 0.697100 0.697100
0.708179 0.708179 0.708179
0.719562 0.719562 0.719562
0.731237 0.731237 0.731237
0.743195 0.743195 0.743195
0.573705 0.573705 0.573705
0.574259 0.574259 0.574259
0.574884 0.574884 0.574884
0.575780 0.575780 0.575780
0.576980 0.576980 0.576980
0.578507 0.578507 0.578507
0.580379 0.580379 0.580379
0.582613 0.582613 0.582613
0.585223 0.585223 0.585223
0.588218 0.588218 0.588218
0.591610 0.591610 0.591610
0.595404 0.595404 0.595404
0.599607 0.599607 0.599607
0.604222 0.604222 0.604222
0.609250 0.609250 0.609250
0.614692 0.614692 0.614692
0.620547 0.620547 0.620547
0.626812 0.626812 0.626812
0.633484 0.633484 0.633484
0.640557 0.640557 0.640557
0.648027 0.648027 0.648027
0.655886 0.655886 0.655886
0.664127 0.664127 0.664127
0.672741 0.672741 0.672741
0.681720 0.681720 0.681720
0.691054 0.691054 0.691054
0.700734 0.700734 0.700734
0.710750 0.710750 0.710750
0.721092 0.721092 0.721092
0.731749 0.731749 0.731749
0.742712 0.742712 0.742712
0.753969 0.753969 0.753969
0.765511 0.765511 0.765511
0.605230 0.605230 0.605230
0.605751 0.605751 0.605751
0.606340 0.606340 0.606340
0.607184 0.607184 0.607184
0.608314 0.608314 0.608314
0.609753 0.609753 0.609753
0.611518 0.611518 0.611518
0.613625 0.613625 0.613625
0.616086 0.616086 0.616086
0.618914 0.618914 0.618914
0.622117 0.622117 0.622117
0.625703 0.625703 0.625703
0.629677 0.629677 0.629677
0.634044 0.634044 0.634044
0.638806 0.638806 0.638806
0.643965 0.643965 0.643965
0.649520 0.649520 0.649520
0.655470 0.655470 0.655470
0.661813 0.661813 0.661813
0.668544 0.668544 0.668544
0.675660 0.675660 0.675660
0.683155 0.683155 0.683155
0.691022 0.691022 0.691022
0.699255 0.699255 0.699255
0.707845 0.707845 0.707845
0.716786 0.716786 0.716786
0.726069 0.726069 0.726069
0.735684 0.735684 0.735684
0.745624 0.745624 0.745624
0.755877 0.755877 0.755877
0.766436 0.766436 0.766436
0.777291 0.777291 0.777291
0.788431 0.788431 0.788431
0.636755 0.636755 0.636755
0.637247 0.637247 0.637247
0.637803 0.637803 0.637803
0.638599 0.638599 0.638599
0.639667 0.639667 0.639667
0.641026 0.641026 0.641026
0.642694 0.642694 0.642694
0.644685 0.644685 0.644685
0.647012 0.647012 0.647012
0.649687 0.649687 0.649687
0.652718 0.652718 0.652718
0.656113 0.656113 0.656113
0.659879 0.659879 0.659879
0.664019 0.664019 0.664019
0.668538 0.668538 0.668538
0.673436 0.673436 0.673436
0.678715 0.678715 0.678715
0.684374 0.684374 0.684374
0.690412 0.690412 0.690412
0.696825 0.696825 0.696825
0.703611 0.703611 0.703611
0.710765 0.710765 0.710765
0.718283 0.718283 0.718283
0.726157 0.726157 0.726157
0.734383 0.734383 0.734383
0.742952 0.742952 0.742952
0.751858 0.751858 0.751858
0.761093 0.761093 0.761093
0.770649 0.770649 0.770649
0.780517 0.780517 0.780517
0.790689 0.790689 0.790689
0.801156 0.801156 0.801156
0.811910 0.811910 0.811910
0.668280 0.668280 0.668280
0.668745 0.668745 0.668745
0.669271 0.669271 0.669271
0.670025 0.670025 0.670025
0.671035 0.671035 0.671035
0.672322 0.672322 0.672322
0.673901 0.673901 0.673901
0.675787 0.675787 0.675787
0.677992 0.677992 0.677992
0.680527 0.680527 0.680527
0.683401 0.683401 0.683401
0.686622 0.686622 0.686622
0.690197 0.690197 0.690197
0.694129 0.694129 0.694129
0.698423 0.698423 0.698423
0.703082 0.703082 0.703082
0.708105 0.708105 0.708105
0.713495 0.713495 0.713495
0.719250 0.719250 0.719250
0.725368 0.725368 0.725368
0.731847 0.731847 0.731847
0.738683 0.738683 0.738683
0.745873 0.745873 0.745873
0.753412 0.753412 0.753412
0.761293 0.761293 0.761293
0.769512 0.769512 0.769512
0.778061 0.778061 0.778061
0.786935 0.786935 0.786935
0.796126 0.796126 0.796126
0.805626 0.805626 0.805626
0.815428 0.815428 0.815428
0.825524 0.825524 0.825524
0.835907 0.835907 0.835907
0.699805 0.699805 0.699805
0.700246 0.700246 0.700246
0.700745 0.700745 0.700745
0.701459 0.701459 0.701459
0.702418 0.702418 0.702418
0.703638 0.703638 0.703638
0.705136 0.705136 0.705136
0.706926 0.706926 0.706926
0.709019 0.709019 0.709019
0.711426 0.711426 0.711426
0.714157 0.714157 0.714157
0.717218 0.717218 0.717218
0.720617 0.720617 0.720617
0.724358 0.724358 0.724358
0.728445 0.728445 0.728445
0.732882 0.732882 0.732882
0.737670 0.737670 0.737670
0.742810 0.742810 0.742810
0.748302 0.748302 0.748302
0.754146 0.754146 0.754146
0.760338 0.760338 0.760338
0.766878 0.766878 0.766878
0.773761 0.773761 0.773761
0.780983 0.780983 0.780983
0.788541 0.788541 0.788541
0.796429 0.796429 0.796429
0.804641 0.804641 0.804641
0.813172 0.813172 0.813172
0.822016 0.822016 0.822016
0.831166 0.831166 0.831166
0.840614 0.840614 0.840614
0.850355 0.850355 0.850355
0.860381 0.860381 0.860381
0.731329 0.731329 0.731329
0.731749 0.731749 0.731749
0.732223 0.732223 0.732223
0.732902 0.732902 0.732902
0.733812 0.733812 0.733812
0.734972 0.734972 0.734972
0.736396 0.736396 0.736396
0.738097 0.738097 0.738097
0.740088 0.740088 0.740088
0.742378 0.742378 0.742378
0.744977 0.744977 0.744977
0.747891 0.747891 0.747891
0.751128 0.751128 0.751128
0.754692 0.754692 0.754692
0.758589 0.758589 0.758589
0.762821 0.762821 0.762821
0.767390 0.767390 0.767390
0.772299 0.772299 0.772299
0.777547 0.777547 0.777547
0.783134 0.783134 0.783134
0.789059 0.789059 0.789059
0.795321 0.795321 0.795321
0.801916 0.801916 0.801916
0.808842 0.808842 0.808842
