docs/luts/fuji_recipes/AcrosR_PLR_Acros.cube
TITLE "Fujifilm Recipe: PLR Acros (AcrosR)"
# FilmSim=AcrosR HL=-1 SH=3 Col=0 WB=Auto WBR=0 WBB=0
LUT_3D_SIZE 5
DOMAIN_MIN 0.0 0.0 0.0
DOMAIN_MAX 1.0 1.0 1.0
0.000000 0.000000 0.000000
0.100842 0.100842 0.100842
0.223172 0.223172 0.223172
0.345501 0.345501 0.345501
0.529728 0.529728 0.529728
0.171856 0.171856 0.171856
0.204470 0.204470 0.204470
0.282343 0.282343 0.282343
0.383564 0.383564 0.383564
0.558425 0.558425 0.558425
0.352393 0.352393 0.352393
0.367585 0.367585 0.367585
0.411741 0.411741 0.411741
0.544888 0.544888 0.544888
0.639264 0.639264 0.639264
0.599267 0.599267 0.599267
0.609057 0.609057 0.609057
0.639107 0.639107 0.639107
0.691216 0.691216 0.691216
0.762703 0.762703 0.762703
0.792113 0.792113 0.792113
0.798853 0.798853 0.798853
0.819962 0.819962 0.819962
0.857963 0.857963 0.857963
0.912619 0.912619 0.912619
0.036317 0.036317 0.036317
0.115761 0.115761 0.115761
0.229963 0.229963 0.229963
0.349577 0.349577 0.349577
0.532720 0.532720 0.532720
0.180861 0.180861 0.180861
0.211951 0.211951 0.211951
0.287530 0.287530 0.287530
0.387151 0.387151 0.387151
0.561213 0.561213 0.561213
0.356372 0.356372 0.356372
0.371365 0.371365 0.371365
0.415027 0.415027 0.415027
0.547769 0.547769 0.547769
0.641589 0.641589 0.641589
0.601802 0.601802 0.601802
0.611538 0.611538 0.611538
0.641433 0.641433 0.641433
0.693308 0.693308 0.693308
0.764534 0.764534 0.764534
0.793852 0.793852 0.793852
0.800572 0.800572 0.800572
0.821621 0.821621 0.821621
0.859523 0.859523 0.859523
0.914053 0.914053 0.914053
0.105758 0.105758 0.105758
0.154132 0.154132 0.154132
0.250319 0.250319 0.250319
0.362271 0.362271 0.362271
0.542166 0.542166 0.542166
0.206858 0.206858 0.206858
0.234124 0.234124 0.234124
0.303453 0.303453 0.303453
0.398386 0.398386 0.398386
0.570031 0.570031 0.570031
0.368780 0.368780 0.368780
0.383177 0.383177 0.383177
0.425353 0.425353 0.425353
0.556874 0.556874 0.556874
0.648968 0.648968 0.648968
0.609840 0.609840 0.609840
0.619406 0.619406 0.619406
0.648815 0.648815 0.648815
0.699960 0.699960 0.699960
0.770365 0.770365 0.770365
0.799395 0.799395 0.799395
0.806051 0.806051 0.806051
0.826911 0.826911 0.826911
0.864500 0.864500 0.864500
0.918631 0.918631 0.918631
0.175198 0.175198 0.175198
0.207233 0.207233 0.207233
0.284247 0.284247 0.284247
0.384877 0.384877 0.384877
0.559444 0.559444 0.559444
0.247849 0.247849 0.247849
0.270443 0.270443 0.270443
0.331075 0.331075 0.331075
0.418610 0.418610 0.418610
0.586217 0.586217 0.586217
0.390923 0.390923 0.390923
0.404350 0.404350 0.404350
0.504335 0.504335 0.504335
0.573561 0.573561 0.573561
0.662618 0.662618 0.662618
0.624656 0.624656 0.624656
0.633921 0.633921 0.633921
0.662468 0.662468 0.662468
0.712306 0.712306 0.712306
0.781228 0.781228 0.781228
0.809732 0.809732 0.809732
0.816274 0.816274 0.816274
0.836789 0.836789 0.836789
0.873804 0.873804 0.873804
0.927202 0.927202 0.927202
0.244639 0.244639 0.244639
0.267551 0.267551 0.267551
0.328813 0.328813 0.328813
0.416922 0.416922 0.416922
0.584851 0.584851 0.584851
0.298956 0.298956 0.298956
0.317328 0.317328 0.317328
0.368987 0.368987 0.368987
0.508217 0.508217 0.508217
0.610143 0.610143 0.610143
0.422401 0.422401 0.422401
0.434628 0.434628 0.434628
0.533317 0.533317 0.533317
0.598168 0.598168 0.598168
0.683023 0.683023 0.683023
0.646693 0.646693 0.646693
0.655541 0.655541 0.655541
0.682880 0.682880 0.682880
0.730862 0.730862 0.730862
0.797649 0.797649 0.797649
0.825387 0.825387 0.825387
0.831762 0.831762 0.831762
0.851772 0.851772 0.851772
0.887943 0.887943 0.887943
0.940259 0.940259 0.940259
