docs/luts/fuji_recipes/Acros_JC_Acros_2.cube
TITLE "Fujifilm Recipe: JC Acros 2 (Acros)"
# FilmSim=Acros HL=2 SH=2 Col=0 WB=Auto WBR=1 WBB=0
LUT_3D_SIZE 33
DOMAIN_MIN 0.0 0.0 0.0
DOMAIN_MAX 1.0 1.0 1.0
0.000000 0.000000 0.000000
0.006265 0.006265 0.006265
0.013448 0.013448 0.013448
0.023823 0.023823 0.023823
0.037780 0.037780 0.037780
0.053239 0.053239 0.053239
0.068698 0.068698 0.068698
0.084157 0.084157 0.084157
0.099616 0.099616 0.099616
0.115075 0.115075 0.115075
0.130534 0.130534 0.130534
0.145992 0.145992 0.145992
0.161451 0.161451 0.161451
0.176910 0.176910 0.176910
0.192369 0.192369 0.192369
0.207828 0.207828 0.207828
0.223287 0.223287 0.223287
0.238746 0.238746 0.238746
0.254205 0.254205 0.254205
0.269664 0.269664 0.269664
0.285123 0.285123 0.285123
0.300582 0.300582 0.300582
0.316041 0.316041 0.316041
0.331500 0.331500 0.331500
0.346959 0.346959 0.346959
0.362418 0.362418 0.362418
0.377877 0.377877 0.377877
0.393336 0.393336 0.393336
0.408794 0.408794 0.408794
0.424253 0.424253 0.424253
0.439712 0.439712 0.439712
0.455171 0.455171 0.455171
0.458565 0.458565 0.458565
0.020562 0.020562 0.020562
0.026827 0.026827 0.026827
0.034010 0.034010 0.034010
0.043904 0.043904 0.043904
0.055317 0.055317 0.055317
0.067776 0.067776 0.067776
0.080967 0.080967 0.080967
0.094676 0.094676 0.094676
0.108758 0.108758 0.108758
0.123113 0.123113 0.123113
0.137672 0.137672 0.137672
0.152388 0.152388 0.152388
0.167225 0.167225 0.167225
0.182158 0.182158 0.182158
0.197166 0.197166 0.197166
0.212236 0.212236 0.212236
0.227357 0.227357 0.227357
0.242520 0.242520 0.242520
0.257717 0.257717 0.257717
0.272944 0.272944 0.272944
0.288196 0.288196 0.288196
0.303469 0.303469 0.303469
0.318760 0.318760 0.318760
0.334068 0.334068 0.334068
0.349389 0.349389 0.349389
0.364723 0.364723 0.364723
0.380067 0.380067 0.380067
0.395420 0.395420 0.395420
0.410782 0.410782 0.410782
0.426151 0.426151 0.426151
0.441528 0.441528 0.441528
0.456910 0.456910 0.456910
0.500337 0.500337 0.500337
0.043409 0.043409 0.043409
0.048791 0.048791 0.048791
0.054498 0.054498 0.054498
0.062047 0.062047 0.062047
0.071211 0.071211 0.071211
0.081676 0.081676 0.081676
0.093156 0.093156 0.093156
0.105420 0.105420 0.105420
0.118288 0.118288 0.118288
0.131622 0.131622 0.131622
0.145318 0.145318 0.145318
0.159301 0.159301 0.159301
0.173510 0.173510 0.173510
0.187902 0.187902 0.187902
0.202442 0.202442 0.202442
0.217103 0.217103 0.217103
0.231864 0.231864 0.231864
0.246709 0.246709 0.246709
0.261625 0.261625 0.261625
0.276600 0.276600 0.276600
0.291627 0.291627 0.291627
0.306697 0.306697 0.306697
0.321804 0.321804 0.321804
0.336945 0.336945 0.336945
0.352115 0.352115 0.352115
0.367309 0.367309 0.367309
0.382526 0.382526 0.382526
0.397763 0.397763 0.397763
0.413017 0.413017 0.413017
0.428287 0.428287 0.428287
0.443570 0.443570 0.443570
0.458867 0.458867 0.458867
0.502613 0.502613 0.502613
0.068412 0.068412 0.068412
0.072345 0.072345 0.072345
0.076648 0.076648 0.076648
0.082526 0.082526 0.082526
0.089908 0.089908 0.089908
0.098616 0.098616 0.098616
0.108453 0.108453 0.108453
0.119226 0.119226 0.119226
0.130766 0.130766 0.130766
0.142931 0.142931 0.142931
0.155603 0.155603 0.155603
0.168689 0.168689 0.168689
0.182114 0.182114 0.182114
0.195816 0.195816 0.195816
0.209748 0.209748 0.209748
0.223872 0.223872 0.223872
0.238156 0.238156 0.238156
0.252577 0.252577 0.252577
0.267112 0.267112 0.267112
0.281745 0.281745 0.281745
0.296464 0.296464 0.296464
0.311255 0.311255 0.311255
0.326109 0.326109 0.326109
0.341019 0.341019 0.341019
0.355978 0.355978 0.355978
0.370980 0.370980 0.370980
0.386019 0.386019 0.386019
0.401092 0.401092 0.401092
0.416195 0.416195 0.416195
0.431325 0.431325 0.431325
0.446479 0.446479 0.446479
0.501942 0.501942 0.501942
0.505856 0.505856 0.505856
0.093414 0.093414 0.093414
0.096451 0.096451 0.096451
0.099828 0.099828 0.099828
0.104526 0.104526 0.104526
0.110554 0.110554 0.110554
0.117825 0.117825 0.117825
0.126219 0.126219 0.126219
0.135601 0.135601 0.135601
0.145836 0.145836 0.145836
0.156798 0.156798 0.156798
0.168377 0.168377 0.168377
0.180474 0.180474 0.180474
0.193009 0.193009 0.193009
0.205913 0.205913 0.205913
0.219129 0.219129 0.219129
0.232610 0.232610 0.232610
0.246315 0.246315 0.246315
0.260213 0.260213 0.260213
0.274277 0.274277 0.274277
0.288484 0.288484 0.288484
0.302814 0.302814 0.302814
0.317252 0.317252 0.317252
0.331784 0.331784 0.331784
0.346399 0.346399 0.346399
0.361087 0.361087 0.361087
0.375839 0.375839 0.375839
0.390649 0.390649 0.390649
0.405509 0.405509 0.405509
0.420416 0.420416 0.420416
0.435363 0.435363 0.435363
0.450347 0.450347 0.450347
0.506298 0.506298 0.506298
0.510173 0.510173 0.510173
0.118417 0.118417 0.118417
0.120855 0.120855 0.120855
0.123592 0.123592 0.123592
0.127442 0.127442 0.127442
0.132449 0.132449 0.132449
0.138581 0.138581 0.138581
0.145773 0.145773 0.145773
0.153938 0.153938 0.153938
0.162978 0.162978 0.162978
0.172795 0.172795 0.172795
0.183293 0.183293 0.183293
0.194384 0.194384 0.194384
0.205988 0.205988 0.205988
0.218037 0.218037 0.218037
0.230470 0.230470 0.230470
0.243235 0.243235 0.243235
0.256288 0.256288 0.256288
0.269589 0.269589 0.269589
0.283108 0.283108 0.283108
0.296816 0.296816 0.296816
0.310689 0.310689 0.310689
0.324708 0.324708 0.324708
0.338856 0.338856 0.338856
0.353116 0.353116 0.353116
0.367477 0.367477 0.367477
0.381927 0.381927 0.381927
0.396457 0.396457 0.396457
0.411059 0.411059 0.411059
0.425724 0.425724 0.425724
0.440447 0.440447 0.440447
0.455222 0.455222 0.455222
0.511791 0.511791 0.511791
0.515618 0.515618 0.515618
0.143419 0.143419 0.143419
0.145435 0.145435 0.145435
0.147711 0.147711 0.147711
0.150935 0.150935 0.150935
0.155165 0.155165 0.155165
0.160400 0.160400 0.160400
0.166609 0.166609 0.166609
0.173742 0.173742 0.173742
0.181732 0.181732 0.181732
0.190507 0.190507 0.190507
0.199991 0.199991 0.199991
0.210110 0.210110 0.210110
0.220793 0.220793 0.220793
0.231976 0.231976 0.231976
0.243600 0.243600 0.243600
0.255613 0.255613 0.255613
0.267967 0.267967 0.267967
0.280622 0.280622 0.280622
0.293543 0.293543 0.293543
0.306699 0.306699 0.306699
0.320061 0.320061 0.320061
0.333608 0.333608 0.333608
0.347317 0.347317 0.347317
0.361172 0.361172 0.361172
0.375157 0.375157 0.375157
0.389257 0.389257 0.389257
0.403462 0.403462 0.403462
0.417761 0.417761 0.417761
0.432144 0.432144 0.432144
0.446603 0.446603 0.446603
0.501328 0.501328 0.501328
0.518457 0.518457 0.518457
0.522226 0.522226 0.522226
0.168422 0.168422 0.168422
0.170126 0.170126 0.170126
0.172057 0.172057 0.172057
0.174806 0.174806 0.174806
0.178435 0.178435 0.178435
0.182959 0.182959 0.182959
0.188368 0.188368 0.188368
0.194637 0.194637 0.194637
0.201724 0.201724 0.201724
0.209577 0.209577 0.209577
0.218140 0.218140 0.218140
0.227354 0.227354 0.227354
0.237159 0.237159 0.237159
0.247500 0.247500 0.247500
0.258321 0.258321 0.258321
0.269574 0.269574 0.269574
0.281212 0.281212 0.281212
0.293196 0.293196 0.293196
0.305488 0.305488 0.305488
0.318055 0.318055 0.318055
0.330868 0.330868 0.330868
0.343902 0.343902 0.343902
0.357133 0.357133 0.357133
0.370541 0.370541 0.370541
0.384108 0.384108 0.384108
0.397819 0.397819 0.397819
0.411659 0.411659 0.411659
0.425616 0.425616 0.425616
0.439680 0.439680 0.439680
0.453839 0.453839 0.453839
0.509493 0.509493 0.509493
0.526311 0.526311 0.526311
0.530015 0.530015 0.530015
0.193424 0.193424 0.193424
0.194891 0.194891 0.194891
0.196557 0.196557 0.196557
0.198937 0.198937 0.198937
0.202092 0.202092 0.202092
0.206045 0.206045 0.206045
0.210801 0.210801 0.210801
0.216349 0.216349 0.216349
0.222665 0.222665 0.222665
0.229715 0.229715 0.229715
0.237457 0.237457 0.237457
0.245848 0.245848 0.245848
0.254838 0.254838 0.254838
0.264381 0.264381 0.264381
0.274430 0.274430 0.274430
0.284939 0.284939 0.284939
0.295867 0.295867 0.295867
0.307174 0.307174 0.307174
0.318825 0.318825 0.318825
0.330785 0.330785 0.330785
0.343026 0.343026 0.343026
0.355521 0.355521 0.355521
0.368244 0.368244 0.368244
0.381175 0.381175 0.381175
0.394293 0.394293 0.394293
0.407582 0.407582 0.407582
0.421025 0.421025 0.421025
0.434609 0.434609 0.434609
0.448321 0.448321 0.448321
0.502523 0.502523 0.502523
0.518882 0.518882 0.518882
0.535355 0.535355 0.535355
0.538985 0.538985 0.538985
0.218426 0.218426 0.218426
0.219707 0.219707 0.219707
0.221165 0.221165 0.221165
0.223251 0.223251 0.223251
0.226026 0.226026 0.226026
0.229516 0.229516 0.229516
0.233734 0.233734 0.233734
0.238679 0.238679 0.238679
0.244339 0.244339 0.244339
0.250693 0.250693 0.250693
0.257712 0.257712 0.257712
0.265364 0.265364 0.265364
0.273611 0.273611 0.273611
0.282415 0.282415 0.282415
0.291735 0.291735 0.291735
0.301533 0.301533 0.301533
0.311772 0.311772 0.311772
0.322414 0.322414 0.322414
0.333427 0.333427 0.333427
0.344778 0.344778 0.344778
0.356437 0.356437 0.356437
0.368379 0.368379 0.368379
0.380578 0.380578 0.380578
0.393011 0.393011 0.393011
0.405658 0.405658 0.405658
0.418501 0.418501 0.418501
0.431523 0.431523 0.431523
0.444708 0.444708 0.444708
0.458042 0.458042 0.458042
0.513516 0.513516 0.513516
0.529478 0.529478 0.529478
0.545575 0.545575 0.545575
0.549126 0.549126 0.549126
0.243429 0.243429 0.243429
0.244560 0.244560 0.244560
0.245850 0.245850 0.245850
0.247699 0.247699 0.247699
0.250164 0.250164 0.250164
0.253274 0.253274 0.253274
0.257044 0.257044 0.257044
0.261482 0.261482 0.261482
0.266583 0.266583 0.266583
0.272335 0.272335 0.272335
0.278721 0.278721 0.278721
0.285715 0.285715 0.285715
0.293291 0.293291 0.293291
0.301417 0.301417 0.301417
0.310061 0.310061 0.310061
0.319190 0.319190 0.319190
0.328772 0.328772 0.328772
0.338774 0.338774 0.338774
0.349164 0.349164 0.349164
0.359914 0.359914 0.359914
0.370996 0.370996 0.370996
0.382382 0.382382 0.382382
0.394050 0.394050 0.394050
0.405976 0.405976 0.405976
0.418139 0.418139 0.418139
0.430520 0.430520 0.430520
0.443103 0.443103 0.443103
0.455870 0.455870 0.455870
0.510339 0.510339 0.510339
0.525710 0.525710 0.525710
0.541250 0.541250 0.541250
0.556947 0.556947 0.556947
0.560412 0.560412 0.560412
0.268431 0.268431 0.268431
0.269441 0.269441 0.269441
0.270593 0.270593 0.270593
0.272248 0.272248 0.272248
0.274456 0.274456 0.274456
0.277249 0.277249 0.277249
0.280644 0.280644 0.280644
0.284651 0.284651 0.284651
0.289274 0.289274 0.289274
0.294506 0.294506 0.294506
0.300336 0.300336 0.300336
0.306749 0.306749 0.306749
0.313722 0.313722 0.313722
0.321233 0.321233 0.321233
0.329256 0.329256 0.329256
0.337763 0.337763 0.337763
0.346727 0.346727 0.346727
0.356119 0.356119 0.356119
0.365912 0.365912 0.365912
0.376080 0.376080 0.376080
0.386595 0.386595 0.386595
0.397433 0.397433 0.397433
0.408572 0.408572 0.408572
0.419988 0.419988 0.419988
0.431663 0.431663 0.431663
0.443575 0.443575 0.443575
0.455708 0.455708 0.455708
0.509444 0.509444 0.509444
0.524148 0.524148 0.524148
0.539058 0.539058 0.539058
0.554158 0.554158 0.554158
0.569435 0.569435 0.569435
0.572810 0.572810 0.572810
0.293434 0.293434 0.293434
0.294343 0.294343 0.294343
0.295381 0.295381 0.295381
0.296872 0.296872 0.296872
0.298866 0.298866 0.298866
0.301392 0.301392 0.301392
0.304469 0.304469 0.304469
0.308110 0.308110 0.308110
0.312321 0.312321 0.312321
0.317101 0.317101 0.317101
0.322445 0.322445 0.322445
0.328342 0.328342 0.328342
0.334776 0.334776 0.334776
0.341732 0.341732 0.341732
0.349187 0.349187 0.349187
0.357121 0.357121 0.357121
0.365509 0.365509 0.365509
0.374328 0.374328 0.374328
0.383554 0.383554 0.383554
0.393163 0.393163 0.393163
0.403131 0.403131 0.403131
0.413435 0.413435 0.413435
0.424054 0.424054 0.424054
0.434967 0.434967 0.434967
0.446154 0.446154 0.446154
0.457596 0.457596 0.457596
0.510888 0.510888 0.510888
0.524859 0.524859 0.524859
0.539071 0.539071 0.539071
0.553508 0.553508 0.553508
0.568155 0.568155 0.568155
0.582996 0.582996 0.582996
0.586279 0.586279 0.586279
0.318436 0.318436 0.318436
0.319260 0.319260 0.319260
0.320202 0.320202 0.320202
0.321556 0.321556 0.321556
0.323369 0.323369 0.323369
0.325668 0.325668 0.325668
0.328473 0.328473 0.328473
0.331799 0.331799 0.331799
0.335654 0.335654 0.335654
0.340040 0.340040 0.340040
0.344956 0.344956 0.344956
0.350396 0.350396 0.350396
0.356350 0.356350 0.356350
0.362804 0.362804 0.362804
0.369744 0.369744 0.369744
0.377151 0.377151 0.377151
0.385007 0.385007 0.385007
0.393291 0.393291 0.393291
0.401982 0.401982 0.401982
0.411061 0.411061 0.411061
0.420505 0.420505 0.420505
0.430295 0.430295 0.430295
0.440409 0.440409 0.440409
0.450829 0.450829 0.450829
0.501803 0.501803 0.501803
0.514688 0.514688 0.514688
0.527869 0.527869 0.527869
0.541326 0.541326 0.541326
0.555042 0.555042 0.555042
0.569001 0.569001 0.569001
0.583187 0.583187 0.583187
0.597584 0.597584 0.597584
0.600771 0.600771 0.600771
0.343439 0.343439 0.343439
0.344191 0.344191 0.344191
0.345050 0.345050 0.345050
0.346288 0.346288 0.346288
0.347945 0.347945 0.347945
0.350049 0.350049 0.350049
0.352620 0.352620 0.352620
0.355673 0.355673 0.355673
0.359218 0.359218 0.359218
0.363259 0.363259 0.363259
0.367799 0.367799 0.367799
0.372834 0.372834 0.372834
0.378358 0.378358 0.378358
0.384361 0.384361 0.384361
0.390832 0.390832 0.390832
0.397758 0.397758 0.397758
0.405123 0.405123 0.405123
0.412910 0.412910 0.412910
0.421102 0.421102 0.421102
0.429680 0.429680 0.429680
0.438628 0.438628 0.438628
0.447925 0.447925 0.447925
0.457553 0.457553 0.457553
0.508800 0.508800 0.508800
0.520820 0.520820 0.520820
0.533168 0.533168 0.533168
0.545825 0.545825 0.545825
0.558773 0.558773 0.558773
0.571996 0.571996 0.571996
0.585475 0.585475 0.585475
0.599197 0.599197 0.599197
0.613145 0.613145 0.613145
0.616236 0.616236 0.616236
0.368441 0.368441 0.368441
0.369131 0.369131 0.369131
0.369920 0.369920 0.369920
0.371057 0.371057 0.371057
0.372580 0.372580 0.372580
0.374515 0.374515 0.374515
0.376883 0.376883 0.376883
0.379698 0.379698 0.379698
0.382972 0.382972 0.382972
0.386710 0.386710 0.386710
0.390917 0.390917 0.390917
0.395591 0.395591 0.395591
0.400730 0.400730 0.400730
0.406327 0.406327 0.406327
0.412374 0.412374 0.412374
0.418860 0.418860 0.418860
0.425774 0.425774 0.425774
0.433101 0.433101 0.433101
0.440828 0.440828 0.440828
0.448937 0.448937 0.448937
0.457415 0.457415 0.457415
0.507330 0.507330 0.507330
0.518089 0.518089 0.518089
0.529221 0.529221 0.529221
0.540710 0.540710 0.540710
0.552536 0.552536 0.552536
0.564682 0.564682 0.564682
0.577130 0.577130 0.577130
0.589864 0.589864 0.589864
0.602868 0.602868 0.602868
0.616126 0.616126 0.616126
0.629625 0.629625 0.629625
0.632619 0.632619 0.632619
0.393444 0.393444 0.393444
0.394080 0.394080 0.394080
0.394808 0.394808 0.394808
0.395857 0.395857 0.395857
0.397263 0.397263 0.397263
0.399052 0.399052 0.399052
0.401242 0.401242 0.401242
0.403848 0.403848 0.403848
0.406883 0.406883 0.406883
0.410353 0.410353 0.410353
0.414264 0.414264 0.414264
0.418616 0.418616 0.418616
0.423410 0.423410 0.423410
0.428641 0.428641 0.428641
0.434303 0.434303 0.434303
0.440388 0.440388 0.440388
0.446888 0.446888 0.446888
0.453791 0.453791 0.453791
0.501274 0.501274 0.501274
0.510280 0.510280 0.510280
0.519714 0.519714 0.519714
0.529560 0.529560 0.529560
0.539800 0.539800 0.539800
0.550418 0.550418 0.550418
0.561395 0.561395 0.561395
0.572717 0.572717 0.572717
0.584366 0.584366 0.584366
0.596325 0.596325 0.596325
0.608580 0.608580 0.608580
0.621116 0.621116 0.621116
0.633916 0.633916 0.633916
0.646969 0.646969 0.646969
0.649866 0.649866 0.649866
0.418446 0.418446 0.418446
0.419036 0.419036 0.419036
0.419710 0.419710 0.419710
0.420682 0.420682 0.420682
0.421986 0.421986 0.421986
0.423646 0.423646 0.423646
0.425679 0.425679 0.425679
0.428102 0.428102 0.428102
0.430925 0.430925 0.430925
0.434157 0.434157 0.434157
0.437804 0.437804 0.437804
0.441868 0.441868 0.441868
0.446352 0.446352 0.446352
0.451251 0.451251 0.451251
0.456564 0.456564 0.456564
0.502682 0.502682 0.502682
0.509866 0.509866 0.509866
0.517510 0.517510 0.517510
0.525602 0.525602 0.525602
0.534130 0.534130 0.534130
0.543079 0.543079 0.543079
0.552436 0.552436 0.552436
0.562185 0.562185 0.562185
0.572312 0.572312 0.572312
0.582802 0.582802 0.582802
0.593639 0.593639 0.593639
0.604807 0.604807 0.604807
0.616293 0.616293 0.616293
0.628082 0.628082 0.628082
0.640158 0.640158 0.640158
0.652509 0.652509 0.652509
0.665121 0.665121 0.665121
0.667923 0.667923 0.667923
0.443448 0.443448 0.443448
0.443997 0.443997 0.443997
0.444624 0.444624 0.444624
0.445529 0.445529 0.445529
0.446743 0.446743 0.446743
0.448288 0.448288 0.448288
0.450183 0.450183 0.450183
0.452442 0.452442 0.452442
0.455077 0.455077 0.455077
0.458096 0.458096 0.458096
0.501769 0.501769 0.501769
0.506237 0.506237 0.506237
0.511172 0.511172 0.511172
0.516572 0.516572 0.516572
0.522436 0.522436 0.522436
0.528759 0.528759 0.528759
0.535535 0.535535 0.535535
0.542756 0.542756 0.542756
0.550412 0.550412 0.550412
0.558494 0.558494 0.558494
0.566990 0.566990 0.566990
0.575888 0.575888 0.575888
0.585174 0.585174 0.585174
0.594837 0.594837 0.594837
0.604861 0.604861 0.604861
0.615234 0.615234 0.615234
0.625942 0.625942 0.625942
0.636970 0.636970 0.636970
0.648306 0.648306 0.648306
0.659936 0.659936 0.659936
0.671848 0.671848 0.671848
0.684027 0.684027 0.684027
0.686735 0.686735 0.686735
0.509921 0.509921 0.509921
0.510521 0.510521 0.510521
0.511209 0.511209 0.511209
0.512200 0.512200 0.512200
0.513531 0.513531 0.513531
0.515226 0.515226 0.515226
0.517306 0.517306 0.517306
0.519787 0.519787 0.519787
0.522682 0.522682 0.522682
0.526004 0.526004 0.526004
0.529759 0.529759 0.529759
0.533953 0.533953 0.533953
0.538591 0.538591 0.538591
0.543672 0.543672 0.543672
0.549197 0.549197 0.549197
0.555162 0.555162 0.555162
0.561562 0.561562 0.561562
0.568393 0.568393 0.568393
0.575647 0.575647 0.575647
0.583315 0.583315 0.583315
0.591388 0.591388 0.591388
0.599855 0.599855 0.599855
0.608706 0.608706 0.608706
0.617928 0.617928 0.617928
0.627511 0.627511 0.627511
0.637442 0.637442 0.637442
0.647708 0.647708 0.647708
0.658297 0.658297 0.658297
0.669196 0.669196 0.669196
0.680394 0.680394 0.680394
0.691878 0.691878 0.691878
0.703635 0.703635 0.703635
0.706252 0.706252 0.706252
0.539271 0.539271 0.539271
0.539834 0.539834 0.539834
0.540478 0.540478 0.540478
0.541406 0.541406 0.541406
0.542653 0.542653 0.542653
0.544242 0.544242 0.544242
0.546192 0.546192 0.546192
0.548520 0.548520 0.548520
0.551238 0.551238 0.551238
0.554358 0.554358 0.554358
0.557889 0.557889 0.557889
0.561836 0.561836 0.561836
0.566204 0.566204 0.566204
0.570996 0.570996 0.570996
0.576210 0.576210 0.576210
0.581847 0.581847 0.581847
0.587904 0.587904 0.587904
0.594375 0.594375 0.594375
0.601256 0.601256 0.601256
0.608539 0.608539 0.608539
0.616217 0.616217 0.616217
0.624282 0.624282 0.624282
0.632723 0.632723 0.632723
0.641531 0.641531 0.641531
0.650695 0.650695 0.650695
0.660205 0.660205 0.660205
0.670050 0.670050 0.670050
0.680218 0.680218 0.680218
0.690697 0.690697 0.690697
0.701478 0.701478 0.701478
0.712548 0.712548 0.712548
0.723895 0.723895 0.723895
0.726422 0.726422 0.726422
0.568622 0.568622 0.568622
0.569150 0.569150 0.569150
0.569755 0.569755 0.569755
0.570627 0.570627 0.570627
0.571799 0.571799 0.571799
0.573292 0.573292 0.573292
0.575126 0.575126 0.575126
0.577315 0.577315 0.577315
0.579874 0.579874 0.579874
0.582812 0.582812 0.582812
0.586140 0.586140 0.586140
0.589863 0.589863 0.589863
0.593986 0.593986 0.593986
0.598513 0.598513 0.598513
0.603445 0.603445 0.603445
0.608781 0.608781 0.608781
0.614521 0.614521 0.614521
0.620660 0.620660 0.620660
0.627196 0.627196 0.627196
0.634122 0.634122 0.634122
0.641432 0.641432 0.641432
0.649120 0.649120 0.649120
0.657176 0.657176 0.657176
0.665594 0.665594 0.665594
0.674363 0.674363 0.674363
0.683474 0.683474 0.683474
0.692917 0.692917 0.692917
0.702682 0.702682 0.702682
0.712760 0.712760 0.712760
0.723139 0.723139 0.723139
0.733809 0.733809 0.733809
0.744759 0.744759 0.744759
0.747200 0.747200 0.747200
0.597973 0.597973 0.597973
0.598470 0.598470 0.598470
0.599040 0.599040 0.599040
0.599861 0.599861 0.599861
0.600965 0.600965 0.600965
0.602372 0.602372 0.602372
0.604101 0.604101 0.604101
0.606165 0.606165 0.606165
0.608579 0.608579 0.608579
0.611353 0.611353 0.611353
0.614496 0.614496 0.614496
0.618015 0.618015 0.618015
0.621915 0.621915 0.621915
0.626200 0.626200 0.626200
0.630872 0.630872 0.630872
0.635933 0.635933 0.635933
0.641380 0.641380 0.641380
0.647213 0.647213 0.647213
0.653429 0.653429 0.653429
0.660023 0.660023 0.660023
0.666991 0.666991 0.666991
0.674326 0.674326 0.674326
0.682022 0.682022 0.682022
0.690072 0.690072 0.690072
0.698467 0.698467 0.698467
0.707200 0.707200 0.707200
0.716262 0.716262 0.716262
0.725644 0.725644 0.725644
0.735336 0.735336 0.735336
0.745330 0.745330 0.745330
0.755615 0.755615 0.755615
0.766183 0.766183 0.766183
0.768539 0.768539 0.768539
0.627324 0.627324 0.627324
0.627793 0.627793 0.627793
0.628331 0.628331 0.628331
0.629106 0.629106 0.629106
0.630149 0.630149 0.630149
0.631478 0.631478 0.631478
0.633111 0.633111 0.633111
0.635063 0.635063 0.635063
0.637345 0.637345 0.637345
0.639969 0.639969 0.639969
0.642944 0.642944 0.642944
0.646276 0.646276 0.646276
0.649972 0.649972 0.649972
0.654036 0.654036 0.654036
0.658470 0.658470 0.658470
0.663276 0.663276 0.663276
0.668455 0.668455 0.668455
0.674005 0.674005 0.674005
0.679924 0.679924 0.679924
0.686209 0.686209 0.686209
0.692857 0.692857 0.692857
0.699863 0.699863 0.699863
0.707220 0.707220 0.707220
0.714924 0.714924 0.714924
0.722968 0.722968 0.722968
0.731343 0.731343 0.731343
0.740043 0.740043 0.740043
0.749060 0.749060 0.749060
0.758384 0.758384 0.758384
0.768009 0.768009 0.768009
0.777925 0.777925 0.777925
0.788124 0.788124 0.788124
0.790399 0.790399 0.790399
0.656674 0.656674 0.656674
0.657118 0.657118 0.657118
0.657627 0.657627 0.657627
0.658361 0.658361 0.658361
0.659348 0.659348 0.659348
0.660606 0.660606 0.660606
0.662152 0.662152 0.662152
0.664001 0.664001 0.664001
0.666164 0.666164 0.666164
0.668651 0.668651 0.668651
0.671472 0.671472 0.671472
0.674634 0.674634 0.674634
0.678143 0.678143 0.678143
0.682003 0.682003 0.682003
0.686218 0.686218 0.686218
0.690790 0.690790 0.690790
0.695720 0.695720 0.695720
0.701007 0.701007 0.701007
0.706651 0.706651 0.706651
0.712649 0.712649 0.712649
0.718999 0.718999 0.718999
0.725696 0.725696 0.725696
0.732737 0.732737 0.732737
0.740115 0.740115 0.740115
0.747827 0.747827 0.747827
0.755864 0.755864 0.755864
0.764221 0.764221 0.764221
0.772890 0.772890 0.772890
0.781865 0.781865 0.781865
0.791137 0.791137 0.791137
0.800699 0.800699 0.800699
0.810543 0.810543 0.810543
0.812741 0.812741 0.812741
0.686025 0.686025 0.686025
0.686446 0.686446 0.686446
0.686928 0.686928 0.686928
0.687624 0.687624 0.687624
0.688560 0.688560 0.688560
0.689754 0.689754 0.689754
0.691221 0.691221 0.691221
0.692975 0.692975 0.692975
0.695028 0.695028 0.695028
0.697391 0.697391 0.697391
0.700071 0.700071 0.700071
0.703076 0.703076 0.703076
0.706413 0.706413 0.706413
0.710086 0.710086 0.710086
0.714099 0.714099 0.714099
0.718455 0.718455 0.718455
0.723154 0.723154 0.723154
0.728198 0.728198 0.728198
0.733586 0.733586 0.733586
0.739317 0.739317 0.739317
0.745388 0.745388 0.745388
0.751797 0.751797 0.751797
0.758540 0.758540 0.758540
0.765613 0.765613 0.765613
0.773011 0.773011 0.773011
0.780729 0.780729 0.780729
0.788761 0.788761 0.788761
0.797100 0.797100 0.797100
0.805742 0.805742 0.805742
0.814677 0.814677 0.814677
0.823900 0.823900 0.823900
0.833404 0.833404 0.833404
0.835527 0.835527 0.835527
0.715376 0.715376 0.715376
0.715776 0.715776 0.715776
0.716234 0.716234 0.716234
0.716895 0.716895 0.716895
0.717784 0.717784 0.717784
0.718919 0.718919 0.718919
0.720314 0.720314 0.720314
0.721981 0.721981 0.721981
0.723934 0.723934 0.723934
0.726181 0.726181 0.726181
0.728732 0.728732 0.728732
0.731594 0.731594 0.731594
0.734772 0.734772 0.734772
0.738272 0.738272 0.738272
0.742099 0.742099 0.742099
0.746254 0.746254 0.746254
0.750740 0.750740 0.750740
0.755557 0.755557 0.755557
0.760707 0.760707 0.760707
0.766189 0.766189 0.766189
0.772000 0.772000 0.772000
0.778139 0.778139 0.778139
0.784603 0.784603 0.784603
0.791388 0.791388 0.791388
0.798491 0.798491 0.798491
