docs/luts/fuji_recipes/Acros_RR_Split-Tones_B_W_1_2.cube
TITLE "Fujifilm Recipe: RR Split-Tones B&W 1/2 (Acros)"
# FilmSim=Acros HL=4 SH=4 Col=0 WB=Auto WBR=6 WBB=0
LUT_3D_SIZE 5
DOMAIN_MIN 0.0 0.0 0.0
DOMAIN_MAX 1.0 1.0 1.0
0.000000 0.000000 0.000000
0.137721 0.137721 0.137721
0.291456 0.291456 0.291456
0.418690 0.418690 0.418690
0.418690 0.418690 0.418690
0.224172 0.224172 0.224172
0.264553 0.264553 0.264553
0.363067 0.363067 0.363067
0.565956 0.565956 0.565956
0.565956 0.565956 0.565956
0.535612 0.535612 0.535612
0.561603 0.561603 0.561603
0.639068 0.639068 0.639068
0.738625 0.738625 0.738625
0.738625 0.738625 0.738625
0.841654 0.841654 0.841654
0.857336 0.857336 0.857336
0.906766 0.906766 0.906766
0.975513 0.975513 0.975513
0.975513 0.975513 0.975513
0.920478 0.920478 0.920478
0.934586 0.934586 0.934586
0.979370 0.979370 0.979370
1.000000 1.000000 1.000000
1.000000 1.000000 1.000000
0.057794 0.057794 0.057794
0.155945 0.155945 0.155945
0.299649 0.299649 0.299649
0.505486 0.505486 0.505486
0.505486 0.505486 0.505486
0.235226 0.235226 0.235226
0.273721 0.273721 0.273721
0.369364 0.369364 0.369364
0.572306 0.572306 0.572306
0.572306 0.572306 0.572306
0.542358 0.542358 0.542358
0.568007 0.568007 0.568007
0.644610 0.644610 0.644610
0.743318 0.743318 0.743318
0.743318 0.743318 0.743318
0.845678 0.845678 0.845678
0.861273 0.861273 0.861273
0.910447 0.910447 0.910447
0.978883 0.978883 0.978883
0.978883 0.978883 0.978883
0.924094 0.924094 0.924094
0.938135 0.938135 0.938135
0.982724 0.982724 0.982724
1.000000 1.000000 1.000000
1.000000 1.000000 1.000000
0.143034 0.143034 0.143034
0.202887 0.202887 0.202887
0.324251 0.324251 0.324251
0.528143 0.528143 0.528143
0.528143 0.528143 0.528143
0.267139 0.267139 0.267139
0.300904 0.300904 0.300904
0.388711 0.388711 0.388711
0.592158 0.592158 0.592158
0.592158 0.592158 0.592158
0.563391 0.563391 0.563391
0.588021 0.588021 0.588021
0.662029 0.662029 0.662029
0.758141 0.758141 0.758141
0.758141 0.758141 0.758141
0.858433 0.858433 0.858433
0.873756 0.873756 0.873756
0.922133 0.922133 0.922133
0.989595 0.989595 0.989595
0.989595 0.989595 0.989595
0.935574 0.935574 0.935574
0.949410 0.949410 0.949410
0.993386 0.993386 0.993386
1.000000 1.000000 1.000000
1.000000 1.000000 1.000000
0.228275 0.228275 0.228275
0.267940 0.267940 0.267940
0.365379 0.365379 0.365379
0.568281 0.568281 0.568281
0.568281 0.568281 0.568281
0.317456 0.317456 0.317456
0.345441 0.345441 0.345441
0.503204 0.503204 0.503204
0.627770 0.627770 0.627770
0.627770 0.627770 0.627770
0.600927 0.600927 0.600927
0.623900 0.623900 0.623900
0.693594 0.693594 0.693594
0.785269 0.785269 0.785269
0.785269 0.785269 0.785269
0.881945 0.881945 0.881945
0.896787 0.896787 0.896787
0.943750 0.943750 0.943750
1.000000 1.000000 1.000000
1.000000 1.000000 1.000000
0.956823 0.956823 0.956823
0.970292 0.970292 0.970292
1.000000 1.000000 1.000000
1.000000 1.000000 1.000000
1.000000 1.000000 1.000000
0.250230 0.250230 0.250230
0.286379 0.286379 0.286379
0.378251 0.378251 0.378251
0.581363 0.581363 0.581363
0.581363 0.581363 0.581363
0.332654 0.332654 0.332654
0.359204 0.359204 0.359204
0.518115 0.518115 0.518115
0.639488 0.639488 0.639488
0.639488 0.639488 0.639488
0.613228 0.613228 0.613228
0.635699 0.635699 0.635699
0.704062 0.704062 0.704062
0.794337 0.794337 0.794337
0.794337 0.794337 0.794337
0.889851 0.889851 0.889851
0.904538 0.904538 0.904538
0.951039 0.951039 0.951039
1.000000 1.000000 1.000000
1.000000 1.000000 1.000000
0.963993 0.963993 0.963993
0.977341 0.977341 0.977341
1.000000 1.000000 1.000000
1.000000 1.000000 1.000000
1.000000 1.000000 1.000000
