docs/luts/fuji_recipes/Acros_RR_Faded_Monochrome.cube
TITLE "Fujifilm Recipe: RR Faded Monochrome (Acros)"
# FilmSim=Acros HL=4 SH=4 Col=0 WB=Auto WBR=0 WBB=0
LUT_3D_SIZE 33
DOMAIN_MIN 0.0 0.0 0.0
DOMAIN_MAX 1.0 1.0 1.0
0.000000 0.000000 0.000000
0.007015 0.007015 0.007015
0.014953 0.014953 0.014953
0.026335 0.026335 0.026335
0.041049 0.041049 0.041049
0.056197 0.056197 0.056197
0.071344 0.071344 0.071344
0.086491 0.086491 0.086491
0.101639 0.101639 0.101639
0.116786 0.116786 0.116786
0.131934 0.131934 0.131934
0.147081 0.147081 0.147081
0.162229 0.162229 0.162229
0.177376 0.177376 0.177376
0.192523 0.192523 0.192523
0.207671 0.207671 0.207671
0.222818 0.222818 0.222818
0.237966 0.237966 0.237966
0.253113 0.253113 0.253113
0.268261 0.268261 0.268261
0.283408 0.283408 0.283408
0.298556 0.298556 0.298556
0.313703 0.313703 0.313703
0.328850 0.328850 0.328850
0.343998 0.343998 0.343998
0.359145 0.359145 0.359145
0.374293 0.374293 0.374293
0.389440 0.389440 0.389440
0.404588 0.404588 0.404588
0.418690 0.418690 0.418690
0.418690 0.418690 0.418690
0.418690 0.418690 0.418690
0.418690 0.418690 0.418690
0.023599 0.023599 0.023599
0.030614 0.030614 0.030614
0.038310 0.038310 0.038310
0.047929 0.047929 0.047929
0.059007 0.059007 0.059007
0.071120 0.071120 0.071120
0.083964 0.083964 0.083964
0.097327 0.097327 0.097327
0.111066 0.111066 0.111066
0.125083 0.125083 0.125083
0.139308 0.139308 0.139308
0.153692 0.153692 0.153692
0.168199 0.168199 0.168199
0.182805 0.182805 0.182805
0.197488 0.197488 0.197488
0.212235 0.212235 0.212235
0.227033 0.227033 0.227033
0.241875 0.241875 0.241875
0.256752 0.256752 0.256752
0.271660 0.271660 0.271660
0.286593 0.286593 0.286593
0.301548 0.301548 0.301548
0.316523 0.316523 0.316523
0.331513 0.331513 0.331513
0.346518 0.346518 0.346518
0.361536 0.361536 0.361536
0.376564 0.376564 0.376564
0.391602 0.391602 0.391602
0.406649 0.406649 0.406649
0.500918 0.500918 0.500918
0.500918 0.500918 0.500918
0.500918 0.500918 0.500918
0.500918 0.500918 0.500918
0.048218 0.048218 0.048218
0.053496 0.053496 0.053496
0.059032 0.059032 0.059032
0.066323 0.066323 0.066323
0.075180 0.075180 0.075180
0.085309 0.085309 0.085309
0.096439 0.096439 0.096439
0.108348 0.108348 0.108348
0.120860 0.120860 0.120860
0.133839 0.133839 0.133839
0.147185 0.147185 0.147185
0.160821 0.160821 0.160821
0.174686 0.174686 0.174686
0.188738 0.188738 0.188738
0.202940 0.202940 0.202940
0.217266 0.217266 0.217266
0.231695 0.231695 0.231695
0.246210 0.246210 0.246210
0.260797 0.260797 0.260797
0.275445 0.275445 0.275445
0.290146 0.290146 0.290146
0.304892 0.304892 0.304892
0.319676 0.319676 0.319676
0.334495 0.334495 0.334495
0.349343 0.349343 0.349343
0.364217 0.364217 0.364217
0.379114 0.379114 0.379114
0.394031 0.394031 0.394031
0.408967 0.408967 0.408967
0.503985 0.503985 0.503985
0.503985 0.503985 0.503985
0.503985 0.503985 0.503985
0.503985 0.503985 0.503985
0.073329 0.073329 0.073329
0.077185 0.077185 0.077185
0.081354 0.081354 0.081354
0.087019 0.087019 0.087019
0.094133 0.094133 0.094133
0.102534 0.102534 0.102534
0.112035 0.112035 0.112035
0.122457 0.122457 0.122457
0.133639 0.133639 0.133639
0.145442 0.145442 0.145442
0.157754 0.157754 0.157754
0.170480 0.170480 0.170480
0.183547 0.183547 0.183547
0.196896 0.196896 0.196896
0.210478 0.210478 0.210478
0.224255 0.224255 0.224255
0.238195 0.238195 0.238195
0.252274 0.252274 0.252274
0.266470 0.266470 0.266470
0.280767 0.280767 0.280767
0.295151 0.295151 0.295151
0.309610 0.309610 0.309610
0.324134 0.324134 0.324134
0.338714 0.338714 0.338714
0.353345 0.353345 0.353345
0.368020 0.368020 0.368020
0.382733 0.382733 0.382733
0.397482 0.397482 0.397482
0.412261 0.412261 0.412261
0.508349 0.508349 0.508349
0.508349 0.508349 0.508349
0.508349 0.508349 0.508349
0.508349 0.508349 0.508349
0.098440 0.098440 0.098440
0.101417 0.101417 0.101417
0.104687 0.104687 0.104687
0.109209 0.109209 0.109209
0.115007 0.115007 0.115007
0.122003 0.122003 0.122003
0.130088 0.130088 0.130088
0.139137 0.139137 0.139137
0.149023 0.149023 0.149023
0.159626 0.159626 0.159626
0.170841 0.170841 0.170841
0.182572 0.182572 0.182572
0.194742 0.194742 0.194742
0.207282 0.207282 0.207282
0.220137 0.220137 0.220137
0.233259 0.233259 0.233259
0.246609 0.246609 0.246609
0.260155 0.260155 0.260155
0.273869 0.273869 0.273869
0.287728 0.287728 0.287728
0.301714 0.301714 0.301714
0.315810 0.315810 0.315810
0.330003 0.330003 0.330003
0.344280 0.344280 0.344280
0.358632 0.358632 0.358632
0.373050 0.373050 0.373050
0.387527 0.387527 0.387527
0.402057 0.402057 0.402057
0.416634 0.416634 0.416634
0.514144 0.514144 0.514144
0.514144 0.514144 0.514144
0.514144 0.514144 0.514144
0.514144 0.514144 0.514144
0.123551 0.123551 0.123551
0.125941 0.125941 0.125941
0.128590 0.128590 0.128590
0.132294 0.132294 0.132294
0.137104 0.137104 0.137104
0.142994 0.142994 0.142994
0.149906 0.149906 0.149906
0.157762 0.157762 0.157762
0.166470 0.166470 0.166470
0.175940 0.175940 0.175940
0.186080 0.186080 0.186080
0.196806 0.196806 0.196806
0.208043 0.208043 0.208043
0.219723 0.219723 0.219723
0.231788 0.231788 0.231788
0.244186 0.244186 0.244186
0.256874 0.256874 0.256874
0.269813 0.269813 0.269813
0.282972 0.282972 0.282972
0.296323 0.296323 0.296323
0.309843 0.309843 0.309843
0.323510 0.323510 0.323510
0.337309 0.337309 0.337309
0.351223 0.351223 0.351223
0.365239 0.365239 0.365239
0.379347 0.379347 0.379347
0.393537 0.393537 0.393537
0.407800 0.407800 0.407800
0.502939 0.502939 0.502939
0.521434 0.521434 0.521434
0.521434 0.521434 0.521434
0.521434 0.521434 0.521434
0.521434 0.521434 0.521434
0.148662 0.148662 0.148662
0.150638 0.150638 0.150638
0.152840 0.152840 0.152840
0.155940 0.155940 0.155940
0.160000 0.160000 0.160000
0.165022 0.165022 0.165022
0.170981 0.170981 0.170981
0.177831 0.177831 0.177831
0.185511 0.185511 0.185511
0.193956 0.193956 0.193956
0.203095 0.203095 0.203095
0.212858 0.212858 0.212858
0.223177 0.223177 0.223177
0.233992 0.233992 0.233992
0.245246 0.245246 0.245246
0.256887 0.256887 0.256887
0.268871 0.268871 0.268871
0.281157 0.281157 0.281157
0.293711 0.293711 0.293711
0.306501 0.306501 0.306501
0.319501 0.319501 0.319501
0.332687 0.332687 0.332687
0.346039 0.346039 0.346039
0.359538 0.359538 0.359538
0.373170 0.373170 0.373170
0.386920 0.386920 0.386920
0.400777 0.400777 0.400777
0.414729 0.414729 0.414729
0.512107 0.512107 0.512107
0.530253 0.530253 0.530253
0.530253 0.530253 0.530253
0.530253 0.530253 0.530253
0.530253 0.530253 0.530253
0.173773 0.173773 0.173773
0.175443 0.175443 0.175443
0.177312 0.177312 0.177312
0.179954 0.179954 0.179954
0.183435 0.183435 0.183435
0.187771 0.187771 0.187771
0.192957 0.192957 0.192957
0.198968 0.198968 0.198968
0.205769 0.205769 0.205769
0.213313 0.213313 0.213313
0.221547 0.221547 0.221547
0.230418 0.230418 0.230418
0.239869 0.239869 0.239869
0.249847 0.249847 0.249847
0.260301 0.260301 0.260301
0.271183 0.271183 0.271183
0.282449 0.282449 0.282449
0.294060 0.294060 0.294060
0.305979 0.305979 0.305979
0.318175 0.318175 0.318175
0.330619 0.330619 0.330619
0.343285 0.343285 0.343285
0.356151 0.356151 0.356151
0.369196 0.369196 0.369196
0.382402 0.382402 0.382402
0.395754 0.395754 0.395754
0.409239 0.409239 0.409239
0.503924 0.503924 0.503924
0.522859 0.522859 0.522859
0.540609 0.540609 0.540609
0.540609 0.540609 0.540609
0.540609 0.540609 0.540609
0.540609 0.540609 0.540609
0.198884 0.198884 0.198884
0.200322 0.200322 0.200322
0.201934 0.201934 0.201934
0.204220 0.204220 0.204220
0.207246 0.207246 0.207246
0.211033 0.211033 0.211033
0.215588 0.215588 0.215588
0.220902 0.220902 0.220902
0.226956 0.226956 0.226956
0.233717 0.233717 0.233717
0.241151 0.241151 0.241151
0.249214 0.249214 0.249214
0.257863 0.257863 0.257863
0.267054 0.267054 0.267054
0.276742 0.276742 0.276742
0.286885 0.286885 0.286885
0.297442 0.297442 0.297442
0.308377 0.308377 0.308377
0.319653 0.319653 0.319653
0.331239 0.331239 0.331239
0.343106 0.343106 0.343106
0.355228 0.355228 0.355228
0.367580 0.367580 0.367580
0.380141 0.380141 0.380141
0.392892 0.392892 0.392892
0.405815 0.405815 0.405815
0.418895 0.418895 0.418895
0.516734 0.516734 0.516734
0.535174 0.535174 0.535174
0.552488 0.552488 0.552488
0.552488 0.552488 0.552488
0.552488 0.552488 0.552488
0.552488 0.552488 0.552488
0.223995 0.223995 0.223995
0.225250 0.225250 0.225250
0.226661 0.226661 0.226661
0.228665 0.228665 0.228665
0.231325 0.231325 0.231325
0.234667 0.234667 0.234667
0.238704 0.238704 0.238704
0.243437 0.243437 0.243437
0.248856 0.248856 0.248856
0.254943 0.254943 0.254943
0.261673 0.261673 0.261673
0.269015 0.269015 0.269015
0.276936 0.276936 0.276936
0.285400 0.285400 0.285400
0.294370 0.294370 0.294370
0.303810 0.303810 0.303810
0.313683 0.313683 0.313683
0.323956 0.323956 0.323956
0.334596 0.334596 0.334596
0.345572 0.345572 0.345572
0.356857 0.356857 0.356857
0.368423 0.368423 0.368423
0.380246 0.380246 0.380246
0.392306 0.392306 0.392306
0.404581 0.404581 0.404581
0.417052 0.417052 0.417052
0.513401 0.513401 0.513401
0.531102 0.531102 0.531102
0.549011 0.549011 0.549011
0.565857 0.565857 0.565857
0.565857 0.565857 0.565857
0.565857 0.565857 0.565857
0.565857 0.565857 0.565857
0.249107 0.249107 0.249107
0.250215 0.250215 0.250215
0.251463 0.251463 0.251463
0.253239 0.253239 0.253239
0.255602 0.255602 0.255602
0.258578 0.258578 0.258578
0.262185 0.262185 0.262185
0.266429 0.266429 0.266429
0.271309 0.271309 0.271309
0.276815 0.276815 0.276815
0.282930 0.282930 0.282930
0.289633 0.289633 0.289633
0.296900 0.296900 0.296900
0.304701 0.304701 0.304701
0.313007 0.313007 0.313007
0.321788 0.321788 0.321788
0.331013 0.331013 0.331013
0.340651 0.340651 0.340651
0.350674 0.350674 0.350674
0.361052 0.361052 0.361052
0.371759 0.371759 0.371759
0.382770 0.382770 0.382770
0.394061 0.394061 0.394061
0.405610 0.405610 0.405610
0.417397 0.417397 0.417397
0.512986 0.512986 0.512986
0.529845 0.529845 0.529845
0.546961 0.546961 0.546961
0.564315 0.564315 0.564315
0.580667 0.580667 0.580667
0.580667 0.580667 0.580667
0.580667 0.580667 0.580667
0.580667 0.580667 0.580667
0.274218 0.274218 0.274218
0.275207 0.275207 0.275207
0.276322 0.276322 0.276322
0.277910 0.277910 0.277910
0.280027 0.280027 0.280027
0.282699 0.282699 0.282699
0.285946 0.285946 0.285946
0.289777 0.289777 0.289777
0.294197 0.294197 0.294197
0.299200 0.299200 0.299200
0.304779 0.304779 0.304779
0.310917 0.310917 0.310917
0.317598 0.317598 0.317598
0.324800 0.324800 0.324800
0.332499 0.332499 0.332499
0.340670 0.340670 0.340670
0.349287 0.349287 0.349287
0.358325 0.358325 0.358325
0.367756 0.367756 0.367756
0.377557 0.377557 0.377557
0.387701 0.387701 0.387701
0.398166 0.398166 0.398166
0.408928 0.408928 0.408928
0.419968 0.419968 0.419968
0.515556 0.515556 0.515556
0.531485 0.531485 0.531485
0.547720 0.547720 0.547720
0.564237 0.564237 0.564237
0.581017 0.581017 0.581017
0.596858 0.596858 0.596858
0.596858 0.596858 0.596858
0.596858 0.596858 0.596858
0.596858 0.596858 0.596858
0.299329 0.299329 0.299329
0.300219 0.300219 0.300219
0.301223 0.301223 0.301223
0.302656 0.302656 0.302656
0.304566 0.304566 0.304566
0.306983 0.306983 0.306983
0.309924 0.309924 0.309924
0.313404 0.313404 0.313404
0.317428 0.317428 0.317428
0.321997 0.321997 0.321997
0.327105 0.327105 0.327105
0.332746 0.332746 0.332746
0.338905 0.338905 0.338905
0.345566 0.345566 0.345566
0.352712 0.352712 0.352712
0.360323 0.360323 0.360323
0.368376 0.368376 0.368376
0.376851 0.376851 0.376851
0.385724 0.385724 0.385724
0.394973 0.394973 0.394973
0.404575 0.404575 0.404575
0.414510 0.414510 0.414510
0.506568 0.506568 0.506568
0.521119 0.521119 0.521119
0.536047 0.536047 0.536047
0.551326 0.551326 0.551326
0.566933 0.566933 0.566933
0.582845 0.582845 0.582845
0.599043 0.599043 0.599043
0.614361 0.614361 0.614361
0.614361 0.614361 0.614361
0.614361 0.614361 0.614361
0.614361 0.614361 0.614361
0.324440 0.324440 0.324440
0.325247 0.325247 0.325247
0.326158 0.326158 0.326158
0.327459 0.327459 0.327459
0.329195 0.329195 0.329195
0.331394 0.331394 0.331394
0.334075 0.334075 0.334075
0.337253 0.337253 0.337253
0.340935 0.340935 0.340935
0.345125 0.345125 0.345125
0.349822 0.349822 0.349822
0.355022 0.355022 0.355022
0.360716 0.360716 0.360716
0.366892 0.366892 0.366892
0.373537 0.373537 0.373537
0.380635 0.380635 0.380635
0.388168 0.388168 0.388168
0.396119 0.396119 0.396119
0.404467 0.404467 0.404467
0.413195 0.413195 0.413195
0.503150 0.503150 0.503150
0.516166 0.516166 0.516166
0.529625 0.529625 0.529625
0.543501 0.543501 0.543501
0.557769 0.557769 0.557769
0.572407 0.572407 0.572407
0.587390 0.587390 0.587390
0.602698 0.602698 0.602698
0.618310 0.618310 0.618310
0.633102 0.633102 0.633102
0.633102 0.633102 0.633102
0.633102 0.633102 0.633102
0.633102 0.633102 0.633102
0.349551 0.349551 0.349551
0.350288 0.350288 0.350288
0.351119 0.351119 0.351119
0.352307 0.352307 0.352307
0.353895 0.353895 0.353895
0.355907 0.355907 0.355907
0.358364 0.358364 0.358364
0.361280 0.361280 0.361280
0.364665 0.364665 0.364665
0.368524 0.368524 0.368524
0.372859 0.372859 0.372859
0.377669 0.377669 0.377669
0.382947 0.382947 0.382947
0.388688 0.388688 0.388688
0.394879 0.394879 0.394879
0.401510 0.401510 0.401510
0.408565 0.408565 0.408565
0.416031 0.416031 0.416031
0.505373 0.505373 0.505373
0.516748 0.516748 0.516748
0.528620 0.528620 0.528620
0.540967 0.540967 0.540967
0.553763 0.553763 0.553763
0.566987 0.566987 0.566987
0.580615 0.580615 0.580615
0.594625 0.594625 0.594625
0.608995 0.608995 0.608995
0.623706 0.623706 0.623706
0.638737 0.638737 0.638737
0.653003 0.653003 0.653003
0.653003 0.653003 0.653003
0.653003 0.653003 0.653003
0.653003 0.653003 0.653003
0.374662 0.374662 0.374662
0.375338 0.375338 0.375338
0.376102 0.376102 0.376102
0.377193 0.377193 0.377193
0.378652 0.378652 0.378652
0.380503 0.380503 0.380503
0.382765 0.382765 0.382765
0.385453 0.385453 0.385453
0.388578 0.388578 0.388578
0.392146 0.392146 0.392146
0.396161 0.396161 0.396161
0.400624 0.400624 0.400624
0.405532 0.405532 0.405532
0.410880 0.410880 0.410880
0.416662 0.416662 0.416662
0.503958 0.503958 0.503958
0.513097 0.513097 0.513097
0.522789 0.522789 0.522789
0.533015 0.533015 0.533015
0.543758 0.543758 0.543758
0.554995 0.554995 0.554995
0.566707 0.566707 0.566707
0.578873 0.578873 0.578873
0.591471 0.591471 0.591471
0.604481 0.604481 0.604481
0.617883 0.617883 0.617883
0.631656 0.631656 0.631656
0.645781 0.645781 0.645781
0.660240 0.660240 0.660240
0.673985 0.673985 0.673985
0.673985 0.673985 0.673985
0.673985 0.673985 0.673985
0.673985 0.673985 0.673985
0.399773 0.399773 0.399773
0.400397 0.400397 0.400397
0.401101 0.401101 0.401101
0.402108 0.402108 0.402108
0.403455 0.403455 0.403455
0.405165 0.405165 0.405165
0.407257 0.407257 0.407257
0.409746 0.409746 0.409746
0.412642 0.412642 0.412642
0.415953 0.415953 0.415953
0.419685 0.419685 0.419685
0.505301 0.505301 0.505301
0.511620 0.511620 0.511620
0.518519 0.518519 0.518519
0.525989 0.525989 0.525989
0.534023 0.534023 0.534023
0.542607 0.542607 0.542607
0.551730 0.551730 0.551730
0.561376 0.561376 0.561376
0.571529 0.571529 0.571529
0.582171 0.582171 0.582171
0.593285 0.593285 0.593285
0.604853 0.604853 0.604853
0.616855 0.616855 0.616855
0.629273 0.629273 0.629273
0.642088 0.642088 0.642088
0.655283 0.655283 0.655283
0.668839 0.668839 0.668839
0.682739 0.682739 0.682739
0.695973 0.695973 0.695973
0.695973 0.695973 0.695973
0.695973 0.695973 0.695973
0.695973 0.695973 0.695973
0.506745 0.506745 0.506745
0.507543 0.507543 0.507543
0.508444 0.508444 0.508444
0.509732 0.509732 0.509732
0.511457 0.511457 0.511457
0.513649 0.513649 0.513649
0.516331 0.516331 0.516331
0.519524 0.519524 0.519524
0.523244 0.523244 0.523244
0.527502 0.527502 0.527502
0.532306 0.532306 0.532306
0.537661 0.537661 0.537661
0.543569 0.543569 0.543569
0.550027 0.550027 0.550027
0.557033 0.557033 0.557033
0.564579 0.564579 0.564579
0.572657 0.572657 0.572657
0.581256 0.581256 0.581256
0.590365 0.590365 0.590365
0.599970 0.599970 0.599970
0.610056 0.610056 0.610056
0.620609 0.620609 0.620609
0.631611 0.631611 0.631611
0.643048 0.643048 0.643048
0.654901 0.654901 0.654901
0.667155 0.667155 0.667155
0.679793 0.679793 0.679793
0.692798 0.692798 0.692798
0.706155 0.706155 0.706155
0.718890 0.718890 0.718890
0.718890 0.718890 0.718890
0.718890 0.718890 0.718890
0.718890 0.718890 0.718890
0.541422 0.541422 0.541422
0.542164 0.542164 0.542164
0.543002 0.543002 0.543002
0.544201 0.544201 0.544201
0.545807 0.545807 0.545807
0.547847 0.547847 0.547847
0.550347 0.550347 0.550347
0.553324 0.553324 0.553324
0.556795 0.556795 0.556795
0.560772 0.560772 0.560772
0.565264 0.565264 0.565264
0.570277 0.570277 0.570277
0.575814 0.575814 0.575814
0.581875 0.581875 0.581875
0.588459 0.588459 0.588459
0.595561 0.595561 0.595561
0.603175 0.603175 0.603175
0.611293 0.611293 0.611293
0.619905 0.619905 0.619905
0.629002 0.629002 0.629002
0.638569 0.638569 0.638569
0.648595 0.648595 0.648595
0.659066 0.659066 0.659066
0.669968 0.669968 0.669968
0.681285 0.681285 0.681285
0.693004 0.693004 0.693004
0.705108 0.705108 0.705108
0.717583 0.717583 0.717583
0.730414 0.730414 0.730414
0.742666 0.742666 0.742666
0.742666 0.742666 0.742666
0.742666 0.742666 0.742666
0.742666 0.742666 0.742666
0.576099 0.576099 0.576099
0.576792 0.576792 0.576792
0.577574 0.577574 0.577574
0.578694 0.578694 0.578694
0.580193 0.580193 0.580193
0.582100 0.582100 0.582100
0.584436 0.584436 0.584436
0.587221 0.587221 0.587221
0.590470 0.590470 0.590470
0.594196 0.594196 0.594196
0.598408 0.598408 0.598408
0.603113 0.603113 0.603113
0.608315 0.608315 0.608315
0.614016 0.614016 0.614016
0.620216 0.620216 0.620216
0.626912 0.626912 0.626912
0.634101 0.634101 0.634101
0.641776 0.641776 0.641776
0.649930 0.649930 0.649930
0.658555 0.658555 0.658555
0.667639 0.667639 0.667639
0.677173 0.677173 0.677173
0.687145 0.687145 0.687145
0.697542 0.697542 0.697542
0.708352 0.708352 0.708352
0.719560 0.719560 0.719560
0.731155 0.731155 0.731155
0.743121 0.743121 0.743121
0.755446 0.755446 0.755446
0.767231 0.767231 0.767231
0.767231 0.767231 0.767231
0.767231 0.767231 0.767231
0.767231 0.767231 0.767231
0.610777 0.610777 0.610777
0.611425 0.611425 0.611425
0.612157 0.612157 0.612157
0.613206 0.613206 0.613206
0.614611 0.614611 0.614611
0.616398 0.616398 0.616398
0.618589 0.618589 0.618589
0.621201 0.621201 0.621201
0.624251 0.624251 0.624251
0.627751 0.627751 0.627751
0.631710 0.631710 0.631710
0.636136 0.636136 0.636136
0.641035 0.641035 0.641035
0.646409 0.646409 0.646409
0.652259 0.652259 0.652259
0.658585 0.658585 0.658585
0.665384 0.665384 0.665384
0.672651 0.672651 0.672651
0.680382 0.680382 0.680382
0.688569 0.688569 0.688569
0.697204 0.697204 0.697204
0.706278 0.706278 0.706278
0.715781 0.715781 0.715781
0.725703 0.725703 0.725703
0.736033 0.736033 0.736033
0.746758 0.746758 0.746758
0.757868 0.757868 0.757868
0.769348 0.769348 0.769348
0.781188 0.781188 0.781188
0.792523 0.792523 0.792523
0.792523 0.792523 0.792523
0.792523 0.792523 0.792523
0.792523 0.792523 0.792523
0.645454 0.645454 0.645454
0.646063 0.646063 0.646063
0.646751 0.646751 0.646751
0.647736 0.647736 0.647736
0.649056 0.649056 0.649056
0.650735 0.650735 0.650735
0.652795 0.652795 0.652795
0.655253 0.655253 0.655253
0.658123 0.658123 0.658123
0.661418 0.661418 0.661418
0.665149 0.665149 0.665149
0.669323 0.669323 0.669323
0.673946 0.673946 0.673946
0.679022 0.679022 0.679022
0.684553 0.684553 0.684553
0.690539 0.690539 0.690539
0.696979 0.696979 0.696979
0.703871 0.703871 0.703871
0.711210 0.711210 0.711210
0.718991 0.718991 0.718991
0.727208 0.727208 0.727208
0.735853 0.735853 0.735853
0.744917 0.744917 0.744917
0.754393 0.754393 0.754393
0.764270 0.764270 0.764270
0.774537 0.774537 0.774537
0.785185 0.785185 0.785185
0.796203 0.796203 0.796203
0.807579 0.807579 0.807579
0.818482 0.818482 0.818482
0.818482 0.818482 0.818482
0.818482 0.818482 0.818482
0.818482 0.818482 0.818482
0.680131 0.680131 0.680131
0.680704 0.680704 0.680704
0.681352 0.681352 0.681352
0.682280 0.682280 0.682280
0.683524 0.683524 0.683524
0.685106 0.685106 0.685106
0.687048 0.687048 0.687048
0.689365 0.689365 0.689365
0.692073 0.692073 0.692073
0.695183 0.695183 0.695183
0.698707 0.698707 0.698707
0.702651 0.702651 0.702651
0.707023 0.707023 0.707023
0.711826 0.711826 0.711826
0.717065 0.717065 0.717065
0.722739 0.722739 0.722739
0.728850 0.728850 0.728850
0.735395 0.735395 0.735395
0.742372 0.742372 0.742372
0.749777 0.749777 0.749777
0.757604 0.757604 0.757604
0.765848 0.765848 0.765848
0.774502 0.774502 0.774502
0.783558 0.783558 0.783558
0.793008 0.793008 0.793008
0.802843 0.802843 0.802843
0.813053 0.813053 0.813053
0.823630 0.823630 0.823630
0.834563 0.834563 0.834563
0.845053 0.845053 0.845053
0.845053 0.845053 0.845053
0.845053 0.845053 0.845053
0.845053 0.845053 0.845053
0.714808 0.714808 0.714808
0.715349 0.715349 0.715349
0.715961 0.715961 0.715961
0.716837 0.716837 0.716837
0.718012 0.718012 0.718012
0.719506 0.719506 0.719506
0.721341 0.721341 0.721341
0.723531 0.723531 0.723531
0.726091 0.726091 0.726091
0.729033 0.729033 0.729033
0.732368 0.732368 0.732368
0.736102 0.736102 0.736102
0.740245 0.740245 0.740245
0.744799 0.744799 0.744799
0.749769 0.749769 0.749769
0.755157 0.755157 0.755157
0.760964 0.760964 0.760964
0.767189 0.767189 0.767189
0.773830 0.773830 0.773830
0.780885 0.780885 0.780885
0.788350 0.788350 0.788350
0.796220 0.796220 0.796220
0.804489 0.804489 0.804489
0.813151 0.813151 0.813151
0.822199 0.822199 0.822199
0.831625 0.831625 0.831625
0.841422 0.841422 0.841422
0.851580 0.851580 0.851580
0.862091 0.862091 0.862091
0.872186 0.872186 0.872186
0.872186 0.872186 0.872186
0.872186 0.872186 0.872186
0.872186 0.872186 0.872186
0.749486 0.749486 0.749486
0.749997 0.749997 0.749997
0.750576 0.750576 0.750576
0.751405 0.751405 0.751405
0.752517 0.752517 0.752517
0.753932 0.753932 0.753932
0.755669 0.755669 0.755669
0.757743 0.757743 0.757743
0.760169 0.760169 0.760169
0.762957 0.762957 0.762957
0.766119 0.766119 0.766119
0.769662 0.769662 0.769662
0.773594 0.773594 0.773594
0.777920 0.777920 0.777920
0.782643 0.782643 0.782643
0.787767 0.787767 0.787767
0.793294 0.793294 0.793294
0.799222 0.799222 0.799222
0.805553 0.805553 0.805553
0.812283 0.812283 0.812283
0.819409 0.819409 0.819409
0.826929 0.826929 0.826929
0.834838 0.834838 0.834838
0.843130 0.843130 0.843130
0.851800 0.851800 0.851800
0.860840 0.860840 0.860840
0.870245 0.870245 0.870245
0.880006 0.880006 0.880006
0.890116 0.890116 0.890116
0.899834 0.899834 0.899834
0.899834 0.899834 0.899834
0.899834 0.899834 0.899834
0.899834 0.899834 0.899834
0.784163 0.784163 0.784163
0.784648 0.784648 0.784648
0.785197 0.785197 0.785197
0.785983 0.785983 0.785983
0.787037 0.787037 0.787037
0.788380 0.788380 0.788380
0.790027 0.790027 0.790027
0.791996 0.791996 0.791996
0.794298 0.794298 0.794298
0.796947 0.796947 0.796947
0.799950 0.799950 0.799950
0.803318 0.803318 0.803318
0.807056 0.807056 0.807056
0.811171 0.811171 0.811171
0.815668 0.815668 0.815668
0.820548 0.820548 0.820548
0.825815 0.825815 0.825815
0.831469 0.831469 0.831469
0.837510 0.837510 0.837510
0.843938 0.843938 0.843938
0.850750 0.850750 0.850750
0.857943 0.857943 0.857943
0.865514 0.865514 0.865514
0.873459 0.873459 0.873459
0.881772 0.881772 0.881772
0.890449 0.890449 0.890449
0.899483 0.899483 0.899483
0.908867 0.908867 0.908867
0.918595 0.918595 0.918595
0.927954 0.927954 0.927954
0.927954 0.927954 0.927954
0.927954 0.927954 0.927954
0.927954 0.927954 0.927954
0.818840 0.818840 0.818840
0.819301 0.819301 0.819301
0.819822 0.819822 0.819822
0.820569 0.820569 0.820569
0.821571 0.821571 0.821571
0.822847 0.822847 0.822847
0.824413 0.824413 0.824413
0.826285 0.826285 0.826285
0.828474 0.828474 0.828474
0.830994 0.830994 0.830994
0.833852 0.833852 0.833852
0.837058 0.837058 0.837058
0.840618 0.840618 0.840618
0.844539 0.844539 0.844539
0.848825 0.848825 0.848825
0.853480 0.853480 0.853480
0.858507 0.858507 0.858507
0.863906 0.863906 0.863906
0.869679 0.869679 0.869679
0.875825 0.875825 0.875825
0.882342 0.882342 0.882342
0.889230 0.889230 0.889230
0.896485 0.896485 0.896485
0.904103 0.904103 0.904103
