docs/luts/fuji_recipes/Acros_RR_Faded_Color_Vintage_2_2.cube
TITLE "Fujifilm Recipe: RR Faded Color Vintage 2/2 (Acros)"
# FilmSim=Acros HL=4 SH=4 Col=4 WB=Auto WBR=-5 WBB=5
LUT_3D_SIZE 5
DOMAIN_MIN 0.0 0.0 0.0
DOMAIN_MAX 1.0 1.0 1.0
0.000000 0.000000 0.000000
0.044930 0.044930 0.044930
0.117143 0.117143 0.117143
0.189356 0.189356 0.189356
0.261569 0.261569 0.261569
0.120715 0.120715 0.120715
0.135997 0.135997 0.135997
0.174238 0.174238 0.174238
0.227807 0.227807 0.227807
0.289326 0.289326 0.289326
0.257530 0.257530 0.257530
0.264458 0.264458 0.264458
0.284405 0.284405 0.284405
0.317724 0.317724 0.317724
0.361939 0.361939 0.361939
0.394346 0.394346 0.394346
0.398500 0.398500 0.398500
0.410877 0.410877 0.410877
0.517703 0.517703 0.517703
0.560865 0.560865 0.560865
0.653508 0.653508 0.653508
0.657449 0.657449 0.657449
0.669334 0.669334 0.669334
0.690906 0.690906 0.690906
0.722659 0.722659 0.722659
0.024778 0.024778 0.024778
0.062783 0.062783 0.062783
0.125814 0.125814 0.125814
0.194660 0.194660 0.194660
0.265244 0.265244 0.265244
0.129143 0.129143 0.129143
0.143500 0.143500 0.143500
0.180044 0.180044 0.180044
0.232120 0.232120 0.232120
0.292587 0.292587 0.292587
0.261273 0.261273 0.261273
0.268086 0.268086 0.268086
0.287734 0.287734 0.287734
0.320639 0.320639 0.320639
0.364425 0.364425 0.364425
0.396580 0.396580 0.396580
0.400706 0.400706 0.400706
0.413001 0.413001 0.413001
0.520450 0.520450 0.520450
0.563380 0.563380 0.563380
0.655625 0.655625 0.655625
0.659552 0.659552 0.659552
0.671394 0.671394 0.671394
0.692892 0.692892 0.692892
0.724544 0.724544 0.724544
0.083296 0.083296 0.083296
0.104120 0.104120 0.104120
0.151062 0.151062 0.151062
0.211261 0.211261 0.211261
0.277076 0.277076 0.277076
0.153820 0.153820 0.153820
0.165934 0.165934 0.165934
0.198036 0.198036 0.198036
0.245862 0.245862 0.245862
0.303154 0.303154 0.303154
0.273310 0.273310 0.273310
0.279775 0.279775 0.279775
0.298508 0.298508 0.298508
0.330127 0.330127 0.330127
0.372561 0.372561 0.372561
0.403918 0.403918 0.403918
0.407951 0.407951 0.407951
0.419981 0.419981 0.419981
0.529493 0.529493 0.529493
0.571675 0.571675 0.571675
0.662626 0.662626 0.662626
0.666505 0.666505 0.666505
0.678207 0.678207 0.678207
0.699464 0.699464 0.699464
0.730786 0.730786 0.730786
0.142497 0.142497 0.142497
0.155564 0.155564 0.155564
0.189609 0.189609 0.189609
0.239358 0.239358 0.239358
0.298121 0.298121 0.298121
0.191765 0.191765 0.191765
0.201395 0.201395 0.201395
0.228012 0.228012 0.228012
0.269843 0.269843 0.269843
0.322171 0.322171 0.322171
0.294677 0.294677 0.294677
0.300594 0.300594 0.300594
0.317862 0.317862 0.317862
0.347364 0.347364 0.347364
0.387508 0.387508 0.387508
0.417480 0.417480 0.417480
0.501864 0.501864 0.501864
0.517833 0.517833 0.517833
0.546298 0.546298 0.546298
0.587145 0.587145 0.587145
0.675759 0.675759 0.675759
0.679552 0.679552 0.679552
0.691000 0.691000 0.691000
0.711815 0.711815 0.711815
0.742532 0.742532 0.742532
0.201699 0.201699 0.201699
0.210817 0.210817 0.210817
0.236224 0.236224 0.236224
0.276614 0.276614 0.276614
0.327660 0.327660 0.327660
0.237903 0.237903 0.237903
0.245489 0.245489 0.245489
0.267129 0.267129 0.267129
0.302740 0.302740 0.302740
0.349269 0.349269 0.349269
0.324595 0.324595 0.324595
0.329865 0.329865 0.329865
0.345373 0.345373 0.345373
0.372240 0.372240 0.372240
0.409410 0.409410 0.409410
0.524202 0.524202 0.524202
0.529242 0.529242 0.529242
0.544333 0.544333 0.544333
0.571345 0.571345 0.571345
0.610328 0.610328 0.610328
0.695612 0.695612 0.695612
0.699281 0.699281 0.699281
0.710362 0.710362 0.710362
0.730538 0.730538 0.730538
0.760375 0.760375 0.760375
