docs/luts/fuji_recipes/Acros_RR_Faded_Monochrome.cube
TITLE "Fujifilm Recipe: RR Faded Monochrome (Acros)"
# FilmSim=Acros HL=4 SH=4 Col=0 WB=Auto WBR=0 WBB=0
LUT_3D_SIZE 5
DOMAIN_MIN 0.0 0.0 0.0
DOMAIN_MAX 1.0 1.0 1.0
0.000000 0.000000 0.000000
0.101639 0.101639 0.101639
0.222818 0.222818 0.222818
0.343998 0.343998 0.343998
0.418690 0.418690 0.418690
0.198884 0.198884 0.198884
0.226956 0.226956 0.226956
0.297442 0.297442 0.297442
0.392892 0.392892 0.392892
0.552488 0.552488 0.552488
0.399773 0.399773 0.399773
0.412642 0.412642 0.412642
0.542607 0.542607 0.542607
0.629273 0.629273 0.629273
0.695973 0.695973 0.695973
0.749486 0.749486 0.749486
0.760169 0.760169 0.760169
0.793294 0.793294 0.793294
0.851800 0.851800 0.851800
0.899834 0.899834 0.899834
0.920478 0.920478 0.920478
0.928862 0.928862 0.928862
0.955151 0.955151 0.955151
1.000000 1.000000 1.000000
1.000000 1.000000 1.000000
0.048067 0.048067 0.048067
0.120792 0.120792 0.120792
0.231662 0.231662 0.231662
0.349323 0.349323 0.349323
0.503964 0.503964 0.503964
0.208905 0.208905 0.208905
0.235619 0.235619 0.235619
0.303783 0.303783 0.303783
0.397416 0.397416 0.397416
0.557647 0.557647 0.557647
0.404201 0.404201 0.404201
0.416899 0.416899 0.416899
0.547869 0.547869 0.547869
0.633734 0.633734 0.633734
0.699949 0.699949 0.699949
0.753134 0.753134 0.753134
0.763757 0.763757 0.763757
0.796706 0.796706 0.796706
0.854936 0.854936 0.854936
0.902771 0.902771 0.902771
0.923336 0.923336 0.923336
0.931689 0.931689 0.931689
0.957883 0.957883 0.957883
1.000000 1.000000 1.000000
1.000000 1.000000 1.000000
0.125336 0.125336 0.125336
0.167776 0.167776 0.167776
0.257671 0.257671 0.257671
0.365759 0.365759 0.365759
0.522010 0.522010 0.522010
0.237833 0.237833 0.237833
0.261169 0.261169 0.261169
0.323108 0.323108 0.323108
0.411508 0.411508 0.411508
0.573844 0.573844 0.573844
0.418007 0.418007 0.418007
0.514080 0.514080 0.514080
0.564378 0.564378 0.564378
0.647804 0.647804 0.647804
0.712526 0.712526 0.712526
0.764695 0.764695 0.764695
0.775132 0.775132 0.775132
0.807536 0.807536 0.807536
0.864903 0.864903 0.864903
0.912112 0.912112 0.912112
0.932429 0.932429 0.932429
0.940684 0.940684 0.940684
0.966583 0.966583 0.966583
1.000000 1.000000 1.000000
1.000000 1.000000 1.000000
0.202604 0.202604 0.202604
0.230159 0.230159 0.230159
0.299773 0.299773 0.299773
0.394549 0.394549 0.394549
0.554376 0.554376 0.554376
0.283444 0.283444 0.283444
0.302696 0.302696 0.302696
0.356213 0.356213 0.356213
0.522935 0.522935 0.522935
0.603141 0.603141 0.603141
0.531273 0.531273 0.531273
0.546962 0.546962 0.546962
0.594199 0.594199 0.594199
0.673490 0.673490 0.673490
0.735623 0.735623 0.735623
0.786009 0.786009 0.786009
0.796117 0.796117 0.796117
0.827551 0.827551 0.827551
0.883377 0.883377 0.883377
0.929464 0.929464 0.929464
0.949332 0.949332 0.949332
0.957411 0.957411 0.957411
0.982776 0.982776 0.982776
1.000000 1.000000 1.000000
1.000000 1.000000 1.000000
0.250230 0.250230 0.250230
0.272325 0.272325 0.272325
0.331812 0.331812 0.331812
0.417996 0.417996 0.417996
0.581363 0.581363 0.581363
0.317482 0.317482 0.317482
0.334397 0.334397 0.334397
0.382620 0.382620 0.382620
0.551633 0.551633 0.551633
0.627789 0.627789 0.627789
0.559501 0.559501 0.559501
0.574337 0.574337 0.574337
0.619250 0.619250 0.619250
0.695315 0.695315 0.695315
0.755378 0.755378 0.755378
0.804317 0.804317 0.804317
0.814156 0.814156 0.814156
0.844796 0.844796 0.844796
0.899349 0.899349 0.899349
0.944499 0.944499 0.944499
0.963993 0.963993 0.963993
0.971923 0.971923 0.971923
0.996840 0.996840 0.996840
1.000000 1.000000 1.000000
1.000000 1.000000 1.000000
