docs/luts/fuji_recipes/Acros_JC_Acros_2.cube
TITLE "Fujifilm Recipe: JC Acros 2 (Acros)"
# FilmSim=Acros HL=2 SH=2 Col=0 WB=Auto WBR=1 WBB=0
LUT_3D_SIZE 5
DOMAIN_MIN 0.0 0.0 0.0
DOMAIN_MAX 1.0 1.0 1.0
0.000000 0.000000 0.000000
0.099616 0.099616 0.099616
0.223287 0.223287 0.223287
0.346959 0.346959 0.346959
0.458565 0.458565 0.458565
0.193424 0.193424 0.193424
0.222665 0.222665 0.222665
0.295867 0.295867 0.295867
0.394293 0.394293 0.394293
0.538985 0.538985 0.538985
0.393444 0.393444 0.393444
0.406883 0.406883 0.406883
0.446888 0.446888 0.446888
0.561395 0.561395 0.561395
0.649866 0.649866 0.649866
0.656674 0.656674 0.656674
0.666164 0.666164 0.666164
0.695720 0.695720 0.695720
0.747827 0.747827 0.747827
0.812741 0.812741 0.812741
0.891480 0.891480 0.891480
0.898005 0.898005 0.898005
0.918667 0.918667 0.918667
0.956261 0.956261 0.956261
1.000000 1.000000 1.000000
0.043259 0.043259 0.043259
0.118222 0.118222 0.118222
0.231832 0.231832 0.231832
0.352095 0.352095 0.352095
0.502597 0.502597 0.502597
0.203401 0.203401 0.203401
0.231236 0.231236 0.231236
0.302073 0.302073 0.302073
0.398690 0.398690 0.398690
0.542893 0.542893 0.542893
0.397852 0.397852 0.397852
0.411113 0.411113 0.411113
0.450655 0.450655 0.450655
0.565120 0.565120 0.565120
0.652993 0.652993 0.652993
0.659762 0.659762 0.659762
0.669198 0.669198 0.669198
0.698598 0.698598 0.698598
0.750461 0.750461 0.750461
0.815117 0.815117 0.815117
0.893597 0.893597 0.893597
0.900103 0.900103 0.900103
0.920706 0.920706 0.920706
0.958199 0.958199 0.958199
1.000000 1.000000 1.000000
0.120193 0.120193 0.120193
0.164263 0.164263 0.164263
0.257063 0.257063 0.257063
0.367980 0.367980 0.367980
0.516049 0.516049 0.516049
0.232204 0.232204 0.232204
0.256534 0.256534 0.256534
0.321013 0.321013 0.321013
0.412402 0.412402 0.412402
0.555205 0.555205 0.555205
0.411599 0.411599 0.411599
0.424329 0.424329 0.424329
0.502906 0.502906 0.502906
0.576872 0.576872 0.576872
0.662900 0.662900 0.662900
0.669548 0.669548 0.669548
0.678819 0.678819 0.678819
0.707733 0.707733 0.707733
0.758835 0.758835 0.758835
0.822682 0.822682 0.822682
0.900345 0.900345 0.900345
0.906790 0.906790 0.906790
0.927206 0.927206 0.927206
0.964382 0.964382 0.964382
1.000000 1.000000 1.000000
0.197127 0.197127 0.197127
0.225834 0.225834 0.225834
0.298148 0.298148 0.298148
0.395904 0.395904 0.395904
0.540414 0.540414 0.540414
0.277618 0.277618 0.277618
0.297705 0.297705 0.297705
0.353538 0.353538 0.353538
0.436878 0.436878 0.436878
0.577637 0.577637 0.577637
0.436131 0.436131 0.436131
0.447998 0.447998 0.447998
0.527983 0.527983 0.527983
0.598341 0.598341 0.598341
0.681154 0.681154 0.681154
0.687587 0.687587 0.687587
0.696566 0.696566 0.696566
0.724619 0.724619 0.724619
0.774360 0.774360 0.774360
0.836752 0.836752 0.836752
0.912932 0.912932 0.912932
0.919266 0.919266 0.919266
0.939341 0.939341 0.939341
0.975935 0.975935 0.975935
1.000000 1.000000 1.000000
0.274061 0.274061 0.274061
0.294436 0.294436 0.294436
0.350888 0.350888 0.350888
0.434844 0.434844 0.434844
0.575751 0.575751 0.575751
0.334240 0.334240 0.334240
0.350524 0.350524 0.350524
0.397656 0.397656 0.397656
0.513717 0.513717 0.513717
0.610437 0.610437 0.610437
0.512921 0.512921 0.512921
0.525597 0.525597 0.525597
0.564241 0.564241 0.564241
0.629857 0.629857 0.629857
0.708285 0.708285 0.708285
0.714420 0.714420 0.714420
0.722992 0.722992 0.722992
0.749839 0.749839 0.749839
0.797657 0.797657 0.797657
0.857963 0.857963 0.857963
0.931993 0.931993 0.931993
0.938165 0.938165 0.938165
0.957741 0.957741 0.957741
0.993481 0.993481 0.993481
1.000000 1.000000 1.000000
