docs/luts/fuji_recipes/AcrosG_DC_Acros.cube
TITLE "Fujifilm Recipe: DC Acros (AcrosG)"
# FilmSim=AcrosG HL=-1 SH=3 Col=0 WB=Auto WBR=0 WBB=0
LUT_3D_SIZE 33
DOMAIN_MIN 0.0 0.0 0.0
DOMAIN_MAX 1.0 1.0 1.0
0.000000 0.000000 0.000000
0.005086 0.005086 0.005086
0.010842 0.010842 0.010842
0.019095 0.019095 0.019095
0.030177 0.030177 0.030177
0.043623 0.043623 0.043623
0.057236 0.057236 0.057236
0.070849 0.070849 0.070849
0.084462 0.084462 0.084462
0.098075 0.098075 0.098075
0.111688 0.111688 0.111688
0.125301 0.125301 0.125301
0.138913 0.138913 0.138913
0.152526 0.152526 0.152526
0.166139 0.166139 0.166139
0.179752 0.179752 0.179752
0.193365 0.193365 0.193365
0.206978 0.206978 0.206978
0.220591 0.220591 0.220591
0.234204 0.234204 0.234204
0.247817 0.247817 0.247817
0.261429 0.261429 0.261429
0.275042 0.275042 0.275042
0.288655 0.288655 0.288655
0.302268 0.302268 0.302268
0.315881 0.315881 0.315881
0.329494 0.329494 0.329494
0.343107 0.343107 0.343107
0.356720 0.356720 0.356720
0.370333 0.370333 0.370333
0.383945 0.383945 0.383945
0.397558 0.397558 0.397558
0.411171 0.411171 0.411171
0.022618 0.022618 0.022618
0.027705 0.027705 0.027705
0.033460 0.033460 0.033460
0.041334 0.041334 0.041334
0.050589 0.050589 0.050589
0.060875 0.060875 0.060875
0.071916 0.071916 0.071916
0.083510 0.083510 0.083510
0.095514 0.095514 0.095514
0.107826 0.107826 0.107826
0.120371 0.120371 0.120371
0.133096 0.133096 0.133096
0.145962 0.145962 0.145962
0.158941 0.158941 0.158941
0.172010 0.172010 0.172010
0.185152 0.185152 0.185152
0.198355 0.198355 0.198355
0.211607 0.211607 0.211607
0.224902 0.224902 0.224902
0.238232 0.238232 0.238232
0.251592 0.251592 0.251592
0.264978 0.264978 0.264978
0.278386 0.278386 0.278386
0.291813 0.291813 0.291813
0.305258 0.305258 0.305258
0.318717 0.318717 0.318717
0.332189 0.332189 0.332189
0.345673 0.345673 0.345673
0.359167 0.359167 0.359167
0.372670 0.372670 0.372670
0.386181 0.386181 0.386181
0.399699 0.399699 0.399699
0.413224 0.413224 0.413224
0.046914 0.046914 0.046914
0.050982 0.050982 0.050982
0.055320 0.055320 0.055320
0.061130 0.061130 0.061130
0.068312 0.068312 0.068312
0.076659 0.076659 0.076659
0.085965 0.085965 0.085965
0.096043 0.096043 0.096043
0.106737 0.106737 0.106737
0.117921 0.117921 0.117921
0.129497 0.129497 0.129497
0.141386 0.141386 0.141386
0.153530 0.153530 0.153530
0.165880 0.165880 0.165880
0.178399 0.178399 0.178399
0.191059 0.191059 0.191059
0.203836 0.203836 0.203836
0.216710 0.216710 0.216710
0.229668 0.229668 0.229668
0.242696 0.242696 0.242696
0.255785 0.255785 0.255785
0.268926 0.268926 0.268926
0.282113 0.282113 0.282113
0.295338 0.295338 0.295338
0.308599 0.308599 0.308599
0.321889 0.321889 0.321889
0.335207 0.335207 0.335207
0.348548 0.348548 0.348548
0.361911 0.361911 0.361911
0.375292 0.375292 0.375292
0.388691 0.388691 0.388691
0.402105 0.402105 0.402105
0.415532 0.415532 0.415532
0.072263 0.072263 0.072263
0.075224 0.075224 0.075224
0.078459 0.078459 0.078459
0.082905 0.082905 0.082905
0.088563 0.088563 0.088563
0.095337 0.095337 0.095337
0.103102 0.103102 0.103102
0.111726 0.111726 0.111726
0.121082 0.121082 0.121082
0.131053 0.131053 0.131053
0.141540 0.141540 0.141540
0.152457 0.152457 0.152457
0.163734 0.163734 0.163734
0.175312 0.175312 0.175312
0.187144 0.187144 0.187144
0.199189 0.199189 0.199189
0.211415 0.211415 0.211415
0.223796 0.223796 0.223796
0.236309 0.236309 0.236309
0.248935 0.248935 0.248935
0.261660 0.261660 0.261660
0.274471 0.274471 0.274471
0.287356 0.287356 0.287356
0.300306 0.300306 0.300306
0.313314 0.313314 0.313314
0.326373 0.326373 0.326373
0.339477 0.339477 0.339477
0.352621 0.352621 0.352621
0.365801 0.365801 0.365801
0.379014 0.379014 0.379014
0.392255 0.392255 0.392255
0.405523 0.405523 0.405523
0.418814 0.418814 0.418814
0.097613 0.097613 0.097613
0.099894 0.099894 0.099894
0.102417 0.102417 0.102417
0.105935 0.105935 0.105935
0.110490 0.110490 0.110490
0.116047 0.116047 0.116047
0.122543 0.122543 0.122543
0.129896 0.129896 0.129896
0.138016 0.138016 0.138016
0.146812 0.146812 0.146812
0.156200 0.156200 0.156200
0.166099 0.166099 0.166099
0.176441 0.176441 0.176441
0.187164 0.187164 0.187164
0.198216 0.198216 0.198216
0.209551 0.209551 0.209551
0.221131 0.221131 0.221131
0.232923 0.232923 0.232923
0.244899 0.244899 0.244899
0.257035 0.257035 0.257035
0.269312 0.269312 0.269312
0.281712 0.281712 0.281712
0.294221 0.294221 0.294221
0.306825 0.306825 0.306825
0.319514 0.319514 0.319514
0.332278 0.332278 0.332278
0.345109 0.345109 0.345109
0.358001 0.358001 0.358001
0.370947 0.370947 0.370947
0.383941 0.383941 0.383941
0.396979 0.396979 0.396979
0.410057 0.410057 0.410057
0.423170 0.423170 0.423170
0.122962 0.122962 0.122962
0.124792 0.124792 0.124792
0.126830 0.126830 0.126830
0.129695 0.129695 0.129695
0.133444 0.133444 0.133444
0.138075 0.138075 0.138075
0.143561 0.143561 0.143561
0.149856 0.149856 0.149856
0.156903 0.156903 0.156903
0.164638 0.164638 0.164638
0.172995 0.172995 0.172995
0.181909 0.181909 0.181909
0.191318 0.191318 0.191318
0.201166 0.201166 0.201166
0.211401 0.211401 0.211401
0.221977 0.221977 0.221977
0.232854 0.232854 0.232854
0.243995 0.243995 0.243995
0.255370 0.255370 0.255370
0.266951 0.266951 0.266951
0.278714 0.278714 0.278714
0.290639 0.290639 0.290639
0.302708 0.302708 0.302708
0.314905 0.314905 0.314905
0.327216 0.327216 0.327216
0.339629 0.339629 0.339629
0.352134 0.352134 0.352134
0.364722 0.364722 0.364722
0.377384 0.377384 0.377384
0.390114 0.390114 0.390114
0.402904 0.402904 0.402904
0.415750 0.415750 0.415750
0.428647 0.428647 0.428647
0.148312 0.148312 0.148312
0.149823 0.149823 0.149823
0.151514 0.151514 0.151514
0.153904 0.153904 0.153904
0.157052 0.157052 0.157052
0.160973 0.160973 0.160973
0.165660 0.165660 0.165660
0.171093 0.171093 0.171093
0.177236 0.177236 0.177236
0.184048 0.184048 0.184048
0.191482 0.191482 0.191482
0.199487 0.199487 0.199487
0.208013 0.208013 0.208013
0.217012 0.217012 0.217012
0.226438 0.226438 0.226438
0.236246 0.236246 0.236246
0.246399 0.246399 0.246399
0.256860 0.256860 0.256860
0.267597 0.267597 0.267597
0.278581 0.278581 0.278581
0.289786 0.289786 0.289786
0.301190 0.301190 0.301190
0.312771 0.312771 0.312771
0.324513 0.324513 0.324513
0.336399 0.336399 0.336399
0.348415 0.348415 0.348415
0.360548 0.360548 0.360548
0.372787 0.372787 0.372787
0.385123 0.385123 0.385123
0.397546 0.397546 0.397546
0.410049 0.410049 0.410049
0.422624 0.422624 0.422624
0.435266 0.435266 0.435266
0.173661 0.173661 0.173661
0.174938 0.174938 0.174938
0.176371 0.176371 0.176371
0.178403 0.178403 0.178403
0.181093 0.181093 0.181093
0.184462 0.184462 0.184462
0.188515 0.188515 0.188515
0.193245 0.193245 0.193245
0.198636 0.198636 0.198636
0.204661 0.204661 0.204661
0.211288 0.211288 0.211288
0.218479 0.218479 0.218479
0.226198 0.226198 0.226198
0.234403 0.234403 0.234403
0.243056 0.243056 0.243056
0.252120 0.252120 0.252120
0.261557 0.261557 0.261557
0.271336 0.271336 0.271336
0.281423 0.281423 0.281423
0.291792 0.291792 0.291792
0.302415 0.302415 0.302415
0.313269 0.313269 0.313269
0.324332 0.324332 0.324332
0.335585 0.335585 0.335585
0.347011 0.347011 0.347011
0.358593 0.358593 0.358593
0.370318 0.370318 0.370318
0.382172 0.382172 0.382172
0.394145 0.394145 0.394145
0.406227 0.406227 0.406227
0.418407 0.418407 0.418407
0.430678 0.430678 0.430678
0.503239 0.503239 0.503239
0.199010 0.199010 0.199010
0.200109 0.200109 0.200109
0.201344 0.201344 0.201344
0.203101 0.203101 0.203101
0.205432 0.205432 0.205432
0.208364 0.208364 0.208364
0.211907 0.211907 0.211907
0.216065 0.216065 0.216065
0.220830 0.220830 0.220830
0.226188 0.226188 0.226188
0.232118 0.232118 0.232118
0.238594 0.238594 0.238594
0.245588 0.245588 0.245588
0.253068 0.253068 0.253068
0.261004 0.261004 0.261004
0.269364 0.269364 0.269364
0.278116 0.278116 0.278116
0.287230 0.287230 0.287230
0.296677 0.296677 0.296677
0.306431 0.306431 0.306431
0.316466 0.316466 0.316466
0.326759 0.326759 0.326759
0.337288 0.337288 0.337288
0.348032 0.348032 0.348032
0.358975 0.358975 0.358975
0.370099 0.370099 0.370099
0.381389 0.381389 0.381389
0.392832 0.392832 0.392832
0.404415 0.404415 0.404415
0.416126 0.416126 0.416126
0.427955 0.427955 0.427955
0.439894 0.439894 0.439894
0.512746 0.512746 0.512746
0.224360 0.224360 0.224360
0.225319 0.225319 0.225319
0.226399 0.226399 0.226399
0.227936 0.227936 0.227936
0.229983 0.229983 0.229983
0.232563 0.232563 0.232563
0.235692 0.235692 0.235692
0.239379 0.239379 0.239379
0.243622 0.243622 0.243622
0.248416 0.248416 0.248416
0.253746 0.253746 0.253746
0.259598 0.259598 0.259598
0.265950 0.265950 0.265950
0.272778 0.272778 0.272778
0.280060 0.280060 0.280060
0.287767 0.287767 0.287767
0.295875 0.295875 0.295875
0.304357 0.304357 0.304357
0.313187 0.313187 0.313187
0.322342 0.322342 0.322342
0.331798 0.331798 0.331798
0.341531 0.341531 0.341531
0.351523 0.351523 0.351523
0.361752 0.361752 0.361752
0.372201 0.372201 0.372201
0.382853 0.382853 0.382853
0.393693 0.393693 0.393693
0.404705 0.404705 0.404705
0.415877 0.415877 0.415877
0.427197 0.427197 0.427197
0.438654 0.438654 0.438654
0.510935 0.510935 0.510935
0.523433 0.523433 0.523433
0.249709 0.249709 0.249709
0.250557 0.250557 0.250557
0.251511 0.251511 0.251511
0.252873 0.252873 0.252873
0.254688 0.254688 0.254688
0.256981 0.256981 0.256981
0.259770 0.259770 0.259770
0.263065 0.263065 0.263065
0.266870 0.266870 0.266870
0.271184 0.271184 0.271184
0.276001 0.276001 0.276001
0.281309 0.281309 0.281309
0.287095 0.287095 0.287095
0.293343 0.293343 0.293343
0.300032 0.300032 0.300032
0.307144 0.307144 0.307144
0.314655 0.314655 0.314655
0.322545 0.322545 0.322545
0.330791 0.330791 0.330791
0.339373 0.339373 0.339373
0.348268 0.348268 0.348268
0.357456 0.357456 0.357456
0.366918 0.366918 0.366918
0.376635 0.376635 0.376635
0.386590 0.386590 0.386590
0.396765 0.396765 0.396765
0.407146 0.407146 0.407146
0.417719 0.417719 0.417719
0.428469 0.428469 0.428469
0.439384 0.439384 0.439384
0.511165 0.511165 0.511165
0.523141 0.523141 0.523141
0.535259 0.535259 0.535259
0.275059 0.275059 0.275059
0.275815 0.275815 0.275815
0.276667 0.276667 0.276667
0.277884 0.277884 0.277884
0.279509 0.279509 0.279509
0.281565 0.281565 0.281565
0.284070 0.284070 0.284070
0.287036 0.287036 0.287036
0.290471 0.290471 0.290471
0.294376 0.294376 0.294376
0.298750 0.298750 0.298750
0.303586 0.303586 0.303586
0.308875 0.308875 0.308875
0.314606 0.314606 0.314606
0.320765 0.320765 0.320765
0.327335 0.327335 0.327335
0.334300 0.334300 0.334300
0.341642 0.341642 0.341642
0.349342 0.349342 0.349342
0.357382 0.357382 0.357382
0.365743 0.365743 0.365743
0.374406 0.374406 0.374406
0.383355 0.383355 0.383355
0.392571 0.392571 0.392571
0.402038 0.402038 0.402038
0.411741 0.411741 0.411741
0.421665 0.421665 0.421665
0.431794 0.431794 0.431794
0.502261 0.502261 0.502261
0.513480 0.513480 0.513480
0.524880 0.524880 0.524880
0.536447 0.536447 0.536447
0.548173 0.548173 0.548173
0.300408 0.300408 0.300408
0.301089 0.301089 0.301089
0.301856 0.301856 0.301856
0.302953 0.302953 0.302953
0.304418 0.304418 0.304418
0.306275 0.306275 0.306275
0.308541 0.308541 0.308541
0.311230 0.311230 0.311230
0.314349 0.314349 0.314349
0.317903 0.317903 0.317903
0.321894 0.321894 0.321894
0.326318 0.326318 0.326318
0.331171 0.331171 0.331171
0.336444 0.336444 0.336444
0.342128 0.342128 0.342128
0.348210 0.348210 0.348210
0.354677 0.354677 0.354677
0.361515 0.361515 0.361515
0.368709 0.368709 0.368709
0.376242 0.376242 0.376242
0.384099 0.384099 0.384099
0.392264 0.392264 0.392264
0.400720 0.400720 0.400720
0.409453 0.409453 0.409453
0.418447 0.418447 0.418447
0.427687 0.427687 0.427687
0.437159 0.437159 0.437159
0.507317 0.507317 0.507317
0.517888 0.517888 0.517888
0.528665 0.528665 0.528665
0.539637 0.539637 0.539637
0.550791 0.550791 0.550791
0.562117 0.562117 0.562117
0.325758 0.325758 0.325758
0.326375 0.326375 0.326375
0.327071 0.327071 0.327071
0.328066 0.328066 0.328066
0.329397 0.329397 0.329397
0.331085 0.331085 0.331085
0.333148 0.333148 0.333148
0.335599 0.335599 0.335599
0.338447 0.338447 0.338447
0.341698 0.341698 0.341698
0.345356 0.345356 0.345356
0.349421 0.349421 0.349421
0.353889 0.353889 0.353889
0.358756 0.358756 0.358756
0.364015 0.364015 0.364015
0.369658 0.369658 0.369658
0.375673 0.375673 0.375673
0.382051 0.382051 0.382051
0.388777 0.388777 0.388777
0.395840 0.395840 0.395840
0.403226 0.403226 0.403226
0.410920 0.410920 0.410920
0.418910 0.418910 0.418910
0.427181 0.427181 0.427181
0.435719 0.435719 0.435719
0.504818 0.504818 0.504818
0.514466 0.514466 0.514466
0.524358 0.524358 0.524358
0.534480 0.534480 0.534480
0.544820 0.544820 0.544820
0.555366 0.555366 0.555366
0.566107 0.566107 0.566107
0.577031 0.577031 0.577031
0.351107 0.351107 0.351107
0.351670 0.351670 0.351670
0.352306 0.352306 0.352306
0.353215 0.353215 0.353215
0.354431 0.354431 0.354431
0.355975 0.355975 0.355975
0.357863 0.357863 0.357863
0.360109 0.360109 0.360109
0.362722 0.362722 0.362722
0.365711 0.365711 0.365711
0.369078 0.369078 0.369078
0.372826 0.372826 0.372826
0.376955 0.376955 0.376955
0.381461 0.381461 0.381461
0.386341 0.386341 0.386341
0.391588 0.391588 0.391588
0.397194 0.397194 0.397194
0.403152 0.403152 0.403152
0.409450 0.409450 0.409450
0.416078 0.416078 0.416078
0.423025 0.423025 0.423025
0.430280 0.430280 0.430280
0.437829 0.437829 0.437829
0.506047 0.506047 0.506047
0.514703 0.514703 0.514703
0.523634 0.523634 0.523634
0.532829 0.532829 0.532829
0.542275 0.542275 0.542275
0.551959 0.551959 0.551959
0.561870 0.561870 0.561870
0.571996 0.571996 0.571996
0.582326 0.582326 0.582326
0.592850 0.592850 0.592850
0.376457 0.376457 0.376457
0.376973 0.376973 0.376973
0.377557 0.377557 0.377557
0.378391 0.378391 0.378391
0.379508 0.379508 0.379508
0.380928 0.380928 0.380928
0.382665 0.382665 0.382665
0.384733 0.384733 0.384733
0.387142 0.387142 0.387142
0.389900 0.389900 0.389900
0.393013 0.393013 0.393013
0.396482 0.396482 0.396482
0.400310 0.400310 0.400310
0.404495 0.404495 0.404495
0.409035 0.409035 0.409035
0.413926 0.413926 0.413926
0.419162 0.419162 0.419162
0.424737 0.424737 0.424737
0.430642 0.430642 0.430642
0.436870 0.436870 0.436870
0.503644 0.503644 0.503644
0.510954 0.510954 0.510954
0.518577 0.518577 0.518577
0.526502 0.526502 0.526502
0.534717 0.534717 0.534717
0.543210 0.543210 0.543210
0.551970 0.551970 0.551970
0.560986 0.560986 0.560986
0.570246 0.570246 0.570246
0.579739 0.579739 0.579739
0.589454 0.589454 0.589454
0.599382 0.599382 0.599382
0.609511 0.609511 0.609511
0.401806 0.401806 0.401806
0.402282 0.402282 0.402282
0.402820 0.402820 0.402820
0.403591 0.403591 0.403591
0.404622 0.404622 0.404622
0.405932 0.405932 0.405932
0.407538 0.407538 0.407538
0.409451 0.409451 0.409451
0.411681 0.411681 0.411681
0.414237 0.414237 0.414237
0.417124 0.417124 0.417124
0.420347 0.420347 0.420347
0.423907 0.423907 0.423907
0.427805 0.427805 0.427805
0.432041 0.432041 0.432041
0.436611 0.436611 0.436611
0.501614 0.501614 0.501614
0.507197 0.507197 0.507197
0.513122 0.513122 0.513122
0.519381 0.519381 0.519381
0.525966 0.525966 0.525966
0.532869 0.532869 0.532869
0.540081 0.540081 0.540081
0.547591 0.547591 0.547591
0.555390 0.555390 0.555390
0.563467 0.563467 0.563467
0.571813 0.571813 0.571813
0.580417 0.580417 0.580417
0.589268 0.589268 0.589268
0.598357 0.598357 0.598357
0.607674 0.607674 0.607674
0.617209 0.617209 0.617209
0.626952 0.626952 0.626952
0.427155 0.427155 0.427155
0.427597 0.427597 0.427597
0.428095 0.428095 0.428095
0.428809 0.428809 0.428809
0.429765 0.429765 0.429765
0.430980 0.430980 0.430980
0.432470 0.432470 0.432470
0.434246 0.434246 0.434246
0.436318 0.436318 0.436318
0.438695 0.438695 0.438695
0.501477 0.501477 0.501477
0.504685 0.504685 0.504685
0.508233 0.508233 0.508233
0.512123 0.512123 0.512123
0.516354 0.516354 0.516354
0.520926 0.520926 0.520926
0.525836 0.525836 0.525836
0.531080 0.531080 0.531080
0.536654 0.536654 0.536654
0.542551 0.542551 0.542551
0.548766 0.548766 0.548766
0.555292 0.555292 0.555292
0.562119 0.562119 0.562119
0.569241 0.569241 0.569241
0.576649 0.576649 0.576649
0.584334 0.584334 0.584334
0.592286 0.592286 0.592286
0.600498 0.600498 0.600498
0.608958 0.608958 0.608958
0.617659 0.617659 0.617659
0.626591 0.626591 0.626591
0.635745 0.635745 0.635745
0.645112 0.645112 0.645112
0.513357 0.513357 0.513357
0.513796 0.513796 0.513796
0.514291 0.514291 0.514291
0.515000 0.515000 0.515000
0.515950 0.515950 0.515950
0.517159 0.517159 0.517159
0.518641 0.518641 0.518641
0.520409 0.520409 0.520409
0.522473 0.522473 0.522473
0.524842 0.524842 0.524842
0.527523 0.527523 0.527523
0.530521 0.530521 0.530521
0.533841 0.533841 0.533841
0.537484 0.537484 0.537484
0.541451 0.541451 0.541451
0.545743 0.545743 0.545743
0.550358 0.550358 0.550358
0.555293 0.555293 0.555293
0.560546 0.560546 0.560546
0.566111 0.566111 0.566111
0.571985 0.571985 0.571985
0.578160 0.578160 0.578160
0.584631 0.584631 0.584631
0.591390 0.591390 0.591390
0.598431 0.598431 0.598431
0.605746 0.605746 0.605746
0.613327 0.613327 0.613327
0.621165 0.621165 0.621165
0.629253 0.629253 0.629253
0.637583 0.637583 0.637583
0.646145 0.646145 0.646145
0.654932 0.654932 0.654932
0.663935 0.663935 0.663935
0.540435 0.540435 0.540435
0.540844 0.540844 0.540844
0.541307 0.541307 0.541307
0.541969 0.541969 0.541969
0.542856 0.542856 0.542856
0.543985 0.543985 0.543985
0.545370 0.545370 0.545370
0.547022 0.547022 0.547022
0.548953 0.548953 0.548953
0.551170 0.551170 0.551170
0.553681 0.553681 0.553681
0.556492 0.556492 0.556492
0.559606 0.559606 0.559606
0.563026 0.563026 0.563026
0.566755 0.566755 0.566755
0.570793 0.570793 0.570793
0.575140 0.575140 0.575140
0.579793 0.579793 0.579793
0.584752 0.584752 0.584752
0.590012 0.590012 0.590012
0.595570 0.595570 0.595570
0.601421 0.601421 0.601421
0.607560 0.607560 0.607560
0.613982 0.613982 0.613982
0.620679 0.620679 0.620679
0.627647 0.627647 0.627647
0.634877 0.634877 0.634877
0.642362 0.642362 0.642362
0.650096 0.650096 0.650096
0.658071 0.658071 0.658071
0.666279 0.666279 0.666279
0.674714 0.674714 0.674714
0.683366 0.683366 0.683366
0.567513 0.567513 0.567513
0.567896 0.567896 0.567896
0.568329 0.568329 0.568329
0.568949 0.568949 0.568949
0.569780 0.569780 0.569780
0.570838 0.570838 0.570838
0.572136 0.572136 0.572136
0.573686 0.573686 0.573686
0.575497 0.575497 0.575497
0.577578 0.577578 0.577578
0.579936 0.579936 0.579936
0.582577 0.582577 0.582577
0.585506 0.585506 0.585506
0.588725 0.588725 0.588725
0.592238 0.592238 0.592238
0.596045 0.596045 0.596045
0.600146 0.600146 0.600146
0.604542 0.604542 0.604542
0.609231 0.609231 0.609231
0.614211 0.614211 0.614211
0.619478 0.619478 0.619478
0.625029 0.625029 0.625029
0.630860 0.630860 0.630860
0.636967 0.636967 0.636967
0.643343 0.643343 0.643343
0.649984 0.649984 0.649984
0.656884 0.656884 0.656884
0.664036 0.664036 0.664036
0.671434 0.671434 0.671434
0.679072 0.679072 0.679072
0.686943 0.686943 0.686943
0.695040 0.695040 0.695040
0.703355 0.703355 0.703355
0.594591 0.594591 0.594591
0.594950 0.594950 0.594950
0.595357 0.595357 0.595357
0.595939 0.595939 0.595939
0.596720 0.596720 0.596720
0.597714 0.597714 0.597714
0.598934 0.598934 0.598934
0.600391 0.600391 0.600391
0.602095 0.602095 0.602095
0.604054 0.604054 0.604054
0.606274 0.606274 0.606274
0.608762 0.608762 0.608762
0.611522 0.611522 0.611522
0.614559 0.614559 0.614559
0.617875 0.617875 0.617875
0.621471 0.621471 0.621471
0.625350 0.625350 0.625350
0.629510 0.629510 0.629510
0.633951 0.633951 0.633951
0.638672 0.638672 0.638672
0.643670 0.643670 0.643670
0.648944 0.648944 0.648944
0.654489 0.654489 0.654489
0.660302 0.660302 0.660302
0.666378 0.666378 0.666378
0.672713 0.672713 0.672713
0.679303 0.679303 0.679303
0.686140 0.686140 0.686140
0.693221 0.693221 0.693221
0.700539 0.700539 0.700539
0.708088 0.708088 0.708088
0.715863 0.715863 0.715863
0.723856 0.723856 0.723856
0.621669 0.621669 0.621669
0.622007 0.622007 0.622007
0.622390 0.622390 0.622390
0.622939 0.622939 0.622939
0.623674 0.623674 0.623674
0.624611 0.624611 0.624611
0.625760 0.625760 0.625760
0.627134 0.627134 0.627134
0.628740 0.628740 0.628740
0.630588 0.630588 0.630588
0.632683 0.632683 0.632683
0.635032 0.635032 0.635032
0.637640 0.637640 0.637640
0.640511 0.640511 0.640511
0.643647 0.643647 0.643647
0.647051 0.647051 0.647051
0.650725 0.650725 0.650725
0.654668 0.654668 0.654668
0.658882 0.658882 0.658882
0.663364 0.663364 0.663364
0.668114 0.668114 0.668114
0.673130 0.673130 0.673130
0.678410 0.678410 0.678410
0.683949 0.683949 0.683949
0.689745 0.689745 0.689745
0.695794 0.695794 0.695794
0.702091 0.702091 0.702091
0.708633 0.708633 0.708633
0.715414 0.715414 0.715414
0.722429 0.722429 0.722429
0.729672 0.729672 0.729672
0.737140 0.737140 0.737140
0.744825 0.744825 0.744825
0.648746 0.648746 0.648746
0.649066 0.649066 0.649066
0.649428 0.649428 0.649428
0.649945 0.649945 0.649945
0.650640 0.650640 0.650640
0.651524 0.651524 0.651524
0.652610 0.652610 0.652610
0.653908 0.653908 0.653908
0.655426 0.655426 0.655426
0.657173 0.657173 0.657173
0.659155 0.659155 0.659155
0.661378 0.661378 0.661378
0.663846 0.663846 0.663846
0.666565 0.666565 0.666565
0.669538 0.669538 0.669538
0.672766 0.672766 0.672766
0.676251 0.676251 0.676251
0.679996 0.679996 0.679996
0.683999 0.683999 0.683999
0.688261 0.688261 0.688261
0.692782 0.692782 0.692782
0.697559 0.697559 0.697559
0.702591 0.702591 0.702591
0.707875 0.707875 0.707875
0.713410 0.713410 0.713410
0.719190 0.719190 0.719190
0.725214 0.725214 0.725214
0.731477 0.731477 0.731477
0.737974 0.737974 0.737974
0.744702 0.744702 0.744702
0.751656 0.751656 0.751656
0.758831 0.758831 0.758831
0.766222 0.766222 0.766222
0.675824 0.675824 0.675824
0.676127 0.676127 0.676127
0.676469 0.676469 0.676469
0.676959 0.676959 0.676959
0.677616 0.677616 0.677616
0.678453 0.678453 0.678453
0.679481 0.679481 0.679481
0.680710 0.680710 0.680710
0.682148 0.682148 0.682148
0.683803 0.683803 0.683803
0.685681 0.685681 0.685681
0.687788 0.687788 0.687788
0.690130 0.690130 0.690130
0.692710 0.692710 0.692710
0.695532 0.695532 0.695532
0.698598 0.698598 0.698598
0.701911 0.701911 0.701911
0.705472 0.705472 0.705472
0.709282 0.709282 0.709282
0.713340 0.713340 0.713340
0.717648 0.717648 0.717648
0.722203 0.722203 0.722203
0.727005 0.727005 0.727005
0.732052 0.732052 0.732052
0.737341 0.737341 0.737341
0.742871 0.742871 0.742871
0.748637 0.748637 0.748637
0.754637 0.754637 0.754637
0.760868 0.760868 0.760868
0.767325 0.767325 0.767325
0.774004 0.774004 0.774004
0.780901 0.780901 0.780901
0.788012 0.788012 0.788012
0.702902 0.702902 0.702902
0.703189 0.703189 0.703189
0.703513 0.703513 0.703513
0.703978 0.703978 0.703978
0.704601 0.704601 0.704601
0.705395 0.705395 0.705395
0.706370 0.706370 0.706370
0.707536 0.707536 0.707536
0.708901 0.708901 0.708901
0.710471 0.710471 0.710471
0.712255 0.712255 0.712255
0.714257 0.714257 0.714257
0.716482 0.716482 0.716482
0.718934 0.718934 0.718934
0.721618 0.721618 0.721618
0.724535 0.724535 0.724535
0.727689 0.727689 0.727689
0.731080 0.731080 0.731080
0.734711 0.734711 0.734711
0.738581 0.738581 0.738581
0.742691 0.742691 0.742691
0.747040 0.747040 0.747040
0.751628 0.751628 0.751628
0.756453 0.756453 0.756453
0.761513 0.761513 0.761513
0.766807 0.766807 0.766807
0.772332 0.772332 0.772332
0.778085 0.778085 0.778085
0.784064 0.784064 0.784064
0.790264 0.790264 0.790264
0.796683 0.796683 0.796683
0.803317 0.803317 0.803317
0.810162 0.810162 0.810162
0.729980 0.729980 0.729980
0.730252 0.730252 0.730252
0.730560 0.730560 0.730560
0.731002 0.731002 0.731002
0.731594 0.731594 0.731594
0.732348 0.732348 0.732348
0.733275 0.733275 0.733275
0.734383 0.734383 0.734383
0.735681 0.735681 0.735681
0.737175 0.737175 0.737175
0.738871 0.738871 0.738871
0.740776 0.740776 0.740776
0.742894 0.742894 0.742894
0.745229 0.745229 0.745229
0.747785 0.747785 0.747785
0.750565 0.750565 0.750565
0.753571 0.753571 0.753571
0.756806 0.756806 0.756806
0.760271 0.760271 0.760271
0.763966 0.763966 0.763966
0.767893 0.767893 0.767893
0.772050 0.772050 0.772050
0.776438 0.776438 0.776438
0.781056 0.781056 0.781056
0.785902 0.785902 0.785902
