docs/luts/fuji_recipes/AcrosR_JC_Acros_1R.cube
TITLE "Fujifilm Recipe: JC Acros 1R (AcrosR)"
# FilmSim=AcrosR HL=-1 SH=3 Col=0 WB=Auto WBR=1 WBB=0
LUT_3D_SIZE 33
DOMAIN_MIN 0.0 0.0 0.0
DOMAIN_MAX 1.0 1.0 1.0
0.000000 0.000000 0.000000
0.006892 0.006892 0.006892
0.014793 0.014793 0.014793
0.026205 0.026205 0.026205
0.041206 0.041206 0.041206
0.056880 0.056880 0.056880
0.072553 0.072553 0.072553
0.088227 0.088227 0.088227
0.103900 0.103900 0.103900
0.119574 0.119574 0.119574
0.135247 0.135247 0.135247
0.150921 0.150921 0.150921
0.166594 0.166594 0.166594
0.182268 0.182268 0.182268
0.197941 0.197941 0.197941
0.213615 0.213615 0.213615
0.229288 0.229288 0.229288
0.244962 0.244962 0.244962
0.260635 0.260635 0.260635
0.276309 0.276309 0.276309
0.291982 0.291982 0.291982
0.307656 0.307656 0.307656
0.323329 0.323329 0.323329
0.339002 0.339002 0.339002
0.354676 0.354676 0.354676
0.370349 0.370349 0.370349
0.386023 0.386023 0.386023
0.401696 0.401696 0.401696
0.417370 0.417370 0.417370
0.433043 0.433043 0.433043
0.509311 0.509311 0.509311
0.526053 0.526053 0.526053
0.529728 0.529728 0.529728
0.017111 0.017111 0.017111
0.024003 0.024003 0.024003
0.031904 0.031904 0.031904
0.042755 0.042755 0.042755
0.055048 0.055048 0.055048
0.068268 0.068268 0.068268
0.082116 0.082116 0.082116
0.096396 0.096396 0.096396
0.110982 0.110982 0.110982
0.125788 0.125788 0.125788
0.140758 0.140758 0.140758
0.155853 0.155853 0.155853
0.171043 0.171043 0.171043
0.186308 0.186308 0.186308
0.201633 0.201633 0.201633
0.217006 0.217006 0.217006
0.232418 0.232418 0.232418
0.247862 0.247862 0.247862
0.263334 0.263334 0.263334
0.278829 0.278829 0.278829
0.294343 0.294343 0.294343
0.309873 0.309873 0.309873
0.325418 0.325418 0.325418
0.340975 0.340975 0.340975
0.356542 0.356542 0.356542
0.372119 0.372119 0.372119
0.387704 0.387704 0.387704
0.403297 0.403297 0.403297
0.418896 0.418896 0.418896
0.434500 0.434500 0.434500
0.510799 0.510799 0.510799
0.527478 0.527478 0.527478
0.531140 0.531140 0.531140
0.036453 0.036453 0.036453
0.042797 0.042797 0.042797
0.049385 0.049385 0.049385
0.057927 0.057927 0.057927
0.068098 0.068098 0.068098
0.079518 0.079518 0.079518
0.091872 0.091872 0.091872
0.104924 0.104924 0.104924
0.118497 0.118497 0.118497
0.132465 0.132465 0.132465
0.146735 0.146735 0.146735
0.161240 0.161240 0.161240
0.175929 0.175929 0.175929
0.190765 0.190765 0.190765
0.205720 0.205720 0.205720
0.220771 0.220771 0.220771
0.235901 0.235901 0.235901
0.251098 0.251098 0.251098
0.266350 0.266350 0.266350
0.281648 0.281648 0.281648
0.296987 0.296987 0.296987
0.312359 0.312359 0.312359
0.327762 0.327762 0.327762
0.343189 0.343189 0.343189
0.358639 0.358639 0.358639
0.374109 0.374109 0.374109
0.389596 0.389596 0.389596
0.405098 0.405098 0.405098
0.420613 0.420613 0.420613
0.436141 0.436141 0.436141
0.512476 0.512476 0.512476
0.529085 0.529085 0.529085
0.532732 0.532732 0.532732
0.059020 0.059020 0.059020
0.063679 0.063679 0.063679
0.068708 0.068708 0.068708
0.075478 0.075478 0.075478
0.083848 0.083848 0.083848
0.093570 0.093570 0.093570
0.104395 0.104395 0.104395
0.116103 0.116103 0.116103
0.128512 0.128512 0.128512
0.141477 0.141477 0.141477
0.154883 0.154883 0.154883
0.168642 0.168642 0.168642
0.182686 0.182686 0.182686
0.196961 0.196961 0.196961
0.211424 0.211424 0.211424
0.226044 0.226044 0.226044
0.240794 0.240794 0.240794
0.255653 0.255653 0.255653
0.270604 0.270604 0.270604
0.285633 0.285633 0.285633
0.300729 0.300729 0.300729
0.315883 0.315883 0.315883
0.331087 0.331087 0.331087
0.346335 0.346335 0.346335
0.361620 0.361620 0.361620
0.376939 0.376939 0.376939
0.392288 0.392288 0.392288
0.407663 0.407663 0.407663
0.423062 0.423062 0.423062
0.438481 0.438481 0.438481
0.514868 0.514868 0.514868
0.531376 0.531376 0.531376
0.535003 0.535003 0.535003
0.081587 0.081587 0.081587
0.085193 0.085193 0.085193
0.089167 0.089167 0.089167
0.094639 0.094639 0.094639
0.101572 0.101572 0.101572
0.109827 0.109827 0.109827
0.119234 0.119234 0.119234
0.129621 0.129621 0.129621
0.140826 0.140826 0.140826
0.152709 0.152709 0.152709
0.165153 0.165153 0.165153
0.178058 0.178058 0.178058
0.191346 0.191346 0.191346
0.204950 0.204950 0.204950
0.218819 0.218819 0.218819
0.232910 0.232910 0.232910
0.247188 0.247188 0.247188
0.261624 0.261624 0.261624
0.276195 0.276195 0.276195
0.290881 0.290881 0.290881
0.305668 0.305668 0.305668
0.320541 0.320541 0.320541
0.335490 0.335490 0.335490
0.350504 0.350504 0.350504
0.365576 0.365576 0.365576
0.380699 0.380699 0.380699
0.395868 0.395868 0.395868
0.411077 0.411077 0.411077
0.426321 0.426321 0.426321
0.501707 0.501707 0.501707
0.518056 0.518056 0.518056
0.534433 0.534433 0.534433
0.538032 0.538032 0.538032
0.104154 0.104154 0.104154
0.107054 0.107054 0.107054
0.110288 0.110288 0.110288
0.114803 0.114803 0.114803
0.120619 0.120619 0.120619
0.127666 0.127666 0.127666
0.135839 0.135839 0.135839
0.145014 0.145014 0.145014
0.155066 0.155066 0.155066
0.165873 0.165873 0.165873
0.177325 0.177325 0.177325
0.189326 0.189326 0.189326
0.201794 0.201794 0.201794
0.214657 0.214657 0.214657
0.227856 0.227856 0.227856
0.241341 0.241341 0.241341
0.255072 0.255072 0.255072
0.269014 0.269014 0.269014
0.283136 0.283136 0.283136
0.297416 0.297416 0.297416
0.311831 0.311831 0.311831
0.326366 0.326366 0.326366
0.341005 0.341005 0.341005
0.355735 0.355735 0.355735
0.370547 0.370547 0.370547
0.385430 0.385430 0.385430
0.400376 0.400376 0.400376
0.415380 0.415380 0.415380
0.430434 0.430434 0.430434
0.505912 0.505912 0.505912
0.522085 0.522085 0.522085
0.538299 0.538299 0.538299
0.541863 0.541863 0.541863
0.126721 0.126721 0.126721
0.129121 0.129121 0.129121
0.131817 0.131817 0.131817
0.135614 0.135614 0.135614
0.140560 0.140560 0.140560
0.146629 0.146629 0.146629
0.153759 0.153759 0.153759
0.161871 0.161871 0.161871
0.170869 0.170869 0.170869
0.180658 0.180658 0.180658
0.191144 0.191144 0.191144
0.202239 0.202239 0.202239
0.213865 0.213865 0.213865
0.225951 0.225951 0.225951
0.238435 0.238435 0.238435
0.251266 0.251266 0.251266
0.264396 0.264396 0.264396
0.277788 0.277788 0.277788
0.291407 0.291407 0.291407
0.305225 0.305225 0.305225
0.319218 0.319218 0.319218
0.333363 0.333363 0.333363
0.347644 0.347644 0.347644
0.362045 0.362045 0.362045
0.376551 0.376551 0.376551
0.391152 0.391152 0.391152
0.405838 0.405838 0.405838
0.420599 0.420599 0.420599
0.435428 0.435428 0.435428
0.511022 0.511022 0.511022
0.526986 0.526986 0.526986
0.543004 0.543004 0.543004
0.546527 0.546527 0.546527
0.149288 0.149288 0.149288
0.151318 0.151318 0.151318
0.153610 0.153610 0.153610
0.156858 0.156858 0.156858
0.161121 0.161121 0.161121
0.166397 0.166397 0.166397
0.172658 0.172658 0.172658
0.179853 0.179853 0.179853
0.187916 0.187916 0.187916
0.196775 0.196775 0.196775
0.206352 0.206352 0.206352
0.216575 0.216575 0.216575
0.227371 0.227371 0.227371
0.238676 0.238676 0.238676
0.250430 0.250430 0.250430
0.262579 0.262579 0.262579
0.275077 0.275077 0.275077
0.287882 0.287882 0.287882
0.300958 0.300958 0.300958
0.314274 0.314274 0.314274
0.327801 0.327801 0.327801
0.341516 0.341516 0.341516
0.355398 0.355398 0.355398
0.369428 0.369428 0.369428
0.383591 0.383591 0.383591
0.397873 0.397873 0.397873
0.412262 0.412262 0.412262
0.426746 0.426746 0.426746
0.501406 0.501406 0.501406
0.517054 0.517054 0.517054
0.532777 0.532777 0.532777
0.548569 0.548569 0.548569
0.552044 0.552044 0.552044
0.171856 0.171856 0.171856
0.173603 0.173603 0.173603
0.175583 0.175583 0.175583
0.178401 0.178401 0.178401
0.182119 0.182119 0.182119
0.186751 0.186751 0.186751
0.192288 0.192288 0.192288
0.198701 0.198701 0.198701
0.205947 0.205947 0.205947
0.213971 0.213971 0.213971
0.222717 0.222717 0.222717
0.232121 0.232121 0.232121
0.242124 0.242124 0.242124
0.252668 0.252668 0.252668
0.263696 0.263696 0.263696
0.275160 0.275160 0.275160
0.287012 0.287012 0.287012
0.299210 0.299210 0.299210
0.311719 0.311719 0.311719
0.324504 0.324504 0.324504
0.337535 0.337535 0.337535
0.350788 0.350788 0.350788
0.364238 0.364238 0.364238
0.377866 0.377866 0.377866
0.391653 0.391653 0.391653
0.405583 0.405583 0.405583
0.419643 0.419643 0.419643
0.433820 0.433820 0.433820
0.508655 0.508655 0.508655
0.524014 0.524014 0.524014
0.539466 0.539466 0.539466
0.555004 0.555004 0.555004
0.558425 0.558425 0.558425
0.194423 0.194423 0.194423
0.195949 0.195949 0.195949
0.197683 0.197683 0.197683
0.200157 0.200157 0.200157
0.203434 0.203434 0.203434
0.207538 0.207538 0.207538
0.212471 0.212471 0.212471
0.218218 0.218218 0.218218
0.224754 0.224754 0.224754
0.232041 0.232041 0.232041
0.240034 0.240034 0.240034
0.248685 0.248685 0.248685
0.257945 0.257945 0.257945
0.267763 0.267763 0.267763
0.278090 0.278090 0.278090
0.288879 0.288879 0.288879
0.300088 0.300088 0.300088
0.311676 0.311676 0.311676
0.323606 0.323606 0.323606
0.335844 0.335844 0.335844
0.348361 0.348361 0.348361
0.361129 0.361129 0.361129
0.374124 0.374124 0.374124
0.387323 0.387323 0.387323
0.400708 0.400708 0.400708
0.414261 0.414261 0.414261
0.427965 0.427965 0.427965
0.501932 0.501932 0.501932
0.516853 0.516853 0.516853
0.531896 0.531896 0.531896
0.547052 0.547052 0.547052
0.562309 0.562309 0.562309
0.565671 0.565671 0.565671
0.216990 0.216990 0.216990
0.218339 0.218339 0.218339
0.219874 0.219874 0.219874
0.222069 0.222069 0.222069
0.224986 0.224986 0.224986
0.228651 0.228651 0.228651
0.233076 0.233076 0.233076
0.238256 0.238256 0.238256
0.244177 0.244177 0.244177
0.250814 0.250814 0.250814
0.258134 0.258134 0.258134
0.266101 0.266101 0.266101
0.274674 0.274674 0.274674
0.283811 0.283811 0.283811
0.293471 0.293471 0.293471
0.303610 0.303610 0.303610
0.314191 0.314191 0.314191
0.325175 0.325175 0.325175
0.336527 0.336527 0.336527
0.348215 0.348215 0.348215
0.360208 0.360208 0.360208
0.372479 0.372479 0.372479
0.385003 0.385003 0.385003
0.397757 0.397757 0.397757
0.410721 0.410721 0.410721
0.423875 0.423875 0.423875
0.437204 0.437204 0.437204
0.511420 0.511420 0.511420
0.525983 0.525983 0.525983
0.540688 0.540688 0.540688
0.555522 0.555522 0.555522
0.570477 0.570477 0.570477
0.573774 0.573774 0.573774
0.239557 0.239557 0.239557
0.240761 0.240761 0.240761
0.242133 0.242133 0.242133
0.244098 0.244098 0.244098
0.246716 0.246716 0.246716
0.250014 0.250014 0.250014
0.254009 0.254009 0.254009
0.258704 0.258704 0.258704
0.264092 0.264092 0.264092
0.270158 0.270158 0.270158
0.276879 0.276879 0.276879
0.284228 0.284228 0.284228
0.292173 0.292173 0.292173
0.300679 0.300679 0.300679
0.309711 0.309711 0.309711
0.319233 0.319233 0.319233
0.329210 0.329210 0.329210
0.339607 0.339607 0.339607
0.350392 0.350392 0.350392
0.361533 0.361533 0.361533
0.373002 0.373002 0.373002
0.384772 0.384772 0.384772
0.396817 0.396817 0.396817
0.409115 0.409115 0.409115
0.421645 0.421645 0.421645
0.434387 0.434387 0.434387
0.507824 0.507824 0.507824
0.521834 0.521834 0.521834
0.536019 0.536019 0.536019
0.550366 0.550366 0.550366
0.564861 0.564861 0.564861
0.579492 0.579492 0.579492
0.582721 0.582721 0.582721
0.262124 0.262124 0.262124
0.263208 0.263208 0.263208
0.264444 0.264444 0.264444
0.266218 0.266218 0.266218
0.268583 0.268583 0.268583
0.271571 0.271571 0.271571
0.275200 0.275200 0.275200
0.279477 0.279477 0.279477
0.284402 0.284402 0.284402
0.289966 0.289966 0.289966
0.296155 0.296155 0.296155
0.302949 0.302949 0.302949
0.310322 0.310322 0.310322
0.318247 0.318247 0.318247
0.326696 0.326696 0.326696
0.335637 0.335637 0.335637
0.345040 0.345040 0.345040
0.354873 0.354873 0.354873
0.365108 0.365108 0.365108
0.375715 0.375715 0.375715
0.386667 0.386667 0.386667
0.397938 0.397938 0.397938
0.409504 0.409504 0.409504
0.421342 0.421342 0.421342
0.433432 0.433432 0.433432
0.506145 0.506145 0.506145
0.519534 0.519534 0.519534
0.533134 0.533134 0.533134
0.546929 0.546929 0.546929
0.560902 0.560902 0.560902
0.575042 0.575042 0.575042
0.589335 0.589335 0.589335
0.592492 0.592492 0.592492
0.284691 0.284691 0.284691
0.285674 0.285674 0.285674
0.286796 0.286796 0.286796
0.288407 0.288407 0.288407
0.290559 0.290559 0.290559
0.293282 0.293282 0.293282
0.296596 0.296596 0.296596
0.300511 0.300511 0.300511
0.305032 0.305032 0.305032
0.310155 0.310155 0.310155
0.315871 0.315871 0.315871
0.322166 0.322166 0.322166
0.329021 0.329021 0.329021
0.336416 0.336416 0.336416
0.344325 0.344325 0.344325
0.352723 0.352723 0.352723
0.361585 0.361585 0.361585
0.370882 0.370882 0.370882
0.380589 0.380589 0.380589
0.390679 0.390679 0.390679
0.401127 0.401127 0.401127
0.411908 0.411908 0.411908
0.422999 0.422999 0.422999
0.434379 0.434379 0.434379
0.506438 0.506438 0.506438
0.519145 0.519145 0.519145
0.532099 0.532099 0.532099
0.545281 0.545281 0.545281
0.558675 0.558675 0.558675
0.572265 0.572265 0.572265
0.586038 0.586038 0.586038
0.599980 0.599980 0.599980
0.603062 0.603062 0.603062
0.307259 0.307259 0.307259
0.308155 0.308155 0.308155
0.309180 0.309180 0.309180
0.310652 0.310652 0.310652
0.312621 0.312621 0.312621
0.315116 0.315116 0.315116
0.318157 0.318157 0.318157
0.321758 0.321758 0.321758
0.325925 0.325925 0.325925
0.330658 0.330658 0.330658
0.335953 0.335953 0.335953
0.341801 0.341801 0.341801
0.348188 0.348188 0.348188
0.355097 0.355097 0.355097
0.362509 0.362509 0.362509
0.370404 0.370404 0.370404
0.378759 0.378759 0.378759
0.387550 0.387550 0.387550
0.396754 0.396754 0.396754
0.406348 0.406348 0.406348
0.416308 0.416308 0.416308
0.426612 0.426612 0.426612
0.437239 0.437239 0.437239
0.508724 0.508724 0.508724
0.520697 0.520697 0.520697
0.532952 0.532952 0.532952
0.545468 0.545468 0.545468
0.558229 0.558229 0.558229
0.571217 0.571217 0.571217
0.584417 0.584417 0.584417
0.597815 0.597815 0.597815
0.611398 0.611398 0.611398
0.614402 0.614402 0.614402
0.329826 0.329826 0.329826
0.330649 0.330649 0.330649
0.331589 0.331589 0.331589
0.332942 0.332942 0.332942
0.334753 0.334753 0.334753
0.337050 0.337050 0.337050
0.339854 0.339854 0.339854
0.343179 0.343179 0.343179
0.347034 0.347034 0.347034
0.351422 0.351422 0.351422
0.356342 0.356342 0.356342
0.361788 0.361788 0.361788
0.367751 0.367751 0.367751
0.374218 0.374218 0.374218
0.381175 0.381175 0.381175
0.388603 0.388603 0.388603
0.396485 0.396485 0.396485
0.404801 0.404801 0.404801
0.413529 0.413529 0.413529
0.422650 0.422650 0.422650
0.432143 0.432143 0.432143
0.502122 0.502122 0.502122
0.512990 0.512990 0.512990
0.524191 0.524191 0.524191
0.535704 0.535704 0.535704
0.547511 0.547511 0.547511
0.559593 0.559593 0.559593
0.571932 0.571932 0.571932
0.584513 0.584513 0.584513
0.597320 0.597320 0.597320
0.610338 0.610338 0.610338
0.623555 0.623555 0.623555
0.626481 0.626481 0.626481
0.352393 0.352393 0.352393
0.353152 0.353152 0.353152
0.354020 0.354020 0.354020
0.355269 0.355269 0.355269
0.356942 0.356942 0.356942
0.359065 0.359065 0.359065
0.361661 0.361661 0.361661
0.364743 0.364743 0.364743
0.368323 0.368323 0.368323
0.372404 0.372404 0.372404
0.376988 0.376988 0.376988
0.382073 0.382073 0.382073
0.387653 0.387653 0.387653
0.393718 0.393718 0.393718
0.400256 0.400256 0.400256
0.407254 0.407254 0.407254
0.414697 0.414697 0.414697
0.422568 0.422568 0.422568
0.430848 0.430848 0.430848
0.439521 0.439521 0.439521
0.509152 0.509152 0.509152
0.519194 0.519194 0.519194
0.529596 0.529596 0.529596
0.540338 0.540338 0.540338
0.551402 0.551402 0.551402
0.562769 0.562769 0.562769
0.574422 0.574422 0.574422
0.586344 0.586344 0.586344
0.598520 0.598520 0.598520
0.610933 0.610933 0.610933
0.623570 0.623570 0.623570
0.636417 0.636417 0.636417
0.639264 0.639264 0.639264
0.374960 0.374960 0.374960
0.375663 0.375663 0.375663
0.376467 0.376467 0.376467
0.377625 0.377625 0.377625
0.379177 0.379177 0.379177
0.381149 0.381149 0.381149
0.383561 0.383561 0.383561
0.386428 0.386428 0.386428
0.389762 0.389762 0.389762
0.393570 0.393570 0.393570
0.397853 0.397853 0.397853
0.402613 0.402613 0.402613
0.407845 0.407845 0.407845
0.413543 0.413543 0.413543
0.419698 0.419698 0.419698
0.426300 0.426300 0.426300
0.433335 0.433335 0.433335
0.500845 0.500845 0.500845
0.509241 0.509241 0.509241
0.518053 0.518053 0.518053
0.527264 0.527264 0.527264
0.536855 0.536855 0.536855
0.546809 0.546809 0.546809
0.557109 0.557109 0.557109
0.567736 0.567736 0.567736
0.578674 0.578674 0.578674
0.589907 0.589907 0.589907
0.601418 0.601418 0.601418
0.613192 0.613192 0.613192
0.625215 0.625215 0.625215
0.637472 0.637472 0.637472
0.649950 0.649950 0.649950
0.652717 0.652717 0.652717
0.397527 0.397527 0.397527
0.398181 0.398181 0.398181
0.398929 0.398929 0.398929
0.400007 0.400007 0.400007
0.401452 0.401452 0.401452
0.403289 0.403289 0.403289
0.405538 0.405538 0.405538
0.408214 0.408214 0.408214
0.411330 0.411330 0.411330
0.414892 0.414892 0.414892
0.418905 0.418905 0.418905
0.423370 0.423370 0.423370
0.428287 0.428287 0.428287
0.433650 0.433650 0.433650
0.439454 0.439454 0.439454
0.506079 0.506079 0.506079
0.513191 0.513191 0.513191
0.520742 0.520742 0.520742
0.528718 0.528718 0.528718
0.537104 0.537104 0.537104
0.545886 0.545886 0.545886
0.555048 0.555048 0.555048
0.564574 0.564574 0.564574
0.574448 0.574448 0.574448
0.584654 0.584654 0.584654
0.595177 0.595177 0.595177
0.605999 0.605999 0.605999
0.617108 0.617108 0.617108
0.628488 0.628488 0.628488
0.640125 0.640125 0.640125
0.652005 0.652005 0.652005
0.664116 0.664116 0.664116
0.666804 0.666804 0.666804
0.420095 0.420095 0.420095
0.420705 0.420705 0.420705
0.421403 0.421403 0.421403
0.422409 0.422409 0.422409
0.423759 0.423759 0.423759
0.425477 0.425477 0.425477
0.427580 0.427580 0.427580
0.430086 0.430086 0.430086
0.433005 0.433005 0.433005
0.436347 0.436347 0.436347
0.500124 0.500124 0.500124
0.504609 0.504609 0.504609
0.509555 0.509555 0.509555
0.514958 0.514958 0.514958
0.520813 0.520813 0.520813
0.527115 0.527115 0.527115
0.533854 0.533854 0.533854
0.541021 0.541021 0.541021
0.548604 0.548604 0.548604
0.556591 0.556591 0.556591
0.564968 0.564968 0.564968
0.573723 0.573723 0.573723
0.582841 0.582841 0.582841
0.592308 0.592308 0.592308
0.602109 0.602109 0.602109
0.612229 0.612229 0.612229
0.622654 0.622654 0.622654
0.633371 0.633371 0.633371
0.644365 0.644365 0.644365
0.655623 0.655623 0.655623
0.667132 0.667132 0.667132
0.678880 0.678880 0.678880
0.681490 0.681490 0.681490
0.502843 0.502843 0.502843
0.503454 0.503454 0.503454
0.504152 0.504152 0.504152
0.505159 0.505159 0.505159
0.506510 0.506510 0.506510
0.508230 0.508230 0.508230
0.510339 0.510339 0.510339
0.512851 0.512851 0.512851
0.515781 0.515781 0.515781
0.519138 0.519138 0.519138
0.522928 0.522928 0.522928
0.527155 0.527155 0.527155
0.531821 0.531821 0.531821
0.536926 0.536926 0.536926
0.542465 0.542465 0.542465
0.548435 0.548435 0.548435
0.554829 0.554829 0.554829
0.561638 0.561638 0.561638
0.568854 0.568854 0.568854
0.576467 0.576467 0.576467
0.584463 0.584463 0.584463
0.592833 0.592833 0.592833
0.601564 0.601564 0.601564
0.610641 0.610641 0.610641
0.620053 0.620053 0.620053
0.629787 0.629787 0.629787
0.639828 0.639828 0.639828
0.650165 0.650165 0.650165
0.660783 0.660783 0.660783
0.671671 0.671671 0.671671
0.682817 0.682817 0.682817
0.694207 0.694207 0.694207
0.696739 0.696739 0.696739
0.526949 0.526949 0.526949
0.527522 0.527522 0.527522
0.528179 0.528179 0.528179
0.529124 0.529124 0.529124
0.530394 0.530394 0.530394
0.532011 0.532011 0.532011
0.533995 0.533995 0.533995
0.536360 0.536360 0.536360
0.539119 0.539119 0.539119
0.542283 0.542283 0.542283
0.545859 0.545859 0.545859
0.549851 0.549851 0.549851
0.554262 0.554262 0.554262
0.559093 0.559093 0.559093
0.564342 0.564342 0.564342
0.570006 0.570006 0.570006
0.576080 0.576080 0.576080
0.582558 0.582558 0.582558
0.589431 0.589431 0.589431
0.596692 0.596692 0.596692
0.604330 0.604330 0.604330
0.612336 0.612336 0.612336
0.620699 0.620699 0.620699
0.629406 0.629406 0.629406
0.638447 0.638447 0.638447
0.647810 0.647810 0.647810
0.657481 0.657481 0.657481
0.667450 0.667450 0.667450
0.677704 0.677704 0.677704
0.688232 0.688232 0.688232
0.699021 0.699021 0.699021
0.710061 0.710061 0.710061
0.712517 0.712517 0.712517
0.551055 0.551055 0.551055
0.551595 0.551595 0.551595
0.552213 0.552213 0.552213
0.553104 0.553104 0.553104
0.554300 0.554300 0.554300
0.555824 0.555824 0.555824
0.557695 0.557695 0.557695
0.559926 0.559926 0.559926
0.562531 0.562531 0.562531
0.565520 0.565520 0.565520
0.568901 0.568901 0.568901
0.572678 0.572678 0.572678
0.576856 0.576856 0.576856
0.581436 0.581436 0.581436
0.586418 0.586418 0.586418
0.591799 0.591799 0.591799
0.597576 0.597576 0.597576
0.603745 0.603745 0.603745
0.610299 0.610299 0.610299
0.617230 0.617230 0.617230
0.624532 0.624532 0.624532
0.632195 0.632195 0.632195
0.640209 0.640209 0.640209
0.648565 0.648565 0.648565
0.657252 0.657252 0.657252
0.666259 0.666259 0.666259
0.675575 0.675575 0.675575
0.685190 0.685190 0.685190
0.695092 0.695092 0.695092
0.705269 0.705269 0.705269
0.715712 0.715712 0.715712
0.726410 0.726410 0.726410
0.728791 0.728791 0.728791
0.575161 0.575161 0.575161
0.575670 0.575670 0.575670
0.576254 0.576254 0.576254
0.577095 0.577095 0.577095
0.578225 0.578225 0.578225
0.579665 0.579665 0.579665
0.581433 0.581433 0.581433
0.583543 0.583543 0.583543
0.586007 0.586007 0.586007
0.588837 0.588837 0.588837
0.592039 0.592039 0.592039
0.595620 0.595620 0.595620
0.599584 0.599584 0.599584
0.603933 0.603933 0.603933
0.608668 0.608668 0.608668
0.613788 0.613788 0.613788
0.619290 0.619290 0.619290
0.625172 0.625172 0.625172
0.631427 0.631427 0.631427
0.638051 0.638051 0.638051
0.645036 0.645036 0.645036
0.652375 0.652375 0.652375
0.660060 0.660060 0.660060
0.668082 0.668082 0.668082
0.676432 0.676432 0.676432
0.685099 0.685099 0.685099
0.694075 0.694075 0.694075
0.703349 0.703349 0.703349
0.712911 0.712911 0.712911
0.722750 0.722750 0.722750
0.732857 0.732857 0.732857
0.743222 0.743222 0.743222
0.745530 0.745530 0.745530
0.599267 0.599267 0.599267
0.599749 0.599749 0.599749
0.600301 0.600301 0.600301
0.601097 0.601097 0.601097
0.602167 0.602167 0.602167
0.603530 0.603530 0.603530
0.605204 0.605204 0.605204
0.607204 0.607204 0.607204
0.609540 0.609540 0.609540
0.612224 0.612224 0.612224
0.615263 0.615263 0.615263
0.618664 0.618664 0.618664
0.622431 0.622431 0.622431
0.626567 0.626567 0.626567
0.631074 0.631074 0.631074
0.635952 0.635952 0.635952
0.641199 0.641199 0.641199
0.646812 0.646812 0.646812
0.652789 0.652789 0.652789
0.659124 0.659124 0.659124
0.665812 0.665812 0.665812
0.672847 0.672847 0.672847
0.680221 0.680221 0.680221
0.687926 0.687926 0.687926
0.695955 0.695955 0.695955
0.704299 0.704299 0.704299
0.712949 0.712949 0.712949
0.721896 0.721896 0.721896
0.731130 0.731130 0.731130
0.740643 0.740643 0.740643
0.750424 0.750424 0.750424
0.760465 0.760465 0.760465
0.762703 0.762703 0.762703
0.623372 0.623372 0.623372
0.623830 0.623830 0.623830
0.624353 0.624353 0.624353
0.625108 0.625108 0.625108
0.626123 0.626123 0.626123
0.627416 0.627416 0.627416
0.629005 0.629005 0.629005
0.630903 0.630903 0.630903
0.633122 0.633122 0.633122
0.635672 0.635672 0.635672
0.638561 0.638561 0.638561
0.641796 0.641796 0.641796
0.645382 0.645382 0.645382
0.649322 0.649322 0.649322
0.653618 0.653618 0.653618
0.658271 0.658271 0.658271
0.663281 0.663281 0.663281
0.668645 0.668645 0.668645
0.674362 0.674362 0.674362
0.680427 0.680427 0.680427
0.686835 0.686835 0.686835
0.693583 0.693583 0.693583
0.700663 0.700663 0.700663
0.708068 0.708068 0.708068
0.715793 0.715793 0.715793
0.723828 0.723828 0.723828
0.732167 0.732167 0.732167
0.740800 0.740800 0.740800
0.749720 0.749720 0.749720
0.758918 0.758918 0.758918
0.768385 0.768385 0.768385
0.778113 0.778113 0.778113
0.780282 0.780282 0.780282
0.647478 0.647478 0.647478
0.647912 0.647912 0.647912
0.648410 0.648410 0.648410
0.649127 0.649127 0.649127
0.650092 0.650092 0.650092
0.651321 0.651321 0.651321
0.652832 0.652832 0.652832
0.654637 0.654637 0.654637
0.656748 0.656748 0.656748
0.659175 0.659175 0.659175
0.661926 0.661926 0.661926
0.665008 0.665008 0.665008
0.668427 0.668427 0.668427
0.672185 0.672185 0.672185
0.676285 0.676285 0.676285
0.680730 0.680730 0.680730
0.685519 0.685519 0.685519
0.690650 0.690650 0.690650
0.696123 0.696123 0.696123
0.701935 0.701935 0.701935
0.708081 0.708081 0.708081
0.714558 0.714558 0.714558
0.721361 0.721361 0.721361
0.728482 0.728482 0.728482
