docs/luts/fuji_recipes/AcrosR_RR_Kodachrome_Monochrome.cube
TITLE "Fujifilm Recipe: RR Kodachrome Monochrome (AcrosR)"
# FilmSim=AcrosR HL=4 SH=-2 Col=0 WB=Auto WBR=0 WBB=9
LUT_3D_SIZE 9
DOMAIN_MIN 0.0 0.0 0.0
DOMAIN_MAX 1.0 1.0 1.0
0.080000 0.080000 0.080000
0.121481 0.121481 0.121481
0.185426 0.185426 0.185426
0.249371 0.249371 0.249371
0.313316 0.313316 0.313316
0.377261 0.377261 0.377261
0.441206 0.441206 0.441206
0.505151 0.505151 0.505151
0.536686 0.536686 0.536686
0.165295 0.165295 0.165295
0.185418 0.185418 0.185418
0.224881 0.224881 0.224881
0.275940 0.275940 0.275940
0.332577 0.332577 0.332577
0.392009 0.392009 0.392009
0.452963 0.452963 0.452963
0.514811 0.514811 0.514811
0.546933 0.546933 0.546933
0.259667 0.259667 0.259667
0.269976 0.269976 0.269976
0.293764 0.293764 0.293764
0.330008 0.330008 0.330008
0.375177 0.375177 0.375177
0.426201 0.426201 0.426201
0.480998 0.480998 0.480998
0.538262 0.538262 0.538262
0.572099 0.572099 0.572099
0.354039 0.354039 0.354039
0.360522 0.360522 0.360522
0.376271 0.376271 0.376271
0.402110 0.402110 0.402110
0.436832 0.436832 0.436832
0.478614 0.478614 0.478614
0.525704 0.525704 0.525704
0.546261 0.546261 0.546261
0.614140 0.614140 0.614140
0.448411 0.448411 0.448411
0.452975 0.452975 0.452975
0.464293 0.464293 0.464293
0.483513 0.483513 0.483513
0.510456 0.510456 0.510456
0.505417 0.505417 0.505417
0.555394 0.555394 0.555394
0.611284 0.611284 0.611284
0.671858 0.671858 0.671858
0.503509 0.503509 0.503509
0.507852 0.507852 0.507852
0.518728 0.518728 0.518728
0.537528 0.537528 0.537528
0.564521 0.564521 0.564521
0.599359 0.599359 0.599359
0.641303 0.641303 0.641303
0.689428 0.689428 0.689428
0.742784 0.742784 0.742784
0.622499 0.622499 0.622499
0.625934 0.625934 0.625934
0.634581 0.634581 0.634581
0.649677 0.649677 0.649677
0.671664 0.671664 0.671664
0.700540 0.700540 0.700540
0.735969 0.735969 0.735969
0.777404 0.777404 0.777404
0.824187 0.824187 0.824187
0.741490 0.741490 0.741490
0.744299 0.744299 0.744299
0.751392 0.751392 0.751392
0.763852 0.763852 0.763852
0.782162 0.782162 0.782162
0.806485 0.806485 0.806485
0.836721 0.836721 0.836721
0.872579 0.872579 0.872579
0.913638 0.913638 0.913638
0.860480 0.860480 0.860480
0.862836 0.862836 0.862836
0.868797 0.868797 0.868797
0.879308 0.879308 0.879308
0.894846 0.894846 0.894846
0.915646 0.915646 0.915646
0.941742 0.941742 0.941742
0.973007 0.973007 0.973007
1.000000 1.000000 1.000000
0.095180 0.095180 0.095180
0.134196 0.134196 0.134196
0.191911 0.191911 0.191911
0.253445 0.253445 0.253445
0.316183 0.316183 0.316183
0.379424 0.379424 0.379424
0.442916 0.442916 0.442916
0.506549 0.506549 0.506549
0.538165 0.538165 0.538165
0.173080 0.173080 0.173080
0.191904 0.191904 0.191904
0.229667 0.229667 0.229667
0.279424 0.279424 0.279424
0.335195 0.335195 0.335195
0.394051 0.394051 0.394051
0.454607 0.454607 0.454607
0.516171 0.516171 0.516171
0.548381 0.548381 0.548381
0.263493 0.263493 0.263493
0.273578 0.273578 0.273578
0.296928 0.296928 0.296928
0.332657 0.332657 0.332657
0.377358 0.377358 0.377358
0.428003 0.428003 0.428003
0.482502 0.482502 0.482502
0.539535 0.539535 0.539535
0.573477 0.573477 0.573477
0.356420 0.356420 0.356420
0.362839 0.362839 0.362839
0.378443 0.378443 0.378443
0.404075 0.404075 0.404075
0.438568 0.438568 0.438568
0.480129 0.480129 0.480129
0.527023 0.527023 0.527023
0.547712 0.547712 0.547712
0.615412 0.615412 0.615412
0.450080 0.450080 0.450080
0.454620 0.454620 0.454620
0.465878 0.465878 0.465878
0.485006 0.485006 0.485006
0.511833 0.511833 0.511833
0.506996 0.506996 0.506996
0.556817 0.556817 0.556817
0.612562 0.612562 0.612562
0.673006 0.673006 0.673006
0.505094 0.505094 0.505094
0.509423 0.509423 0.509423
0.520263 0.520263 0.520263
0.539004 0.539004 0.539004
0.565919 0.565919 0.565919
0.600667 0.600667 0.600667
0.642514 0.642514 0.642514
0.690542 0.690542 0.690542
0.743806 0.743806 0.743806
0.623752 0.623752 0.623752
0.627179 0.627179 0.627179
0.635807 0.635807 0.635807
0.650870 0.650870 0.650870
0.672813 0.672813 0.672813
0.701634 0.701634 0.701634
0.737002 0.737002 0.737002
0.778373 0.778373 0.778373
0.825091 0.825091 0.825091
0.742514 0.742514 0.742514
0.745318 0.745318 0.745318
0.752401 0.752401 0.752401
0.764841 0.764841 0.764841
0.783124 0.783124 0.783124
0.807412 0.807412 0.807412
0.837609 0.837609 0.837609
0.873424 0.873424 0.873424
0.914436 0.914436 0.914436
0.861339 0.861339 0.861339
0.863691 0.863691 0.863691
0.869646 0.869646 0.869646
0.880144 0.880144 0.880144
0.895665 0.895665 0.895665
0.916443 0.916443 0.916443
0.942512 0.942512 0.942512
0.973746 0.973746 0.973746
1.000000 1.000000 1.000000
0.134303 0.134303 0.134303
0.161260 0.161260 0.161260
0.208140 0.208140 0.208140
0.264169 0.264169 0.264169
0.323884 0.323884 0.323884
0.385291 0.385291 0.385291
0.447580 0.447580 0.447580
0.510375 0.510375 0.510375
0.542218 0.542218 0.542218
0.191961 0.191961 0.191961
0.208133 0.208133 0.208133
0.242094 0.242094 0.242094
0.288690 0.288690 0.288690
0.342253 0.342253 0.342253
0.399597 0.399597 0.399597
0.459095 0.459095 0.459095
0.519892 0.519892 0.519892
0.552351 0.552351 0.552351
0.273611 0.273611 0.273611
0.283142 0.283142 0.283142
0.305388 0.305388 0.305388
0.339795 0.339795 0.339795
0.383273 0.383273 0.383273
0.432909 0.432909 0.432909
0.486612 0.486612 0.486612
0.503810 0.503810 0.503810
0.577255 0.577255 0.577255
0.362860 0.362860 0.362860
0.369109 0.369109 0.369109
0.384333 0.384333 0.384333
0.409418 0.409418 0.409418
0.443300 0.443300 0.443300
0.484269 0.484269 0.484269
0.530631 0.530631 0.530631
0.551687 0.551687 0.551687
0.618903 0.618903 0.618903
0.454635 0.454635 0.454635
0.459107 0.459107 0.459107
0.470206 0.470206 0.470206
0.489084 0.489084 0.489084
0.515601 0.515601 0.515601
0.511321 0.511321 0.511321
0.560721 0.560721 0.560721
0.616072 0.616072 0.616072
0.676159 0.676159 0.676159
0.509437 0.509437 0.509437
0.513726 0.513726 0.513726
0.524469 0.524469 0.524469
0.543050 0.543050 0.543050
0.569753 0.569753 0.569753
0.604254 0.604254 0.604254
0.645838 0.645838 0.645838
0.693603 0.693603 0.693603
0.746614 0.746614 0.746614
0.627190 0.627190 0.627190
0.630596 0.630596 0.630596
0.639171 0.639171 0.639171
0.654146 0.654146 0.654146
0.675967 0.675967 0.675967
0.704639 0.704639 0.704639
0.739840 0.739840 0.739840
0.781035 0.781035 0.781035
0.827575 0.827575 0.827575
0.745327 0.745327 0.745327
0.748119 0.748119 0.748119
0.755171 0.755171 0.755171
0.767558 0.767558 0.767558
0.785767 0.785767 0.785767
0.809962 0.809962 0.809962
0.840049 0.840049 0.840049
0.875745 0.875745 0.875745
0.916633 0.916633 0.916633
0.863699 0.863699 0.863699
0.866044 0.866044 0.866044
0.871979 0.871979 0.871979
0.882445 0.882445 0.882445
0.897918 0.897918 0.897918
0.918634 0.918634 0.918634
0.944630 0.944630 0.944630
0.975782 0.975782 0.975782
1.000000 1.000000 1.000000
0.178768 0.178768 0.178768
0.196724 0.196724 0.196724
0.233294 0.233294 0.233294
0.282096 0.282096 0.282096
0.337216 0.337216 0.337216
0.395633 0.395633 0.395633
0.455884 0.455884 0.455884
0.517229 0.517229 0.517229
0.549508 0.549508 0.549508
0.220087 0.220087 0.220087
0.233289 0.233289 0.233289
0.262414 0.262414 0.262414
0.304455 0.304455 0.304455
0.354553 0.354553 0.354553
0.409402 0.409402 0.409402
0.467096 0.467096 0.467096
0.526564 0.526564 0.526564
0.559495 0.559495 0.559495
0.290651 0.290651 0.290651
0.299358 0.299358 0.299358
0.319915 0.319915 0.319915
0.352225 0.352225 0.352225
0.393695 0.393695 0.393695
0.441629 0.441629 0.441629
0.493961 0.493961 0.493961
0.511704 0.511704 0.511704
0.584060 0.584060 0.584060
0.374151 0.374151 0.374151
0.380122 0.380122 0.380122
0.394713 0.394713 0.394713
0.418880 0.418880 0.418880
0.451722 0.451722 0.451722
0.491670 0.491670 0.491670
0.537107 0.537107 0.537107
0.558841 0.558841 0.558841
0.625198 0.625198 0.625198
0.462751 0.462751 0.462751
0.467108 0.467108 0.467108
0.477933 0.477933 0.477933
0.496378 0.496378 0.496378
0.522354 0.522354 0.522354
0.519091 0.519091 0.519091
0.567748 0.567748 0.567748
0.622400 0.622400 0.622400
0.681853 0.681853 0.681853
0.517238 0.517238 0.517238
0.521456 0.521456 0.521456
0.532028 0.532028 0.532028
0.550328 0.550328 0.550328
0.576657 0.576657 0.576657
0.610722 0.610722 0.610722
0.651838 0.651838 0.651838
0.699133 0.699133 0.699133
0.751691 0.751691 0.751691
0.633392 0.633392 0.633392
0.636760 0.636760 0.636760
0.645242 0.645242 0.645242
0.660060 0.660060 0.660060
0.681663 0.681663 0.681663
0.710069 0.710069 0.710069
0.744972 0.744972 0.744972
0.785852 0.785852 0.785852
0.832074 0.832074 0.832074
0.750415 0.750415 0.750415
0.753185 0.753185 0.753185
0.760182 0.760182 0.760182
0.772475 0.772475 0.772475
0.790550 0.790550 0.790550
0.814576 0.814576 0.814576
0.844469 0.844469 0.844469
0.879951 0.879951 0.879951
0.920615 0.920615 0.920615
0.867975 0.867975 0.867975
0.870306 0.870306 0.870306
0.876207 0.876207 0.876207
0.886612 0.886612 0.886612
0.901999 0.901999 0.901999
0.922605 0.922605 0.922605
0.948469 0.948469 0.948469
0.979473 0.979473 0.979473
1.000000 1.000000 1.000000
0.223234 0.223234 0.223234
0.236158 0.236158 0.236158
0.264801 0.264801 0.264801
0.306351 0.306351 0.306351
0.356056 0.356056 0.356056
0.410611 0.410611 0.410611
0.468089 0.468089 0.468089
0.527395 0.527395 0.527395
0.560387 0.560387 0.560387
0.254151 0.254151 0.254151
0.264797 0.264797 0.264797
0.289240 0.289240 0.289240
0.326240 0.326240 0.326240
0.372088 0.372088 0.372088
0.423658 0.423658 0.423658
0.478879 0.478879 0.478879
0.536470 0.536470 0.536470
0.570162 0.570162 0.570162
0.313910 0.313910 0.313910
0.321669 0.321669 0.321669
0.340223 0.340223 0.340223
0.369926 0.369926 0.369926
0.408779 0.408779 0.408779
0.454407 0.454407 0.454407
0.504827 0.504827 0.504827
0.523453 0.523453 0.523453
0.594235 0.594235 0.594235
0.390383 0.390383 0.390383
0.395988 0.395988 0.395988
0.409741 0.409741 0.409741
0.432674 0.432674 0.432674
0.464090 0.464090 0.464090
0.502610 0.502610 0.502610
0.508489 0.508489 0.508489
0.569521 0.569521 0.569521
0.634631 0.634631 0.634631
0.474695 0.474695 0.474695
0.478891 0.478891 0.478891
0.489331 0.489331 0.489331
0.507169 0.507169 0.507169
0.532375 0.532375 0.532375
0.530661 0.530661 0.530661
0.578246 0.578246 0.578246
0.631880 0.631880 0.631880
0.690403 0.690403 0.690403
0.528852 0.528852 0.528852
0.532970 0.532970 0.532970
0.543295 0.543295 0.543295
0.561189 0.561189 0.561189
0.586977 0.586977 0.586977
0.620404 0.620404 0.620404
0.660838 0.660838 0.660838
0.707442 0.707442 0.707442
0.759333 0.759333 0.759333
0.642688 0.642688 0.642688
0.646000 0.646000 0.646000
0.654345 0.654345 0.654345
0.668932 0.668932 0.668932
0.690216 0.690216 0.690216
0.718231 0.718231 0.718231
0.752694 0.752694 0.752694
0.793107 0.793107 0.793107
0.838857 0.838857 0.838857
0.758072 0.758072 0.758072
0.760809 0.760809 0.760809
0.767724 0.767724 0.767724
0.779877 0.779877 0.779877
0.797754 0.797754 0.797754
0.821531 0.821531 0.821531
0.851134 0.851134 0.851134
0.886296 0.886296 0.886296
0.926626 0.926626 0.926626
0.874425 0.874425 0.874425
0.876736 0.876736 0.876736
0.882585 0.882585 0.882585
0.892901 0.892901 0.892901
0.908160 0.908160 0.908160
0.928600 0.928600 0.928600
0.954268 0.954268 0.954268
0.985051 0.985051 0.985051
1.000000 1.000000 1.000000
0.267699 0.267699 0.267699
0.277548 0.277548 0.277548
0.300429 0.300429 0.300429
0.335601 0.335601 0.335601
0.379791 0.379791 0.379791
0.430017 0.430017 0.430017
0.484188 0.484188 0.484188
0.501215 0.501215 0.501215
0.575024 0.575024 0.575024
0.291768 0.291768 0.291768
0.300425 0.300425 0.300425
0.320879 0.320879 0.320879
0.353057 0.353057 0.353057
0.394398 0.394398 0.394398
0.442220 0.442220 0.442220
0.494461 0.494461 0.494461
0.512243 0.512243 0.512243
0.584525 0.584525 0.584525
0.342195 0.342195 0.342195
0.349016 0.349016 0.349016
0.365518 0.365518 0.365518
0.392420 0.392420 0.392420
0.428309 0.428309 0.428309
0.471203 0.471203 0.471203
0.519274 0.519274 0.519274
0.539205 0.539205 0.539205
0.607961 0.607961 0.607961
0.411230 0.411230 0.411230
0.416419 0.416419 0.416419
0.429205 0.429205 0.429205
0.450687 0.450687 0.450687
0.480387 0.480387 0.480387
0.517148 0.517148 0.517148
0.524735 0.524735 0.524735
0.583902 0.583902 0.583902
0.647390 0.647390 0.647390
0.490474 0.490474 0.490474
0.494472 0.494472 0.494472
0.504438 0.504438 0.504438
0.521520 0.521520 0.521520
0.507265 0.507265 0.507265
0.546184 0.546184 0.546184
0.592389 0.592389 0.592389
0.644701 0.644701 0.644701
0.702004 0.702004 0.702004
0.544432 0.544432 0.544432
0.548421 0.548421 0.548421
0.558431 0.558431 0.558431
0.575803 0.575803 0.575803
0.600890 0.600890 0.600890
0.633490 0.633490 0.633490
0.673029 0.673029 0.673029
0.718724 0.718724 0.718724
0.769730 0.769730 0.769730
0.655267 0.655267 0.655267
0.658508 0.658508 0.658508
0.666673 0.666673 0.666673
0.680957 0.680957 0.680957
0.701820 0.701820 0.701820
0.729319 0.729319 0.729319
0.763198 0.763198 0.763198
0.802990 0.802990 0.802990
0.848109 0.848109 0.848109
0.768490 0.768490 0.768490
0.771183 0.771183 0.771183
0.777990 0.777990 0.777990
0.789957 0.789957 0.789957
0.807570 0.807570 0.807570
0.831015 0.831015 0.831015
0.860228 0.860228 0.860228
0.894964 0.894964 0.894964
0.934844 0.934844 0.934844
0.883233 0.883233 0.883233
0.885516 0.885516 0.885516
0.891296 0.891296 0.891296
0.901492 0.901492 0.901492
0.916579 0.916579 0.916579
0.936797 0.936797 0.936797
0.962201 0.962201 0.962201
0.992685 0.992685 0.992685
1.000000 1.000000 1.000000
0.312165 0.312165 0.312165
0.319989 0.319989 0.319989
0.338682 0.338682 0.338682
0.368571 0.368571 0.368571
0.407615 0.407615 0.407615
0.453415 0.453415 0.453415
0.503979 0.503979 0.503979
0.522533 0.522533 0.522533
0.593436 0.593436 0.593436
0.331528 0.331528 0.331528
0.338679 0.338679 0.338679
0.355910 0.355910 0.355910
0.383824 0.383824 0.383824
0.420801 0.420801 0.420801
0.464715 0.464715 0.464715
0.513673 0.513673 0.513673
0.533080 0.533080 0.533080
0.602613 0.602613 0.602613
0.374304 0.374304 0.374304
0.380272 0.380272 0.380272
0.394854 0.394854 0.394854
0.419009 0.419009 0.419009
0.451838 0.451838 0.451838
0.491771 0.491771 0.491771
0.537196 0.537196 0.537196
0.558939 0.558939 0.558939
0.625285 0.625285 0.625285
0.436139 0.436139 0.436139
0.440895 0.440895 0.440895
0.452665 0.452665 0.452665
0.472589 0.472589 0.472589
0.500401 0.500401 0.500401
0.535175 0.535175 0.535175
0.545048 0.545048 0.545048
0.602010 0.602010 0.602010
0.663547 0.663547 0.663547
0.509907 0.509907 0.509907
0.513683 0.513683 0.513683
0.523113 0.523113 0.523113
0.539332 0.539332 0.539332
0.528317 0.528317 0.528317
0.565648 0.565648 0.565648
0.610214 0.610214 0.610214
0.660933 0.660933 0.660933
0.716750 0.716750 0.716750
0.563964 0.563964 0.563964
0.567800 0.567800 0.567800
0.577437 0.577437 0.577437
0.594189 0.594189 0.594189
0.618438 0.618438 0.618438
0.650043 0.650043 0.650043
0.688496 0.688496 0.688496
0.733079 0.733079 0.733079
0.782996 0.782996 0.782996
0.671207 0.671207 0.671207
0.674359 0.674359 0.674359
0.682307 0.682307 0.682307
0.696221 0.696221 0.696221
0.716571 0.716571 0.716571
0.743436 0.743436 0.743436
0.776595 0.776595 0.776595
0.815618 0.815618 0.815618
0.859952 0.859952 0.859952
0.781780 0.781780 0.781780
0.784420 0.784420 0.784420
0.791092 0.791092 0.791092
0.802828 0.802828 0.802828
0.820115 0.820115 0.820115
0.843145 0.843145 0.843145
0.871874 0.871874 0.871874
0.906075 0.906075 0.906075
0.945391 0.945391 0.945391
0.894520 0.894520 0.894520
0.896769 0.896769 0.896769
0.902462 0.902462 0.902462
0.912508 0.912508 0.912508
0.927378 0.927378 0.927378
0.947318 0.947318 0.947318
0.972389 0.972389 0.972389
1.000000 1.000000 1.000000
1.000000 1.000000 1.000000
0.335759 0.335759 0.335759
0.342776 0.342776 0.342776
0.359712 0.359712 0.359712
0.387218 0.387218 0.387218
0.423759 0.423759 0.423759
0.467267 0.467267 0.467267
0.515873 0.515873 0.515873
0.535483 0.535483 0.535483
0.604709 0.604709 0.604709
0.353203 0.353203 0.353203
0.359709 0.359709 0.359709
0.375510 0.375510 0.375510
0.401422 0.401422 0.401422
0.436224 0.436224 0.436224
0.478084 0.478084 0.478084
0.525243 0.525243 0.525243
0.545755 0.545755 0.545755
0.613695 0.613695 0.613695
0.392545 0.392545 0.392545
0.398105 0.398105 0.398105
0.411752 0.411752 0.411752
0.434527 0.434527 0.434527
0.465759 0.465759 0.465759
0.504093 0.504093 0.504093
0.510140 0.510140 0.510140
0.570979 0.570979 0.570979
0.635921 0.635921 0.635921
0.450788 0.450788 0.450788
0.455317 0.455317 0.455317
0.466550 0.466550 0.466550
0.485638 0.485638 0.485638
0.512417 0.512417 0.512417
0.507666 0.507666 0.507666
0.557422 0.557422 0.557422
0.613106 0.613106 0.613106
0.673494 0.673494 0.673494
0.521601 0.521601 0.521601
0.525254 0.525254 0.525254
0.534384 0.534384 0.534384
0.512755 0.512755 0.512755
0.541115 0.541115 0.541115
0.577532 0.577532 0.577532
0.621144 0.621144 0.621144
0.670925 0.670925 0.670925
0.725858 0.725858 0.725858
0.575886 0.575886 0.575886
0.579635 0.579635 0.579635
0.589055 0.589055 0.589055
0.605446 0.605446 0.605446
0.629206 0.629206 0.629206
0.660225 0.660225 0.660225
0.698034 0.698034 0.698034
0.741954 0.741954 0.741954
0.791216 0.791216 0.791216
0.681026 0.681026 0.681026
0.684125 0.684125 0.684125
0.691944 0.691944 0.691944
0.705638 0.705638 0.705638
0.725681 0.725681 0.725681
0.752167 0.752167 0.752167
0.784894 0.784894 0.784894
0.823453 0.823453 0.823453
0.867311 0.867311 0.867311
0.790014 0.790014 0.790014
0.792622 0.792622 0.792622
0.799213 0.799213 0.799213
0.810810 0.810810 0.810810
0.827899 0.827899 0.827899
0.850678 0.850678 0.850678
0.879114 0.879114 0.879114
0.912989 0.912989 0.912989
0.951961 0.951961 0.951961
0.901542 0.901542 0.901542
0.903769 0.903769 0.903769
0.909409 0.909409 0.909409
0.919363 0.919363 0.919363
0.934102 0.934102 0.934102
0.953872 0.953872 0.953872
0.978739 0.978739 0.978739
1.000000 1.000000 1.000000
1.000000 1.000000 1.000000
0.335759 0.335759 0.335759
0.342776 0.342776 0.342776
0.359712 0.359712 0.359712
0.387218 0.387218 0.387218
0.423759 0.423759 0.423759
0.467267 0.467267 0.467267
0.515873 0.515873 0.515873
0.535483 0.535483 0.535483
0.604709 0.604709 0.604709
0.353203 0.353203 0.353203
0.359709 0.359709 0.359709
0.375510 0.375510 0.375510
0.401422 0.401422 0.401422
0.436224 0.436224 0.436224
0.478084 0.478084 0.478084
0.525243 0.525243 0.525243
0.545755 0.545755 0.545755
0.613695 0.613695 0.613695
0.392545 0.392545 0.392545
0.398105 0.398105 0.398105
0.411752 0.411752 0.411752
0.434527 0.434527 0.434527
0.465759 0.465759 0.465759
0.504093 0.504093 0.504093
0.510140 0.510140 0.510140
0.570979 0.570979 0.570979
0.635921 0.635921 0.635921
0.450788 0.450788 0.450788
0.455317 0.455317 0.455317
0.466550 0.466550 0.466550
0.485638 0.485638 0.485638
0.512417 0.512417 0.512417
0.507666 0.507666 0.507666
0.557422 0.557422 0.557422
0.613106 0.613106 0.613106
0.673494 0.673494 0.673494
0.521601 0.521601 0.521601
0.525254 0.525254 0.525254
0.534384 0.534384 0.534384
0.512755 0.512755 0.512755
0.541115 0.541115 0.541115
0.577532 0.577532 0.577532
0.621144 0.621144 0.621144
0.670925 0.670925 0.670925
0.725858 0.725858 0.725858
0.575886 0.575886 0.575886
0.579635 0.579635 0.579635
0.589055 0.589055 0.589055
0.605446 0.605446 0.605446
0.629206 0.629206 0.629206
0.660225 0.660225 0.660225
0.698034 0.698034 0.698034
0.741954 0.741954 0.741954
0.791216 0.791216 0.791216
0.681026 0.681026 0.681026
0.684125 0.684125 0.684125
0.691944 0.691944 0.691944
0.705638 0.705638 0.705638
0.725681 0.725681 0.725681
0.752167 0.752167 0.752167
0.784894 0.784894 0.784894
0.823453 0.823453 0.823453
0.867311 0.867311 0.867311
0.790014 0.790014 0.790014
0.792622 0.792622 0.792622
0.799213 0.799213 0.799213
0.810810 0.810810 0.810810
0.827899 0.827899 0.827899
0.850678 0.850678 0.850678
0.879114 0.879114 0.879114
0.912989 0.912989 0.912989
0.951961 0.951961 0.951961
0.901542 0.901542 0.901542
0.903769 0.903769 0.903769
0.909409 0.909409 0.909409
0.919363 0.919363 0.919363
0.934102 0.934102 0.934102
0.953872 0.953872 0.953872
0.978739 0.978739 0.978739
1.000000 1.000000 1.000000
1.000000 1.000000 1.000000
