docs/luts/fuji_recipes/Acros_RR_Acros.cube
TITLE "Fujifilm Recipe: RR Acros (Acros)"
# FilmSim=Acros HL=2 SH=2 Col=0 WB=Auto WBR=0 WBB=0
LUT_3D_SIZE 9
DOMAIN_MIN 0.0 0.0 0.0
DOMAIN_MAX 1.0 1.0 1.0
0.000000 0.000000 0.000000
0.065360 0.065360 0.065360
0.145887 0.145887 0.145887
0.226415 0.226415 0.226415
0.306943 0.306943 0.306943
0.387470 0.387470 0.387470
0.458565 0.458565 0.458565
0.458565 0.458565 0.458565
0.458565 0.458565 0.458565
0.141636 0.141636 0.141636
0.163654 0.163654 0.163654
0.208863 0.208863 0.208863
0.269628 0.269628 0.269628
0.338562 0.338562 0.338562
0.411801 0.411801 0.411801
0.521716 0.521716 0.521716
0.521716 0.521716 0.521716
0.521716 0.521716 0.521716
0.275133 0.275133 0.275133
0.286246 0.286246 0.286246
0.312441 0.312441 0.312441
0.353520 0.353520 0.353520
0.406123 0.406123 0.406123
0.507998 0.507998 0.507998
0.576317 0.576317 0.576317
0.576317 0.576317 0.576317
0.576317 0.576317 0.576317
0.408630 0.408630 0.408630
0.415591 0.415591 0.415591
0.432685 0.432685 0.432685
0.501443 0.501443 0.501443
0.547425 0.547425 0.547425
0.603902 0.603902 0.603902
0.660741 0.660741 0.660741
0.660741 0.660741 0.660741
0.660741 0.660741 0.660741
0.596410 0.596410 0.596410
0.602155 0.602155 0.602155
0.616488 0.616488 0.616488
0.641097 0.641097 0.641097
0.676106 0.676106 0.676106
0.720805 0.720805 0.720805
0.767390 0.767390 0.767390
0.767390 0.767390 0.767390
0.767390 0.767390 0.767390
0.753124 0.753124 0.753124
0.757456 0.757456 0.757456
0.768348 0.768348 0.768348
0.787310 0.787310 0.787310
0.814819 0.814819 0.814819
0.850770 0.850770 0.850770
0.889114 0.889114 0.889114
0.889114 0.889114 0.889114
0.889114 0.889114 0.889114
0.891480 0.891480 0.891480
0.894993 0.894993 0.894993
0.903859 0.903859 0.903859
0.919404 0.919404 0.919404
0.942189 0.942189 0.942189
0.972354 0.972354 0.972354
1.000000 1.000000 1.000000
1.000000 1.000000 1.000000
1.000000 1.000000 1.000000
0.891480 0.891480 0.891480
0.894993 0.894993 0.894993
0.903859 0.903859 0.903859
0.919404 0.919404 0.919404
0.942189 0.942189 0.942189
0.972354 0.972354 0.972354
1.000000 1.000000 1.000000
1.000000 1.000000 1.000000
1.000000 1.000000 1.000000
0.891480 0.891480 0.891480
0.894993 0.894993 0.894993
0.903859 0.903859 0.903859
0.919404 0.919404 0.919404
0.942189 0.942189 0.942189
0.972354 0.972354 0.972354
1.000000 1.000000 1.000000
1.000000 1.000000 1.000000
1.000000 1.000000 1.000000
0.024630 0.024630 0.024630
0.080383 0.080383 0.080383
0.153521 0.153521 0.153521
0.231205 0.231205 0.231205
0.310312 0.310312 0.310312
0.390012 0.390012 0.390012
0.500736 0.500736 0.500736
0.500736 0.500736 0.500736
0.500736 0.500736 0.500736
0.149496 0.149496 0.149496
0.170449 0.170449 0.170449
0.214103 0.214103 0.214103
0.273552 0.273552 0.273552
0.341558 0.341558 0.341558
0.414159 0.414159 0.414159
0.524010 0.524010 0.524010
0.524010 0.524010 0.524010
0.524010 0.524010 0.524010
0.278966 0.278966 0.278966
0.289905 0.289905 0.289905
0.315741 0.315741 0.315741
0.356363 0.356363 0.356363
0.408522 0.408522 0.408522
0.510365 0.510365 0.510365
0.578357 0.578357 0.578357
0.578357 0.578357 0.578357
0.578357 0.578357 0.578357
0.411011 0.411011 0.411011
0.417923 0.417923 0.417923
0.434902 0.434902 0.434902
0.503846 0.503846 0.503846
0.549593 0.549593 0.549593
0.605831 0.605831 0.605831
0.662472 0.662472 0.662472
0.662472 0.662472 0.662472
0.662472 0.662472 0.662472
0.598368 0.598368 0.598368
0.604091 0.604091 0.604091
0.618370 0.618370 0.618370
0.642892 0.642892 0.642892
0.677789 0.677789 0.677789
0.722362 0.722362 0.722362
0.768831 0.768831 0.768831
0.768831 0.768831 0.768831
0.768831 0.768831 0.768831
0.754599 0.754599 0.754599
0.758921 0.758921 0.758921
0.769786 0.769786 0.769786
0.788706 0.788706 0.788706
0.816157 0.816157 0.816157
0.852037 0.852037 0.852037
0.890313 0.890313 0.890313
0.890313 0.890313 0.890313
0.890313 0.890313 0.890313
0.892675 0.892675 0.892675
0.896183 0.896183 0.896183
0.905034 0.905034 0.905034
0.920554 0.920554 0.920554
0.943304 0.943304 0.943304
0.973425 0.973425 0.973425
1.000000 1.000000 1.000000
1.000000 1.000000 1.000000
1.000000 1.000000 1.000000
0.892675 0.892675 0.892675
0.896183 0.896183 0.896183
0.905034 0.905034 0.905034
0.920554 0.920554 0.920554
0.943304 0.943304 0.943304
0.973425 0.973425 0.973425
1.000000 1.000000 1.000000
1.000000 1.000000 1.000000
1.000000 1.000000 1.000000
0.892675 0.892675 0.892675
0.896183 0.896183 0.896183
0.905034 0.905034 0.905034
0.920554 0.920554 0.920554
0.943304 0.943304 0.943304
0.973425 0.973425 0.973425
1.000000 1.000000 1.000000
1.000000 1.000000 1.000000
1.000000 1.000000 1.000000
0.074687 0.074687 0.074687
0.110582 0.110582 0.110582
0.171343 0.171343 0.171343
0.242911 0.242911 0.242911
0.318697 0.318697 0.318697
0.396392 0.396392 0.396392
0.506836 0.506836 0.506836
0.506836 0.506836 0.506836
0.506836 0.506836 0.506836
0.167772 0.167772 0.167772
0.186548 0.186548 0.186548
0.226824 0.226824 0.226824
0.283252 0.283252 0.283252
0.349044 0.349044 0.349044
0.420086 0.420086 0.420086
0.529797 0.529797 0.529797
0.529797 0.529797 0.529797
0.529797 0.529797 0.529797
0.288451 0.288451 0.288451
0.298980 0.298980 0.298980
0.323956 0.323956 0.323956
0.363478 0.363478 0.363478
0.414550 0.414550 0.414550
0.516332 0.516332 0.516332
0.583512 0.583512 0.583512
0.583512 0.583512 0.583512
0.583512 0.583512 0.583512
0.416994 0.416994 0.416994
0.423785 0.423785 0.423785
0.440483 0.440483 0.440483
0.509902 0.509902 0.509902
0.555067 0.555067 0.555067
0.610709 0.610709 0.610709
0.666853 0.666853 0.666853
0.666853 0.666853 0.666853
0.666853 0.666853 0.666853
0.603319 0.603319 0.603319
0.608985 0.608985 0.608985
0.623130 0.623130 0.623130
0.647435 0.647435 0.647435
0.682051 0.682051 0.682051
0.726306 0.726306 0.726306
0.772483 0.772483 0.772483
0.772483 0.772483 0.772483
0.772483 0.772483 0.772483
0.758337 0.758337 0.758337
0.762632 0.762632 0.762632
0.773434 0.773434 0.773434
0.792245 0.792245 0.792245
0.819549 0.819549 0.819549
0.855252 0.855252 0.855252
0.893357 0.893357 0.893357
0.893357 0.893357 0.893357
0.893357 0.893357 0.893357
0.895708 0.895708 0.895708
0.899201 0.899201 0.899201
0.908015 0.908015 0.908015
0.923472 0.923472 0.923472
0.946133 0.946133 0.946133
0.976144 0.976144 0.976144
1.000000 1.000000 1.000000
1.000000 1.000000 1.000000
1.000000 1.000000 1.000000
0.895708 0.895708 0.895708
0.899201 0.899201 0.899201
0.908015 0.908015 0.908015
0.923472 0.923472 0.923472
0.946133 0.946133 0.946133
0.976144 0.976144 0.976144
1.000000 1.000000 1.000000
1.000000 1.000000 1.000000
1.000000 1.000000 1.000000
0.895708 0.895708 0.895708
0.899201 0.899201 0.899201
0.908015 0.908015 0.908015
0.923472 0.923472 0.923472
0.946133 0.946133 0.946133
0.976144 0.976144 0.976144
1.000000 1.000000 1.000000
1.000000 1.000000 1.000000
1.000000 1.000000 1.000000
0.126035 0.126035 0.126035
0.150437 0.150437 0.150437
0.198922 0.198922 0.198922
0.262304 0.262304 0.262304
0.333021 0.333021 0.333021
0.407463 0.407463 0.407463
0.517507 0.517507 0.517507
0.517507 0.517507 0.517507
0.517507 0.517507 0.517507
0.195900 0.195900 0.195900
0.211970 0.211970 0.211970
0.247679 0.247679 0.247679
0.299634 0.299634 0.299634
0.361927 0.361927 0.361927
0.430405 0.430405 0.430405
0.539937 0.539937 0.539937
0.539937 0.539937 0.539937
0.539937 0.539937 0.539937
0.304501 0.304501 0.304501
0.314392 0.314392 0.314392
0.338012 0.338012 0.338012
0.375759 0.375759 0.375759
0.425037 0.425037 0.425037
0.526778 0.526778 0.526778
0.592571 0.592571 0.592571
0.592571 0.592571 0.592571
0.592571 0.592571 0.592571
0.427406 0.427406 0.427406
0.433994 0.433994 0.433994
0.450221 0.450221 0.450221
0.520500 0.520500 0.520500
0.564673 0.564673 0.564673
0.619293 0.619293 0.619293
0.674581 0.674581 0.674581
0.674581 0.674581 0.674581
0.674581 0.674581 0.674581
0.612028 0.612028 0.612028
0.617598 0.617598 0.617598
0.631511 0.631511 0.631511
0.655442 0.655442 0.655442
0.689572 0.689572 0.689572
0.733274 0.733274 0.733274
0.778945 0.778945 0.778945
0.778945 0.778945 0.778945
0.778945 0.778945 0.778945
0.764946 0.764946 0.764946
0.769196 0.769196 0.769196
0.779885 0.779885 0.779885
0.798509 0.798509 0.798509
0.825556 0.825556 0.825556
0.860949 0.860949 0.860949
0.898752 0.898752 0.898752
0.898752 0.898752 0.898752
0.898752 0.898752 0.898752
0.901086 0.901086 0.901086
0.904552 0.904552 0.904552
0.913301 0.913301 0.913301
0.928647 0.928647 0.928647
0.951153 0.951153 0.951153
0.980970 0.980970 0.980970
1.000000 1.000000 1.000000
1.000000 1.000000 1.000000
1.000000 1.000000 1.000000
0.901086 0.901086 0.901086
0.904552 0.904552 0.904552
0.913301 0.913301 0.913301
0.928647 0.928647 0.928647
0.951153 0.951153 0.951153
0.980970 0.980970 0.980970
1.000000 1.000000 1.000000
1.000000 1.000000 1.000000
1.000000 1.000000 1.000000
0.901086 0.901086 0.901086
0.904552 0.904552 0.904552
0.913301 0.913301 0.913301
0.928647 0.928647 0.928647
0.951153 0.951153 0.951153
0.980970 0.980970 0.980970
1.000000 1.000000 1.000000
1.000000 1.000000 1.000000
1.000000 1.000000 1.000000
0.177382 0.177382 0.177382
0.195155 0.195155 0.195155
0.233788 0.233788 0.233788
0.288659 0.288659 0.288659
0.353264 0.353264 0.353264
0.423450 0.423450 0.423450
0.533094 0.533094 0.533094
0.533094 0.533094 0.533094
0.533094 0.533094 0.533094
0.231277 0.231277 0.231277
0.244756 0.244756 0.244756
0.275679 0.275679 0.275679
0.322436 0.322436 0.322436
0.380315 0.380315 0.380315
0.445374 0.445374 0.445374
0.554785 0.554785 0.554785
0.554785 0.554785 0.554785
0.554785 0.554785 0.554785
0.326898 0.326898 0.326898
0.336000 0.336000 0.336000
0.357913 0.357913 0.357913
0.393357 0.393357 0.393357
0.440234 0.440234 0.440234
0.542052 0.542052 0.542052
0.605899 0.605899 0.605899
0.605899 0.605899 0.605899
0.605899 0.605899 0.605899
0.442502 0.442502 0.442502
0.448813 0.448813 0.448813
0.505159 0.505159 0.505159
0.535985 0.535985 0.535985
0.578772 0.578772 0.578772
0.631947 0.631947 0.631947
0.686010 0.686010 0.686010
0.686010 0.686010 0.686010
0.686010 0.686010 0.686010
0.624859 0.624859 0.624859
0.630293 0.630293 0.630293
0.643876 0.643876 0.643876
0.667271 0.667271 0.667271
0.700703 0.700703 0.700703
0.743608 0.743608 0.743608
0.788545 0.788545 0.788545
0.788545 0.788545 0.788545
0.788545 0.788545 0.788545
0.774762 0.774762 0.774762
0.778946 0.778946 0.778946
0.789471 0.789471 0.789471
0.807821 0.807821 0.807821
0.834493 0.834493 0.834493
0.869434 0.869434 0.869434
0.906794 0.906794 0.906794
0.906794 0.906794 0.906794
0.906794 0.906794 0.906794
0.909102 0.909102 0.909102
0.912530 0.912530 0.912530
0.921184 0.921184 0.921184
0.936367 0.936367 0.936367
0.958645 0.958645 0.958645
0.988176 0.988176 0.988176
1.000000 1.000000 1.000000
1.000000 1.000000 1.000000
1.000000 1.000000 1.000000
0.909102 0.909102 0.909102
0.912530 0.912530 0.912530
0.921184 0.921184 0.921184
0.936367 0.936367 0.936367
0.958645 0.958645 0.958645
0.988176 0.988176 0.988176
1.000000 1.000000 1.000000
1.000000 1.000000 1.000000
1.000000 1.000000 1.000000
0.909102 0.909102 0.909102
0.912530 0.912530 0.912530
0.921184 0.921184 0.921184
0.936367 0.936367 0.936367
0.958645 0.958645 0.958645
0.988176 0.988176 0.988176
1.000000 1.000000 1.000000
1.000000 1.000000 1.000000
1.000000 1.000000 1.000000
0.228729 0.228729 0.228729
0.242371 0.242371 0.242371
0.273606 0.273606 0.273606
0.320720 0.320720 0.320720
0.378915 0.378915 0.378915
0.444224 0.444224 0.444224
0.553639 0.553639 0.553639
0.553639 0.553639 0.553639
0.553639 0.553639 0.553639
0.271520 0.271520 0.271520
0.282801 0.282801 0.282801
0.309343 0.309343 0.309343
0.350857 0.350857 0.350857
0.403882 0.403882 0.403882
0.505791 0.505791 0.505791
0.574417 0.574417 0.574417
0.574417 0.574417 0.574417
0.574417 0.574417 0.574417
0.354888 0.354888 0.354888
0.363145 0.363145 0.363145
0.383184 0.383184 0.383184
0.416017 0.416017 0.416017
0.500078 0.500078 0.500078
0.562212 0.562212 0.562212
0.623628 0.623628 0.623628
0.623628 0.623628 0.623628
0.623628 0.623628 0.623628
0.502598 0.502598 0.502598
0.509617 0.509617 0.509617
0.526991 0.526991 0.526991
0.556404 0.556404 0.556404
0.597470 0.597470 0.597470
0.648823 0.648823 0.648823
0.701320 0.701320 0.701320
0.701320 0.701320 0.701320
0.701320 0.701320 0.701320
0.641960 0.641960 0.641960
0.647221 0.647221 0.647221
0.660383 0.660383 0.660383
0.683095 0.683095 0.683095
0.715629 0.715629 0.715629
0.757503 0.757503 0.757503
0.801482 0.801482 0.801482
0.801482 0.801482 0.801482
0.801482 0.801482 0.801482
0.787981 0.787981 0.787981
0.792078 0.792078 0.792078
0.802390 0.802390 0.802390
0.820381 0.820381 0.820381
0.846562 0.846562 0.846562
0.880906 0.880906 0.880906
0.917683 0.917683 0.917683
0.917683 0.917683 0.917683
0.917683 0.917683 0.917683
0.919956 0.919956 0.919956
0.923334 0.923334 0.923334
0.931861 0.931861 0.931861
0.946828 0.946828 0.946828
0.968802 0.968802 0.968802
0.997954 0.997954 0.997954
1.000000 1.000000 1.000000
1.000000 1.000000 1.000000
1.000000 1.000000 1.000000
0.919956 0.919956 0.919956
0.923334 0.923334 0.923334
0.931861 0.931861 0.931861
0.946828 0.946828 0.946828
0.968802 0.968802 0.968802
0.997954 0.997954 0.997954
1.000000 1.000000 1.000000
1.000000 1.000000 1.000000
1.000000 1.000000 1.000000
0.919956 0.919956 0.919956
0.923334 0.923334 0.923334
0.931861 0.931861 0.931861
0.946828 0.946828 0.946828
0.968802 0.968802 0.968802
0.997954 0.997954 0.997954
1.000000 1.000000 1.000000
1.000000 1.000000 1.000000
1.000000 1.000000 1.000000
0.274061 0.274061 0.274061
0.285224 0.285224 0.285224
0.311521 0.311521 0.311521
0.352728 0.352728 0.352728
0.405456 0.405456 0.405456
0.507341 0.507341 0.507341
0.575751 0.575751 0.575751
0.575751 0.575751 0.575751
0.575751 0.575751 0.575751
0.309736 0.309736 0.309736
0.319432 0.319432 0.319432
0.342635 0.342635 0.342635
0.379826 0.379826 0.379826
0.428532 0.428532 0.428532
0.530277 0.530277 0.530277
0.595616 0.595616 0.595616
0.595616 0.595616 0.595616
0.595616 0.595616 0.595616
0.383487 0.383487 0.383487
0.391008 0.391008 0.391008
0.409386 0.409386 0.409386
0.439826 0.439826 0.439826
0.524876 0.524876 0.524876
0.583939 0.583939 0.583939
0.642898 0.642898 0.642898
0.642898 0.642898 0.642898
0.642898 0.642898 0.642898
0.527257 0.527257 0.527257
0.533898 0.533898 0.533898
0.550375 0.550375 0.550375
0.578391 0.578391 0.578391
0.617726 0.617726 0.617726
0.667217 0.667217 0.667217
0.718090 0.718090 0.718090
0.718090 0.718090 0.718090
0.718090 0.718090 0.718090
0.660586 0.660586 0.660586
0.665669 0.665669 0.665669
0.678397 0.678397 0.678397
0.700401 0.700401 0.700401
0.731999 0.731999 0.731999
0.772787 0.772787 0.772787
0.815752 0.815752 0.815752
0.815752 0.815752 0.815752
0.815752 0.815752 0.815752
0.802550 0.802550 0.802550
0.806555 0.806555 0.806555
0.816640 0.816640 0.816640
0.834250 0.834250 0.834250
0.859906 0.859906 0.859906
0.893610 0.893610 0.893610
0.929757 0.929757 0.929757
0.929757 0.929757 0.929757
0.929757 0.929757 0.929757
0.931993 0.931993 0.931993
0.935316 0.935316 0.935316
0.943707 0.943707 0.943707
0.958440 0.958440 0.958440
0.980085 0.980085 0.980085
1.000000 1.000000 1.000000
1.000000 1.000000 1.000000
1.000000 1.000000 1.000000
1.000000 1.000000 1.000000
0.931993 0.931993 0.931993
0.935316 0.935316 0.935316
0.943707 0.943707 0.943707
0.958440 0.958440 0.958440
0.980085 0.980085 0.980085
1.000000 1.000000 1.000000
1.000000 1.000000 1.000000
1.000000 1.000000 1.000000
1.000000 1.000000 1.000000
0.931993 0.931993 0.931993
0.935316 0.935316 0.935316
0.943707 0.943707 0.943707
0.958440 0.958440 0.958440
0.980085 0.980085 0.980085
1.000000 1.000000 1.000000
1.000000 1.000000 1.000000
1.000000 1.000000 1.000000
1.000000 1.000000 1.000000
0.274061 0.274061 0.274061
0.285224 0.285224 0.285224
0.311521 0.311521 0.311521
0.352728 0.352728 0.352728
0.405456 0.405456 0.405456
0.507341 0.507341 0.507341
0.575751 0.575751 0.575751
0.575751 0.575751 0.575751
0.575751 0.575751 0.575751
0.309736 0.309736 0.309736
0.319432 0.319432 0.319432
0.342635 0.342635 0.342635
0.379826 0.379826 0.379826
0.428532 0.428532 0.428532
0.530277 0.530277 0.530277
0.595616 0.595616 0.595616
0.595616 0.595616 0.595616
0.595616 0.595616 0.595616
0.383487 0.383487 0.383487
0.391008 0.391008 0.391008
0.409386 0.409386 0.409386
0.439826 0.439826 0.439826
0.524876 0.524876 0.524876
0.583939 0.583939 0.583939
0.642898 0.642898 0.642898
0.642898 0.642898 0.642898
0.642898 0.642898 0.642898
0.527257 0.527257 0.527257
0.533898 0.533898 0.533898
0.550375 0.550375 0.550375
0.578391 0.578391 0.578391
0.617726 0.617726 0.617726
0.667217 0.667217 0.667217
0.718090 0.718090 0.718090
0.718090 0.718090 0.718090
0.718090 0.718090 0.718090
0.660586 0.660586 0.660586
0.665669 0.665669 0.665669
0.678397 0.678397 0.678397
0.700401 0.700401 0.700401
0.731999 0.731999 0.731999
0.772787 0.772787 0.772787
0.815752 0.815752 0.815752
0.815752 0.815752 0.815752
0.815752 0.815752 0.815752
0.802550 0.802550 0.802550
0.806555 0.806555 0.806555
0.816640 0.816640 0.816640
0.834250 0.834250 0.834250
0.859906 0.859906 0.859906
0.893610 0.893610 0.893610
0.929757 0.929757 0.929757
0.929757 0.929757 0.929757
0.929757 0.929757 0.929757
0.931993 0.931993 0.931993
0.935316 0.935316 0.935316
0.943707 0.943707 0.943707
0.958440 0.958440 0.958440
0.980085 0.980085 0.980085
1.000000 1.000000 1.000000
1.000000 1.000000 1.000000
1.000000 1.000000 1.000000
1.000000 1.000000 1.000000
0.931993 0.931993 0.931993
0.935316 0.935316 0.935316
0.943707 0.943707 0.943707
0.958440 0.958440 0.958440
0.980085 0.980085 0.980085
1.000000 1.000000 1.000000
1.000000 1.000000 1.000000
1.000000 1.000000 1.000000
1.000000 1.000000 1.000000
0.931993 0.931993 0.931993
0.935316 0.935316 0.935316
0.943707 0.943707 0.943707
0.958440 0.958440 0.958440
0.980085 0.980085 0.980085
1.000000 1.000000 1.000000
1.000000 1.000000 1.000000
1.000000 1.000000 1.000000
1.000000 1.000000 1.000000
0.274061 0.274061 0.274061
0.285224 0.285224 0.285224
0.311521 0.311521 0.311521
0.352728 0.352728 0.352728
0.405456 0.405456 0.405456
0.507341 0.507341 0.507341
0.575751 0.575751 0.575751
0.575751 0.575751 0.575751
0.575751 0.575751 0.575751
0.309736 0.309736 0.309736
0.319432 0.319432 0.319432
0.342635 0.342635 0.342635
0.379826 0.379826 0.379826
0.428532 0.428532 0.428532
0.530277 0.530277 0.530277
0.595616 0.595616 0.595616
0.595616 0.595616 0.595616
0.595616 0.595616 0.595616
0.383487 0.383487 0.383487
0.391008 0.391008 0.391008
0.409386 0.409386 0.409386
0.439826 0.439826 0.439826
0.524876 0.524876 0.524876
0.583939 0.583939 0.583939
0.642898 0.642898 0.642898
0.642898 0.642898 0.642898
0.642898 0.642898 0.642898
0.527257 0.527257 0.527257
0.533898 0.533898 0.533898
0.550375 0.550375 0.550375
0.578391 0.578391 0.578391
0.617726 0.617726 0.617726
0.667217 0.667217 0.667217
0.718090 0.718090 0.718090
0.718090 0.718090 0.718090
0.718090 0.718090 0.718090
0.660586 0.660586 0.660586
0.665669 0.665669 0.665669
0.678397 0.678397 0.678397
0.700401 0.700401 0.700401
0.731999 0.731999 0.731999
0.772787 0.772787 0.772787
0.815752 0.815752 0.815752
0.815752 0.815752 0.815752
0.815752 0.815752 0.815752
0.802550 0.802550 0.802550
0.806555 0.806555 0.806555
0.816640 0.816640 0.816640
0.834250 0.834250 0.834250
0.859906 0.859906 0.859906
0.893610 0.893610 0.893610
0.929757 0.929757 0.929757
0.929757 0.929757 0.929757
0.929757 0.929757 0.929757
0.931993 0.931993 0.931993
0.935316 0.935316 0.935316
0.943707 0.943707 0.943707
0.958440 0.958440 0.958440
0.980085 0.980085 0.980085
1.000000 1.000000 1.000000
1.000000 1.000000 1.000000
1.000000 1.000000 1.000000
1.000000 1.000000 1.000000
0.931993 0.931993 0.931993
0.935316 0.935316 0.935316
0.943707 0.943707 0.943707
0.958440 0.958440 0.958440
0.980085 0.980085 0.980085
1.000000 1.000000 1.000000
1.000000 1.000000 1.000000
1.000000 1.000000 1.000000
1.000000 1.000000 1.000000
0.931993 0.931993 0.931993
0.935316 0.935316 0.935316
0.943707 0.943707 0.943707
0.958440 0.958440 0.958440
0.980085 0.980085 0.980085
1.000000 1.000000 1.000000
1.000000 1.000000 1.000000
1.000000 1.000000 1.000000
1.000000 1.000000 1.000000
