docs/luts/fuji_recipes/Acros_RR_Acros_Agfa_APX_400.cube
TITLE "Fujifilm Recipe: RR Acros Agfa APX 400 (Acros)"
# FilmSim=Acros HL=-2 SH=4 Col=0 WB=Auto WBR=1 WBB=0
LUT_3D_SIZE 5
DOMAIN_MIN 0.0 0.0 0.0
DOMAIN_MAX 1.0 1.0 1.0
0.000000 0.000000 0.000000
0.120364 0.120364 0.120364
0.257389 0.257389 0.257389
0.394413 0.394413 0.394413
0.418690 0.418690 0.418690
0.224172 0.224172 0.224172
0.256626 0.256626 0.256626
0.337769 0.337769 0.337769
0.528118 0.528118 0.528118
0.550036 0.550036 0.550036
0.527016 0.527016 0.527016
0.542644 0.542644 0.542644
0.589110 0.589110 0.589110
0.665060 0.665060 0.665060
0.681026 0.681026 0.681026
0.759186 0.759186 0.759186
0.768586 0.768586 0.768586
0.797831 0.797831 0.797831
0.849373 0.849373 0.849373
0.860734 0.860734 0.860734
0.818984 0.818984 0.818984
0.827436 0.827436 0.827436
0.853884 0.853884 0.853884
0.900997 0.900997 0.900997
0.911459 0.911459 0.911459
0.057794 0.057794 0.057794
0.140960 0.140960 0.140960
0.266851 0.266851 0.266851
0.400102 0.400102 0.400102
0.504162 0.504162 0.504162
0.235226 0.235226 0.235226
0.266120 0.266120 0.266120
0.344643 0.344643 0.344643
0.533220 0.533220 0.533220
0.554853 0.554853 0.554853
0.532134 0.532134 0.532134
0.547554 0.547554 0.547554
0.593481 0.593481 0.593481
0.668742 0.668742 0.668742
0.684586 0.684586 0.684586
0.762239 0.762239 0.762239
0.771586 0.771586 0.771586
0.800677 0.800677 0.800677
0.851978 0.851978 0.851978
0.863290 0.863290 0.863290
0.821726 0.821726 0.821726
0.830139 0.830139 0.830139
0.856469 0.856469 0.856469
0.903394 0.903394 0.903394
0.913816 0.913816 0.913816
0.143034 0.143034 0.143034
0.191941 0.191941 0.191941
0.294792 0.294792 0.294792
0.417696 0.417696 0.417696
0.521350 0.521350 0.521350
0.267139 0.267139 0.267139
0.294144 0.294144 0.294144
0.365622 0.365622 0.365622
0.549132 0.549132 0.549132
0.569913 0.569913 0.569913
0.548090 0.548090 0.548090
0.562893 0.562893 0.562893
0.607200 0.607200 0.607200
0.680360 0.680360 0.680360
0.695831 0.695831 0.695831
0.771915 0.771915 0.771915
0.781098 0.781098 0.781098
0.809708 0.809708 0.809708
0.860257 0.860257 0.860257
0.871417 0.871417 0.871417
0.830435 0.830435 0.830435
0.838725 0.838725 0.838725
0.864687 0.864687 0.864687
0.911019 0.911019 0.911019
0.921320 0.921320 0.921320
0.228275 0.228275 0.228275
0.260136 0.260136 0.260136
0.340296 0.340296 0.340296
0.529987 0.529987 0.529987
0.551799 0.551799 0.551799
0.317456 0.317456 0.317456
0.339752 0.339752 0.339752
0.401649 0.401649 0.401649
0.577534 0.577534 0.577534
0.596929 0.596929 0.596929
0.576565 0.576565 0.576565
0.590364 0.590364 0.590364
0.631993 0.631993 0.631993
0.701585 0.701585 0.701585
0.716411 0.716411 0.716411
0.789752 0.789752 0.789752
0.798646 0.798646 0.798646
0.826404 0.826404 0.826404
0.875607 0.875607 0.875607
0.886495 0.886495 0.886495
0.846556 0.846556 0.846556
0.854624 0.854624 0.854624
0.879928 0.879928 0.879928
0.925193 0.925193 0.925193
0.935273 0.935273 0.935273
0.250230 0.250230 0.250230
0.279191 0.279191 0.279191
0.354304 0.354304 0.354304
0.540487 0.540487 0.540487
0.561723 0.561723 0.561723
0.332654 0.332654 0.332654
0.353787 0.353787 0.353787
0.413130 0.413130 0.413130
0.586845 0.586845 0.586845
0.605818 0.605818 0.605818
0.585897 0.585897 0.585897
0.599392 0.599392 0.599392
0.640198 0.640198 0.640198
0.708670 0.708670 0.708670
0.723290 0.723290 0.723290
0.795749 0.795749 0.795749
0.804550 0.804550 0.804550
0.832030 0.832030 0.832030
0.880793 0.880793 0.880793
0.891592 0.891592 0.891592
0.851995 0.851995 0.851995
0.859991 0.859991 0.859991
0.885079 0.885079 0.885079
0.929992 0.929992 0.929992
0.940000 0.940000 0.940000
