docs/luts/fuji_recipes/Acros_PE_Winogrand.cube
TITLE "Fujifilm Recipe: PE Winogrand (Acros)"
# FilmSim=Acros HL=-2 SH=-2 Col=0 WB=Auto WBR=0 WBB=0
LUT_3D_SIZE 33
DOMAIN_MIN 0.0 0.0 0.0
DOMAIN_MAX 1.0 1.0 1.0
0.080000 0.080000 0.080000
0.086112 0.086112 0.086112
0.093029 0.093029 0.093029
0.102946 0.102946 0.102946
0.116263 0.116263 0.116263
0.131354 0.131354 0.131354
0.146435 0.146435 0.146435
0.161517 0.161517 0.161517
0.176599 0.176599 0.176599
0.191681 0.191681 0.191681
0.206763 0.206763 0.206763
0.221845 0.221845 0.221845
0.236927 0.236927 0.236927
0.252009 0.252009 0.252009
0.267091 0.267091 0.267091
0.282173 0.282173 0.282173
0.297254 0.297254 0.297254
0.312336 0.312336 0.312336
0.327418 0.327418 0.327418
0.342500 0.342500 0.342500
0.357582 0.357582 0.357582
0.372664 0.372664 0.372664
0.387746 0.387746 0.387746
0.402828 0.402828 0.402828
0.417910 0.417910 0.417910
0.432991 0.432991 0.432991
0.448073 0.448073 0.448073
0.463155 0.463155 0.463155
0.478237 0.478237 0.478237
0.493319 0.493319 0.493319
0.508401 0.508401 0.508401
0.523483 0.523483 0.523483
0.538565 0.538565 0.538565
0.100562 0.100562 0.100562
0.106674 0.106674 0.106674
0.113591 0.113591 0.113591
0.123121 0.123121 0.123121
0.134151 0.134151 0.134151
0.146212 0.146212 0.146212
0.159000 0.159000 0.159000
0.172306 0.172306 0.172306
0.185986 0.185986 0.185986
0.199942 0.199942 0.199942
0.214105 0.214105 0.214105
0.228427 0.228427 0.228427
0.242872 0.242872 0.242872
0.257414 0.257414 0.257414
0.272034 0.272034 0.272034
0.286717 0.286717 0.286717
0.301451 0.301451 0.301451
0.316228 0.316228 0.316228
0.331041 0.331041 0.331041
0.345884 0.345884 0.345884
0.360753 0.360753 0.360753
0.375644 0.375644 0.375644
0.390553 0.390553 0.390553
0.405479 0.405479 0.405479
0.420419 0.420419 0.420419
0.435372 0.435372 0.435372
0.450335 0.450335 0.450335
0.465308 0.465308 0.465308
0.480290 0.480290 0.480290
0.495280 0.495280 0.495280
0.510276 0.510276 0.510276
0.525279 0.525279 0.525279
0.500274 0.500274 0.500274
0.123409 0.123409 0.123409
0.128665 0.128665 0.128665
0.134177 0.134177 0.134177
0.141436 0.141436 0.141436
0.150255 0.150255 0.150255
0.160340 0.160340 0.160340
0.171422 0.171422 0.171422
0.183279 0.183279 0.183279
0.195737 0.195737 0.195737
0.208660 0.208660 0.208660
0.221949 0.221949 0.221949
0.235525 0.235525 0.235525
0.249331 0.249331 0.249331
0.263321 0.263321 0.263321
0.277462 0.277462 0.277462
0.291726 0.291726 0.291726
0.306093 0.306093 0.306093
0.320545 0.320545 0.320545
0.335069 0.335069 0.335069
0.349654 0.349654 0.349654
0.364291 0.364291 0.364291
0.378973 0.378973 0.378973
0.393693 0.393693 0.393693
0.408448 0.408448 0.408448
0.423232 0.423232 0.423232
0.438041 0.438041 0.438041
0.452874 0.452874 0.452874
0.467727 0.467727 0.467727
0.482598 0.482598 0.482598
0.497484 0.497484 0.497484
0.512386 0.512386 0.512386
0.527300 0.527300 0.527300
0.502129 0.502129 0.502129
0.148412 0.148412 0.148412
0.152251 0.152251 0.152251
0.156402 0.156402 0.156402
0.162043 0.162043 0.162043
0.169126 0.169126 0.169126
0.177490 0.177490 0.177490
0.186950 0.186950 0.186950
0.197328 0.197328 0.197328
0.208461 0.208461 0.208461
0.220213 0.220213 0.220213
0.232471 0.232471 0.232471
0.245143 0.245143 0.245143
0.258153 0.258153 0.258153
0.271444 0.271444 0.271444
0.284967 0.284967 0.284967
0.298685 0.298685 0.298685
0.312565 0.312565 0.312565
0.326582 0.326582 0.326582
0.340717 0.340717 0.340717
0.354953 0.354953 0.354953
0.369274 0.369274 0.369274
0.383670 0.383670 0.383670
0.398131 0.398131 0.398131
0.412649 0.412649 0.412649
0.427216 0.427216 0.427216
0.441828 0.441828 0.441828
0.456478 0.456478 0.456478
0.471162 0.471162 0.471162
0.485878 0.485878 0.485878
0.500621 0.500621 0.500621
0.515388 0.515388 0.515388
0.530178 0.530178 0.530178
0.504771 0.504771 0.504771
0.173414 0.173414 0.173414
0.176378 0.176378 0.176378
0.179634 0.179634 0.179634
0.184137 0.184137 0.184137
0.189909 0.189909 0.189909
0.196875 0.196875 0.196875
0.204925 0.204925 0.204925
0.213935 0.213935 0.213935
0.223778 0.223778 0.223778
0.234336 0.234336 0.234336
0.245502 0.245502 0.245502
0.257183 0.257183 0.257183
0.269300 0.269300 0.269300
0.281786 0.281786 0.281786
0.294585 0.294585 0.294585
0.307650 0.307650 0.307650
0.320942 0.320942 0.320942
0.334429 0.334429 0.334429
0.348084 0.348084 0.348084
0.361884 0.361884 0.361884
0.375809 0.375809 0.375809
0.389844 0.389844 0.389844
0.403975 0.403975 0.403975
0.418191 0.418191 0.418191
0.432481 0.432481 0.432481
0.446836 0.446836 0.446836
0.461251 0.461251 0.461251
0.475718 0.475718 0.475718
0.490231 0.490231 0.490231
0.504787 0.504787 0.504787
0.519380 0.519380 0.519380
0.534007 0.534007 0.534007
0.508289 0.508289 0.508289
0.198417 0.198417 0.198417
0.200796 0.200796 0.200796
0.203434 0.203434 0.203434
0.207121 0.207121 0.207121
0.211910 0.211910 0.211910
0.217775 0.217775 0.217775
0.224658 0.224658 0.224658
0.232479 0.232479 0.232479
0.241150 0.241150 0.241150
0.250579 0.250579 0.250579
0.260675 0.260675 0.260675
0.271355 0.271355 0.271355
0.282543 0.282543 0.282543
0.294173 0.294173 0.294173
0.306185 0.306185 0.306185
0.318530 0.318530 0.318530
0.331162 0.331162 0.331162
0.344046 0.344046 0.344046
0.357148 0.357148 0.357148
0.370441 0.370441 0.370441
0.383902 0.383902 0.383902
0.397511 0.397511 0.397511
0.411249 0.411249 0.411249
0.425103 0.425103 0.425103
0.439059 0.439059 0.439059
0.453106 0.453106 0.453106
0.467234 0.467234 0.467234
0.481435 0.481435 0.481435
0.495702 0.495702 0.495702
0.510027 0.510027 0.510027
0.524406 0.524406 0.524406
0.538833 0.538833 0.538833
0.512725 0.512725 0.512725
0.223419 0.223419 0.223419
0.225386 0.225386 0.225386
0.227579 0.227579 0.227579
0.230665 0.230665 0.230665
0.234708 0.234708 0.234708
0.239708 0.239708 0.239708
0.245641 0.245641 0.245641
0.252461 0.252461 0.252461
0.260109 0.260109 0.260109
0.268517 0.268517 0.268517
0.277616 0.277616 0.277616
0.287337 0.287337 0.287337
0.297612 0.297612 0.297612
0.308380 0.308380 0.308380
0.319585 0.319585 0.319585
0.331176 0.331176 0.331176
0.343108 0.343108 0.343108
0.355341 0.355341 0.355341
0.367840 0.367840 0.367840
0.380575 0.380575 0.380575
0.393518 0.393518 0.393518
0.406648 0.406648 0.406648
0.419942 0.419942 0.419942
0.433383 0.433383 0.433383
0.446956 0.446956 0.446956
0.460646 0.460646 0.460646
0.474443 0.474443 0.474443
0.488335 0.488335 0.488335
0.502312 0.502312 0.502312
0.516368 0.516368 0.516368
0.530494 0.530494 0.530494
0.504481 0.504481 0.504481
0.518110 0.518110 0.518110
0.248422 0.248422 0.248422
0.250084 0.250084 0.250084
0.251945 0.251945 0.251945
0.254576 0.254576 0.254576
0.258042 0.258042 0.258042
0.262359 0.262359 0.262359
0.267522 0.267522 0.267522
0.273508 0.273508 0.273508
0.280279 0.280279 0.280279
0.287790 0.287790 0.287790
0.295989 0.295989 0.295989
0.304821 0.304821 0.304821
0.314232 0.314232 0.314232
0.324166 0.324166 0.324166
0.334575 0.334575 0.334575
0.345410 0.345410 0.345410
0.356627 0.356627 0.356627
0.368188 0.368188 0.368188
0.380056 0.380056 0.380056
0.392199 0.392199 0.392199
0.404589 0.404589 0.404589
0.417200 0.417200 0.417200
0.430010 0.430010 0.430010
0.442998 0.442998 0.442998
0.456148 0.456148 0.456148
0.469442 0.469442 0.469442
0.482868 0.482868 0.482868
0.496412 0.496412 0.496412
0.510065 0.510065 0.510065
0.523814 0.523814 0.523814
0.537653 0.537653 0.537653
0.511070 0.511070 0.511070
0.524456 0.524456 0.524456
0.273424 0.273424 0.273424
0.274855 0.274855 0.274855
0.276460 0.276460 0.276460
0.278737 0.278737 0.278737
0.281749 0.281749 0.281749
0.285520 0.285520 0.285520
0.290055 0.290055 0.290055
0.295347 0.295347 0.295347
0.301374 0.301374 0.301374
0.308106 0.308106 0.308106
0.315507 0.315507 0.315507
0.323536 0.323536 0.323536
0.332148 0.332148 0.332148
0.341299 0.341299 0.341299
0.350945 0.350945 0.350945
0.361044 0.361044 0.361044
0.371556 0.371556 0.371556
0.382443 0.382443 0.382443
0.393670 0.393670 0.393670
0.405206 0.405206 0.405206
0.417022 0.417022 0.417022
0.429091 0.429091 0.429091
0.441390 0.441390 0.441390
0.453897 0.453897 0.453897
0.466592 0.466592 0.466592
0.479460 0.479460 0.479460
0.492483 0.492483 0.492483
0.505648 0.505648 0.505648
0.518943 0.518943 0.518943
0.532357 0.532357 0.532357
0.505622 0.505622 0.505622
0.518651 0.518651 0.518651
0.531766 0.531766 0.531766
0.298426 0.298426 0.298426
0.299676 0.299676 0.299676
0.301080 0.301080 0.301080
0.303076 0.303076 0.303076
0.305724 0.305724 0.305724
0.309052 0.309052 0.309052
0.313071 0.313071 0.313071
0.317784 0.317784 0.317784
0.323179 0.323179 0.323179
0.329240 0.329240 0.329240
0.335941 0.335941 0.335941
0.343251 0.343251 0.343251
0.351138 0.351138 0.351138
0.359565 0.359565 0.359565
0.368497 0.368497 0.368497
0.377895 0.377895 0.377895
0.387726 0.387726 0.387726
0.397955 0.397955 0.397955
0.408548 0.408548 0.408548
0.419477 0.419477 0.419477
0.430713 0.430713 0.430713
0.442229 0.442229 0.442229
0.454001 0.454001 0.454001
0.466009 0.466009 0.466009
0.478230 0.478230 0.478230
0.490648 0.490648 0.490648
0.503245 0.503245 0.503245
0.516007 0.516007 0.516007
0.528920 0.528920 0.528920
0.501886 0.501886 0.501886
0.514491 0.514491 0.514491
0.527208 0.527208 0.527208
0.540028 0.540028 0.540028
0.323429 0.323429 0.323429
0.324533 0.324533 0.324533
0.325775 0.325775 0.325775
0.327544 0.327544 0.327544
0.329896 0.329896 0.329896
0.332859 0.332859 0.332859
0.336451 0.336451 0.336451
0.340677 0.340677 0.340677
0.345536 0.345536 0.345536
0.351017 0.351017 0.351017
0.357106 0.357106 0.357106
0.363780 0.363780 0.363780
0.371015 0.371015 0.371015
0.378783 0.378783 0.378783
0.387053 0.387053 0.387053
0.395796 0.395796 0.395796
0.404981 0.404981 0.404981
0.414578 0.414578 0.414578
0.424557 0.424557 0.424557
0.434890 0.434890 0.434890
0.445550 0.445550 0.445550
0.456514 0.456514 0.456514
0.467756 0.467756 0.467756
0.479255 0.479255 0.479255
0.490991 0.490991 0.490991
0.502946 0.502946 0.502946
0.515101 0.515101 0.515101
0.527442 0.527442 0.527442
0.539954 0.539954 0.539954
0.512075 0.512075 0.512075
0.524333 0.524333 0.524333
0.536719 0.536719 0.536719
0.549225 0.549225 0.549225
0.348431 0.348431 0.348431
0.349417 0.349417 0.349417
0.350526 0.350526 0.350526
0.352108 0.352108 0.352108
0.354215 0.354215 0.354215
0.356876 0.356876 0.356876
0.360109 0.360109 0.360109
0.363924 0.363924 0.363924
0.368324 0.368324 0.368324
0.373306 0.373306 0.373306
0.378860 0.378860 0.378860
0.384972 0.384972 0.384972
0.391624 0.391624 0.391624
0.398795 0.398795 0.398795
0.406460 0.406460 0.406460
0.414596 0.414596 0.414596
0.423176 0.423176 0.423176
0.432175 0.432175 0.432175
0.441565 0.441565 0.441565
0.451323 0.451323 0.451323
0.461424 0.461424 0.461424
0.471843 0.471843 0.471843
0.482559 0.482559 0.482559
0.493551 0.493551 0.493551
0.504799 0.504799 0.504799
0.516284 0.516284 0.516284
0.527989 0.527989 0.527989
0.539898 0.539898 0.539898
0.511475 0.511475 0.511475
0.523215 0.523215 0.523215
0.535111 0.535111 0.535111
0.547152 0.547152 0.547152
0.559327 0.559327 0.559327
0.373434 0.373434 0.373434
0.374321 0.374321 0.374321
0.375320 0.375320 0.375320
0.376746 0.376746 0.376746
0.378649 0.378649 0.378649
0.381055 0.381055 0.381055
0.383984 0.383984 0.383984
0.387448 0.387448 0.387448
0.391455 0.391455 0.391455
0.396003 0.396003 0.396003
0.401090 0.401090 0.401090
0.406706 0.406706 0.406706
0.412838 0.412838 0.412838
0.419471 0.419471 0.419471
0.426586 0.426586 0.426586
0.434164 0.434164 0.434164
0.442183 0.442183 0.442183
0.450621 0.450621 0.450621
0.459455 0.459455 0.459455
0.468664 0.468664 0.468664
0.478225 0.478225 0.478225
0.488117 0.488117 0.488117
0.498318 0.498318 0.498318
0.508810 0.508810 0.508810
0.519573 0.519573 0.519573
0.530589 0.530589 0.530589
0.501762 0.501762 0.501762
0.512736 0.512736 0.512736
0.523907 0.523907 0.523907
0.535260 0.535260 0.535260
0.546785 0.546785 0.546785
0.558469 0.558469 0.558469
0.570302 0.570302 0.570302
0.398436 0.398436 0.398436
0.399240 0.399240 0.399240
0.400147 0.400147 0.400147
0.401442 0.401442 0.401442
0.403171 0.403171 0.403171
0.405361 0.405361 0.405361
0.408030 0.408030 0.408030
0.411194 0.411194 0.411194
0.414860 0.414860 0.414860
0.419032 0.419032 0.419032
0.423709 0.423709 0.423709
0.428886 0.428886 0.428886
0.434555 0.434555 0.434555
0.440705 0.440705 0.440705
0.447321 0.447321 0.447321
0.454388 0.454388 0.454388
0.461889 0.461889 0.461889
0.469805 0.469805 0.469805
0.478118 0.478118 0.478118
0.486807 0.486807 0.486807
0.495854 0.495854 0.495854
0.505239 0.505239 0.505239
0.514943 0.514943 0.514943
0.524947 0.524947 0.524947
0.535235 0.535235 0.535235
0.505537 0.505537 0.505537
0.515870 0.515870 0.515870
0.526427 0.526427 0.526427
0.537195 0.537195 0.537195
0.548158 0.548158 0.548158
0.559307 0.559307 0.559307
0.570627 0.570627 0.570627
0.582110 0.582110 0.582110
0.423439 0.423439 0.423439
0.424172 0.424172 0.424172
0.425000 0.425000 0.425000
0.426183 0.426183 0.426183
0.427764 0.427764 0.427764
0.429768 0.429768 0.429768
0.432214 0.432214 0.432214
0.435117 0.435117 0.435117
0.438487 0.438487 0.438487
0.442330 0.442330 0.442330
0.446646 0.446646 0.446646
0.451435 0.451435 0.451435
0.456691 0.456691 0.456691
0.462406 0.462406 0.462406
0.468571 0.468571 0.468571
0.475172 0.475172 0.475172
0.482198 0.482198 0.482198
0.489631 0.489631 0.489631
0.497457 0.497457 0.497457
0.505658 0.505658 0.505658
0.514218 0.514218 0.514218
0.523120 0.523120 0.523120
0.532347 0.532347 0.532347
0.501799 0.501799 0.501799
0.511198 0.511198 0.511198
0.520860 0.520860 0.520860
0.530770 0.530770 0.530770
0.540916 0.540916 0.540916
0.551282 0.551282 0.551282
0.561857 0.561857 0.561857
0.572627 0.572627 0.572627
0.583582 0.583582 0.583582
0.594711 0.594711 0.594711
0.448441 0.448441 0.448441
0.449114 0.449114 0.449114
0.449874 0.449874 0.449874
0.450961 0.450961 0.450961
0.452414 0.452414 0.452414
0.454257 0.454257 0.454257
0.456509 0.456509 0.456509
0.459186 0.459186 0.459186
0.462297 0.462297 0.462297
0.465849 0.465849 0.465849
0.469847 0.469847 0.469847
0.474291 0.474291 0.474291
0.479178 0.479178 0.479178
0.484503 0.484503 0.484503
0.490259 0.490259 0.490259
0.496437 0.496437 0.496437
0.503026 0.503026 0.503026
0.510014 0.510014 0.510014
0.517387 0.517387 0.517387
0.525133 0.525133 0.525133
0.533235 0.533235 0.533235
0.501606 0.501606 0.501606
0.509996 0.509996 0.509996
0.518685 0.518685 0.518685
0.527657 0.527657 0.527657
0.536900 0.536900 0.536900
0.546398 0.546398 0.546398
0.556140 0.556140 0.556140
0.566112 0.566112 0.566112
0.576301 0.576301 0.576301
0.586697 0.586697 0.586697
0.597286 0.597286 0.597286
0.608060 0.608060 0.608060
0.473444 0.473444 0.473444
0.474064 0.474064 0.474064
0.474766 0.474766 0.474766
0.475768 0.475768 0.475768
0.477110 0.477110 0.477110
0.478813 0.478813 0.478813
0.480896 0.480896 0.480896
0.483373 0.483373 0.483373
0.486257 0.486257 0.486257
0.489553 0.489553 0.489553
0.493269 0.493269 0.493269
0.497405 0.497405 0.497405
0.501961 0.501961 0.501961
0.506935 0.506935 0.506935
0.512321 0.512321 0.512321
0.518113 0.518113 0.518113
0.524303 0.524303 0.524303
0.530881 0.530881 0.530881
0.537835 0.537835 0.537835
0.504931 0.504931 0.504931
0.512271 0.512271 0.512271
0.519936 0.519936 0.519936
0.527913 0.527913 0.527913
0.536191 0.536191 0.536191
0.544755 0.544755 0.544755
0.553593 0.553593 0.553593
0.562693 0.562693 0.562693
0.572042 0.572042 0.572042
0.581628 0.581628 0.581628
0.591439 0.591439 0.591439
0.601464 0.601464 0.601464
0.611693 0.611693 0.611693
0.622113 0.622113 0.622113
0.498446 0.498446 0.498446
0.499021 0.499021 0.499021
0.499671 0.499671 0.499671
0.500600 0.500600 0.500600
0.501844 0.501844 0.501844
0.503424 0.503424 0.503424
0.505358 0.505358 0.505358
0.507660 0.507660 0.507660
0.510342 0.510342 0.510342
0.513412 0.513412 0.513412
0.516876 0.516876 0.516876
0.520737 0.520737 0.520737
0.524996 0.524996 0.524996
0.529653 0.529653 0.529653
0.534704 0.534704 0.534704
0.500138 0.500138 0.500138
0.505709 0.505709 0.505709
0.511640 0.511640 0.511640
0.517922 0.517922 0.517922
0.524546 0.524546 0.524546
0.531502 0.531502 0.531502
0.538780 0.538780 0.538780
0.546368 0.546368 0.546368
0.554255 0.554255 0.554255
0.562430 0.562430 0.562430
0.570881 0.570881 0.570881
0.579597 0.579597 0.579597
0.588566 0.588566 0.588566
0.597777 0.597777 0.597777
0.607219 0.607219 0.607219
0.616881 0.616881 0.616881
0.626754 0.626754 0.626754
0.636826 0.636826 0.636826
0.523448 0.523448 0.523448
0.523983 0.523983 0.523983
0.524588 0.524588 0.524588
0.525452 0.525452 0.525452
0.526610 0.526610 0.526610
0.528081 0.528081 0.528081
0.529883 0.529883 0.529883
0.532030 0.532030 0.532030
0.534533 0.534533 0.534533
0.537400 0.537400 0.537400
0.500611 0.500611 0.500611
0.504068 0.504068 0.504068
0.507887 0.507887 0.507887
0.512067 0.512067 0.512067
0.516607 0.516607 0.516607
0.521505 0.521505 0.521505
0.526756 0.526756 0.526756
0.532355 0.532355 0.532355
0.538295 0.538295 0.538295
0.544568 0.544568 0.544568
0.551166 0.551166 0.551166
0.558081 0.558081 0.558081
0.565302 0.565302 0.565302
0.572821 0.572821 0.572821
0.580626 0.580626 0.580626
0.588708 0.588708 0.588708
0.597055 0.597055 0.597055
0.605659 0.605659 0.605659
0.614507 0.614507 0.614507
0.623591 0.623591 0.623591
0.632900 0.632900 0.632900
0.642425 0.642425 0.642425
0.652155 0.652155 0.652155
0.508084 0.508084 0.508084
0.508561 0.508561 0.508561
0.509100 0.509100 0.509100
0.509873 0.509873 0.509873
0.510907 0.510907 0.510907
0.512222 0.512222 0.512222
0.513833 0.513833 0.513833
0.515754 0.515754 0.515754
0.517995 0.517995 0.517995
0.520564 0.520564 0.520564
0.523469 0.523469 0.523469
0.526713 0.526713 0.526713
0.530301 0.530301 0.530301
0.534233 0.534233 0.534233
0.538509 0.538509 0.538509
0.543127 0.543127 0.543127
0.548085 0.548085 0.548085
0.553378 0.553378 0.553378
0.559001 0.559001 0.559001
0.564949 0.564949 0.564949
0.571215 0.571215 0.571215
0.577790 0.577790 0.577790
0.584667 0.584667 0.584667
0.591837 0.591837 0.591837
0.599292 0.599292 0.599292
0.607022 0.607022 0.607022
0.615019 0.615019 0.615019
0.623271 0.623271 0.623271
0.631772 0.631772 0.631772
0.640509 0.640509 0.640509
0.649476 0.649476 0.649476
0.658661 0.658661 0.658661
0.668057 0.668057 0.668057
0.531999 0.531999 0.531999
0.532446 0.532446 0.532446
0.532951 0.532951 0.532951
0.533674 0.533674 0.533674
0.534643 0.534643 0.534643
0.535876 0.535876 0.535876
0.537387 0.537387 0.537387
0.539188 0.539188 0.539188
0.541292 0.541292 0.541292
0.543705 0.543705 0.543705
0.546436 0.546436 0.546436
0.549488 0.549488 0.549488
0.552867 0.552867 0.552867
0.556573 0.556573 0.556573
0.560608 0.560608 0.560608
0.564970 0.564970 0.564970
0.569659 0.569659 0.569659
0.574671 0.574671 0.574671
0.580003 0.580003 0.580003
0.585649 0.585649 0.585649
0.591604 0.591604 0.591604
0.597862 0.597862 0.597862
0.604416 0.604416 0.604416
0.611259 0.611259 0.611259
0.618383 0.618383 0.618383
0.625780 0.625780 0.625780
0.633441 0.633441 0.633441
0.641359 0.641359 0.641359
0.649525 0.649525 0.649525
0.657929 0.657929 0.657929
0.666564 0.666564 0.666564
0.675422 0.675422 0.675422
0.684492 0.684492 0.684492
0.555914 0.555914 0.555914
0.556334 0.556334 0.556334
0.556809 0.556809 0.556809
0.557488 0.557488 0.557488
0.558399 0.558399 0.558399
0.559557 0.559557 0.559557
0.560977 0.560977 0.560977
0.562672 0.562672 0.562672
0.564652 0.564652 0.564652
0.566924 0.566924 0.566924
0.569497 0.569497 0.569497
0.572376 0.572376 0.572376
0.575564 0.575564 0.575564
0.579065 0.579065 0.579065
0.582879 0.582879 0.582879
0.587007 0.587007 0.587007
0.591449 0.591449 0.591449
0.596202 0.596202 0.596202
0.601264 0.601264 0.601264
0.606630 0.606630 0.606630
0.612297 0.612297 0.612297
0.618258 0.618258 0.618258
0.624510 0.624510 0.624510
0.631045 0.631045 0.631045
0.637856 0.637856 0.637856
0.644938 0.644938 0.644938
0.652281 0.652281 0.652281
0.659880 0.659880 0.659880
0.667725 0.667725 0.667725
0.675810 0.675810 0.675810
0.684126 0.684126 0.684126
0.692666 0.692666 0.692666
0.701422 0.701422 0.701422
0.579830 0.579830 0.579830
0.580225 0.580225 0.580225
0.580672 0.580672 0.580672
0.581312 0.581312 0.581312
0.582170 0.582170 0.582170
0.583261 0.583261 0.583261
0.584600 0.584600 0.584600
0.586198 0.586198 0.586198
0.588065 0.588065 0.588065
0.590211 0.590211 0.590211
0.592640 0.592640 0.592640
0.595361 0.595361 0.595361
0.598376 0.598376 0.598376
0.601688 0.601688 0.601688
0.605301 0.605301 0.605301
0.609215 0.609215 0.609215
0.613429 0.613429 0.613429
0.617943 0.617943 0.617943
0.622755 0.622755 0.622755
0.627861 0.627861 0.627861
0.633259 0.633259 0.633259
0.638945 0.638945 0.638945
0.644913 0.644913 0.644913
0.651159 0.651159 0.651159
0.657676 0.657676 0.657676
0.664459 0.664459 0.664459
0.671501 0.671501 0.671501
0.678795 0.678795 0.678795
0.686335 0.686335 0.686335
0.694114 0.694114 0.694114
0.702124 0.702124 0.702124
0.710358 0.710358 0.710358
0.718810 0.718810 0.718810
0.603745 0.603745 0.603745
0.604118 0.604118 0.604118
0.604540 0.604540 0.604540
0.605144 0.605144 0.605144
0.605954 0.605954 0.605954
0.606985 0.606985 0.606985
0.608250 0.608250 0.608250
0.609761 0.609761 0.609761
0.611526 0.611526 0.611526
0.613555 0.613555 0.613555
0.615855 0.615855 0.615855
0.618431 0.618431 0.618431
0.621287 0.621287 0.621287
0.624428 0.624428 0.624428
0.627856 0.627856 0.627856
0.631572 0.631572 0.631572
0.635577 0.635577 0.635577
0.639870 0.639870 0.639870
0.644450 0.644450 0.644450
0.649316 0.649316 0.649316
0.654464 0.654464 0.654464
0.659891 0.659891 0.659891
0.665594 0.665594 0.665594
0.671568 0.671568 0.671568
0.677808 0.677808 0.677808
0.684309 0.684309 0.684309
0.691065 0.691065 0.691065
0.698071 0.698071 0.698071
0.705320 0.705320 0.705320
0.712806 0.712806 0.712806
0.720523 0.720523 0.720523
0.728463 0.728463 0.728463
0.736622 0.736622 0.736622
0.627660 0.627660 0.627660
0.628014 0.628014 0.628014
0.628413 0.628413 0.628413
0.628984 0.628984 0.628984
0.629751 0.629751 0.629751
0.630727 0.630727 0.630727
0.631925 0.631925 0.631925
0.633355 0.633355 0.633355
0.635028 0.635028 0.635028
0.636951 0.636951 0.636951
0.639132 0.639132 0.639132
0.641576 0.641576 0.641576
0.644287 0.644287 0.644287
0.647270 0.647270 0.647270
0.650528 0.650528 0.650528
0.654062 0.654062 0.654062
0.657873 0.657873 0.657873
0.661962 0.661962 0.661962
0.666328 0.666328 0.666328
0.670969 0.670969 0.670969
0.675884 0.675884 0.675884
0.681070 0.681070 0.681070
0.686525 0.686525 0.686525
0.692243 0.692243 0.692243
0.698222 0.698222 0.698222
0.704457 0.704457 0.704457
0.710943 0.710943 0.710943
0.717675 0.717675 0.717675
0.724647 0.724647 0.724647
0.731854 0.731854 0.731854
0.739290 0.739290 0.739290
0.746949 0.746949 0.746949
0.754826 0.754826 0.754826
0.651576 0.651576 0.651576
0.651911 0.651911 0.651911
0.652289 0.652289 0.652289
0.652831 0.652831 0.652831
0.653558 0.653558 0.653558
0.654484 0.654484 0.654484
0.655620 0.655620 0.655620
0.656978 0.656978 0.656978
0.658566 0.658566 0.658566
0.660392 0.660392 0.660392
0.662464 0.662464 0.662464
0.664786 0.664786 0.664786
0.667365 0.667365 0.667365
0.670203 0.670203 0.670203
0.673303 0.673303 0.673303
0.676669 0.676669 0.676669
0.680302 0.680302 0.680302
0.684201 0.684201 0.684201
0.688367 0.688367 0.688367
0.692800 0.692800 0.692800
0.697498 0.697498 0.697498
0.702459 0.702459 0.702459
0.707680 0.707680 0.707680
0.713160 0.713160 0.713160
0.718893 0.718893 0.718893
0.724877 0.724877 0.724877
0.731107 0.731107 0.731107
0.737579 0.737579 0.737579
0.744288 0.744288 0.744288
0.751229 0.751229 0.751229
0.758397 0.758397 0.758397
0.765787 0.765787 0.765787
0.773392 0.773392 0.773392
0.675491 0.675491 0.675491
0.675809 0.675809 0.675809
0.676169 0.676169 0.676169
0.676684 0.676684 0.676684
0.677375 0.677375 0.677375
0.678255 0.678255 0.678255
0.679335 0.679335 0.679335
0.680626 0.680626 0.680626
0.682136 0.682136 0.682136
0.683873 0.683873 0.683873
0.685844 0.685844 0.685844
0.688055 0.688055 0.688055
0.690511 0.690511 0.690511
0.693215 0.693215 0.693215
0.696171 0.696171 0.696171
0.699381 0.699381 0.699381
0.702848 0.702848 0.702848
0.706571 0.706571 0.706571
0.710553 0.710553 0.710553
0.714791 0.714791 0.714791
0.719286 0.719286 0.719286
0.724036 0.724036 0.724036
0.729040 0.729040 0.729040
0.734294 0.734294 0.734294
