docs/luts/fuji_recipes/AcrosR_PLR_Acros.cube
TITLE "Fujifilm Recipe: PLR Acros (AcrosR)"
# FilmSim=AcrosR HL=-1 SH=3 Col=0 WB=Auto WBR=0 WBB=0
LUT_3D_SIZE 9
DOMAIN_MIN 0.0 0.0 0.0
DOMAIN_MAX 1.0 1.0 1.0
0.000000 0.000000 0.000000
0.039677 0.039677 0.039677
0.100842 0.100842 0.100842
0.162007 0.162007 0.162007
0.223172 0.223172 0.223172
0.284336 0.284336 0.284336
0.345501 0.345501 0.345501
0.406666 0.406666 0.406666
0.529728 0.529728 0.529728
0.081587 0.081587 0.081587
0.100835 0.100835 0.100835
0.138582 0.138582 0.138582
0.187421 0.187421 0.187421
0.241596 0.241596 0.241596
0.298443 0.298443 0.298443
0.356747 0.356747 0.356747
0.415907 0.415907 0.415907
0.538032 0.538032 0.538032
0.171856 0.171856 0.171856
0.181716 0.181716 0.181716
0.204470 0.204470 0.204470
0.239138 0.239138 0.239138
0.282343 0.282343 0.282343
0.331149 0.331149 0.331149
0.383564 0.383564 0.383564
0.438337 0.438337 0.438337
0.558425 0.558425 0.558425
0.262124 0.262124 0.262124
0.268326 0.268326 0.268326
0.283390 0.283390 0.283390
0.308105 0.308105 0.308105
0.341317 0.341317 0.341317
0.381283 0.381283 0.381283
0.426326 0.426326 0.426326
0.537488 0.537488 0.537488
0.592492 0.592492 0.592492
0.352393 0.352393 0.352393
0.356759 0.356759 0.356759
0.367585 0.367585 0.367585
0.385969 0.385969 0.385969
0.411741 0.411741 0.411741
0.504389 0.504389 0.504389
0.544888 0.544888 0.544888
0.590178 0.590178 0.590178
0.639264 0.639264 0.639264
0.502843 0.502843 0.502843
0.506363 0.506363 0.506363
0.515176 0.515176 0.515176
0.530410 0.530410 0.530410
0.552284 0.552284 0.552284
0.580515 0.580515 0.580515
0.614504 0.614504 0.614504
0.653502 0.653502 0.653502
0.696739 0.696739 0.696739
0.599267 0.599267 0.599267
0.602050 0.602050 0.602050
0.609057 0.609057 0.609057
0.621290 0.621290 0.621290
0.639107 0.639107 0.639107
0.662506 0.662506 0.662506
0.691216 0.691216 0.691216
0.724793 0.724793 0.724793
0.762703 0.762703 0.762703
0.695690 0.695690 0.695690
0.697966 0.697966 0.697966
0.703715 0.703715 0.703715
0.713811 0.713811 0.713811
0.728649 0.728649 0.728649
0.748358 0.748358 0.748358
0.772860 0.772860 0.772860
0.801918 0.801918 0.801918
0.835189 0.835189 0.835189
0.792113 0.792113 0.792113
0.794022 0.794022 0.794022
0.798853 0.798853 0.798853
0.807370 0.807370 0.807370
0.819962 0.819962 0.819962
0.836817 0.836817 0.836817
0.857963 0.857963 0.857963
0.883298 0.883298 0.883298
0.912619 0.912619 0.912619
0.010248 0.010248 0.010248
0.048482 0.048482 0.048482
0.105257 0.105257 0.105257
0.164767 0.164767 0.164767
0.225111 0.225111 0.225111
0.285799 0.285799 0.285799
0.346657 0.346657 0.346657
0.407611 0.407611 0.407611
0.530575 0.530575 0.530575
0.086902 0.086902 0.086902
0.105250 0.105250 0.105250
0.141829 0.141829 0.141829
0.189780 0.189780 0.189780
0.243366 0.243366 0.243366
0.299823 0.299823 0.299823
0.357858 0.357858 0.357858
0.416825 0.416825 0.416825
0.538860 0.538860 0.538860
0.174447 0.174447 0.174447
0.184155 0.184155 0.184155
0.206611 0.206611 0.206611
0.240929 0.240929 0.240929
0.283817 0.283817 0.283817
0.332366 0.332366 0.332366
0.384580 0.384580 0.384580
0.439197 0.439197 0.439197
0.559213 0.559213 0.559213
0.263734 0.263734 0.263734
0.269892 0.269892 0.269892
0.284858 0.284858 0.284858
0.309433 0.309433 0.309433
0.342490 0.342490 0.342490
0.382307 0.382307 0.382307
0.427216 0.427216 0.427216
0.538317 0.538317 0.538317
0.593220 0.593220 0.593220
0.353521 0.353521 0.353521
0.357870 0.357870 0.357870
0.368656 0.368656 0.368656
0.386977 0.386977 0.386977
0.412671 0.412671 0.412671
0.505293 0.505293 0.505293
0.545703 0.545703 0.545703
0.590910 0.590910 0.590910
0.639921 0.639921 0.639921
0.503751 0.503751 0.503751
0.507262 0.507262 0.507262
0.516055 0.516055 0.516055
0.531255 0.531255 0.531255
0.553084 0.553084 0.553084
0.581263 0.581263 0.581263
0.615197 0.615197 0.615197
0.654139 0.654139 0.654139
0.697323 0.697323 0.697323
0.599983 0.599983 0.599983
0.602762 0.602762 0.602762
0.609758 0.609758 0.609758
0.621973 0.621973 0.621973
0.639764 0.639764 0.639764
0.663132 0.663132 0.663132
0.691807 0.691807 0.691807
0.725347 0.725347 0.725347
0.763220 0.763220 0.763220
0.696276 0.696276 0.696276
0.698549 0.698549 0.698549
0.704291 0.704291 0.704291
0.714377 0.714377 0.714377
0.729199 0.729199 0.729199
0.748889 0.748889 0.748889
0.773368 0.773368 0.773368
0.802401 0.802401 0.802401
0.835646 0.835646 0.835646
0.792604 0.792604 0.792604
0.794512 0.794512 0.794512
0.799338 0.799338 0.799338
0.807849 0.807849 0.807849
0.820430 0.820430 0.820430
0.837272 0.837272 0.837272
0.858404 0.858404 0.858404
0.883722 0.883722 0.883722
0.913024 0.913024 0.913024
0.036317 0.036317 0.036317
0.066957 0.066957 0.066957
0.115761 0.115761 0.115761
0.171578 0.171578 0.171578
0.229963 0.229963 0.229963
0.289480 0.289480 0.289480
0.349577 0.349577 0.349577
0.410003 0.410003 0.410003
0.532720 0.532720 0.532720
0.099260 0.099260 0.099260
0.115754 0.115754 0.115754
0.149762 0.149762 0.149762
0.195640 0.195640 0.195640
0.247806 0.247806 0.247806
0.303302 0.303302 0.303302
0.360667 0.360667 0.360667
0.419152 0.419152 0.419152
0.540962 0.540962 0.540962
0.180861 0.180861 0.180861
0.190209 0.190209 0.190209
0.211951 0.211951 0.211951
0.245421 0.245421 0.245421
0.287530 0.287530 0.287530
0.335440 0.335440 0.335440
0.387151 0.387151 0.387151
0.501471 0.501471 0.501471
0.561213 0.561213 0.561213
0.267780 0.267780 0.267780
0.273830 0.273830 0.273830
0.288554 0.288554 0.288554
0.312783 0.312783 0.312783
0.345454 0.345454 0.345454
0.384897 0.384897 0.384897
0.429473 0.429473 0.429473
0.540422 0.540422 0.540422
0.595067 0.595067 0.595067
0.356372 0.356372 0.356372
0.360679 0.360679 0.360679
0.371365 0.371365 0.371365
0.389529 0.389529 0.389529
0.415027 0.415027 0.415027
0.507584 0.507584 0.507584
0.547769 0.547769 0.547769
0.592767 0.592767 0.592767
0.641589 0.641589 0.641589
0.506050 0.506050 0.506050
0.509540 0.509540 0.509540
0.518281 0.518281 0.518281
0.533397 0.533397 0.533397
0.555113 0.555113 0.555113
0.583162 0.583162 0.583162
0.616956 0.616956 0.616956
0.655758 0.655758 0.655758
0.698808 0.698808 0.698808
0.601802 0.601802 0.601802
0.604570 0.604570 0.604570
0.611538 0.611538 0.611538
0.623706 0.623706 0.623706
0.641433 0.641433 0.641433
0.664722 0.664722 0.664722
0.693308 0.693308 0.693308
0.726755 0.726755 0.726755
0.764534 0.764534 0.764534
0.697764 0.697764 0.697764
0.700031 0.700031 0.700031
0.705756 0.705756 0.705756
0.715814 0.715814 0.715814
0.730597 0.730597 0.730597
0.750237 0.750237 0.750237
0.774658 0.774658 0.774658
0.803628 0.803628 0.803628
0.836807 0.836807 0.836807
0.793852 0.793852 0.793852
0.795755 0.795755 0.795755
0.800572 0.800572 0.800572
0.809065 0.809065 0.809065
0.821621 0.821621 0.821621
0.838431 0.838431 0.838431
0.859523 0.859523 0.859523
0.884798 0.884798 0.884798
0.914053 0.914053 0.914053
0.071038 0.071038 0.071038
0.092289 0.092289 0.092289
0.132457 0.132457 0.132457
0.183040 0.183040 0.183040
0.238332 0.238332 0.238332
0.295911 0.295911 0.295911
0.354712 0.354712 0.354712
0.414227 0.414227 0.414227
0.536518 0.536518 0.536518
0.118279 0.118279 0.118279
0.132452 0.132452 0.132452
0.162901 0.162901 0.162901
0.205628 0.205628 0.205628
0.255500 0.255500 0.255500
0.309388 0.309388 0.309388
0.365611 0.365611 0.365611
0.423262 0.423262 0.423262
0.544683 0.544683 0.544683
0.191714 0.191714 0.191714
0.200501 0.200501 0.200501
0.221110 0.221110 0.221110
0.253200 0.253200 0.253200
0.294011 0.294011 0.294011
0.340837 0.340837 0.340837
0.391685 0.391685 0.391685
0.505587 0.505587 0.505587
0.564756 0.564756 0.564756
0.274821 0.274821 0.274821
0.280691 0.280691 0.280691
0.295009 0.295009 0.295009
0.318652 0.318652 0.318652
0.350663 0.350663 0.350663
0.389463 0.389463 0.389463
0.433460 0.433460 0.433460
0.544148 0.544148 0.544148
0.598342 0.598342 0.598342
0.361389 0.361389 0.361389
0.365623 0.365623 0.365623
0.376135 0.376135 0.376135
0.394029 0.394029 0.394029
0.419188 0.419188 0.419188
0.511634 0.511634 0.511634
0.551428 0.551428 0.551428
0.596059 0.596059 0.596059
0.644549 0.644549 0.644549
0.510117 0.510117 0.510117
0.513570 0.513570 0.513570
0.522221 0.522221 0.522221
0.537188 0.537188 0.537188
0.558708 0.558708 0.558708
0.586527 0.586527 0.586527
0.620076 0.620076 0.620076
0.658632 0.658632 0.658632
0.701446 0.701446 0.701446
0.605028 0.605028 0.605028
0.607776 0.607776 0.607776
0.614695 0.614695 0.614695
0.626780 0.626780 0.626780
0.644393 0.644393 0.644393
0.667543 0.667543 0.667543
0.695974 0.695974 0.695974
0.729256 0.729256 0.729256
0.766869 0.766869 0.766869
0.700406 0.700406 0.700406
0.702662 0.702662 0.702662
0.708359 0.708359 0.708359
0.718367 0.718367 0.718367
0.733080 0.733080 0.733080
0.752633 0.752633 0.752633
0.776952 0.776952 0.776952
0.805810 0.805810 0.805810
0.838873 0.838873 0.838873
0.796071 0.796071 0.796071
0.797967 0.797967 0.797967
0.802766 0.802766 0.802766
0.811227 0.811227 0.811227
0.823738 0.823738 0.823738
0.840491 0.840491 0.840491
0.861515 0.861515 0.861515
0.886712 0.886712 0.886712
0.915884 0.915884 0.915884
0.105758 0.105758 0.105758
0.121394 0.121394 0.121394
0.154132 0.154132 0.154132
0.198924 0.198924 0.198924
0.250319 0.250319 0.250319
0.305282 0.305282 0.305282
0.362271 0.362271 0.362271
0.420484 0.420484 0.420484
0.542166 0.542166 0.542166
0.142201 0.142201 0.142201
0.154128 0.154128 0.154128
0.180752 0.180752 0.180752
0.219697 0.219697 0.219697
0.266590 0.266590 0.266590
0.318284 0.318284 0.318284
0.372899 0.372899 0.372899
0.429354 0.429354 0.429354
0.550219 0.550219 0.550219
0.206858 0.206858 0.206858
0.214951 0.214951 0.214951
0.234124 0.234124 0.234124
0.264403 0.264403 0.264403
0.303453 0.303453 0.303453
0.348767 0.348767 0.348767
0.398386 0.398386 0.398386
0.511698 0.511698 0.511698
0.570031 0.570031 0.570031
0.285028 0.285028 0.285028
0.290653 0.290653 0.290653
0.304413 0.304413 0.304413
0.327243 0.327243 0.327243
0.358328 0.358328 0.358328
0.396212 0.396212 0.396212
0.439375 0.439375 0.439375
0.549691 0.549691 0.549691
0.603226 0.603226 0.603226
0.368780 0.368780 0.368780
0.372910 0.372910 0.372910
0.383177 0.383177 0.383177
0.400681 0.400681 0.400681
0.425353 0.425353 0.425353
0.517650 0.517650 0.517650
0.556874 0.556874 0.556874
0.600967 0.600967 0.600967
0.648968 0.648968 0.648968
0.516157 0.516157 0.516157
0.519556 0.519556 0.519556
0.528076 0.528076 0.528076
0.542827 0.542827 0.542827
0.564060 0.564060 0.564060
0.591542 0.591542 0.591542
0.624731 0.624731 0.624731
0.662925 0.662925 0.662925
0.705389 0.705389 0.705389
0.609840 0.609840 0.609840
0.612558 0.612558 0.612558
0.619406 0.619406 0.619406
0.631369 0.631369 0.631369
0.648815 0.648815 0.648815
0.671759 0.671759 0.671759
0.699960 0.699960 0.699960
0.732998 0.732998 0.732998
0.770365 0.770365 0.770365
0.704358 0.704358 0.704358
0.706597 0.706597 0.706597
0.712251 0.712251 0.712251
0.722186 0.722186 0.722186
0.736796 0.736796 0.736796
0.756218 0.756218 0.756218
0.780387 0.780387 0.780387
0.809079 0.809079 0.809079
0.841968 0.841968 0.841968
0.799395 0.799395 0.799395
0.801280 0.801280 0.801280
0.806051 0.806051 0.806051
0.814467 0.814467 0.814467
0.826911 0.826911 0.826911
0.843578 0.843578 0.843578
0.864500 0.864500 0.864500
0.889583 0.889583 0.889583
0.918631 0.918631 0.918631
0.140478 0.140478 0.140478
0.152547 0.152547 0.152547
0.179424 0.179424 0.179424
0.218632 0.218632 0.218632
0.265741 0.265741 0.265741
0.317598 0.317598 0.317598
0.372335 0.372335 0.372335
0.428880 0.428880 0.428880
0.549788 0.549788 0.549788
0.169413 0.169413 0.169413
0.179420 0.179420 0.179420
0.202461 0.202461 0.202461
0.237462 0.237462 0.237462
0.280967 0.280967 0.280967
0.330015 0.330015 0.330015
0.382618 0.382618 0.382618
0.437538 0.437538 0.437538
0.557693 0.557693 0.557693
0.225785 0.225785 0.225785
0.233132 0.233132 0.233132
0.250717 0.250717 0.250717
0.278914 0.278914 0.278914
0.315855 0.315855 0.315855
0.359298 0.359298 0.359298
0.407357 0.407357 0.407357
0.519925 0.519925 0.519925
0.577162 0.577162 0.577162
0.298356 0.298356 0.298356
0.303687 0.303687 0.303687
0.316770 0.316770 0.316770
0.338598 0.338598 0.338598
0.368524 0.368524 0.368524
0.405242 0.405242 0.405242
0.507828 0.507828 0.507828
0.557174 0.557174 0.557174
0.609839 0.609839 0.609839
0.378630 0.378630 0.378630
0.382629 0.382629 0.382629
0.392582 0.392582 0.392582
0.409589 0.409589 0.409589
0.433631 0.433631 0.433631
0.525752 0.525752 0.525752
0.564230 0.564230 0.564230
0.607613 0.607613 0.607613
0.654966 0.654966 0.654966
0.524290 0.524290 0.524290
0.527619 0.527619 0.527619
0.535967 0.535967 0.535967
0.550436 0.550436 0.550436
0.571291 0.571291 0.571291
0.598330 0.598330 0.598330
0.631042 0.631042 0.631042
0.668754 0.668754 0.668754
0.710751 0.710751 0.710751
0.616357 0.616357 0.616357
0.619037 0.619037 0.619037
0.625789 0.625789 0.625789
0.637591 0.637591 0.637591
0.654814 0.654814 0.654814
0.677485 0.677485 0.677485
0.705378 0.705378 0.705378
0.738090 0.738090 0.738090
0.775126 0.775126 0.775126
0.709731 0.709731 0.709731
0.711946 0.711946 0.711946
0.717543 0.717543 0.717543
0.727381 0.727381 0.727381
0.741852 0.741852 0.741852
0.761100 0.761100 0.761100
0.785065 0.785065 0.785065
0.813534 0.813534 0.813534
0.846189 0.846189 0.846189
0.803923 0.803923 0.803923
0.805794 0.805794 0.805794
0.810529 0.810529 0.810529
0.818882 0.818882 0.818882
0.831237 0.831237 0.831237
0.847788 0.847788 0.847788
0.868572 0.868572 0.868572
0.893500 0.893500 0.893500
0.922380 0.922380 0.922380
0.175198 0.175198 0.175198
0.184863 0.184863 0.184863
0.207233 0.207233 0.207233
0.241451 0.241451 0.241451
0.284247 0.284247 0.284247
0.332722 0.332722 0.332722
0.384877 0.384877 0.384877
0.439449 0.439449 0.439449
0.559444 0.559444 0.559444
0.198779 0.198779 0.198779
0.207230 0.207230 0.207230
0.227149 0.227149 0.227149
0.258378 0.258378 0.258378
0.298360 0.298360 0.298360
0.344480 0.344480 0.344480
0.394757 0.394757 0.394757
0.508385 0.508385 0.508385
0.567168 0.567168 0.567168
0.247849 0.247849 0.247849
0.254462 0.254462 0.254462
0.270443 0.270443 0.270443
0.296450 0.296450 0.296450
0.331075 0.331075 0.331075
0.372384 0.372384 0.372384
0.418610 0.418610 0.418610
0.530318 0.530318 0.530318
0.586217 0.586217 0.586217
0.314606 0.314606 0.314606
0.319611 0.319611 0.319611
0.331939 0.331939 0.331939
0.352635 0.352635 0.352635
0.381221 0.381221 0.381221
0.416567 0.416567 0.416567
0.518548 0.518548 0.518548
0.566662 0.566662 0.566662
0.618256 0.618256 0.618256
0.390923 0.390923 0.390923
0.394768 0.394768 0.394768
0.404350 0.404350 0.404350
0.420768 0.420768 0.420768
0.504335 0.504335 0.504335
0.535994 0.535994 0.535994
0.573561 0.573561 0.573561
0.616071 0.616071 0.616071
0.662618 0.662618 0.662618
0.534569 0.534569 0.534569
0.537813 0.537813 0.537813
0.545953 0.545953 0.545953
0.560078 0.560078 0.560078
0.580470 0.580470 0.580470
0.606963 0.606963 0.606963
0.639084 0.639084 0.639084
0.676196 0.676196 0.676196
0.717609 0.717609 0.717609
0.624656 0.624656 0.624656
0.627288 0.627288 0.627288
0.633921 0.633921 0.633921
0.645523 0.645523 0.645523
0.662468 0.662468 0.662468
0.684799 0.684799 0.684799
0.712306 0.712306 0.712306
0.744609 0.744609 0.744609
0.781228 0.781228 0.781228
0.716602 0.716602 0.716602
0.718789 0.718789 0.718789
0.724314 0.724314 0.724314
0.734029 0.734029 0.734029
0.748326 0.748326 0.748326
0.767355 0.767355 0.767355
0.791064 0.791064 0.791064
0.819251 0.819251 0.819251
0.851609 0.851609 0.851609
0.809732 0.809732 0.809732
0.811585 0.811585 0.811585
0.816274 0.816274 0.816274
0.824548 0.824548 0.824548
0.836789 0.836789 0.836789
0.853194 0.853194 0.853194
0.873804 0.873804 0.873804
0.898534 0.898534 0.898534
0.927202 0.927202 0.927202
0.209919 0.209919 0.209919
0.217883 0.217883 0.217883
0.236784 0.236784 0.236784
0.266713 0.266713 0.266713
0.305414 0.305414 0.305414
0.350425 0.350425 0.350425
0.399793 0.399793 0.399793
0.512984 0.512984 0.512984
0.571144 0.571144 0.571144
0.229569 0.229569 0.229569
0.236781 0.236781 0.236781
0.254073 0.254073 0.254073
0.281877 0.281877 0.281877
0.318409 0.318409 0.318409
0.361482 0.361482 0.361482
0.409227 0.409227 0.409227
0.521647 0.521647 0.521647
0.578659 0.578659 0.578659
0.272420 0.272420 0.272420
0.278350 0.278350 0.278350
0.292805 0.292805 0.292805
0.316645 0.316645 0.316645
0.348880 0.348880 0.348880
0.387898 0.387898 0.387898
0.432092 0.432092 0.432092
0.542868 0.542868 0.542868
0.597217 0.597217 0.597217
0.333486 0.333486 0.333486
0.338153 0.338153 0.338153
0.349691 0.349691 0.349691
0.369178 0.369178 0.369178
0.396308 0.396308 0.396308
0.430129 0.430129 0.430129
0.531472 0.531472 0.531472
0.578166 0.578166 0.578166
0.628507 0.628507 0.628507
0.405563 0.405563 0.405563
0.409238 0.409238 0.409238
0.418409 0.418409 0.418409
0.434166 0.434166 0.434166
0.517736 0.517736 0.517736
0.548370 0.548370 0.548370
0.584882 0.584882 0.584882
0.626371 0.626371 0.626371
0.671967 0.671967 0.671967
0.546989 0.546989 0.546989
0.550135 0.550135 0.550135
0.558034 0.558034 0.558034
0.571760 0.571760 0.571760
0.591614 0.591614 0.591614
0.617468 0.617468 0.617468
0.648894 0.648894 0.648894
0.685295 0.685295 0.685295
0.726013 0.726013 0.726013
0.634768 0.634768 0.634768
0.637344 0.637344 0.637344
0.643838 0.643838 0.643838
0.655203 0.655203 0.655203
0.671820 0.671820 0.671820
0.693746 0.693746 0.693746
0.720794 0.720794 0.720794
0.752606 0.752606 0.752606
0.788725 0.788725 0.788725
0.725021 0.725021 0.725021
0.727174 0.727174 0.727174
0.732614 0.732614 0.732614
0.742181 0.742181 0.742181
0.756270 0.756270 0.756270
0.775035 0.775035 0.775035
0.798435 0.798435 0.798435
0.826282 0.826282 0.826282
0.858282 0.858282 0.858282
0.816875 0.816875 0.816875
0.818706 0.818706 0.818706
0.823341 0.823341 0.823341
0.831519 0.831519 0.831519
0.843622 0.843622 0.843622
0.859850 0.859850 0.859850
0.880248 0.880248 0.880248
0.904739 0.904739 0.904739
0.933148 0.933148 0.933148
0.244639 0.244639 0.244639
0.251351 0.251351 0.251351
0.267551 0.267551 0.267551
0.293861 0.293861 0.293861
0.328813 0.328813 0.328813
0.370429 0.370429 0.370429
0.416922 0.416922 0.416922
0.528754 0.528754 0.528754
0.584851 0.584851 0.584851
0.261325 0.261325 0.261325
0.267548 0.267548 0.267548
0.282662 0.282662 0.282662
0.307447 0.307447 0.307447
0.340736 0.340736 0.340736
0.380776 0.380776 0.380776
0.425885 0.425885 0.425885
0.537077 0.537077 0.537077
0.592133 0.592133 0.592133
0.298956 0.298956 0.298956
0.304274 0.304274 0.304274
0.317328 0.317328 0.317328
0.339113 0.339113 0.339113
0.368987 0.368987 0.368987
0.405654 0.405654 0.405654
0.508217 0.508217 0.508217
0.557517 0.557517 0.557517
0.610143 0.610143 0.610143
0.354667 0.354667 0.354667
0.358999 0.358999 0.358999
0.369744 0.369744 0.369744
0.388002 0.388002 0.388002
0.413617 0.413617 0.413617
0.506212 0.506212 0.506212
0.546532 0.546532 0.546532
0.591655 0.591655 0.591655
0.640590 0.640590 0.640590
0.422401 0.422401 0.422401
0.425895 0.425895 0.425895
0.434628 0.434628 0.434628
0.510336 0.510336 0.510336
0.533317 0.533317 0.533317
0.562828 0.562828 0.562828
0.598168 0.598168 0.598168
0.638508 0.638508 0.638508
0.683023 0.683023 0.683023
0.561494 0.561494 0.561494
0.564531 0.564531 0.564531
0.572165 0.572165 0.572165
0.585447 0.585447 0.585447
0.604701 0.604701 0.604701
0.629837 0.629837 0.629837
0.660476 0.660476 0.660476
0.696066 0.696066 0.696066
0.735985 0.735985 0.735985
0.646693 0.646693 0.646693
0.649205 0.649205 0.649205
0.655541 0.655541 0.655541
0.666638 0.666638 0.666638
0.682880 0.682880 0.682880
0.704342 0.704342 0.704342
0.730862 0.730862 0.730862
0.762109 0.762109 0.762109
0.797649 0.797649 0.797649
0.735012 0.735012 0.735012
0.737124 0.737124 0.737124
0.742466 0.742466 0.742466
0.751863 0.751863 0.751863
0.765711 0.765711 0.765711
0.784170 0.784170 0.784170
0.807213 0.807213 0.807213
0.834664 0.834664 0.834664
0.866244 0.866244 0.866244
0.825387 0.825387 0.825387
0.827192 0.827192 0.827192
0.831762 0.831762 0.831762
0.839829 0.839829 0.839829
0.851772 0.851772 0.851772
0.867793 0.867793 0.867793
0.887943 0.887943 0.887943
0.912154 0.912154 0.912154
0.940259 0.940259 0.940259
