docs/luts/fuji_recipes/AcrosY_KM_Night.cube
TITLE "Fujifilm Recipe: KM Night (AcrosY)"
# FilmSim=AcrosY HL=0 SH=1 Col=0 WB=Auto WBR=0 WBB=0
LUT_3D_SIZE 9
DOMAIN_MIN 0.0 0.0 0.0
DOMAIN_MAX 1.0 1.0 1.0
0.000000 0.000000 0.000000
0.040803 0.040803 0.040803
0.105805 0.105805 0.105805
0.170806 0.170806 0.170806
0.235808 0.235808 0.235808
0.300810 0.300810 0.300810
0.365812 0.365812 0.365812
0.430814 0.430814 0.430814
0.516475 0.516475 0.516475
0.099952 0.099952 0.099952
0.118071 0.118071 0.118071
0.155057 0.155057 0.155057
0.204512 0.204512 0.204512
0.260437 0.260437 0.260437
0.319748 0.319748 0.319748
0.380945 0.380945 0.380945
0.443267 0.443267 0.443267
0.527397 0.527397 0.527397
0.206029 0.206029 0.206029
0.215191 0.215191 0.215191
0.236731 0.236731 0.236731
0.270385 0.270385 0.270385
0.313326 0.313326 0.313326
0.362725 0.362725 0.362725
0.416468 0.416468 0.416468
0.473140 0.473140 0.473140
0.553981 0.553981 0.553981
0.312107 0.312107 0.312107
0.317849 0.317849 0.317849
0.331930 0.331930 0.331930
0.355392 0.355392 0.355392
0.387502 0.387502 0.387502
0.426835 0.426835 0.426835
0.471852 0.471852 0.471852
0.542919 0.542919 0.542919
0.597728 0.597728 0.597728
0.418184 0.418184 0.418184
0.422221 0.422221 0.422221
0.432287 0.432287 0.432287
0.449545 0.449545 0.449545
0.474052 0.474052 0.474052
0.526330 0.526330 0.526330
0.564971 0.564971 0.564971
0.608746 0.608746 0.608746
0.656724 0.656724 0.656724
0.546106 0.546106 0.546106
0.549278 0.549278 0.549278
0.557248 0.557248 0.557248
0.571111 0.571111 0.571111
0.591199 0.591199 0.591199
0.617409 0.617409 0.617409
0.649338 0.649338 0.649338
0.686403 0.686403 0.686403
0.727953 0.727953 0.727953
0.656603 0.656603 0.656603
0.659111 0.659111 0.659111
0.665438 0.665438 0.665438
0.676533 0.676533 0.676533
0.692798 0.692798 0.692798
0.714336 0.714336 0.714336
0.741013 0.741013 0.741013
0.772524 0.772524 0.772524
0.808459 0.808459 0.808459
0.767101 0.767101 0.767101
0.769151 0.769151 0.769151
0.774337 0.774337 0.774337
0.783475 0.783475 0.783475
0.796970 0.796970 0.796970
0.815008 0.815008 0.815008
0.837602 0.837602 0.837602
0.864618 0.864618 0.864618
0.895820 0.895820 0.895820
0.877598 0.877598 0.877598
0.879317 0.879317 0.879317
0.883673 0.883673 0.883673
0.891372 0.891372 0.891372
0.902795 0.902795 0.902795
0.918161 0.918161 0.918161
0.937555 0.937555 0.937555
0.960948 0.960948 0.960948
0.988222 0.988222 0.988222
0.011180 0.011180 0.011180
0.050726 0.050726 0.050726
0.110794 0.110794 0.110794
0.173928 0.173928 0.173928
0.238002 0.238002 0.238002
0.302464 0.302464 0.302464
0.367120 0.367120 0.367120
0.431883 0.431883 0.431883
0.517408 0.517408 0.517408
0.105200 0.105200 0.105200
0.122582 0.122582 0.122582
0.158509 0.158509 0.158509
0.207084 0.207084 0.207084
0.262396 0.262396 0.262396
0.321286 0.321286 0.321286
0.382189 0.382189 0.382189
0.444299 0.444299 0.444299
0.528307 0.528307 0.528307
0.208580 0.208580 0.208580
0.217622 0.217622 0.217622
0.238915 0.238915 0.238915
0.272260 0.272260 0.272260
0.314902 0.314902 0.314902
0.364046 0.364046 0.364046
0.417583 0.417583 0.417583
0.474091 0.474091 0.474091
0.554835 0.554835 0.554835
0.313690 0.313690 0.313690
0.319398 0.319398 0.319398
0.333400 0.333400 0.333400
0.356746 0.356746 0.356746
0.388721 0.388721 0.388721
0.427917 0.427917 0.427917
0.472806 0.472806 0.472806
0.543795 0.543795 0.543795
0.598504 0.598504 0.598504
0.419293 0.419293 0.419293
0.423317 0.423317 0.423317
0.433351 0.433351 0.433351
0.450559 0.450559 0.450559
0.475000 0.475000 0.475000
0.527242 0.527242 0.527242
0.565804 0.565804 0.565804
0.609503 0.609503 0.609503
0.657411 0.657411 0.657411
0.546976 0.546976 0.546976
0.550141 0.550141 0.550141
0.558095 0.558095 0.558095
0.571933 0.571933 0.571933
0.591985 0.591985 0.591985
0.618152 0.618152 0.618152
0.650035 0.650035 0.650035
0.687052 0.687052 0.687052
0.728555 0.728555 0.728555
0.657290 0.657290 0.657290
0.659794 0.659794 0.659794
0.666113 0.666113 0.666113
0.677194 0.677194 0.677194
0.693440 0.693440 0.693440
0.714953 0.714953 0.714953
0.741601 0.741601 0.741601
0.773081 0.773081 0.773081
0.808983 0.808983 0.808983
0.767662 0.767662 0.767662
0.769710 0.769710 0.769710
0.774892 0.774892 0.774892
0.784022 0.784022 0.784022
0.797504 0.797504 0.797504
0.815527 0.815527 0.815527
0.838102 0.838102 0.838102
0.865098 0.865098 0.865098
0.896278 0.896278 0.896278
0.878069 0.878069 0.878069
0.879787 0.879787 0.879787
0.884139 0.884139 0.884139
0.891833 0.891833 0.891833
0.903248 0.903248 0.903248
0.918604 0.918604 0.918604
0.937986 0.937986 0.937986
0.961366 0.961366 0.961366
0.988625 0.988625 0.988625
0.039619 0.039619 0.039619
0.071358 0.071358 0.071358
0.122618 0.122618 0.122618
0.181616 0.181616 0.181616
0.243484 0.243484 0.243484
0.306627 0.306627 0.306627
0.370422 0.370422 0.370422
0.434589 0.434589 0.434589
0.519776 0.519776 0.519776
0.117565 0.117565 0.117565
0.133387 0.133387 0.133387
0.166957 0.166957 0.166957
0.213475 0.213475 0.213475
0.267304 0.267304 0.267304
0.325162 0.325162 0.325162
0.385334 0.385334 0.385334
0.446911 0.446911 0.446911
0.530612 0.530612 0.530612
0.214922 0.214922 0.214922
0.223677 0.223677 0.223677
0.244374 0.244374 0.244374
0.276965 0.276965 0.276965
0.318872 0.318872 0.318872
0.367383 0.367383 0.367383
0.420405 0.420405 0.420405
0.476500 0.476500 0.476500
0.557002 0.557002 0.557002
0.317678 0.317678 0.317678
0.323301 0.323301 0.323301
0.337109 0.337109 0.337109
0.360165 0.360165 0.360165
0.391801 0.391801 0.391801
0.430654 0.430654 0.430654
0.475223 0.475223 0.475223
0.546018 0.546018 0.546018
0.600472 0.600472 0.600472
0.422100 0.422100 0.422100
0.426092 0.426092 0.426092
0.436046 0.436046 0.436046
0.453126 0.453126 0.453126
0.477404 0.477404 0.477404
0.529553 0.529553 0.529553
0.567918 0.567918 0.567918
0.611426 0.611426 0.611426
0.659155 0.659155 0.659155
0.549182 0.549182 0.549182
0.552332 0.552332 0.552332
0.560247 0.560247 0.560247
0.574018 0.574018 0.574018
0.593980 0.593980 0.593980
0.620041 0.620041 0.620041
0.651805 0.651805 0.651805
0.688700 0.688700 0.688700
0.730082 0.730082 0.730082
0.659035 0.659035 0.659035
0.661531 0.661531 0.661531
0.667829 0.667829 0.667829
0.678873 0.678873 0.678873
0.695068 0.695068 0.695068
0.716518 0.716518 0.716518
0.743093 0.743093 0.743093
0.774495 0.774495 0.774495
0.810315 0.810315 0.810315
0.769089 0.769089 0.769089
0.771132 0.771132 0.771132
0.776301 0.776301 0.776301
0.785410 0.785410 0.785410
0.798862 0.798862 0.798862
0.816846 0.816846 0.816846
0.839374 0.839374 0.839374
0.866318 0.866318 0.866318
0.897443 0.897443 0.897443
0.879265 0.879265 0.879265
0.880980 0.880980 0.880980
0.885325 0.885325 0.885325
0.893005 0.893005 0.893005
0.904401 0.904401 0.904401
0.919732 0.919732 0.919732
0.939083 0.939083 0.939083
0.962428 0.962428 0.962428
0.989648 0.989648 0.989648
0.077496 0.077496 0.077496
0.099406 0.099406 0.099406
0.141307 0.141307 0.141307
0.194511 0.194511 0.194511
0.252924 0.252924 0.252924
0.313888 0.313888 0.313888
0.376225 0.376225 0.376225
0.439364 0.439364 0.439364
0.523963 0.523963 0.523963
0.136941 0.136941 0.136941
0.150735 0.150735 0.150735
0.180988 0.180988 0.180988
0.224368 0.224368 0.224368
0.275806 0.275806 0.275806
0.331940 0.331940 0.331940
0.390866 0.390866 0.390866
0.451524 0.451524 0.451524
0.534693 0.534693 0.534693
0.225737 0.225737 0.225737
0.234036 0.234036 0.234036
0.253775 0.253775 0.253775
0.285131 0.285131 0.285131
0.325807 0.325807 0.325807
0.373243 0.373243 0.373243
0.425378 0.425378 0.425378
0.500791 0.500791 0.500791
0.560841 0.560841 0.560841
0.324644 0.324644 0.324644
0.330125 0.330125 0.330125
0.343604 0.343604 0.343604
0.366167 0.366167 0.366167
0.397223 0.397223 0.397223
0.435483 0.435483 0.435483
0.479497 0.479497 0.479497
0.549954 0.549954 0.549954
0.603961 0.603961 0.603961
0.427050 0.427050 0.427050
0.430984 0.430984 0.430984
0.440801 0.440801 0.440801
0.457661 0.457661 0.457661
0.501722 0.501722 0.501722
0.533644 0.533644 0.533644
0.571663 0.571663 0.571663
0.614835 0.614835 0.614835
0.662252 0.662252 0.662252
0.553090 0.553090 0.553090
0.556211 0.556211 0.556211
0.564057 0.564057 0.564057
0.577713 0.577713 0.577713
0.597518 0.597518 0.597518
0.623390 0.623390 0.623390
0.654946 0.654946 0.654946
0.691627 0.691627 0.691627
0.732796 0.732796 0.732796
0.662133 0.662133 0.662133
0.664613 0.664613 0.664613
0.670874 0.670874 0.670874
0.681855 0.681855 0.681855
0.697960 0.697960 0.697960
0.719298 0.719298 0.719298
0.745746 0.745746 0.745746
0.777008 0.777008 0.777008
0.812685 0.812685 0.812685
0.771625 0.771625 0.771625
0.773660 0.773660 0.773660
0.778807 0.778807 0.778807
0.787878 0.787878 0.787878
0.801276 0.801276 0.801276
0.819190 0.819190 0.819190
0.841637 0.841637 0.841637
0.868489 0.868489 0.868489
0.899516 0.899516 0.899516
0.881394 0.881394 0.881394
0.883104 0.883104 0.883104
0.887435 0.887435 0.887435
0.895091 0.895091 0.895091
0.906452 0.906452 0.906452
0.921738 0.921738 0.921738
0.941035 0.941035 0.941035
0.964318 0.964318 0.964318
0.991469 0.991469 0.991469
0.115372 0.115372 0.115372
0.131454 0.131454 0.131454
0.165428 0.165428 0.165428
0.212309 0.212309 0.212309
0.266404 0.266404 0.266404
0.324449 0.324449 0.324449
0.384755 0.384755 0.384755
0.446429 0.446429 0.446429
0.530187 0.530187 0.530187
0.161737 0.161737 0.161737
0.173494 0.173494 0.173494
0.200115 0.200115 0.200115
0.239713 0.239713 0.239713
0.288048 0.288048 0.288048
0.341835 0.341835 0.341835
0.399013 0.399013 0.399013
0.458356 0.458356 0.458356
0.540760 0.540760 0.540760
0.240983 0.240983 0.240983
0.248704 0.248704 0.248704
0.267206 0.267206 0.267206
0.296922 0.296922 0.296922
0.335921 0.335921 0.335921
0.381855 0.381855 0.381855
0.432730 0.432730 0.432730
0.507376 0.507376 0.507376
0.566554 0.566554 0.566554
0.334800 0.334800 0.334800
0.340084 0.340084 0.340084
0.353106 0.353106 0.353106
0.374978 0.374978 0.374978
0.405212 0.405212 0.405212
0.442626 0.442626 0.442626
0.506082 0.506082 0.506082
0.555811 0.555811 0.555811
0.609163 0.609163 0.609163
0.434366 0.434366 0.434366
0.438218 0.438218 0.438218
0.447838 0.447838 0.447838
0.464380 0.464380 0.464380
0.508291 0.508291 0.508291
0.539726 0.539726 0.539726
0.577241 0.577241 0.577241
0.619921 0.619921 0.619921
0.666876 0.666876 0.666876
0.558905 0.558905 0.558905
0.561985 0.561985 0.561985
0.569729 0.569729 0.569729
0.583217 0.583217 0.583217
0.602792 0.602792 0.602792
0.628386 0.628386 0.628386
0.659637 0.659637 0.659637
0.696001 0.696001 0.696001
0.736855 0.736855 0.736855
0.666758 0.666758 0.666758
0.669217 0.669217 0.669217
0.675422 0.675422 0.675422
0.686309 0.686309 0.686309
0.702283 0.702283 0.702283
0.723456 0.723456 0.723456
0.749714 0.749714 0.749714
0.780770 0.780770 0.780770
0.816233 0.816233 0.816233
0.775422 0.775422 0.775422
0.777443 0.777443 0.777443
0.782558 0.782558 0.782558
0.791573 0.791573 0.791573
0.804890 0.804890 0.804890
0.822702 0.822702 0.822702
0.845027 0.845027 0.845027
0.871742 0.871742 0.871742
0.902622 0.902622 0.902622
0.884585 0.884585 0.884585
0.886286 0.886286 0.886286
0.890598 0.890598 0.890598
0.898218 0.898218 0.898218
0.909528 0.909528 0.909528
0.924747 0.924747 0.924747
0.943963 0.943963 0.943963
0.967152 0.967152 0.967152
0.994202 0.994202 0.994202
0.153249 0.153249 0.153249
0.165645 0.165645 0.165645
0.193436 0.193436 0.193436
0.234295 0.234295 0.234295
0.283692 0.283692 0.283692
0.338297 0.338297 0.338297
0.396090 0.396090 0.396090
0.455900 0.455900 0.455900
0.538576 0.538576 0.538576
0.190329 0.190329 0.190329
0.200291 0.200291 0.200291
0.223453 0.223453 0.223453
0.259089 0.259089 0.259089
0.303902 0.303902 0.303902
0.354869 0.354869 0.354869
0.409865 0.409865 0.409865
0.467525 0.467525 0.467525
0.548945 0.548945 0.548945
0.260250 0.260250 0.260250
0.267333 0.267333 0.267333
0.284437 0.284437 0.284437
0.312244 0.312244 0.312244
0.349222 0.349222 0.349222
0.393293 0.393293 0.393293
0.442567 0.442567 0.442567
0.516236 0.516236 0.516236
0.574275 0.574275 0.574275
0.348153 0.348153 0.348153
0.353196 0.353196 0.353196
0.365654 0.365654 0.365654
0.386666 0.386666 0.386666
0.415865 0.415865 0.415865
0.452195 0.452195 0.452195
0.514971 0.514971 0.514971
0.563719 0.563719 0.563719
0.616208 0.616208 0.616208
0.444158 0.444158 0.444158
0.447906 0.447906 0.447906
0.457272 0.457272 0.457272
0.473402 0.473402 0.473402
0.517132 0.517132 0.517132
0.547931 0.547931 0.547931
0.584782 0.584782 0.584782
0.626811 0.626811 0.626811
0.673154 0.673154 0.673154
0.566758 0.566758 0.566758
0.569784 0.569784 0.569784
0.577396 0.577396 0.577396
0.590660 0.590660 0.590660
0.609931 0.609931 0.609931
0.635159 0.635159 0.635159
0.666003 0.666003 0.666003
0.701943 0.701943 0.701943
0.742376 0.742376 0.742376
0.673037 0.673037 0.673037
0.675466 0.675466 0.675466
0.681598 0.681598 0.681598
0.692360 0.692360 0.692360
0.708157 0.708157 0.708157
0.729110 0.729110 0.729110
0.755113 0.755113 0.755113
0.785893 0.785893 0.785893
0.821068 0.821068 0.821068
0.780590 0.780590 0.780590
0.782594 0.782594 0.782594
0.787665 0.787665 0.787665
0.796605 0.796605 0.796605
0.809814 0.809814 0.809814
0.827488 0.827488 0.827488
0.849648 0.849648 0.849648
0.876179 0.876179 0.876179
0.906861 0.906861 0.906861
0.888938 0.888938 0.888938
0.890628 0.890628 0.890628
0.894912 0.894912 0.894912
0.902484 0.902484 0.902484
0.913725 0.913725 0.913725
0.928853 0.928853 0.928853
0.947959 0.947959 0.947959
0.971023 0.971023 0.971023
0.997934 0.997934 0.997934
0.191126 0.191126 0.191126
0.201045 0.201045 0.201045
0.224119 0.224119 0.224119
0.259652 0.259652 0.259652
0.304369 0.304369 0.304369
0.355257 0.355257 0.355257
0.410190 0.410190 0.410190
0.467800 0.467800 0.467800
0.549191 0.549191 0.549191
0.221489 0.221489 0.221489
0.229962 0.229962 0.229962
0.250069 0.250069 0.250069
0.281903 0.281903 0.281903
0.323059 0.323059 0.323059
0.370916 0.370916 0.370916
0.423401 0.423401 0.423401
0.479064 0.479064 0.479064
0.559311 0.559311 0.559311
0.282955 0.282955 0.282955
0.289391 0.289391 0.289391
0.305054 0.305054 0.305054
0.330826 0.330826 0.330826
0.365571 0.365571 0.365571
0.407512 0.407512 0.407512
0.454905 0.454905 0.454905
0.527424 0.527424 0.527424
0.584073 0.584073 0.584073
0.364560 0.364560 0.364560
0.369331 0.369331 0.369331
0.381150 0.381150 0.381150
0.401175 0.401175 0.401175
0.429166 0.429166 0.429166
0.464215 0.464215 0.464215
0.526193 0.526193 0.526193
0.573747 0.573747 0.573747
0.625173 0.625173 0.625173
0.456443 0.456443 0.456443
0.460065 0.460065 0.460065
0.469129 0.469129 0.469129
0.504965 0.504965 0.504965
0.528296 0.528296 0.528296
0.558321 0.558321 0.558321
0.594359 0.594359 0.594359
0.635585 0.635585 0.635585
0.681167 0.681167 0.681167
0.576719 0.576719 0.576719
0.579679 0.579679 0.579679
0.587127 0.587127 0.587127
0.600118 0.600118 0.600118
0.619013 0.619013 0.619013
0.643787 0.643787 0.643787
0.674126 0.674126 0.674126
0.709538 0.709538 0.709538
0.749443 0.749443 0.749443
0.681052 0.681052 0.681052
0.683444 0.683444 0.683444
0.689484 0.689484 0.689484
0.700089 0.700089 0.700089
0.715666 0.715666 0.715666
0.736343 0.736343 0.736343
0.762026 0.762026 0.762026
0.792458 0.792458 0.792458
0.827270 0.827270 0.827270
0.787213 0.787213 0.787213
0.789195 0.789195 0.789195
0.794211 0.794211 0.794211
0.803055 0.803055 0.803055
0.816128 0.816128 0.816128
0.833627 0.833627 0.833627
0.855579 0.855579 0.855579
0.881877 0.881877 0.881877
0.912308 0.912308 0.912308
0.894529 0.894529 0.894529
0.896206 0.896206 0.896206
0.900454 0.900454 0.900454
0.907966 0.907966 0.907966
0.919118 0.919118 0.919118
0.934131 0.934131 0.934131
0.953098 0.953098 0.953098
0.976002 0.976002 0.976002
1.000000 1.000000 1.000000
0.229002 0.229002 0.229002
0.237172 0.237172 0.237172
0.256635 0.256635 0.256635
0.287630 0.287630 0.287630
0.327941 0.327941 0.327941
0.375054 0.375054 0.375054
0.426920 0.426920 0.426920
0.502169 0.502169 0.502169
0.562035 0.562035 0.562035
0.254387 0.254387 0.254387
0.261654 0.261654 0.261654
0.279166 0.279166 0.279166
0.307535 0.307535 0.307535
0.345116 0.345116 0.345116
0.389749 0.389749 0.389749
0.439510 0.439510 0.439510
0.513477 0.513477 0.513477
0.571867 0.571867 0.571867
0.308484 0.308484 0.308484
0.314305 0.314305 0.314305
0.328568 0.328568 0.328568
0.352300 0.352300 0.352300
0.384724 0.384724 0.384724
0.424373 0.424373 0.424373
0.469681 0.469681 0.469681
0.540927 0.540927 0.540927
0.595967 0.595967 0.595967
0.383774 0.383774 0.383774
0.388258 0.388258 0.388258
0.399394 0.399394 0.399394
0.418352 0.418352 0.418352
0.445017 0.445017 0.445017
0.478632 0.478632 0.478632
0.539734 0.539734 0.539734
0.585910 0.585910 0.585910
0.636093 0.636093 0.636093
0.471158 0.471158 0.471158
0.474641 0.474641 0.474641
0.503502 0.503502 0.503502
0.519209 0.519209 0.519209
0.541771 0.541771 0.541771
0.570904 0.570904 0.570904
0.605996 0.605996 0.605996
0.646279 0.646279 0.646279
0.690961 0.690961 0.690961
0.588804 0.588804 0.588804
0.591686 0.591686 0.591686
0.598944 0.598944 0.598944
0.611615 0.611615 0.611615
0.630071 0.630071 0.630071
0.654309 0.654309 0.654309
0.684050 0.684050 0.684050
0.718834 0.718834 0.718834
0.758109 0.758109 0.758109
0.690848 0.690848 0.690848
0.693196 0.693196 0.693196
0.699128 0.699128 0.699128
0.709546 0.709546 0.709546
0.724860 0.724860 0.724860
0.745207 0.745207 0.745207
0.770508 0.770508 0.770508
0.800521 0.800521 0.800521
0.834896 0.834896 0.834896
0.795346 0.795346 0.795346
0.797301 0.797301 0.797301
0.802251 0.802251 0.802251
0.810981 0.810981 0.810981
0.823890 0.823890 0.823890
0.841177 0.841177 0.841177
0.862879 0.862879 0.862879
0.888894 0.888894 0.888894
0.919020 0.919020 0.919020
0.901416 0.901416 0.901416
0.903076 0.903076 0.903076
0.907282 0.907282 0.907282
0.914720 0.914720 0.914720
0.925765 0.925765 0.925765
0.940639 0.940639 0.940639
0.959436 0.959436 0.959436
0.982145 0.982145 0.982145
1.000000 1.000000 1.000000
0.266879 0.266879 0.266879
0.273762 0.273762 0.273762
0.290424 0.290424 0.290424
0.317613 0.317613 0.317613
0.353923 0.353923 0.353923
0.397364 0.397364 0.397364
0.446088 0.446088 0.446088
0.519420 0.519420 0.519420
0.577058 0.577058 0.577058
0.288482 0.288482 0.288482
0.294776 0.294776 0.294776
0.310117 0.310117 0.310117
0.335426 0.335426 0.335426
0.369652 0.369652 0.369652
0.411087 0.411087 0.411087
0.458025 0.458025 0.458025
0.530266 0.530266 0.530266
0.586570 0.586570 0.586570
0.336281 0.336281 0.336281
0.341538 0.341538 0.341538
0.354495 0.354495 0.354495
0.376269 0.376269 0.376269
0.406386 0.406386 0.406386
0.443678 0.443678 0.443678
0.507057 0.507057 0.507057
0.556677 0.556677 0.556677
0.609933 0.609933 0.609933
0.405499 0.405499 0.405499
0.409692 0.409692 0.409692
0.420131 0.420131 0.420131
0.437986 0.437986 0.437986
0.463258 0.463258 0.463258
0.515977 0.515977 0.515977
0.555527 0.555527 0.555527
0.600176 0.600176 0.600176
0.648963 0.648963 0.648963
0.508528 0.508528 0.508528
0.511998 0.511998 0.511998
0.520698 0.520698 0.520698
0.535772 0.535772 0.535772
0.557491 0.557491 0.557491
0.585638 0.585638 0.585638
0.619674 0.619674 0.619674
0.658893 0.658893 0.658893
0.702549 0.702549 0.702549
0.602982 0.602982 0.602982
0.605779 0.605779 0.605779
0.612824 0.612824 0.612824
0.625136 0.625136 0.625136
0.643095 0.643095 0.643095
0.666728 0.666728 0.666728
0.695788 0.695788 0.695788
0.729853 0.729853 0.729853
0.768401 0.768401 0.768401
0.702439 0.702439 0.702439
0.704737 0.704737 0.704737
0.710544 0.710544 0.710544
0.720750 0.720750 0.720750
0.735762 0.735762 0.735762
0.755729 0.755729 0.755729
0.780587 0.780587 0.780587
0.810115 0.810115 0.810115
0.843982 0.843982 0.843982
0.805021 0.805021 0.805021
0.806946 0.806946 0.806946
0.811819 0.811819 0.811819
0.820415 0.820415 0.820415
0.833133 0.833133 0.833133
0.850176 0.850176 0.850176
0.871584 0.871584 0.871584
0.897268 0.897268 0.897268
0.927038 0.927038 0.927038
0.909639 0.909639 0.909639
0.911279 0.911279 0.911279
0.915436 0.915436 0.915436
0.922787 0.922787 0.922787
0.933706 0.933706 0.933706
0.948416 0.948416 0.948416
0.967014 0.967014 0.967014
0.989494 0.989494 0.989494
1.000000 1.000000 1.000000
