docs/luts/fuji_recipes/Acros_RR_Acros_Agfa_APX_400.cube
TITLE "Fujifilm Recipe: RR Acros Agfa APX 400 (Acros)"
# FilmSim=Acros HL=-2 SH=4 Col=0 WB=Auto WBR=1 WBB=0
LUT_3D_SIZE 33
DOMAIN_MIN 0.0 0.0 0.0
DOMAIN_MAX 1.0 1.0 1.0
0.000000 0.000000 0.000000
0.009133 0.009133 0.009133
0.019632 0.019632 0.019632
0.034724 0.034724 0.034724
0.051852 0.051852 0.051852
0.068980 0.068980 0.068980
0.086108 0.086108 0.086108
0.103236 0.103236 0.103236
0.120364 0.120364 0.120364
0.137492 0.137492 0.137492
0.154620 0.154620 0.154620
0.171748 0.171748 0.171748
0.188877 0.188877 0.188877
0.206005 0.206005 0.206005
0.223133 0.223133 0.223133
0.240261 0.240261 0.240261
0.257389 0.257389 0.257389
0.274517 0.274517 0.274517
0.291645 0.291645 0.291645
0.308773 0.308773 0.308773
0.325901 0.325901 0.325901
0.343029 0.343029 0.343029
0.360157 0.360157 0.360157
0.377285 0.377285 0.377285
0.394413 0.394413 0.394413
0.411542 0.411542 0.411542
0.418690 0.418690 0.418690
0.418690 0.418690 0.418690
0.418690 0.418690 0.418690
0.418690 0.418690 0.418690
0.418690 0.418690 0.418690
0.418690 0.418690 0.418690
0.418690 0.418690 0.418690
0.029871 0.029871 0.029871
0.038721 0.038721 0.038721
0.047589 0.047589 0.047589
0.058598 0.058598 0.058598
0.071254 0.071254 0.071254
0.085065 0.085065 0.085065
0.099686 0.099686 0.099686
0.114878 0.114878 0.114878
0.130483 0.130483 0.130483
0.146390 0.146390 0.146390
0.162523 0.162523 0.162523
0.178829 0.178829 0.178829
0.195269 0.195269 0.195269
0.211814 0.211814 0.211814
0.228444 0.228444 0.228444
0.245142 0.245142 0.245142
0.261896 0.261896 0.261896
0.278696 0.278696 0.278696
0.295534 0.295534 0.295534
0.312405 0.312405 0.312405
0.329304 0.329304 0.329304
0.346227 0.346227 0.346227
0.363169 0.363169 0.363169
0.380130 0.380130 0.380130
0.397105 0.397105 0.397105
0.414094 0.414094 0.414094
0.501244 0.501244 0.501244
0.501244 0.501244 0.501244
0.501244 0.501244 0.501244
0.501244 0.501244 0.501244
0.501244 0.501244 0.501244
0.501244 0.501244 0.501244
0.501244 0.501244 0.501244
0.057960 0.057960 0.057960
0.063942 0.063942 0.063942
0.070302 0.070302 0.070302
0.078680 0.078680 0.078680
0.088846 0.088846 0.088846
0.100450 0.100450 0.100450
0.113177 0.113177 0.113177
0.126772 0.126772 0.126772
0.141033 0.141033 0.141033
0.155810 0.155810 0.155810
0.170988 0.170988 0.170988
0.186482 0.186482 0.186482
0.202228 0.202228 0.202228
0.218175 0.218175 0.218175
0.234286 0.234286 0.234286
0.250531 0.250531 0.250531
0.266887 0.266887 0.266887
0.283335 0.283335 0.283335
0.299862 0.299862 0.299862
0.316455 0.316455 0.316455
0.333104 0.333104 0.333104
0.349801 0.349801 0.349801
0.366541 0.366541 0.366541
0.383316 0.383316 0.383316
0.400124 0.400124 0.400124
0.416959 0.416959 0.416959
0.504183 0.504183 0.504183
0.504183 0.504183 0.504183
0.504183 0.504183 0.504183
0.504183 0.504183 0.504183
0.504183 0.504183 0.504183
0.504183 0.504183 0.504183
0.504183 0.504183 0.504183
0.085662 0.085662 0.085662
0.090034 0.090034 0.090034
0.094830 0.094830 0.094830
0.101356 0.101356 0.101356
0.109547 0.109547 0.109547
0.119206 0.119206 0.119206
0.130112 0.130112 0.130112
0.142056 0.142056 0.142056
0.154848 0.154848 0.154848
0.168331 0.168331 0.168331
0.182376 0.182376 0.182376
0.196878 0.196878 0.196878
0.211754 0.211754 0.211754
0.226938 0.226938 0.226938
0.242376 0.242376 0.242376
0.258026 0.258026 0.258026
0.273854 0.273854 0.273854
0.289833 0.289833 0.289833
0.305938 0.305938 0.305938
0.322152 0.322152 0.322152
0.338460 0.338460 0.338460
0.354849 0.354849 0.354849
0.371308 0.371308 0.371308
0.387829 0.387829 0.387829
0.404403 0.404403 0.404403
0.501073 0.501073 0.501073
0.508353 0.508353 0.508353
0.508353 0.508353 0.508353
0.508353 0.508353 0.508353
0.508353 0.508353 0.508353
0.508353 0.508353 0.508353
0.508353 0.508353 0.508353
0.508353 0.508353 0.508353
0.113364 0.113364 0.113364
0.116740 0.116740 0.116740
0.120504 0.120504 0.120504
0.125721 0.125721 0.125721
0.132410 0.132410 0.132410
0.140476 0.140476 0.140476
0.149785 0.149785 0.149785
0.160188 0.160188 0.160188
0.171534 0.171534 0.171534
0.183686 0.183686 0.183686
0.196520 0.196520 0.196520
0.209927 0.209927 0.209927
0.223819 0.223819 0.223819
0.238119 0.238119 0.238119
0.252764 0.252764 0.252764
0.267702 0.267702 0.267702
0.282889 0.282889 0.282889
0.298290 0.298290 0.298290
0.313873 0.313873 0.313873
0.329615 0.329615 0.329615
0.345493 0.345493 0.345493
0.361491 0.361491 0.361491
0.377593 0.377593 0.377593
0.393786 0.393786 0.393786
0.410061 0.410061 0.410061
0.506711 0.506711 0.506711
0.513878 0.513878 0.513878
0.513878 0.513878 0.513878
0.513878 0.513878 0.513878
0.513878 0.513878 0.513878
0.513878 0.513878 0.513878
0.513878 0.513878 0.513878
0.513878 0.513878 0.513878
0.141066 0.141066 0.141066
0.143776 0.143776 0.143776
0.146827 0.146827 0.146827
0.151103 0.151103 0.151103
0.156660 0.156660 0.156660
0.163464 0.163464 0.163464
0.171441 0.171441 0.171441
0.180495 0.180495 0.180495
0.190518 0.190518 0.190518
0.201401 0.201401 0.201401
0.213037 0.213037 0.213037
0.225330 0.225330 0.225330
0.238192 0.238192 0.238192
0.251545 0.251545 0.251545
0.265324 0.265324 0.265324
0.279470 0.279470 0.279470
0.293933 0.293933 0.293933
0.308673 0.308673 0.308673
0.323653 0.323653 0.323653
0.338843 0.338843 0.338843
0.354215 0.354215 0.354215
0.369749 0.369749 0.369749
0.385425 0.385425 0.385425
0.401226 0.401226 0.401226
0.417138 0.417138 0.417138
0.513776 0.513776 0.513776
0.520804 0.520804 0.520804
0.520804 0.520804 0.520804
0.520804 0.520804 0.520804
0.520804 0.520804 0.520804
0.520804 0.520804 0.520804
0.520804 0.520804 0.520804
0.520804 0.520804 0.520804
0.168768 0.168768 0.168768
0.171009 0.171009 0.171009
0.173546 0.173546 0.173546
0.177126 0.177126 0.177126
0.181822 0.181822 0.181822
0.187630 0.187630 0.187630
0.194518 0.194518 0.194518
0.202428 0.202428 0.202428
0.211288 0.211288 0.211288
0.221016 0.221016 0.221016
0.231530 0.231530 0.231530
0.242746 0.242746 0.242746
0.254588 0.254588 0.254588
0.266982 0.266982 0.266982
0.279865 0.279865 0.279865
0.293177 0.293177 0.293177
0.306868 0.306868 0.306868
0.320892 0.320892 0.320892
0.335210 0.335210 0.335210
0.349788 0.349788 0.349788
0.364595 0.364595 0.364595
0.379605 0.379605 0.379605
0.394797 0.394797 0.394797
0.410149 0.410149 0.410149
0.505913 0.505913 0.505913
0.522281 0.522281 0.522281
0.529148 0.529148 0.529148
0.529148 0.529148 0.529148
0.529148 0.529148 0.529148
0.529148 0.529148 0.529148
0.529148 0.529148 0.529148
0.529148 0.529148 0.529148
0.529148 0.529148 0.529148
0.196470 0.196470 0.196470
0.198364 0.198364 0.198364
0.200518 0.200518 0.200518
0.203571 0.203571 0.203571
0.207599 0.207599 0.207599
0.212618 0.212618 0.212618
0.218619 0.218619 0.218619
0.225572 0.225572 0.225572
0.233430 0.233430 0.233430
0.242137 0.242137 0.242137
0.251631 0.251631 0.251631
0.261845 0.261845 0.261845
0.272714 0.272714 0.272714
0.284175 0.284175 0.284175
0.296168 0.296168 0.296168
0.308640 0.308640 0.308640
0.321538 0.321538 0.321538
0.334818 0.334818 0.334818
0.348440 0.348440 0.348440
0.362366 0.362366 0.362366
0.376564 0.376564 0.376564
0.391007 0.391007 0.391007
0.405668 0.405668 0.405668
0.500550 0.500550 0.500550
0.516300 0.516300 0.516300
0.532215 0.532215 0.532215
0.538903 0.538903 0.538903
0.538903 0.538903 0.538903
0.538903 0.538903 0.538903
0.538903 0.538903 0.538903
0.538903 0.538903 0.538903
0.538903 0.538903 0.538903
0.538903 0.538903 0.538903
0.224172 0.224172 0.224172
0.225802 0.225802 0.225802
0.227660 0.227660 0.227660
0.230303 0.230303 0.230303
0.233805 0.233805 0.233805
0.238192 0.238192 0.238192
0.243469 0.243469 0.243469
0.249622 0.249622 0.249622
0.256626 0.256626 0.256626
0.264443 0.264443 0.264443
0.273027 0.273027 0.273027
0.282329 0.282329 0.282329
0.292295 0.292295 0.292295
0.302873 0.302873 0.302873
0.314010 0.314010 0.314010
0.325658 0.325658 0.325658
0.337769 0.337769 0.337769
0.350300 0.350300 0.350300
0.363211 0.363211 0.363211
0.376466 0.376466 0.376466
0.390031 0.390031 0.390031
0.403876 0.403876 0.403876
0.417975 0.417975 0.417975
0.512889 0.512889 0.512889
0.528118 0.528118 0.528118
0.543544 0.543544 0.543544
0.550036 0.550036 0.550036
0.550036 0.550036 0.550036
0.550036 0.550036 0.550036
0.550036 0.550036 0.550036
0.550036 0.550036 0.550036
0.550036 0.550036 0.550036
0.550036 0.550036 0.550036
0.251874 0.251874 0.251874
0.253298 0.253298 0.253298
0.254923 0.254923 0.254923
0.257240 0.257240 0.257240
0.260320 0.260320 0.260320
0.264193 0.264193 0.264193
0.268873 0.268873 0.268873
0.274357 0.274357 0.274357
0.280634 0.280634 0.280634
0.287680 0.287680 0.287680
0.295463 0.295463 0.295463
0.303946 0.303946 0.303946
0.313088 0.313088 0.313088
0.322847 0.322847 0.322847
0.333178 0.333178 0.333178
0.344038 0.344038 0.344038
0.355385 0.355385 0.355385
0.367180 0.367180 0.367180
0.379385 0.379385 0.379385
0.391964 0.391964 0.391964
0.404885 0.404885 0.404885
0.418118 0.418118 0.418118
0.512190 0.512190 0.512190
0.526624 0.526624 0.526624
0.541306 0.541306 0.541306
0.556215 0.556215 0.556215
0.562499 0.562499 0.562499
0.562499 0.562499 0.562499
0.562499 0.562499 0.562499
0.562499 0.562499 0.562499
0.562499 0.562499 0.562499
0.562499 0.562499 0.562499
0.562499 0.562499 0.562499
0.279576 0.279576 0.279576
0.280834 0.280834 0.280834
0.282272 0.282272 0.282272
0.284326 0.284326 0.284326
0.287062 0.287062 0.287062
0.290512 0.290512 0.290512
0.294696 0.294696 0.294696
0.299618 0.299618 0.299618
0.305275 0.305275 0.305275
0.311654 0.311654 0.311654
0.318734 0.318734 0.318734
0.326489 0.326489 0.326489
0.334887 0.334887 0.334887
0.343895 0.343895 0.343895
0.353477 0.353477 0.353477
0.363596 0.363596 0.363596
0.374216 0.374216 0.374216
0.385301 0.385301 0.385301
0.396816 0.396816 0.396816
0.408730 0.408730 0.408730
0.501059 0.501059 0.501059
0.514278 0.514278 0.514278
0.527823 0.527823 0.527823
0.541668 0.541668 0.541668
0.555788 0.555788 0.555788
0.570162 0.570162 0.570162
0.576230 0.576230 0.576230
0.576230 0.576230 0.576230
0.576230 0.576230 0.576230
0.576230 0.576230 0.576230
0.576230 0.576230 0.576230
0.576230 0.576230 0.576230
0.576230 0.576230 0.576230
0.307278 0.307278 0.307278
0.308401 0.308401 0.308401
0.309685 0.309685 0.309685
0.311522 0.311522 0.311522
0.313974 0.313974 0.313974
0.317073 0.317073 0.317073
0.320840 0.320840 0.320840
0.325286 0.325286 0.325286
0.330412 0.330412 0.330412
0.336214 0.336214 0.336214
0.342679 0.342679 0.342679
0.349788 0.349788 0.349788
0.357519 0.357519 0.357519
0.365846 0.365846 0.365846
0.374739 0.374739 0.374739
0.384169 0.384169 0.384169
0.394104 0.394104 0.394104
0.404514 0.404514 0.404514
0.415368 0.415368 0.415368
0.506952 0.506952 0.506952
0.519160 0.519160 0.519160
0.531744 0.531744 0.531744
0.544675 0.544675 0.544675
0.557929 0.557929 0.557929
0.571481 0.571481 0.571481
0.585311 0.585311 0.585311
0.591159 0.591159 0.591159
0.591159 0.591159 0.591159
0.591159 0.591159 0.591159
0.591159 0.591159 0.591159
0.591159 0.591159 0.591159
0.591159 0.591159 0.591159
0.591159 0.591159 0.591159
0.334980 0.334980 0.334980
0.335990 0.335990 0.335990
0.337148 0.337148 0.337148
0.338804 0.338804 0.338804
0.341018 0.341018 0.341018
0.343821 0.343821 0.343821
0.347235 0.347235 0.347235
0.351274 0.351274 0.351274
0.355944 0.355944 0.355944
0.361245 0.361245 0.361245
0.367171 0.367171 0.367171
0.373709 0.373709 0.373709
0.380843 0.380843 0.380843
0.388553 0.388553 0.388553
0.396818 0.396818 0.396818
0.405612 0.405612 0.405612
0.414909 0.414909 0.414909
0.504907 0.504907 0.504907
0.515620 0.515620 0.515620
0.526776 0.526776 0.526776
0.538349 0.538349 0.538349
0.550313 0.550313 0.550313
0.562641 0.562641 0.562641
0.575311 0.575311 0.575311
0.588298 0.588298 0.588298
0.601581 0.601581 0.601581
0.607207 0.607207 0.607207
0.607207 0.607207 0.607207
0.607207 0.607207 0.607207
0.607207 0.607207 0.607207
0.607207 0.607207 0.607207
0.607207 0.607207 0.607207
0.607207 0.607207 0.607207
0.362682 0.362682 0.362682
0.363598 0.363598 0.363598
0.364648 0.364648 0.364648
0.366152 0.366152 0.366152
0.368165 0.368165 0.368165
0.370716 0.370716 0.370716
0.373828 0.373828 0.373828
0.377517 0.377517 0.377517
0.381793 0.381793 0.381793
0.386657 0.386657 0.386657
0.392109 0.392109 0.392109
0.398141 0.398141 0.398141
0.404741 0.404741 0.404741
0.411897 0.411897 0.411897
0.419590 0.419590 0.419590
0.508172 0.508172 0.508172
0.517294 0.517294 0.517294
0.526913 0.526913 0.526913
0.537005 0.537005 0.537005
0.547546 0.547546 0.547546
0.558512 0.558512 0.558512
0.569878 0.569878 0.569878
0.581621 0.581621 0.581621
0.593718 0.593718 0.593718
0.606149 0.606149 0.606149
0.618891 0.618891 0.618891
0.624296 0.624296 0.624296
0.624296 0.624296 0.624296
0.624296 0.624296 0.624296
0.624296 0.624296 0.624296
0.624296 0.624296 0.624296
0.624296 0.624296 0.624296
0.624296 0.624296 0.624296
0.390384 0.390384 0.390384
0.391220 0.391220 0.391220
0.392179 0.392179 0.392179
0.393553 0.393553 0.393553
0.395393 0.395393 0.395393
0.397728 0.397728 0.397728
0.400580 0.400580 0.400580
0.403967 0.403967 0.403967
0.407899 0.407899 0.407899
0.412381 0.412381 0.412381
0.417415 0.417415 0.417415
0.503140 0.503140 0.503140
0.509556 0.509556 0.509556
0.516528 0.516528 0.516528
0.524044 0.524044 0.524044
0.532087 0.532087 0.532087
0.540639 0.540639 0.540639
0.549681 0.549681 0.549681
0.559193 0.559193 0.559193
0.569154 0.569154 0.569154
0.579543 0.579543 0.579543
0.590337 0.590337 0.590337
0.601516 0.601516 0.601516
0.613060 0.613060 0.613060
0.624947 0.624947 0.624947
0.637159 0.637159 0.637159
0.642347 0.642347 0.642347
0.642347 0.642347 0.642347
0.642347 0.642347 0.642347
0.642347 0.642347 0.642347
0.642347 0.642347 0.642347
0.642347 0.642347 0.642347
0.642347 0.642347 0.642347
0.418086 0.418086 0.418086
0.418853 0.418853 0.418853
0.419733 0.419733 0.419733
0.501043 0.501043 0.501043
0.502814 0.502814 0.502814
0.505064 0.505064 0.505064
0.507817 0.507817 0.507817
0.511088 0.511088 0.511088
0.514892 0.514892 0.514892
0.519235 0.519235 0.519235
0.524122 0.524122 0.524122
0.529552 0.529552 0.529552
0.535520 0.535520 0.535520
0.542021 0.542021 0.542021
0.549044 0.549044 0.549044
0.556577 0.556577 0.556577
0.564605 0.564605 0.564605
0.573114 0.573114 0.573114
0.582086 0.582086 0.582086
0.591502 0.591502 0.591502
0.601346 0.601346 0.601346
0.611597 0.611597 0.611597
0.622238 0.622238 0.622238
0.633248 0.633248 0.633248
0.644610 0.644610 0.644610
0.656306 0.656306 0.656306
0.661281 0.661281 0.661281
0.661281 0.661281 0.661281
0.661281 0.661281 0.661281
0.661281 0.661281 0.661281
0.661281 0.661281 0.661281
0.661281 0.661281 0.661281
0.661281 0.661281 0.661281
0.527016 0.527016 0.527016
0.527757 0.527757 0.527757
0.528608 0.528608 0.528608
0.529828 0.529828 0.529828
0.531464 0.531464 0.531464
0.533543 0.533543 0.533543
0.536089 0.536089 0.536089
0.539118 0.539118 0.539118
0.542644 0.542644 0.542644
0.546676 0.546676 0.546676
0.551219 0.551219 0.551219
0.556275 0.556275 0.556275
0.561843 0.561843 0.561843
0.567918 0.567918 0.567918
0.574494 0.574494 0.574494
0.581562 0.581562 0.581562
0.589110 0.589110 0.589110
0.597126 0.597126 0.597126
0.605595 0.605595 0.605595
0.614504 0.614504 0.614504
0.623835 0.623835 0.623835
0.633573 0.633573 0.633573
0.643701 0.643701 0.643701
0.654202 0.654202 0.654202
0.665060 0.665060 0.665060
0.676257 0.676257 0.676257
0.681026 0.681026 0.681026
0.681026 0.681026 0.681026
0.681026 0.681026 0.681026
0.681026 0.681026 0.681026
0.681026 0.681026 0.681026
0.681026 0.681026 0.681026
0.681026 0.681026 0.681026
0.556037 0.556037 0.556037
0.556724 0.556724 0.556724
0.557512 0.557512 0.557512
0.558643 0.558643 0.558643
0.560160 0.560160 0.560160
0.562089 0.562089 0.562089
0.564453 0.564453 0.564453
0.567268 0.567268 0.567268
0.570548 0.570548 0.570548
0.574303 0.574303 0.574303
0.578540 0.578540 0.578540
0.583262 0.583262 0.583262
0.588469 0.588469 0.588469
0.594160 0.594160 0.594160
0.600331 0.600331 0.600331
0.606974 0.606974 0.606974
0.614081 0.614081 0.614081
0.621643 0.621643 0.621643
0.629647 0.629647 0.629647
0.638082 0.638082 0.638082
0.646934 0.646934 0.646934
0.656189 0.656189 0.656189
0.665831 0.665831 0.665831
0.675848 0.675848 0.675848
0.686222 0.686222 0.686222
0.696940 0.696940 0.696940
0.701510 0.701510 0.701510
0.701510 0.701510 0.701510
0.701510 0.701510 0.701510
0.701510 0.701510 0.701510
0.701510 0.701510 0.701510
0.701510 0.701510 0.701510
0.701510 0.701510 0.701510
0.585058 0.585058 0.585058
0.585697 0.585697 0.585697
0.586430 0.586430 0.586430
0.587482 0.587482 0.587482
0.588894 0.588894 0.588894
0.590691 0.590691 0.590691
0.592893 0.592893 0.592893
0.595519 0.595519 0.595519
0.598580 0.598580 0.598580
0.602089 0.602089 0.602089
0.606051 0.606051 0.606051
0.610473 0.610473 0.610473
0.615355 0.615355 0.615355
0.620699 0.620699 0.620699
0.626500 0.626500 0.626500
0.632756 0.632756 0.632756
0.639459 0.639459 0.639459
0.646602 0.646602 0.646602
0.654176 0.654176 0.654176
0.662170 0.662170 0.662170
0.670573 0.670573 0.670573
0.679374 0.679374 0.679374
0.688559 0.688559 0.688559
0.698116 0.698116 0.698116
0.708030 0.708030 0.708030
0.718289 0.718289 0.718289
0.722669 0.722669 0.722669
0.722669 0.722669 0.722669
0.722669 0.722669 0.722669
0.722669 0.722669 0.722669
0.722669 0.722669 0.722669
0.722669 0.722669 0.722669
0.722669 0.722669 0.722669
0.614080 0.614080 0.614080
0.614676 0.614676 0.614676
0.615360 0.615360 0.615360
0.616342 0.616342 0.616342
0.617661 0.617661 0.617661
0.619340 0.619340 0.619340
0.621399 0.621399 0.621399
0.623855 0.623855 0.623855
0.626721 0.626721 0.626721
0.630008 0.630008 0.630008
0.633725 0.633725 0.633725
0.637875 0.637875 0.637875
0.642464 0.642464 0.642464
0.647492 0.647492 0.647492
0.652958 0.652958 0.652958
0.658859 0.658859 0.658859
0.665191 0.665191 0.665191
0.671948 0.671948 0.671948
0.679124 0.679124 0.679124
0.686709 0.686709 0.686709
0.694694 0.694694 0.694694
0.703069 0.703069 0.703069
0.711823 0.711823 0.711823
0.720945 0.720945 0.720945
0.730423 0.730423 0.730423
0.740244 0.740244 0.740244
0.744442 0.744442 0.744442
0.744442 0.744442 0.744442
0.744442 0.744442 0.744442
0.744442 0.744442 0.744442
0.744442 0.744442 0.744442
0.744442 0.744442 0.744442
0.744442 0.744442 0.744442
0.643101 0.643101 0.643101
0.643659 0.643659 0.643659
0.644299 0.644299 0.644299
0.645220 0.645220 0.645220
0.646455 0.646455 0.646455
0.648029 0.648029 0.648029
0.649960 0.649960 0.649960
0.652264 0.652264 0.652264
0.654955 0.654955 0.654955
0.658043 0.658043 0.658043
0.661537 0.661537 0.661537
0.665443 0.665443 0.665443
0.669765 0.669765 0.669765
0.674506 0.674506 0.674506
0.679666 0.679666 0.679666
0.685242 0.685242 0.685242
0.691234 0.691234 0.691234
0.697636 0.697636 0.697636
0.704442 0.704442 0.704442
0.711647 0.711647 0.711647
0.719242 0.719242 0.719242
0.727218 0.727218 0.727218
0.735567 0.735567 0.735567
0.744279 0.744279 0.744279
0.753343 0.753343 0.753343
0.762749 0.762749 0.762749
0.766773 0.766773 0.766773
0.766773 0.766773 0.766773
0.766773 0.766773 0.766773
0.766773 0.766773 0.766773
0.766773 0.766773 0.766773
0.766773 0.766773 0.766773
0.766773 0.766773 0.766773
0.672122 0.672122 0.672122
0.672646 0.672646 0.672646
0.673248 0.673248 0.673248
0.674112 0.674112 0.674112
0.675273 0.675273 0.675273
0.676752 0.676752 0.676752
0.678568 0.678568 0.678568
0.680735 0.680735 0.680735
0.683268 0.683268 0.683268
0.686176 0.686176 0.686176
0.689469 0.689469 0.689469
0.693153 0.693153 0.693153
0.697234 0.697234 0.697234
0.701713 0.701713 0.701713
0.706592 0.706592 0.706592
0.711871 0.711871 0.711871
0.717550 0.717550 0.717550
0.723623 0.723623 0.723623
0.730088 0.730088 0.730088
0.736939 0.736939 0.736939
0.744171 0.744171 0.744171
0.751774 0.751774 0.751774
0.759743 0.759743 0.759743
0.768069 0.768069 0.768069
0.776742 0.776742 0.776742
0.785753 0.785753 0.785753
0.789612 0.789612 0.789612
0.789612 0.789612 0.789612
0.789612 0.789612 0.789612
0.789612 0.789612 0.789612
0.789612 0.789612 0.789612
0.789612 0.789612 0.789612
0.789612 0.789612 0.789612
0.701143 0.701143 0.701143
0.701637 0.701637 0.701637
0.702203 0.702203 0.702203
0.703018 0.703018 0.703018
0.704111 0.704111 0.704111
0.705505 0.705505 0.705505
0.707216 0.707216 0.707216
0.709261 0.709261 0.709261
0.711650 0.711650 0.711650
0.714395 0.714395 0.714395
0.717506 0.717506 0.717506
0.720988 0.720988 0.720988
0.724847 0.724847 0.724847
0.729087 0.729087 0.729087
0.733710 0.733710 0.733710
0.738716 0.738716 0.738716
0.744105 0.744105 0.744105
0.749876 0.749876 0.749876
0.756025 0.756025 0.756025
0.762548 0.762548 0.762548
0.769440 0.769440 0.769440
0.776695 0.776695 0.776695
0.784307 0.784307 0.784307
0.792269 0.792269 0.792269
0.800573 0.800573 0.800573
0.809211 0.809211 0.809211
0.812912 0.812912 0.812912
0.812912 0.812912 0.812912
0.812912 0.812912 0.812912
0.812912 0.812912 0.812912
0.812912 0.812912 0.812912
0.812912 0.812912 0.812912
0.812912 0.812912 0.812912
0.730164 0.730164 0.730164
0.730630 0.730630 0.730630
0.731165 0.731165 0.731165
0.731934 0.731934 0.731934
0.732967 0.732967 0.732967
0.734283 0.734283 0.734283
0.735900 0.735900 0.735900
0.737832 0.737832 0.737832
0.740092 0.740092 0.740092
0.742689 0.742689 0.742689
0.745633 0.745633 0.745633
0.748931 0.748931 0.748931
0.752588 0.752588 0.752588
0.756609 0.756609 0.756609
0.760996 0.760996 0.760996
0.765751 0.765751 0.765751
0.770874 0.770874 0.770874
0.776364 0.776364 0.776364
0.782220 0.782220 0.782220
0.788437 0.788437 0.788437
0.795013 0.795013 0.795013
0.801943 0.801943 0.801943
0.809220 0.809220 0.809220
0.816840 0.816840 0.816840
0.824796 0.824796 0.824796
0.833080 0.833080 0.833080
0.836632 0.836632 0.836632
0.836632 0.836632 0.836632
0.836632 0.836632 0.836632
0.836632 0.836632 0.836632
0.836632 0.836632 0.836632
0.836632 0.836632 0.836632
0.836632 0.836632 0.836632
0.759186 0.759186 0.759186
0.759626 0.759626 0.759626
0.760132 0.760132 0.760132
0.760860 0.760860 0.760860
0.761837 0.761837 0.761837
0.763084 0.763084 0.763084
0.764615 0.764615 0.764615
0.766445 0.766445 0.766445
0.768586 0.768586 0.768586
0.771048 0.771048 0.771048
0.773840 0.773840 0.773840
0.776969 0.776969 0.776969
0.780441 0.780441 0.780441
0.784260 0.784260 0.784260
0.788431 0.788431 0.788431
0.792954 0.792954 0.792954
0.797831 0.797831 0.797831
0.803061 0.803061 0.803061
0.808645 0.808645 0.808645
0.814578 0.814578 0.814578
0.820859 0.820859 0.820859
0.827484 0.827484 0.827484
0.834448 0.834448 0.834448
0.841746 0.841746 0.841746
0.849373 0.849373 0.849373
0.857323 0.857323 0.857323
0.860734 0.860734 0.860734
0.860734 0.860734 0.860734
0.860734 0.860734 0.860734
0.860734 0.860734 0.860734
0.860734 0.860734 0.860734
0.860734 0.860734 0.860734
0.860734 0.860734 0.860734
0.788207 0.788207 0.788207
0.788624 0.788624 0.788624
0.789104 0.789104 0.789104
0.789794 0.789794 0.789794
0.790722 0.790722 0.790722
0.791904 0.791904 0.791904
0.793356 0.793356 0.793356
0.795093 0.795093 0.795093
0.797126 0.797126 0.797126
0.799464 0.799464 0.799464
0.802116 0.802116 0.802116
0.805090 0.805090 0.805090
0.808392 0.808392 0.808392
0.812027 0.812027 0.812027
0.815997 0.815997 0.815997
0.820306 0.820306 0.820306
0.824955 0.824955 0.824955
0.829945 0.829945 0.829945
0.835275 0.835275 0.835275
0.840944 0.840944 0.840944
0.846950 0.846950 0.846950
0.853289 0.853289 0.853289
0.859959 0.859959 0.859959
0.866955 0.866955 0.866955
0.874273 0.874273 0.874273
0.881906 0.881906 0.881906
0.885184 0.885184 0.885184
0.885184 0.885184 0.885184
0.885184 0.885184 0.885184
0.885184 0.885184 0.885184
0.885184 0.885184 0.885184
0.885184 0.885184 0.885184
0.885184 0.885184 0.885184
0.817228 0.817228 0.817228
0.817625 0.817625 0.817625
0.818081 0.818081 0.818081
0.818736 0.818736 0.818736
0.819617 0.819617 0.819617
0.820741 0.820741 0.820741
0.822122 0.822122 0.822122
0.823773 0.823773 0.823773
0.825706 0.825706 0.825706
0.827930 0.827930 0.827930
0.830455 0.830455 0.830455
0.833286 0.833286 0.833286
0.836431 0.836431 0.836431
0.839895 0.839895 0.839895
0.843681 0.843681 0.843681
0.847792 0.847792 0.847792
0.852230 0.852230 0.852230
0.856996 0.856996 0.856996
0.862090 0.862090 0.862090
0.867513 0.867513 0.867513
0.873261 0.873261 0.873261
0.879333 0.879333 0.879333
0.885727 0.885727 0.885727
0.892439 0.892439 0.892439
