docs/luts/fuji_recipes/AcrosR_LC_Tri-X.cube
TITLE "Fujifilm Recipe: LC Tri-X (AcrosR)"
# FilmSim=AcrosR HL=3 SH=4 Col=0 WB=Auto WBR=0 WBB=0
LUT_3D_SIZE 5
DOMAIN_MIN 0.0 0.0 0.0
DOMAIN_MAX 1.0 1.0 1.0
0.000000 0.000000 0.000000
0.110504 0.110504 0.110504
0.238950 0.238950 0.238950
0.367395 0.367395 0.367395
0.535421 0.535421 0.535421
0.185068 0.185068 0.185068
0.219313 0.219313 0.219313
0.301079 0.301079 0.301079
0.407361 0.407361 0.407361
0.578027 0.578027 0.578027
0.374632 0.374632 0.374632
0.390583 0.390583 0.390583
0.522595 0.522595 0.522595
0.620990 0.620990 0.620990
0.694921 0.694921 0.694921
0.692261 0.692261 0.692261
0.705092 0.705092 0.705092
0.744477 0.744477 0.744477
0.812773 0.812773 0.812773
0.867864 0.867864 0.867864
0.848050 0.848050 0.848050
0.858129 0.858129 0.858129
0.889514 0.889514 0.889514
0.945390 0.945390 0.945390
0.991631 0.991631 0.991631
0.042753 0.042753 0.042753
0.126168 0.126168 0.126168
0.246080 0.246080 0.246080
0.371675 0.371675 0.371675
0.539898 0.539898 0.539898
0.194524 0.194524 0.194524
0.227167 0.227167 0.227167
0.306525 0.306525 0.306525
0.411128 0.411128 0.411128
0.582129 0.582129 0.582129
0.378810 0.378810 0.378810
0.394552 0.394552 0.394552
0.527196 0.527196 0.527196
0.624766 0.624766 0.624766
0.698230 0.698230 0.698230
0.695584 0.695584 0.695584
0.708344 0.708344 0.708344
0.747525 0.747525 0.747525
0.815515 0.815515 0.815515
0.870395 0.870395 0.870395
0.850653 0.850653 0.850653
0.860695 0.860695 0.860695
0.891970 0.891970 0.891970
0.947668 0.947668 0.947668
0.993778 0.993778 0.993778
0.115665 0.115665 0.115665
0.166459 0.166459 0.166459
0.267454 0.267454 0.267454
0.385004 0.385004 0.385004
0.553976 0.553976 0.553976
0.221821 0.221821 0.221821
0.250449 0.250449 0.250449
0.323244 0.323244 0.323244
0.503899 0.503899 0.503899
0.595065 0.595065 0.595065
0.391838 0.391838 0.391838
0.406954 0.406954 0.406954
0.541652 0.541652 0.541652
0.636699 0.636699 0.636699
0.708717 0.708717 0.708717
0.706118 0.706118 0.706118
0.718655 0.718655 0.718655
0.757200 0.757200 0.757200
0.824233 0.824233 0.824233
0.878452 0.878452 0.878452
0.858938 0.858938 0.858938
0.868862 0.868862 0.868862
0.899790 0.899790 0.899790
0.954929 0.954929 0.954929
1.000000 1.000000 1.000000
0.188578 0.188578 0.188578
0.222214 0.222214 0.222214
0.303079 0.303079 0.303079
0.408739 0.408739 0.408739
0.579526 0.579526 0.579526
0.264860 0.264860 0.264860
0.288584 0.288584 0.288584
0.352248 0.352248 0.352248
0.532213 0.532213 0.532213
0.618668 0.618668 0.618668
0.415088 0.415088 0.415088
0.512249 0.512249 0.512249
0.567839 0.567839 0.567839
0.658570 0.658570 0.658570
0.728052 0.728052 0.728052
0.725536 0.725536 0.725536
0.737680 0.737680 0.737680
0.775095 0.775095 0.775095
0.840414 0.840414 0.840414
0.893441 0.893441 0.893441
0.874338 0.874338 0.874338
0.884051 0.884051 0.884051
0.914350 0.914350 0.914350
0.968471 0.968471 0.968471
1.000000 1.000000 1.000000
0.233519 0.233519 0.233519
0.260663 0.260663 0.260663
0.330829 0.330829 0.330829
0.511182 0.511182 0.511182
0.601099 0.601099 0.601099
0.296979 0.296979 0.296979
0.317872 0.317872 0.317872
0.375652 0.375652 0.375652
0.555912 0.555912 0.555912
0.638711 0.638711 0.638711
0.519168 0.519168 0.519168
0.536953 0.536953 0.536953
0.589906 0.589906 0.589906
0.677233 0.677233 0.677233
0.744665 0.744665 0.744665
0.742217 0.742217 0.742217
0.754039 0.754039 0.754039
0.790526 0.790526 0.790526
0.854424 0.854424 0.854424
0.906453 0.906453 0.906453
0.887695 0.887695 0.887695
0.897231 0.897231 0.897231
0.927001 0.927001 0.927001
0.980263 0.980263 0.980263
1.000000 1.000000 1.000000
