docs/luts/fuji_recipes/AcrosR_HH_Fuji_Acros.cube
TITLE "Fujifilm Recipe: HH Fuji Acros (AcrosR)"
# FilmSim=AcrosR HL=0 SH=3 Col=0 WB=Auto WBR=0 WBB=0
LUT_3D_SIZE 9
DOMAIN_MIN 0.0 0.0 0.0
DOMAIN_MAX 1.0 1.0 1.0
0.000000 0.000000 0.000000
0.039677 0.039677 0.039677
0.100842 0.100842 0.100842
0.162007 0.162007 0.162007
0.223172 0.223172 0.223172
0.284336 0.284336 0.284336
0.345501 0.345501 0.345501
0.406666 0.406666 0.406666
0.531626 0.531626 0.531626
0.081587 0.081587 0.081587
0.100835 0.100835 0.100835
0.138582 0.138582 0.138582
0.187421 0.187421 0.187421
0.241596 0.241596 0.241596
0.298443 0.298443 0.298443
0.356747 0.356747 0.356747
0.415907 0.415907 0.415907
0.540459 0.540459 0.540459
0.171856 0.171856 0.171856
0.181716 0.181716 0.181716
0.204470 0.204470 0.204470
0.239138 0.239138 0.239138
0.282343 0.282343 0.282343
0.331149 0.331149 0.331149
0.383564 0.383564 0.383564
0.438337 0.438337 0.438337
0.562154 0.562154 0.562154
0.262124 0.262124 0.262124
0.268326 0.268326 0.268326
0.283390 0.283390 0.283390
0.308105 0.308105 0.308105
0.341317 0.341317 0.341317
0.381283 0.381283 0.381283
0.426326 0.426326 0.426326
0.539881 0.539881 0.539881
0.598396 0.598396 0.598396
0.352393 0.352393 0.352393
0.356759 0.356759 0.356759
0.367585 0.367585 0.367585
0.385969 0.385969 0.385969
0.411741 0.411741 0.411741
0.504670 0.504670 0.504670
0.547753 0.547753 0.547753
0.595934 0.595934 0.595934
0.648153 0.648153 0.648153
0.503025 0.503025 0.503025
0.506769 0.506769 0.506769
0.516145 0.516145 0.516145
0.532351 0.532351 0.532351
0.555621 0.555621 0.555621
0.585654 0.585654 0.585654
0.621813 0.621813 0.621813
0.663300 0.663300 0.663300
0.709296 0.709296 0.709296
0.605603 0.605603 0.605603
0.608564 0.608564 0.608564
0.616018 0.616018 0.616018
0.629032 0.629032 0.629032
0.647986 0.647986 0.647986
0.672879 0.672879 0.672879
0.703422 0.703422 0.703422
0.739142 0.739142 0.739142
0.779472 0.779472 0.779472
0.708181 0.708181 0.708181
0.710602 0.710602 0.710602
0.716718 0.716718 0.716718
0.727459 0.727459 0.727459
0.743243 0.743243 0.743243
0.764211 0.764211 0.764211
0.790277 0.790277 0.790277
0.821189 0.821189 0.821189
0.856584 0.856584 0.856584
0.810759 0.810759 0.810759
0.812790 0.812790 0.812790
0.817929 0.817929 0.817929
0.826990 0.826990 0.826990
0.840385 0.840385 0.840385
0.858316 0.858316 0.858316
0.880812 0.880812 0.880812
0.907764 0.907764 0.907764
0.938957 0.938957 0.938957
0.010248 0.010248 0.010248
0.048482 0.048482 0.048482
0.105257 0.105257 0.105257
0.164767 0.164767 0.164767
0.225111 0.225111 0.225111
0.285799 0.285799 0.285799
0.346657 0.346657 0.346657
0.407611 0.407611 0.407611
0.532526 0.532526 0.532526
0.086902 0.086902 0.086902
0.105250 0.105250 0.105250
0.141829 0.141829 0.141829
0.189780 0.189780 0.189780
0.243366 0.243366 0.243366
0.299823 0.299823 0.299823
0.357858 0.357858 0.357858
0.416825 0.416825 0.416825
0.541341 0.541341 0.541341
0.174447 0.174447 0.174447
0.184155 0.184155 0.184155
0.206611 0.206611 0.206611
0.240929 0.240929 0.240929
0.283817 0.283817 0.283817
0.332366 0.332366 0.332366
0.384580 0.384580 0.384580
0.439197 0.439197 0.439197
0.562993 0.562993 0.562993
0.263734 0.263734 0.263734
0.269892 0.269892 0.269892
0.284858 0.284858 0.284858
0.309433 0.309433 0.309433
0.342490 0.342490 0.342490
0.382307 0.382307 0.382307
0.427216 0.427216 0.427216
0.540763 0.540763 0.540763
0.599170 0.599170 0.599170
0.353521 0.353521 0.353521
0.357870 0.357870 0.357870
0.368656 0.368656 0.368656
0.386977 0.386977 0.386977
0.412671 0.412671 0.412671
0.505631 0.505631 0.505631
0.548620 0.548620 0.548620
0.596712 0.596712 0.596712
0.648852 0.648852 0.648852
0.503990 0.503990 0.503990
0.507725 0.507725 0.507725
0.517079 0.517079 0.517079
0.533250 0.533250 0.533250
0.556472 0.556472 0.556472
0.586450 0.586450 0.586450
0.622550 0.622550 0.622550
0.663978 0.663978 0.663978
0.709918 0.709918 0.709918
0.606365 0.606365 0.606365
0.609321 0.609321 0.609321
0.616764 0.616764 0.616764
0.629758 0.629758 0.629758
0.648685 0.648685 0.648685
0.673545 0.673545 0.673545
0.704050 0.704050 0.704050
0.739731 0.739731 0.739731
0.780021 0.780021 0.780021
0.708804 0.708804 0.708804
0.711223 0.711223 0.711223
0.717331 0.717331 0.717331
0.728060 0.728060 0.728060
0.743829 0.743829 0.743829
0.764775 0.764775 0.764775
0.790817 0.790817 0.790817
0.821703 0.821703 0.821703
0.857070 0.857070 0.857070
0.811281 0.811281 0.811281
0.813310 0.813310 0.813310
0.818445 0.818445 0.818445
0.827499 0.827499 0.827499
0.840883 0.840883 0.840883
0.858800 0.858800 0.858800
0.881281 0.881281 0.881281
0.908215 0.908215 0.908215
0.939387 0.939387 0.939387
0.036317 0.036317 0.036317
0.066957 0.066957 0.066957
0.115761 0.115761 0.115761
0.171578 0.171578 0.171578
0.229963 0.229963 0.229963
0.289480 0.289480 0.289480
0.349577 0.349577 0.349577
0.410003 0.410003 0.410003
0.534809 0.534809 0.534809
0.099260 0.099260 0.099260
0.115754 0.115754 0.115754
0.149762 0.149762 0.149762
0.195640 0.195640 0.195640
0.247806 0.247806 0.247806
0.303302 0.303302 0.303302
0.360667 0.360667 0.360667
0.419152 0.419152 0.419152
0.543577 0.543577 0.543577
0.180861 0.180861 0.180861
0.190209 0.190209 0.190209
0.211951 0.211951 0.211951
0.245421 0.245421 0.245421
0.287530 0.287530 0.287530
0.335440 0.335440 0.335440
0.387151 0.387151 0.387151
0.501565 0.501565 0.501565
0.565120 0.565120 0.565120
0.267780 0.267780 0.267780
0.273830 0.273830 0.273830
0.288554 0.288554 0.288554
0.312783 0.312783 0.312783
0.345454 0.345454 0.345454
0.384897 0.384897 0.384897
0.429473 0.429473 0.429473
0.543002 0.543002 0.543002
0.601136 0.601136 0.601136
0.356372 0.356372 0.356372
0.360679 0.360679 0.360679
0.371365 0.371365 0.371365
0.389529 0.389529 0.389529
0.415027 0.415027 0.415027
0.508068 0.508068 0.508068
0.550818 0.550818 0.550818
0.598688 0.598688 0.598688
0.650626 0.650626 0.650626
0.506437 0.506437 0.506437
0.510149 0.510149 0.510149
0.519448 0.519448 0.519448
0.535529 0.535529 0.535529
0.558631 0.558631 0.558631
0.588470 0.588470 0.588470
0.624421 0.624421 0.624421
0.665700 0.665700 0.665700
0.711498 0.711498 0.711498
0.608301 0.608301 0.608301
0.611245 0.611245 0.611245
0.618658 0.618658 0.618658
0.631602 0.631602 0.631602
0.650460 0.650460 0.650460
0.675236 0.675236 0.675236
0.705647 0.705647 0.705647
0.741229 0.741229 0.741229
0.781419 0.781419 0.781419
0.710387 0.710387 0.710387
0.712798 0.712798 0.712798
0.718890 0.718890 0.718890
0.729589 0.729589 0.729589
0.745315 0.745315 0.745315
0.766209 0.766209 0.766209
0.792190 0.792190 0.792190
0.823008 0.823008 0.823008
0.858306 0.858306 0.858306
0.812609 0.812609 0.812609
0.814633 0.814633 0.814633
0.819757 0.819757 0.819757
0.828792 0.828792 0.828792
0.842150 0.842150 0.842150
0.860032 0.860032 0.860032
0.882472 0.882472 0.882472
0.909359 0.909359 0.909359
0.940482 0.940482 0.940482
0.071038 0.071038 0.071038
0.092289 0.092289 0.092289
0.132457 0.132457 0.132457
0.183040 0.183040 0.183040
0.238332 0.238332 0.238332
0.295911 0.295911 0.295911
0.354712 0.354712 0.354712
0.414227 0.414227 0.414227
0.538849 0.538849 0.538849
0.118279 0.118279 0.118279
0.132452 0.132452 0.132452
0.162901 0.162901 0.162901
0.205628 0.205628 0.205628
0.255500 0.255500 0.255500
0.309388 0.309388 0.309388
0.365611 0.365611 0.365611
0.423262 0.423262 0.423262
0.547535 0.547535 0.547535
0.191714 0.191714 0.191714
0.200501 0.200501 0.200501
0.221110 0.221110 0.221110
0.253200 0.253200 0.253200
0.294011 0.294011 0.294011
0.340837 0.340837 0.340837
0.391685 0.391685 0.391685
0.505944 0.505944 0.505944
0.568889 0.568889 0.568889
0.274821 0.274821 0.274821
0.280691 0.280691 0.280691
0.295009 0.295009 0.295009
0.318652 0.318652 0.318652
0.350663 0.350663 0.350663
0.389463 0.389463 0.389463
0.433460 0.433460 0.433460
0.546966 0.546966 0.546966
0.604620 0.604620 0.604620
0.361389 0.361389 0.361389
0.365623 0.365623 0.365623
0.376135 0.376135 0.376135
0.394029 0.394029 0.394029
0.419188 0.419188 0.419188
0.512377 0.512377 0.512377
0.554711 0.554711 0.554711
0.602190 0.602190 0.602190
0.653775 0.653775 0.653775
0.510763 0.510763 0.510763
0.514436 0.514436 0.514436
0.523640 0.523640 0.523640
0.539562 0.539562 0.539562
0.562455 0.562455 0.562455
0.592050 0.592050 0.592050
0.627740 0.627740 0.627740
0.668758 0.668758 0.668758
0.714304 0.714304 0.714304
0.611732 0.611732 0.611732
0.614655 0.614655 0.614655
0.622016 0.622016 0.622016
0.634873 0.634873 0.634873
0.653610 0.653610 0.653610
0.678238 0.678238 0.678238
0.708483 0.708483 0.708483
0.743890 0.743890 0.743890
0.783903 0.783903 0.783903
0.713198 0.713198 0.713198
0.715598 0.715598 0.715598
0.721658 0.721658 0.721658
0.732305 0.732305 0.732305
0.747957 0.747957 0.747957
0.768758 0.768758 0.768758
0.794630 0.794630 0.794630
0.825330 0.825330 0.825330
0.860503 0.860503 0.860503
0.814969 0.814969 0.814969
0.816986 0.816986 0.816986
0.822091 0.822091 0.822091
0.831093 0.831093 0.831093
0.844403 0.844403 0.844403
0.862224 0.862224 0.862224
0.884590 0.884590 0.884590
0.911396 0.911396 0.911396
0.942430 0.942430 0.942430
0.105758 0.105758 0.105758
0.121394 0.121394 0.121394
0.154132 0.154132 0.154132
0.198924 0.198924 0.198924
0.250319 0.250319 0.250319
0.305282 0.305282 0.305282
0.362271 0.362271 0.362271
0.420484 0.420484 0.420484
0.544858 0.544858 0.544858
0.142201 0.142201 0.142201
0.154128 0.154128 0.154128
0.180752 0.180752 0.180752
0.219697 0.219697 0.219697
0.266590 0.266590 0.266590
0.318284 0.318284 0.318284
0.372899 0.372899 0.372899
0.429354 0.429354 0.429354
0.553424 0.553424 0.553424
0.206858 0.206858 0.206858
0.214951 0.214951 0.214951
0.234124 0.234124 0.234124
0.264403 0.264403 0.264403
0.303453 0.303453 0.303453
0.348767 0.348767 0.348767
0.398386 0.398386 0.398386
0.512445 0.512445 0.512445
0.574501 0.574501 0.574501
0.285028 0.285028 0.285028
0.290653 0.290653 0.290653
0.304413 0.304413 0.304413
0.327243 0.327243 0.327243
0.358328 0.358328 0.358328
0.396212 0.396212 0.396212
0.439375 0.439375 0.439375
0.552863 0.552863 0.552863
0.609815 0.609815 0.609815
0.368780 0.368780 0.368780
0.372910 0.372910 0.372910
0.383177 0.383177 0.383177
0.400681 0.400681 0.400681
0.425353 0.425353 0.425353
0.518776 0.518776 0.518776
0.560504 0.560504 0.560504
0.607412 0.607412 0.607412
0.658477 0.658477 0.658477
0.517188 0.517188 0.517188
0.520804 0.520804 0.520804
0.529868 0.529868 0.529868
0.545561 0.545561 0.545561
0.568148 0.568148 0.568148
0.597385 0.597385 0.597385
0.632693 0.632693 0.632693
0.673325 0.673325 0.673325
0.718499 0.718499 0.718499
0.616851 0.616851 0.616851
0.619743 0.619743 0.619743
0.627027 0.627027 0.627027
0.639754 0.639754 0.639754
0.658313 0.658313 0.658313
0.682723 0.682723 0.682723
0.712723 0.712723 0.712723
0.747871 0.747871 0.747871
0.787623 0.787623 0.787623
0.717402 0.717402 0.717402
0.719784 0.719784 0.719784
0.725799 0.725799 0.725799
0.736368 0.736368 0.736368
0.751910 0.751910 0.751910
0.772573 0.772573 0.772573
0.798284 0.798284 0.798284
0.828808 0.828808 0.828808
0.863796 0.863796 0.863796
0.818505 0.818505 0.818505
0.820510 0.820510 0.820510
0.825587 0.825587 0.825587
0.834539 0.834539 0.834539
0.847778 0.847778 0.847778
0.865508 0.865508 0.865508
0.887766 0.887766 0.887766
0.914449 0.914449 0.914449
0.945352 0.945352 0.945352
0.140478 0.140478 0.140478
0.152547 0.152547 0.152547
0.179424 0.179424 0.179424
0.218632 0.218632 0.218632
0.265741 0.265741 0.265741
0.317598 0.317598 0.317598
0.372335 0.372335 0.372335
0.428880 0.428880 0.428880
0.552966 0.552966 0.552966
0.169413 0.169413 0.169413
0.179420 0.179420 0.179420
0.202461 0.202461 0.202461
0.237462 0.237462 0.237462
0.280967 0.280967 0.280967
0.330015 0.330015 0.330015
0.382618 0.382618 0.382618
0.437538 0.437538 0.437538
0.561375 0.561375 0.561375
0.225785 0.225785 0.225785
0.233132 0.233132 0.233132
0.250717 0.250717 0.250717
0.278914 0.278914 0.278914
0.315855 0.315855 0.315855
0.359298 0.359298 0.359298
0.407357 0.407357 0.407357
0.521197 0.521197 0.521197
0.582087 0.582087 0.582087
0.298356 0.298356 0.298356
0.303687 0.303687 0.303687
0.316770 0.316770 0.316770
0.338598 0.338598 0.338598
0.368524 0.368524 0.368524
0.405242 0.405242 0.405242
0.508328 0.508328 0.508328
0.560824 0.560824 0.560824
0.616850 0.616850 0.616850
0.378630 0.378630 0.378630
0.382629 0.382629 0.382629
0.392582 0.392582 0.392582
0.409589 0.409589 0.409589
0.433631 0.433631 0.433631
0.527396 0.527396 0.527396
0.568329 0.568329 0.568329
0.614482 0.614482 0.614482
0.664857 0.664857 0.664857
0.525840 0.525840 0.525840
0.529382 0.529382 0.529382
0.538263 0.538263 0.538263
0.553656 0.553656 0.553656
0.575842 0.575842 0.575842
0.604607 0.604607 0.604607
0.639406 0.639406 0.639406
0.679526 0.679526 0.679526
0.724204 0.724204 0.724204
0.623784 0.623784 0.623784
0.626635 0.626635 0.626635
0.633818 0.633818 0.633818
0.646374 0.646374 0.646374
0.664695 0.664695 0.664695
0.688814 0.688814 0.688814
0.718487 0.718487 0.718487
0.753287 0.753287 0.753287
0.792687 0.792687 0.792687
0.723118 0.723118 0.723118
0.725475 0.725475 0.725475
0.731429 0.731429 0.731429
0.741894 0.741894 0.741894
0.757289 0.757289 0.757289
0.777766 0.777766 0.777766
0.803261 0.803261 0.803261
0.833547 0.833547 0.833547
0.868286 0.868286 0.868286
0.823322 0.823322 0.823322
0.825313 0.825313 0.825313
0.830350 0.830350 0.830350
0.839236 0.839236 0.839236
0.852379 0.852379 0.852379
0.869987 0.869987 0.869987
0.892098 0.892098 0.892098
0.918617 0.918617 0.918617
0.949341 0.949341 0.949341
0.175198 0.175198 0.175198
0.184863 0.184863 0.184863
0.207233 0.207233 0.207233
0.241451 0.241451 0.241451
0.284247 0.284247 0.284247
0.332722 0.332722 0.332722
0.384877 0.384877 0.384877
0.439449 0.439449 0.439449
0.563238 0.563238 0.563238
0.198779 0.198779 0.198779
0.207230 0.207230 0.207230
0.227149 0.227149 0.227149
0.258378 0.258378 0.258378
0.298360 0.298360 0.298360
0.344480 0.344480 0.344480
0.394757 0.394757 0.394757
0.508920 0.508920 0.508920
0.571456 0.571456 0.571456
0.247849 0.247849 0.247849
0.254462 0.254462 0.254462
0.270443 0.270443 0.270443
0.296450 0.296450 0.296450
0.331075 0.331075 0.331075
0.372384 0.372384 0.372384
0.418610 0.418610 0.418610
0.532253 0.532253 0.532253
0.591720 0.591720 0.591720
0.314606 0.314606 0.314606
0.319611 0.319611 0.319611
0.331939 0.331939 0.331939
0.352635 0.352635 0.352635
0.381221 0.381221 0.381221
0.416567 0.416567 0.416567
0.519732 0.519732 0.519732
0.570917 0.570917 0.570917
0.625804 0.625804 0.625804
0.390923 0.390923 0.390923
0.394768 0.394768 0.394768
0.404350 0.404350 0.404350
0.420768 0.420768 0.420768
0.504611 0.504611 0.504611
0.538292 0.538292 0.538292
0.578256 0.578256 0.578256
0.623480 0.623480 0.623480
0.672998 0.672998 0.672998
0.536776 0.536776 0.536776
0.540227 0.540227 0.540227
0.548886 0.548886 0.548886
0.563912 0.563912 0.563912
0.585606 0.585606 0.585606
0.613790 0.613790 0.613790
0.647962 0.647962 0.647962
0.687442 0.687442 0.687442
0.731499 0.731499 0.731499
0.632612 0.632612 0.632612
0.635413 0.635413 0.635413
0.642469 0.642469 0.642469
0.654812 0.654812 0.654812
0.672839 0.672839 0.672839
0.696595 0.696595 0.696595
0.725858 0.725858 0.725858
0.760222 0.760222 0.760222
0.799179 0.799179 0.799179
0.730428 0.730428 0.730428
0.732754 0.732754 0.732754
0.738632 0.738632 0.738632
0.748967 0.748967 0.748967
0.764177 0.764177 0.764177
0.784420 0.784420 0.784420
0.809642 0.809642 0.809642
0.839629 0.839629 0.839629
0.874052 0.874052 0.874052
0.829502 0.829502 0.829502
0.831473 0.831473 0.831473
0.836462 0.836462 0.836462
0.845264 0.845264 0.845264
0.858286 0.858286 0.858286
0.875738 0.875738 0.875738
0.897664 0.897664 0.897664
0.923972 0.923972 0.923972
0.954470 0.954470 0.954470
0.209919 0.209919 0.209919
0.217883 0.217883 0.217883
0.236784 0.236784 0.236784
0.266713 0.266713 0.266713
0.305414 0.305414 0.305414
0.350425 0.350425 0.350425
0.399793 0.399793 0.399793
0.513813 0.513813 0.513813
0.575685 0.575685 0.575685
0.229569 0.229569 0.229569
0.236781 0.236781 0.236781
0.254073 0.254073 0.254073
0.281877 0.281877 0.281877
0.318409 0.318409 0.318409
0.361482 0.361482 0.361482
0.409227 0.409227 0.409227
0.523029 0.523029 0.523029
0.583679 0.583679 0.583679
0.272420 0.272420 0.272420
0.278350 0.278350 0.278350
0.292805 0.292805 0.292805
0.316645 0.316645 0.316645
0.348880 0.348880 0.348880
0.387898 0.387898 0.387898
0.432092 0.432092 0.432092
0.545605 0.545605 0.545605
0.603422 0.603422 0.603422
0.333486 0.333486 0.333486
0.338153 0.338153 0.338153
0.349691 0.349691 0.349691
0.369178 0.369178 0.369178
0.396308 0.396308 0.396308
0.430129 0.430129 0.430129
0.533480 0.533480 0.533480
0.583155 0.583155 0.583155
0.636710 0.636710 0.636710
0.405563 0.405563 0.405563
0.409238 0.409238 0.409238
0.418409 0.418409 0.418409
0.434166 0.434166 0.434166
0.518868 0.518868 0.518868
0.551458 0.551458 0.551458
0.590300 0.590300 0.590300
0.634437 0.634437 0.634437
0.682943 0.682943 0.682943
0.549988 0.549988 0.549988
0.553335 0.553335 0.553335
0.561738 0.561738 0.561738
0.576340 0.576340 0.576340
0.597462 0.597462 0.597462
0.624966 0.624966 0.624966
0.658398 0.658398 0.658398
0.697122 0.697122 0.697122
0.740439 0.740439 0.740439
0.643370 0.643370 0.643370
0.646111 0.646111 0.646111
0.653019 0.653019 0.653019
0.665110 0.665110 0.665110
0.682787 0.682787 0.682787
0.706113 0.706113 0.706113
0.734887 0.734887 0.734887
0.768729 0.768729 0.768729
0.807155 0.807155 0.807155
0.739384 0.739384 0.739384
0.741674 0.741674 0.741674
0.747461 0.747461 0.747461
0.757639 0.757639 0.757639
0.772628 0.772628 0.772628
0.792590 0.792590 0.792590
0.817484 0.817484 0.817484
0.847109 0.847109 0.847109
0.881151 0.881151 0.881151
0.837101 0.837101 0.837101
0.839049 0.839049 0.839049
0.843979 0.843979 0.843979
0.852679 0.852679 0.852679
0.865555 0.865555 0.865555
0.882819 0.882819 0.882819
0.904519 0.904519 0.904519
0.930574 0.930574 0.930574
0.960796 0.960796 0.960796
0.244639 0.244639 0.244639
0.251351 0.251351 0.251351
0.267551 0.267551 0.267551
0.293861 0.293861 0.293861
0.328813 0.328813 0.328813
0.370429 0.370429 0.370429
0.416922 0.416922 0.416922
0.530589 0.530589 0.530589
0.590267 0.590267 0.590267
0.261325 0.261325 0.261325
0.267548 0.267548 0.267548
0.282662 0.282662 0.282662
0.307447 0.307447 0.307447
0.340736 0.340736 0.340736
0.380776 0.380776 0.380776
0.425885 0.425885 0.425885
0.539444 0.539444 0.539444
0.598013 0.598013 0.598013
0.298956 0.298956 0.298956
0.304274 0.304274 0.304274
0.317328 0.317328 0.317328
0.339113 0.339113 0.339113
0.368987 0.368987 0.368987
0.405654 0.405654 0.405654
0.508742 0.508742 0.508742
0.561189 0.561189 0.561189
0.617173 0.617173 0.617173
0.354667 0.354667 0.354667
0.358999 0.358999 0.358999
0.369744 0.369744 0.369744
0.388002 0.388002 0.388002
0.413617 0.413617 0.413617
0.506609 0.506609 0.506609
0.549502 0.549502 0.549502
0.597505 0.597505 0.597505
0.649564 0.649564 0.649564
0.422401 0.422401 0.422401
0.425895 0.425895 0.425895
0.434628 0.434628 0.434628
0.510996 0.510996 0.510996
0.535444 0.535444 0.535444
0.566838 0.566838 0.566838
0.604434 0.604434 0.604434
0.647349 0.647349 0.647349
0.694705 0.694705 0.694705
0.565419 0.565419 0.565419
0.568650 0.568650 0.568650
0.576771 0.576771 0.576771
0.590902 0.590902 0.590902
0.611384 0.611384 0.611384
0.638125 0.638125 0.638125
0.670719 0.670719 0.670719
0.708581 0.708581 0.708581
0.751048 0.751048 0.751048
0.656056 0.656056 0.656056
0.658729 0.658729 0.658729
0.665469 0.665469 0.665469
0.677274 0.677274 0.677274
0.694553 0.694553 0.694553
0.717385 0.717385 0.717385
0.745598 0.745598 0.745598
0.778839 0.778839 0.778839
0.816647 0.816647 0.816647
0.750012 0.750012 0.750012
0.752260 0.752260 0.752260
0.757942 0.757942 0.757942
0.767940 0.767940 0.767940
0.782671 0.782671 0.782671
0.802309 0.802309 0.802309
0.826822 0.826822 0.826822
0.856025 0.856025 0.856025
0.889621 0.889621 0.889621
0.846157 0.846157 0.846157
0.848077 0.848077 0.848077
0.852939 0.852939 0.852939
0.861520 0.861520 0.861520
0.874226 0.874226 0.874226
0.891269 0.891269 0.891269
0.912706 0.912706 0.912706
0.938461 0.938461 0.938461
0.968360 0.968360 0.968360
