docs/luts/fuji_recipes/AcrosR_GB_Oh_Sh_t.cube
TITLE "Fujifilm Recipe: GB Oh Sh*t (AcrosR)"
# FilmSim=AcrosR HL=-2 SH=-1 Col=0 WB=Daylight WBR=-2 WBB=1
LUT_3D_SIZE 9
DOMAIN_MIN 0.0 0.0 0.0
DOMAIN_MAX 1.0 1.0 1.0
0.040000 0.040000 0.040000
0.079948 0.079948 0.079948
0.143337 0.143337 0.143337
0.206726 0.206726 0.206726
0.270115 0.270115 0.270115
0.333504 0.333504 0.333504
0.396893 0.396893 0.396893
0.460282 0.460282 0.460282
0.503365 0.503365 0.503365
0.129004 0.129004 0.129004
0.148435 0.148435 0.148435
0.186373 0.186373 0.186373
0.235992 0.235992 0.235992
0.291444 0.291444 0.291444
0.349886 0.349886 0.349886
0.409977 0.409977 0.409977
0.471048 0.471048 0.471048
0.511674 0.511674 0.511674
0.227479 0.227479 0.227479
0.237385 0.237385 0.237385
0.259935 0.259935 0.259935
0.294520 0.294520 0.294520
0.338008 0.338008 0.338008
0.387505 0.387505 0.387505
0.440959 0.440959 0.440959
0.497041 0.497041 0.497041
0.531998 0.531998 0.531998
0.325954 0.325954 0.325954
0.332176 0.332176 0.332176
0.347026 0.347026 0.347026
0.371437 0.371437 0.371437
0.404448 0.404448 0.404448
0.444460 0.444460 0.444460
0.489855 0.489855 0.489855
0.517671 0.517671 0.517671
0.565716 0.565716 0.565716
0.424429 0.424429 0.424429
0.428807 0.428807 0.428807
0.439455 0.439455 0.439455
0.457521 0.457521 0.457521
0.482939 0.482939 0.482939
0.515041 0.515041 0.515041
0.530131 0.530131 0.530131
0.569134 0.569134 0.569134
0.611620 0.611620 0.611620
0.502662 0.502662 0.502662
0.505690 0.505690 0.505690
0.513120 0.513120 0.513120
0.525933 0.525933 0.525933
0.544361 0.544361 0.544361
0.568238 0.568238 0.568238
0.597124 0.597124 0.597124
0.630438 0.630438 0.630438
0.667558 0.667558 0.667558
0.592930 0.592930 0.592930
0.595325 0.595325 0.595325
0.601229 0.601229 0.601229
0.611501 0.611501 0.611501
0.626470 0.626470 0.626470
0.646178 0.646178 0.646178
0.670448 0.670448 0.670448
0.698955 0.698955 0.698955
0.731285 0.731285 0.731285
0.683199 0.683199 0.683199
0.685157 0.685157 0.685157
0.689999 0.689999 0.689999
0.698469 0.698469 0.698469
0.710912 0.710912 0.710912
0.727466 0.727466 0.727466
0.748102 0.748102 0.748102
0.772659 0.772659 0.772659
0.800885 0.800885 0.800885
0.773468 0.773468 0.773468
0.775110 0.775110 0.775110
0.779177 0.779177 0.779177
0.786318 0.786318 0.786318
0.796865 0.796865 0.796865
0.810995 0.810995 0.810995
0.828757 0.828757 0.828757
0.850096 0.850096 0.850096
0.874869 0.874869 0.874869
0.051651 0.051651 0.051651
0.090378 0.090378 0.090378
0.148643 0.148643 0.148643
0.210062 0.210062 0.210062
0.272465 0.272465 0.272465
0.335278 0.335278 0.335278
0.398297 0.398297 0.398297
0.461431 0.461431 0.461431
0.504248 0.504248 0.504248
0.135039 0.135039 0.135039
0.153516 0.153516 0.153516
0.190186 0.190186 0.190186
0.238800 0.238800 0.238800
0.293568 0.293568 0.293568
0.351550 0.351550 0.351550
0.411321 0.411321 0.411321
0.472161 0.472161 0.472161
0.512537 0.512537 0.512537
0.230424 0.230424 0.230424
0.240171 0.240171 0.240171
0.262408 0.262408 0.262408
0.296615 0.296615 0.296615
0.339751 0.339751 0.339751
0.388956 0.388956 0.388956
0.442177 0.442177 0.442177
0.498076 0.498076 0.498076
0.532815 0.532815 0.532815
0.327784 0.327784 0.327784
0.333960 0.333960 0.333960
0.348708 0.348708 0.348708
0.372972 0.372972 0.372972
0.405817 0.405817 0.405817
0.445665 0.445665 0.445665
0.490911 0.490911 0.490911
0.518520 0.518520 0.518520
0.566463 0.566463 0.566463
0.425711 0.425711 0.425711
0.430072 0.430072 0.430072
0.440678 0.440678 0.440678
0.458679 0.458679 0.458679
0.484015 0.484015 0.484015
0.516027 0.516027 0.516027
0.530952 0.530952 0.530952
0.569875 0.569875 0.569875
0.612289 0.612289 0.612289
0.503547 0.503547 0.503547
0.506567 0.506567 0.506567
0.513980 0.513980 0.513980
0.526762 0.526762 0.526762
0.545151 0.545151 0.545151
0.568981 0.568981 0.568981
0.597816 0.597816 0.597816
0.631079 0.631079 0.631079
0.668149 0.668149 0.668149
0.593630 0.593630 0.593630
0.596020 0.596020 0.596020
0.601914 0.601914 0.601914
0.612170 0.612170 0.612170
0.627116 0.627116 0.627116
0.646796 0.646796 0.646796
0.671035 0.671035 0.671035
0.699508 0.699508 0.699508
0.731804 0.731804 0.731804
0.683771 0.683771 0.683771
0.685726 0.685726 0.685726
0.690562 0.690562 0.690562
0.699023 0.699023 0.699023
0.711452 0.711452 0.711452
0.727989 0.727989 0.727989
0.748604 0.748604 0.748604
0.773139 0.773139 0.773139
0.801341 0.801341 0.801341
0.773947 0.773947 0.773947
0.775587 0.775587 0.775587
0.779651 0.779651 0.779651
0.786786 0.786786 0.786786
0.797324 0.797324 0.797324
0.811443 0.811443 0.811443
0.829192 0.829192 0.829192
0.850515 0.850515 0.850515
0.875272 0.875272 0.875272
0.081513 0.081513 0.081513
0.112054 0.112054 0.112054
0.161275 0.161275 0.161275
0.218335 0.218335 0.218335
0.278387 0.278387 0.278387
0.339785 0.339785 0.339785
0.401877 0.401877 0.401877
0.464367 0.464367 0.464367
0.506510 0.506510 0.506510
0.149163 0.149163 0.149163
0.165675 0.165675 0.165675
0.199556 0.199556 0.199556
0.245825 0.245825 0.245825
0.298939 0.298939 0.298939
0.355781 0.355781 0.355781
0.414750 0.414750 0.414750
0.475008 0.475008 0.475008
0.514747 0.514747 0.514747
0.237779 0.237779 0.237779
0.247144 0.247144 0.247144
0.268627 0.268627 0.268627
0.301914 0.301914 0.301914
0.344178 0.344178 0.344178
0.392652 0.392652 0.392652
0.445288 0.445288 0.445288
0.500724 0.500724 0.500724
0.534906 0.534906 0.534906
0.332427 0.332427 0.332427
0.338490 0.338490 0.338490
0.352985 0.352985 0.352985
0.376882 0.376882 0.376882
0.409308 0.409308 0.409308
0.448742 0.448742 0.448742
0.493611 0.493611 0.493611
0.520694 0.520694 0.520694
0.568380 0.568380 0.568380
0.428985 0.428985 0.428985
0.433301 0.433301 0.433301
0.443803 0.443803 0.443803
0.461639 0.461639 0.461639
0.486768 0.486768 0.486768
0.518551 0.518551 0.518551
0.533053 0.533053 0.533053
0.571775 0.571775 0.571775
0.614005 0.614005 0.614005
0.505813 0.505813 0.505813
0.508815 0.508815 0.508815
0.516181 0.516181 0.516181
0.528888 0.528888 0.528888
0.547175 0.547175 0.547175
0.570885 0.570885 0.570885
0.599591 0.599591 0.599591
0.632722 0.632722 0.632722
0.669664 0.669664 0.669664
0.595423 0.595423 0.595423
0.597803 0.597803 0.597803
0.603672 0.603672 0.603672
0.613886 0.613886 0.613886
0.628775 0.628775 0.628775
0.648383 0.648383 0.648383
0.672541 0.672541 0.672541
0.700928 0.700928 0.700928
0.733136 0.733136 0.733136
0.685237 0.685237 0.685237
0.687187 0.687187 0.687187
0.692008 0.692008 0.692008
0.700444 0.700444 0.700444
0.712838 0.712838 0.712838
0.729331 0.729331 0.729331
0.749894 0.749894 0.749894
0.774370 0.774370 0.774370
0.802512 0.802512 0.802512
0.775177 0.775177 0.775177
0.776814 0.776814 0.776814
0.780869 0.780869 0.780869
0.787988 0.787988 0.787988
0.798503 0.798503 0.798503
0.812593 0.812593 0.812593
0.830307 0.830307 0.830307
0.851591 0.851591 0.851591
0.876305 0.876305 0.876305
0.120336 0.120336 0.120336
0.141280 0.141280 0.141280
0.181119 0.181119 0.181119
0.232173 0.232173 0.232173
0.288575 0.288575 0.288575
0.347647 0.347647 0.347647
0.408174 0.408174 0.408174
0.469556 0.469556 0.469556
0.510519 0.510519 0.510519
0.170828 0.170828 0.170828
0.184917 0.184917 0.184917
0.215002 0.215002 0.215002
0.257761 0.257761 0.257761
0.308233 0.308233 0.308233
0.363181 0.363181 0.363181
0.420787 0.420787 0.420787
0.480040 0.480040 0.480040
0.518665 0.518665 0.518665
0.250225 0.250225 0.250225
0.259000 0.259000 0.259000
0.279291 0.279291 0.279291
0.311088 0.311088 0.311088
0.351909 0.351909 0.351909
0.399146 0.399146 0.399146
0.450777 0.450777 0.450777
0.505411 0.505411 0.505411
0.538616 0.538616 0.538616
0.340519 0.340519 0.340519
0.346392 0.346392 0.346392
0.360463 0.360463 0.360463
0.383740 0.383740 0.383740
0.415452 0.415452 0.415452
0.454175 0.454175 0.454175
0.498390 0.498390 0.498390
0.524548 0.524548 0.524548
0.571784 0.571784 0.571784
0.434756 0.434756 0.434756
0.438995 0.438995 0.438995
0.449317 0.449317 0.449317
0.466869 0.466869 0.466869
0.491637 0.491637 0.491637
0.502770 0.502770 0.502770
0.536781 0.536781 0.536781
0.575150 0.575150 0.575150
0.617055 0.617055 0.617055
0.509830 0.509830 0.509830
0.512797 0.512797 0.512797
0.520083 0.520083 0.520083
0.532658 0.532658 0.532658
0.550768 0.550768 0.550768
0.574268 0.574268 0.574268
0.602746 0.602746 0.602746
0.635646 0.635646 0.635646
0.672362 0.672362 0.672362
0.598609 0.598609 0.598609
0.600971 0.600971 0.600971
0.606797 0.606797 0.606797
0.616938 0.616938 0.616938
0.631724 0.631724 0.631724
0.651207 0.651207 0.651207
0.675223 0.675223 0.675223
0.703457 0.703457 0.703457
0.735508 0.735508 0.735508
0.687848 0.687848 0.687848
0.689787 0.689787 0.689787
0.694583 0.694583 0.694583
0.702975 0.702975 0.702975
0.715307 0.715307 0.715307
0.731721 0.731721 0.731721
0.752192 0.752192 0.752192
0.776566 0.776566 0.776566
0.804599 0.804599 0.804599
0.777369 0.777369 0.777369
0.778999 0.778999 0.778999
0.783038 0.783038 0.783038
0.790130 0.790130 0.790130
0.800606 0.800606 0.800606
0.814644 0.814644 0.814644
0.832296 0.832296 0.832296
0.853510 0.853510 0.853510
0.878148 0.878148 0.878148
0.159160 0.159160 0.159160
0.174476 0.174476 0.174476
0.206535 0.206535 0.206535
0.251166 0.251166 0.251166
0.303072 0.303072 0.303072
0.359060 0.359060 0.359060
0.417419 0.417419 0.417419
0.477229 0.477229 0.477229
0.516475 0.516475 0.516475
0.197960 0.197960 0.197960
0.209742 0.209742 0.209742
0.235832 0.235832 0.235832
0.274465 0.274465 0.274465
0.321563 0.321563 0.321563
0.373961 0.373961 0.373961
0.429667 0.429667 0.429667
0.487490 0.487490 0.487490
0.524490 0.524490 0.524490
0.267554 0.267554 0.267554
0.275605 0.275605 0.275605
0.294401 0.294401 0.294401
0.324262 0.324262 0.324262
0.363142 0.363142 0.363142
0.408668 0.408668 0.408668
0.458880 0.458880 0.458880
0.512363 0.512363 0.512363
0.544138 0.544138 0.544138
0.352243 0.352243 0.352243
0.357858 0.357858 0.357858
0.371350 0.371350 0.371350
0.393769 0.393769 0.393769
0.424484 0.424484 0.424484
0.462197 0.462197 0.462197
0.505474 0.505474 0.505474
0.530280 0.530280 0.530280
0.576858 0.576858 0.576858
0.443259 0.443259 0.443259
0.447389 0.447389 0.447389
0.457455 0.457455 0.457455
0.474602 0.474602 0.474602
0.498853 0.498853 0.498853
0.508856 0.508856 0.508856
0.542330 0.542330 0.542330
0.580183 0.580183 0.580183
0.621612 0.621612 0.621612
0.515797 0.515797 0.515797
0.518716 0.518716 0.518716
0.525885 0.525885 0.525885
0.538267 0.538267 0.538267
0.556118 0.556118 0.556118
0.579312 0.579312 0.579312
0.607457 0.607457 0.607457
0.640015 0.640015 0.640015
0.676397 0.676397 0.676397
0.603365 0.603365 0.603365
0.605701 0.605701 0.605701
0.611463 0.611463 0.611463
0.621496 0.621496 0.621496
0.636132 0.636132 0.636132
0.655429 0.655429 0.655429
0.679234 0.679234 0.679234
0.707242 0.707242 0.707242
0.739063 0.739063 0.739063
0.691756 0.691756 0.691756
0.693679 0.693679 0.693679
0.698437 0.698437 0.698437
0.706764 0.706764 0.706764
0.719004 0.719004 0.719004
0.735301 0.735301 0.735301
0.755635 0.755635 0.755635
0.779858 0.779858 0.779858
0.807730 0.807730 0.807730
0.780656 0.780656 0.780656
0.782277 0.782277 0.782277
0.786292 0.786292 0.786292
0.793342 0.793342 0.793342
0.803758 0.803758 0.803758
0.817720 0.817720 0.817720
0.835281 0.835281 0.835281
0.856390 0.856390 0.856390
0.880914 0.880914 0.880914
0.197983 0.197983 0.197983
0.209764 0.209764 0.209764
0.235850 0.235850 0.235850
0.274480 0.274480 0.274480
0.321575 0.321575 0.321575
0.373971 0.373971 0.373971
0.429675 0.429675 0.429675
0.487497 0.487497 0.487497
0.524495 0.524495 0.524495
0.228710 0.228710 0.228710
0.238548 0.238548 0.238548
0.260967 0.260967 0.260967
0.295394 0.295394 0.295394
0.338734 0.338734 0.338734
0.388109 0.388109 0.388109
0.441466 0.441466 0.441466
0.497471 0.497471 0.497471
0.532338 0.532338 0.532338
0.289147 0.289147 0.289147
0.296427 0.296427 0.296427
0.313588 0.313588 0.313588
0.341252 0.341252 0.341252
0.377838 0.377838 0.377838
0.421270 0.421270 0.421270
0.469697 0.469697 0.469697
0.501561 0.501561 0.501561
0.551590 0.551590 0.551590
0.367527 0.367527 0.367527
0.372834 0.372834 0.372834
0.385626 0.385626 0.385626
0.406998 0.406998 0.406998
0.436473 0.436473 0.436473
0.472911 0.472911 0.472911
0.514985 0.514985 0.514985
0.538009 0.538009 0.538009
0.583723 0.583723 0.583723
0.454583 0.454583 0.454583
0.458575 0.458575 0.458575
0.468316 0.468316 0.468316
0.484945 0.484945 0.484945
0.508532 0.508532 0.508532
0.517045 0.517045 0.517045
0.549818 0.549818 0.549818
0.586993 0.586993 0.586993
0.627791 0.627791 0.627791
0.523832 0.523832 0.523832
0.526688 0.526688 0.526688
0.533704 0.533704 0.533704
0.545835 0.545835 0.545835
0.563346 0.563346 0.563346
0.586135 0.586135 0.586135
0.613839 0.613839 0.613839
0.645945 0.645945 0.645945
0.681882 0.681882 0.681882
0.609809 0.609809 0.609809
0.612110 0.612110 0.612110
0.617787 0.617787 0.617787
0.627676 0.627676 0.627676
0.642113 0.642113 0.642113
0.661164 0.661164 0.661164
0.684687 0.684687 0.684687
0.712393 0.712393 0.712393
0.743903 0.743903 0.743903
0.697070 0.697070 0.697070
0.698973 0.698973 0.698973
0.703680 0.703680 0.703680
0.711920 0.711920 0.711920
0.724037 0.724037 0.724037
0.740177 0.740177 0.740177
0.760327 0.760327 0.760327
0.784345 0.784345 0.784345
0.812000 0.812000 0.812000
0.785137 0.785137 0.785137
0.786744 0.786744 0.786744
0.790727 0.790727 0.790727
0.797722 0.797722 0.797722
0.808058 0.808058 0.808058
0.821917 0.821917 0.821917
0.839354 0.839354 0.839354
0.860322 0.860322 0.860322
0.884693 0.884693 0.884693
0.236807 0.236807 0.236807
0.246221 0.246221 0.246221
0.267801 0.267801 0.267801
0.301208 0.301208 0.301208
0.343587 0.343587 0.343587
0.392157 0.392157 0.392157
0.444871 0.444871 0.444871
0.500368 0.500368 0.500368
0.534625 0.534625 0.534625
0.261804 0.261804 0.261804
0.270084 0.270084 0.270084
0.289356 0.289356 0.289356
0.319842 0.319842 0.319842
0.359357 0.359357 0.359357
0.405448 0.405448 0.405448
0.456133 0.456133 0.456133
0.510002 0.510002 0.510002
0.542260 0.542260 0.542260
0.314243 0.314243 0.314243
0.320771 0.320771 0.320771
0.336300 0.336300 0.336300
0.361683 0.361683 0.361683
0.395785 0.395785 0.395785
0.436862 0.436862 0.436862
0.483216 0.483216 0.483216
0.512344 0.512344 0.512344
0.561031 0.561031 0.561031
0.386122 0.386122 0.386122
0.391091 0.391091 0.391091
0.403109 0.403109 0.403109
0.423304 0.423304 0.423304
0.451360 0.451360 0.451360
0.486310 0.486310 0.486310
0.506373 0.506373 0.506373
0.547784 0.547784 0.547784
0.592443 0.592443 0.592443
0.468697 0.468697 0.468697
0.472528 0.472528 0.472528
0.481888 0.481888 0.481888
0.497906 0.497906 0.497906
0.500644 0.500644 0.500644
0.527380 0.527380 0.527380
0.559301 0.559301 0.559301
0.595645 0.595645 0.595645
0.635664 0.635664 0.635664
0.533980 0.533980 0.533980
0.536759 0.536759 0.536759
0.543591 0.543591 0.543591
0.555415 0.555415 0.555415
0.572512 0.572512 0.572512
0.594805 0.594805 0.594805
0.621965 0.621965 0.621965
0.653509 0.653509 0.653509
0.688892 0.688892 0.688892
0.618010 0.618010 0.618010
0.620268 0.620268 0.620268
0.625840 0.625840 0.625840
0.635551 0.635551 0.635551
0.649740 0.649740 0.649740
0.668484 0.668484 0.668484
0.691656 0.691656 0.691656
0.718984 0.718984 0.718984
0.750105 0.750105 0.750105
0.703866 0.703866 0.703866
0.705742 0.705742 0.705742
0.710386 0.710386 0.710386
0.718517 0.718517 0.718517
0.730479 0.730479 0.730479
0.746422 0.746422 0.746422
0.766340 0.766340 0.766340
0.790101 0.790101 0.790101
0.817482 0.817482 0.817482
0.790884 0.790884 0.790884
0.792475 0.792475 0.792475
0.796418 0.796418 0.796418
0.803342 0.803342 0.803342
0.813578 0.813578 0.813578
0.827306 0.827306 0.827306
0.844585 0.844585 0.844585
0.865375 0.865375 0.865375
0.889550 0.889550 0.889550
0.275631 0.275631 0.275631
0.283378 0.283378 0.283378
0.301534 0.301534 0.301534
0.330547 0.330547 0.330547
0.368552 0.368552 0.368552
0.413289 0.413289 0.413289
0.462834 0.462834 0.462834
0.515770 0.515770 0.515770
0.546852 0.546852 0.546852
0.296437 0.296437 0.296437
0.303484 0.303484 0.303484
0.320143 0.320143 0.320143
0.347116 0.347116 0.347116
0.382960 0.382960 0.382960
0.425698 0.425698 0.425698
0.473522 0.473522 0.473522
0.504603 0.504603 0.504603
0.554247 0.554247 0.554247
0.342111 0.342111 0.342111
0.347948 0.347948 0.347948
0.361938 0.361938 0.361938
0.385096 0.385096 0.385096
0.416670 0.416670 0.416670
0.455254 0.455254 0.455254
0.499341 0.499341 0.499341
0.525317 0.525317 0.525317
0.572463 0.572463 0.572463
0.407676 0.407676 0.407676
0.412297 0.412297 0.412297
0.423510 0.423510 0.423510
0.442462 0.442462 0.442462
0.468988 0.468988 0.468988
0.502300 0.502300 0.502300
0.519558 0.519558 0.519558
0.559604 0.559604 0.559604
0.603038 0.603038 0.603038
0.485479 0.485479 0.485479
0.489132 0.489132 0.489132
0.498072 0.498072 0.498072
0.513409 0.513409 0.513409
0.514039 0.514039 0.514039
0.539841 0.539841 0.539841
0.570783 0.570783 0.570783
0.606160 0.606160 0.606160
0.645265 0.645265 0.645265
0.546227 0.546227 0.546227
0.548918 0.548918 0.548918
0.555537 0.555537 0.555537
0.567008 0.567008 0.567008
0.583625 0.583625 0.583625
0.605342 0.605342 0.605342
0.631864 0.631864 0.631864
0.662745 0.662745 0.662745
0.697470 0.697470 0.697470
0.627998 0.627998 0.627998
0.630204 0.630204 0.630204
0.635653 0.635653 0.635653
0.645155 0.645155 0.645155
0.659051 0.659051 0.659051
0.677431 0.677431 0.677431
0.700186 0.700186 0.700186
0.727062 0.727062 0.727062
0.757717 0.757717 0.757717
0.712189 0.712189 0.712189
0.714034 0.714034 0.714034
0.718602 0.718602 0.718602
0.726603 0.726603 0.726603
0.738379 0.738379 0.738379
0.754087 0.754087 0.754087
0.773727 0.773727 0.773727
0.797177 0.797177 0.797177
0.824227 0.824227 0.824227
0.797951 0.797951 0.797951
0.799522 0.799522 0.799522
0.803415 0.803415 0.803415
0.810255 0.810255 0.810255
0.820369 0.820369 0.820369
0.833938 0.833938 0.833938
0.851028 0.851028 0.851028
0.871601 0.871601 0.871601
0.895540 0.895540 0.895540
0.306879 0.306879 0.306879
0.313614 0.313614 0.313614
0.329595 0.329595 0.329595
0.355619 0.355619 0.355619
0.390429 0.390429 0.390429
0.432187 0.432187 0.432187
0.479147 0.479147 0.479147
0.509090 0.509090 0.509090
0.558175 0.558175 0.558175
0.325082 0.325082 0.325082
0.331326 0.331326 0.331326
0.346225 0.346225 0.346225
0.370706 0.370706 0.370706
0.403797 0.403797 0.403797
0.443888 0.443888 0.443888
0.489354 0.489354 0.489354
0.517268 0.517268 0.517268
0.565361 0.565361 0.565361
0.366134 0.366134 0.366134
0.371468 0.371468 0.371468
0.384321 0.384321 0.384321
0.405785 0.405785 0.405785
0.435371 0.435371 0.435371
0.471923 0.471923 0.471923
0.514105 0.514105 0.514105
0.537292 0.537292 0.537292
0.583086 0.583086 0.583086
0.426909 0.426909 0.426909
0.431253 0.431253 0.431253
0.441821 0.441821 0.441821
0.459762 0.459762 0.459762
0.485022 0.485022 0.485022
0.516950 0.516950 0.516950
0.531719 0.531719 0.531719
0.570569 0.570569 0.570569
0.612916 0.612916 0.612916
0.500801 0.500801 0.500801
0.504304 0.504304 0.504304
0.512885 0.512885 0.512885
0.507004 0.507004 0.507004
0.526382 0.526382 0.526382
0.551370 0.551370 0.551370
0.581449 0.581449 0.581449
0.615966 0.615966 0.615966
0.654249 0.654249 0.654249
0.557569 0.557569 0.557569
0.560182 0.560182 0.560182
0.566615 0.566615 0.566615
0.577774 0.577774 0.577774
0.593965 0.593965 0.593965
0.615166 0.615166 0.615166
0.641116 0.641116 0.641116
0.671399 0.671399 0.671399
0.705525 0.705525 0.705525
0.637330 0.637330 0.637330
0.639491 0.639491 0.639491
0.644828 0.644828 0.644828
0.654141 0.654141 0.654141
0.667773 0.667773 0.667773
0.685823 0.685823 0.685823
0.708197 0.708197 0.708197
0.734661 0.734661 0.734661
0.764887 0.764887 0.764887
0.720011 0.720011 0.720011
0.721828 0.721828 0.721828
0.726326 0.726326 0.726326
0.734208 0.734208 0.734208
0.745815 0.745815 0.745815
0.761306 0.761306 0.761306
0.780689 0.780689 0.780689
0.803853 0.803853 0.803853
0.830597 0.830597 0.830597
0.804618 0.804618 0.804618
0.806170 0.806170 0.806170
0.810018 0.810018 0.810018
0.816780 0.816780 0.816780
0.826781 0.826781 0.826781
0.840204 0.840204 0.840204
0.857118 0.857118 0.857118
0.877489 0.877489 0.877489
0.901208 0.901208 0.901208
