docs/luts/fuji_recipes/Acros_RR_Agfa_Scala.cube
TITLE "Fujifilm Recipe: RR Agfa Scala (Acros)"
# FilmSim=Acros HL=4 SH=0 Col=0 WB=Auto WBR=0 WBB=0
LUT_3D_SIZE 9
DOMAIN_MIN 0.0 0.0 0.0
DOMAIN_MAX 1.0 1.0 1.0
0.000000 0.000000 0.000000
0.039416 0.039416 0.039416
0.104999 0.104999 0.104999
0.170573 0.170573 0.170573
0.236146 0.236146 0.236146
0.301720 0.301720 0.301720
0.367293 0.367293 0.367293
0.432866 0.432866 0.432866
0.498440 0.498440 0.498440
0.101537 0.101537 0.101537
0.119466 0.119466 0.119466
0.156280 0.156280 0.156280
0.205761 0.205761 0.205761
0.261894 0.261894 0.261894
0.321532 0.321532 0.321532
0.383131 0.383131 0.383131
0.445903 0.445903 0.445903
0.510926 0.510926 0.510926
0.210243 0.210243 0.210243
0.219293 0.219293 0.219293
0.240624 0.240624 0.240624
0.274074 0.274074 0.274074
0.316908 0.316908 0.316908
0.366328 0.366328 0.366328
0.420209 0.420209 0.420209
0.477112 0.477112 0.477112
0.541873 0.541873 0.541873
0.318950 0.318950 0.318950
0.324618 0.324618 0.324618
0.338538 0.338538 0.338538
0.361781 0.361781 0.361781
0.393677 0.393677 0.393677
0.432853 0.432853 0.432853
0.477797 0.477797 0.477797
0.531513 0.531513 0.531513
0.592670 0.592670 0.592670
0.427656 0.427656 0.427656
0.431641 0.431641 0.431641
0.441583 0.441583 0.441583
0.458654 0.458654 0.458654
0.482938 0.482938 0.482938
0.516175 0.516175 0.516175
0.558995 0.558995 0.558995
0.607601 0.607601 0.607601
0.660967 0.660967 0.660967
0.542180 0.542180 0.542180
0.545666 0.545666 0.545666
0.554430 0.554430 0.554430
0.569688 0.569688 0.569688
0.591823 0.591823 0.591823
0.620751 0.620751 0.620751
0.656050 0.656050 0.656050
0.697100 0.697100 0.697100
0.743195 0.743195 0.743195
0.668280 0.668280 0.668280
0.671035 0.671035 0.671035
0.677992 0.677992 0.677992
0.690197 0.690197 0.690197
0.708105 0.708105 0.708105
0.731847 0.731847 0.731847
0.761293 0.761293 0.761293
0.796126 0.796126 0.796126
0.835907 0.835907 0.835907
0.794379 0.794379 0.794379
0.796632 0.796632 0.796632
0.802333 0.802333 0.802333
0.812383 0.812383 0.812383
0.827233 0.827233 0.827233
0.847101 0.847101 0.847101
0.872012 0.872012 0.872012
0.901835 0.901835 0.901835
0.936323 0.936323 0.936323
0.920478 0.920478 0.920478
0.922368 0.922368 0.922368
0.927156 0.927156 0.927156
0.935620 0.935620 0.935620
0.948186 0.948186 0.948186
0.965102 0.965102 0.965102
0.986469 0.986469 0.986469
1.000000 1.000000 1.000000
1.000000 1.000000 1.000000
0.013386 0.013386 0.013386
0.051659 0.051659 0.051659
0.111215 0.111215 0.111215
0.174473 0.174473 0.174473
0.238890 0.238890 0.238890
0.303790 0.303790 0.303790
0.368930 0.368930 0.368930
0.434205 0.434205 0.434205
0.499562 0.499562 0.499562
0.107937 0.107937 0.107937
0.125000 0.125000 0.125000
0.160547 0.160547 0.160547
0.208956 0.208956 0.208956
0.264333 0.264333 0.264333
0.323452 0.323452 0.323452
0.384686 0.384686 0.384686
0.447193 0.447193 0.447193
0.512193 0.512193 0.512193
0.213365 0.213365 0.213365
0.222272 0.222272 0.222272
0.243310 0.243310 0.243310
0.276389 0.276389 0.276389
0.318862 0.318862 0.318862
0.367970 0.367970 0.367970
0.421597 0.421597 0.421597
0.478298 0.478298 0.478298
0.543060 0.543060 0.543060
0.320888 0.320888 0.320888
0.326517 0.326517 0.326517
0.340343 0.340343 0.340343
0.363448 0.363448 0.363448
0.395181 0.395181 0.395181
0.434191 0.434191 0.434191
0.478980 0.478980 0.478980
0.532726 0.532726 0.532726
0.593745 0.593745 0.593745
0.429014 0.429014 0.429014
0.432984 0.432984 0.432984
0.442889 0.442889 0.442889
0.459899 0.459899 0.459899
0.484106 0.484106 0.484106
0.517428 0.517428 0.517428
0.560142 0.560142 0.560142
0.608645 0.608645 0.608645
0.661917 0.661917 0.661917
0.543367 0.543367 0.543367
0.546845 0.546845 0.546845
0.555588 0.555588 0.555588
0.570811 0.570811 0.570811
0.592900 0.592900 0.592900
0.621770 0.621770 0.621770
0.657008 0.657008 0.657008
0.697993 0.697993 0.697993
0.744023 0.744023 0.744023
0.669217 0.669217 0.669217
0.671968 0.671968 0.671968
0.678914 0.678914 0.678914
0.691100 0.691100 0.691100
0.708982 0.708982 0.708982
0.732691 0.732691 0.732691
0.762098 0.762098 0.762098
0.796890 0.796890 0.796890
0.836628 0.836628 0.836628
0.795145 0.795145 0.795145
0.797396 0.797396 0.797396
0.803090 0.803090 0.803090
0.813129 0.813129 0.813129
0.827963 0.827963 0.827963
0.847811 0.847811 0.847811
0.872698 0.872698 0.872698
0.902494 0.902494 0.902494
0.936952 0.936952 0.936952
0.921121 0.921121 0.921121
0.923008 0.923008 0.923008
0.927792 0.927792 0.927792
0.936250 0.936250 0.936250
0.948806 0.948806 0.948806
0.965708 0.965708 0.965708
0.987060 0.987060 0.987060
1.000000 1.000000 1.000000
1.000000 1.000000 1.000000
0.047021 0.047021 0.047021
0.076250 0.076250 0.076250
0.125728 0.125728 0.125728
0.184006 0.184006 0.184006
0.245717 0.245717 0.245717
0.308984 0.308984 0.308984
0.373056 0.373056 0.373056
0.437588 0.437588 0.437588
0.502789 0.502789 0.502789
0.122820 0.122820 0.122820
0.138109 0.138109 0.138109
0.170906 0.170906 0.170906
0.216855 0.216855 0.216855
0.270429 0.270429 0.270429
0.328278 0.328278 0.328278
0.388609 0.388609 0.388609
0.450456 0.450456 0.450456
0.515401 0.515401 0.515401
0.221088 0.221088 0.221088
0.229662 0.229662 0.229662
0.250000 0.250000 0.250000
0.282183 0.282183 0.282183
0.323770 0.323770 0.323770
0.372109 0.372109 0.372109
0.425106 0.425106 0.425106
0.481299 0.481299 0.481299
0.546070 0.546070 0.546070
0.325760 0.325760 0.325760
0.331290 0.331290 0.331290
0.344888 0.344888 0.344888
0.367649 0.367649 0.367649
0.398978 0.398978 0.398978
0.437575 0.437575 0.437575
0.481976 0.481976 0.481976
0.535800 0.535800 0.535800
0.596470 0.596470 0.596470
0.432448 0.432448 0.432448
0.436379 0.436379 0.436379
0.446190 0.446190 0.446190
0.463050 0.463050 0.463050
0.487062 0.487062 0.487062
0.520601 0.520601 0.520601
0.563051 0.563051 0.563051
0.611296 0.611296 0.611296
0.664326 0.664326 0.664326
0.546375 0.546375 0.546375
0.549831 0.549831 0.549831
0.558522 0.558522 0.558522
0.573659 0.573659 0.573659
0.595629 0.595629 0.595629
0.624358 0.624358 0.624358
0.659437 0.659437 0.659437
0.700260 0.700260 0.700260
0.746127 0.746127 0.746127
0.671596 0.671596 0.671596
0.674336 0.674336 0.674336
0.681254 0.681254 0.681254
0.693392 0.693392 0.693392
0.711208 0.711208 0.711208
0.734833 0.734833 0.734833
0.764144 0.764144 0.764144
0.798830 0.798830 0.798830
0.838459 0.838459 0.838459
0.797091 0.797091 0.797091
0.799335 0.799335 0.799335
0.805013 0.805013 0.805013
0.815024 0.815024 0.815024
0.829818 0.829818 0.829818
0.849614 0.849614 0.849614
0.874439 0.874439 0.874439
0.904166 0.904166 0.904166
0.938551 0.938551 0.938551
0.922753 0.922753 0.922753
0.924636 0.924636 0.924636
0.929410 0.929410 0.929410
0.937850 0.937850 0.937850
0.950380 0.950380 0.950380
0.967249 0.967249 0.967249
0.988560 0.988560 0.988560
1.000000 1.000000 1.000000
1.000000 1.000000 1.000000
0.088833 0.088833 0.088833
0.108704 0.108704 0.108704
0.148185 0.148185 0.148185
0.199796 0.199796 0.199796
0.257382 0.257382 0.257382
0.318000 0.318000 0.318000
0.380280 0.380280 0.380280
0.443542 0.443542 0.443542
0.508611 0.508611 0.508611
0.145724 0.145724 0.145724
0.158810 0.158810 0.158810
0.187888 0.187888 0.187888
0.230194 0.230194 0.230194
0.280920 0.280920 0.280920
0.336681 0.336681 0.336681
0.395487 0.395487 0.395487
0.456202 0.456202 0.456202
0.521069 0.521069 0.521069
0.234158 0.234158 0.234158
0.242212 0.242212 0.242212
0.261446 0.261446 0.261446
0.292183 0.292183 0.292183
0.332310 0.332310 0.332310
0.379355 0.379355 0.379355
0.431274 0.431274 0.431274
0.486593 0.486593 0.486593
0.551392 0.551392 0.551392
0.334239 0.334239 0.334239
0.339604 0.339604 0.339604
0.352818 0.352818 0.352818
0.375000 0.375000 0.375000
0.405641 0.405641 0.405641
0.443529 0.443529 0.443529
0.487261 0.487261 0.487261
0.541233 0.541233 0.541233
0.601296 0.601296 0.601296
0.438490 0.438490 0.438490
0.442354 0.442354 0.442354
0.452004 0.452004 0.452004
0.468604 0.468604 0.468604
0.492279 0.492279 0.492279
0.526208 0.526208 0.526208
0.568196 0.568196 0.568196
0.615990 0.615990 0.615990
0.668598 0.668598 0.668598
0.551693 0.551693 0.551693
0.555113 0.555113 0.555113
0.563714 0.563714 0.563714
0.578699 0.578699 0.578699
0.600462 0.600462 0.600462
0.628941 0.628941 0.628941
0.663745 0.663745 0.663745
0.704280 0.704280 0.704280
0.749862 0.749862 0.749862
0.675815 0.675815 0.675815
0.678535 0.678535 0.678535
0.685404 0.685404 0.685404
0.697459 0.697459 0.697459
0.715157 0.715157 0.715157
0.738635 0.738635 0.738635
0.767776 0.767776 0.767776
0.802278 0.802278 0.802278
0.841714 0.841714 0.841714
0.800547 0.800547 0.800547
0.802780 0.802780 0.802780
0.808429 0.808429 0.808429
0.818390 0.818390 0.818390
0.833113 0.833113 0.833113
0.852818 0.852818 0.852818
0.877535 0.877535 0.877535
0.907140 0.907140 0.907140
0.941394 0.941394 0.941394
0.925654 0.925654 0.925654
0.927531 0.927531 0.927531
0.932287 0.932287 0.932287
0.940696 0.940696 0.940696
0.953181 0.953181 0.953181
0.969990 0.969990 0.969990
0.991229 0.991229 0.991229
1.000000 1.000000 1.000000
1.000000 1.000000 1.000000
0.130645 0.130645 0.130645
0.145118 0.145118 0.145118
0.176576 0.176576 0.176576
0.221258 0.221258 0.221258
0.273865 0.273865 0.273865
0.331018 0.331018 0.331018
0.390844 0.390844 0.390844
0.452320 0.452320 0.452320
0.517237 0.517237 0.517237
0.174532 0.174532 0.174532
0.185508 0.185508 0.185508
0.210688 0.210688 0.210688
0.248762 0.248762 0.248762
0.295893 0.295893 0.295893
0.348870 0.348870 0.348870
0.405569 0.405569 0.405569
0.464682 0.464682 0.464682
0.529474 0.529474 0.529474
0.252395 0.252395 0.252395
0.259807 0.259807 0.259807
0.277651 0.277651 0.277651
0.306513 0.306513 0.306513
0.344685 0.344685 0.344685
0.389950 0.389950 0.389950
0.440356 0.440356 0.440356
0.494427 0.494427 0.494427
0.559294 0.559294 0.559294
0.346531 0.346531 0.346531
0.351671 0.351671 0.351671
0.364359 0.364359 0.364359
0.385741 0.385741 0.385741
0.415421 0.415421 0.415421
0.452307 0.452307 0.452307
0.495081 0.495081 0.495081
0.549298 0.549298 0.549298
0.608476 0.608476 0.608476
0.447390 0.447390 0.447390
0.451159 0.451159 0.451159
0.460581 0.460581 0.460581
0.476810 0.476810 0.476810
0.500000 0.500000 0.500000
0.534523 0.534523 0.534523
0.575842 0.575842 0.575842
0.622979 0.622979 0.622979
0.674967 0.674967 0.674967
0.559591 0.559591 0.559591
0.562958 0.562958 0.562958
0.571427 0.571427 0.571427
0.586192 0.586192 0.586192
0.607654 0.607654 0.607654
0.635769 0.635769 0.635769
0.670168 0.670168 0.670168
0.710281 0.710281 0.710281
0.755442 0.755442 0.755442
0.682107 0.682107 0.682107
0.684798 0.684798 0.684798
0.691595 0.691595 0.691595
0.703527 0.703527 0.703527
0.721053 0.721053 0.721053
0.744314 0.744314 0.744314
0.773205 0.773205 0.773205
0.807433 0.807433 0.807433
0.846585 0.846585 0.846585
0.805715 0.805715 0.805715
0.807931 0.807931 0.807931
0.813538 0.813538 0.813538
0.823425 0.823425 0.823425
0.838043 0.838043 0.838043
0.857613 0.857613 0.857613
0.882169 0.882169 0.882169
0.911593 0.911593 0.911593
0.945653 0.945653 0.945653
0.930001 0.930001 0.930001
0.931866 0.931866 0.931866
0.936596 0.936596 0.936596
0.944958 0.944958 0.944958
0.957376 0.957376 0.957376
0.974097 0.974097 0.974097
0.995230 0.995230 0.995230
1.000000 1.000000 1.000000
1.000000 1.000000 1.000000
0.172457 0.172457 0.172457
0.183566 0.183566 0.183566
0.209000 0.209000 0.209000
0.247365 0.247365 0.247365
0.294753 0.294753 0.294753
0.347934 0.347934 0.347934
0.404791 0.404791 0.404791
0.464025 0.464025 0.464025
0.528821 0.528821 0.528821
0.207301 0.207301 0.207301
0.216487 0.216487 0.216487
0.238101 0.238101 0.238101
0.271905 0.271905 0.271905
0.315083 0.315083 0.315083
0.364797 0.364797 0.364797
0.418916 0.418916 0.418916
0.476009 0.476009 0.476009
0.540769 0.540769 0.540769
0.275188 0.275188 0.275188
0.281911 0.281911 0.281911
0.298229 0.298229 0.298229
0.324965 0.324965 0.324965
0.360835 0.360835 0.360835
0.403934 0.403934 0.403934
0.452448 0.452448 0.452448
0.505712 0.505712 0.505712
0.569937 0.569937 0.569937
0.362582 0.362582 0.362582
0.367451 0.367451 0.367451
0.379503 0.379503 0.379503
0.399906 0.399906 0.399906
0.428391 0.428391 0.428391
0.464013 0.464013 0.464013
0.506452 0.506452 0.506452
0.560153 0.560153 0.560153
0.618173 0.618173 0.618173
0.459252 0.459252 0.459252
0.462901 0.462901 0.462901
0.472031 0.472031 0.472031
0.487786 0.487786 0.487786
0.512010 0.512010 0.512010
0.545704 0.545704 0.545704
0.586149 0.586149 0.586149
0.632424 0.632424 0.632424
0.683594 0.683594 0.683594
0.570228 0.570228 0.570228
0.573524 0.573524 0.573524
0.581822 0.581822 0.581822
0.596299 0.596299 0.596299
0.617365 0.617365 0.617365
0.645000 0.645000 0.645000
0.678865 0.678865 0.678865
0.718418 0.718418 0.718418
0.763019 0.763019 0.763019
0.690630 0.690630 0.690630
0.693284 0.693284 0.693284
0.699985 0.699985 0.699985
0.711754 0.711754 0.711754
0.729050 0.729050 0.729050
0.752022 0.752022 0.752022
0.780578 0.780578 0.780578
0.814441 0.814441 0.814441
0.853211 0.853211 0.853211
0.812741 0.812741 0.812741
0.814934 0.814934 0.814934
0.820484 0.820484 0.820484
0.830273 0.830273 0.830273
0.844750 0.844750 0.844750
0.864138 0.864138 0.864138
0.888479 0.888479 0.888479
0.917660 0.917660 0.917660
0.951457 0.951457 0.951457
0.935923 0.935923 0.935923
0.937774 0.937774 0.937774
0.942468 0.942468 0.942468
0.950767 0.950767 0.950767
0.963094 0.963094 0.963094
0.979697 0.979697 0.979697
1.000000 1.000000 1.000000
1.000000 1.000000 1.000000
1.000000 1.000000 1.000000
0.214269 0.214269 0.214269
0.223137 0.223137 0.223137
0.244091 0.244091 0.244091
0.277063 0.277063 0.277063
0.319431 0.319431 0.319431
0.368449 0.368449 0.368449
0.422003 0.422003 0.422003
0.478644 0.478644 0.478644
0.543408 0.543408 0.543408
0.242665 0.242665 0.242665
0.250409 0.250409 0.250409
0.268973 0.268973 0.268973
0.298816 0.298816 0.298816
0.338018 0.338018 0.338018
0.384229 0.384229 0.384229
0.435444 0.435444 0.435444
0.490184 0.490184 0.490184
0.555010 0.555010 0.555010
0.301758 0.301758 0.301758
0.307806 0.307806 0.307806
0.322594 0.322594 0.322594
0.347124 0.347124 0.347124
0.380513 0.380513 0.380513
0.421189 0.421189 0.421189
0.467521 0.467521 0.467521
0.521011 0.521011 0.521011
0.583388 0.583388 0.583388
0.382151 0.382151 0.382151
0.386722 0.386722 0.386722
0.398066 0.398066 0.398066
0.417366 0.417366 0.417366
0.444484 0.444484 0.444484
0.478633 0.478633 0.478633
0.521727 0.521727 0.521727
0.573860 0.573860 0.573860
0.630470 0.630470 0.630470
0.474056 0.474056 0.474056
0.477564 0.477564 0.477564
0.486351 0.486351 0.486351
0.501791 0.501791 0.501791
0.527110 0.527110 0.527110
0.559805 0.559805 0.559805
0.599193 0.599193 0.599193
0.644412 0.644412 0.644412
0.694573 0.694573 0.694573
0.583671 0.583671 0.583671
0.586883 0.586883 0.586883
0.594972 0.594972 0.594972
0.609097 0.609097 0.609097
0.629680 0.629680 0.629680
0.656726 0.656726 0.656726
0.689932 0.689932 0.689932
0.728791 0.728791 0.728791
0.772694 0.772694 0.772694
0.701483 0.701483 0.701483
0.704089 0.704089 0.704089
0.710672 0.710672 0.710672
0.722239 0.722239 0.722239
0.739249 0.739249 0.739249
0.761862 0.761862 0.761862
0.790000 0.790000 0.790000
0.823405 0.823405 0.823405
0.861696 0.861696 0.861696
0.821727 0.821727 0.821727
0.823892 0.823892 0.823892
0.829371 0.829371 0.829371
0.839036 0.839036 0.839036
0.853336 0.853336 0.853336
0.872496 0.872496 0.872496
0.896564 0.896564 0.896564
0.925439 0.925439 0.925439
0.958904 0.958904 0.958904
0.943520 0.943520 0.943520
0.945353 0.945353 0.945353
0.950001 0.950001 0.950001
0.958222 0.958222 0.958222
0.970433 0.970433 0.970433
0.986886 0.986886 0.986886
1.000000 1.000000 1.000000
1.000000 1.000000 1.000000
1.000000 1.000000 1.000000
0.256081 0.256081 0.256081
0.263374 0.263374 0.263374
0.280955 0.280955 0.280955
0.309458 0.309458 0.309458
0.347246 0.347246 0.347246
0.392157 0.392157 0.392157
0.442257 0.442257 0.442257
0.496071 0.496071 0.496071
0.560958 0.560958 0.560958
0.279745 0.279745 0.279745
0.286344 0.286344 0.286344
0.302382 0.302382 0.302382
0.328719 0.328719 0.328719
0.364148 0.364148 0.364148
0.406824 0.406824 0.406824
0.454961 0.454961 0.454961
0.508254 0.508254 0.508254
0.572165 0.572165 0.572165
0.331348 0.331348 0.331348
0.336768 0.336768 0.336768
0.350111 0.350111 0.350111
0.372488 0.372488 0.372488
0.403361 0.403361 0.403361
0.441490 0.441490 0.441490
0.485449 0.485449 0.485449
0.539369 0.539369 0.539369
0.599638 0.599638 0.599638
0.404887 0.404887 0.404887
0.409148 0.409148 0.409148
0.419754 0.419754 0.419754
0.437885 0.437885 0.437885
0.463530 0.463530 0.463530
0.496060 0.496060 0.496060
0.540058 0.540058 0.540058
0.590405 0.590405 0.590405
0.645386 0.645386 0.645386
0.491686 0.491686 0.491686
0.495039 0.495039 0.495039
0.503995 0.503995 0.503995
0.520892 0.520892 0.520892
0.545241 0.545241 0.545241
0.576802 0.576802 0.576802
0.614974 0.614974 0.614974
0.658968 0.658968 0.658968
0.707948 0.707948 0.707948
0.599913 0.599913 0.599913
0.603028 0.603028 0.603028
0.610876 0.610876 0.610876
0.624595 0.624595 0.624595
0.644617 0.644617 0.644617
0.670976 0.670976 0.670976
0.703409 0.703409 0.703409
0.741450 0.741450 0.741450
0.784525 0.784525 0.784525
0.714708 0.714708 0.714708
0.717258 0.717258 0.717258
0.723701 0.723701 0.723701
0.735030 0.735030 0.735030
0.751702 0.751702 0.751702
0.773889 0.773889 0.773889
0.801530 0.801530 0.801530
0.834389 0.834389 0.834389
0.872106 0.872106 0.872106
0.832738 0.832738 0.832738
0.834868 0.834868 0.834868
0.840262 0.840262 0.840262
0.849780 0.849780 0.849780
0.863867 0.863867 0.863867
0.882754 0.882754 0.882754
0.906495 0.906495 0.906495
0.935000 0.935000 0.935000
0.968066 0.968066 0.968066
0.952861 0.952861 0.952861
0.954673 0.954673 0.954673
0.959266 0.959266 0.959266
0.967391 0.967391 0.967391
0.979464 0.979464 0.979464
0.995735 0.995735 0.995735
1.000000 1.000000 1.000000
1.000000 1.000000 1.000000
1.000000 1.000000 1.000000
0.297893 0.297893 0.297893
0.304031 0.304031 0.304031
0.319028 0.319028 0.319028
0.343861 0.343861 0.343861
0.377597 0.377597 0.377597
0.418619 0.418619 0.418619
0.465266 0.465266 0.465266
0.518714 0.518714 0.518714
0.581363 0.581363 0.581363
0.317987 0.317987 0.317987
0.323676 0.323676 0.323676
0.337642 0.337642 0.337642
0.360954 0.360954 0.360954
0.392932 0.392932 0.392932
0.432190 0.432190 0.432190
0.477211 0.477211 0.477211
0.530913 0.530913 0.530913
0.592139 0.592139 0.592139
0.363304 0.363304 0.363304
0.368162 0.368162 0.368162
0.380186 0.380186 0.380186
0.400546 0.400546 0.400546
0.428980 0.428980 0.428980
0.464545 0.464545 0.464545
0.507007 0.507007 0.507007
0.560649 0.560649 0.560649
0.618617 0.618617 0.618617
0.430394 0.430394 0.430394
0.434348 0.434348 0.434348
0.444215 0.444215 0.444215
0.461165 0.461165 0.461165
0.485293 0.485293 0.485293
0.518702 0.518702 0.518702
0.561309 0.561309 0.561309
0.609709 0.609709 0.609709
0.662883 0.662883 0.662883
0.513878 0.513878 0.513878
0.517574 0.517574 0.517574
0.526855 0.526855 0.526855
0.542974 0.542974 0.542974
0.566277 0.566277 0.566277
0.596601 0.596601 0.596601
0.633433 0.633433 0.633433
0.676062 0.676062 0.676062
0.723713 0.723713 0.723713
0.618882 0.618882 0.618882
0.621890 0.621890 0.621890
0.629472 0.629472 0.629472
0.642741 0.642741 0.642741
0.662138 0.662138 0.662138
0.687728 0.687728 0.687728
0.719289 0.719289 0.719289
0.756403 0.756403 0.756403
0.798533 0.798533 0.798533
0.730303 0.730303 0.730303
0.732789 0.732789 0.732789
0.739075 0.739075 0.739075
0.750133 0.750133 0.750133
0.766420 0.766420 0.766420
0.788120 0.788120 0.788120
0.815193 0.815193 0.815193
0.847424 0.847424 0.847424
0.884478 0.884478 0.884478
0.845803 0.845803 0.845803
0.847894 0.847894 0.847894
0.853190 0.853190 0.853190
0.862537 0.862537 0.862537
0.876379 0.876379 0.876379
0.894949 0.894949 0.894949
0.918311 0.918311 0.918311
0.946387 0.946387 0.946387
0.978987 0.978987 0.978987
0.963993 0.963993 0.963993
0.965779 0.965779 0.965779
0.970308 0.970308 0.970308
0.978322 0.978322 0.978322
0.990232 0.990232 0.990232
1.000000 1.000000 1.000000
1.000000 1.000000 1.000000
1.000000 1.000000 1.000000
1.000000 1.000000 1.000000
