docs/luts/fuji_recipes/AcrosY_PE_Acros_Ellen_Mark.cube
TITLE "Fujifilm Recipe: PE Acros Ellen Mark (AcrosY)"
# FilmSim=AcrosY HL=2 SH=0 Col=0 WB=Auto WBR=0 WBB=0
LUT_3D_SIZE 9
DOMAIN_MIN 0.0 0.0 0.0
DOMAIN_MAX 1.0 1.0 1.0
0.000000 0.000000 0.000000
0.042503 0.042503 0.042503
0.110213 0.110213 0.110213
0.177923 0.177923 0.177923
0.245634 0.245634 0.245634
0.313344 0.313344 0.313344
0.381054 0.381054 0.381054
0.448764 0.448764 0.448764
0.517793 0.517793 0.517793
0.104116 0.104116 0.104116
0.122991 0.122991 0.122991
0.161517 0.161517 0.161517
0.213033 0.213033 0.213033
0.271289 0.271289 0.271289
0.333071 0.333071 0.333071
0.396817 0.396817 0.396817
0.461736 0.461736 0.461736
0.529589 0.529589 0.529589
0.214614 0.214614 0.214614
0.224157 0.224157 0.224157
0.246595 0.246595 0.246595
0.281651 0.281651 0.281651
0.326382 0.326382 0.326382
0.377839 0.377839 0.377839
0.433821 0.433821 0.433821
0.492854 0.492854 0.492854
0.558299 0.558299 0.558299
0.325111 0.325111 0.325111
0.331092 0.331092 0.331092
0.345760 0.345760 0.345760
0.370200 0.370200 0.370200
0.403648 0.403648 0.403648
0.444620 0.444620 0.444620
0.491512 0.491512 0.491512
0.546352 0.546352 0.546352
0.605547 0.605547 0.605547
0.435608 0.435608 0.435608
0.439814 0.439814 0.439814
0.450298 0.450298 0.450298
0.468276 0.468276 0.468276
0.493804 0.493804 0.493804
0.528436 0.528436 0.528436
0.570169 0.570169 0.570169
0.617445 0.617445 0.617445
0.669261 0.669261 0.669261
0.549794 0.549794 0.549794
0.553220 0.553220 0.553220
0.561827 0.561827 0.561827
0.576800 0.576800 0.576800
0.598494 0.598494 0.598494
0.626801 0.626801 0.626801
0.661285 0.661285 0.661285
0.701316 0.701316 0.701316
0.746190 0.746190 0.746190
0.669131 0.669131 0.669131
0.671839 0.671839 0.671839
0.678673 0.678673 0.678673
0.690656 0.690656 0.690656
0.708222 0.708222 0.708222
0.731483 0.731483 0.731483
0.760294 0.760294 0.760294
0.794326 0.794326 0.794326
0.833135 0.833135 0.833135
0.788469 0.788469 0.788469
0.790683 0.790683 0.790683
0.796284 0.796284 0.796284
0.806153 0.806153 0.806153
0.820727 0.820727 0.820727
0.840209 0.840209 0.840209
0.864610 0.864610 0.864610
0.893787 0.893787 0.893787
0.927486 0.927486 0.927486
0.907806 0.907806 0.907806
0.909662 0.909662 0.909662
0.914367 0.914367 0.914367
0.922681 0.922681 0.922681
0.935018 0.935018 0.935018
0.951613 0.951613 0.951613
0.972559 0.972559 0.972559
0.997824 0.997824 0.997824
1.000000 1.000000 1.000000
0.011646 0.011646 0.011646
0.052839 0.052839 0.052839
0.115410 0.115410 0.115410
0.181175 0.181175 0.181175
0.247919 0.247919 0.247919
0.315067 0.315067 0.315067
0.382416 0.382416 0.382416
0.449878 0.449878 0.449878
0.518801 0.518801 0.518801
0.109583 0.109583 0.109583
0.127689 0.127689 0.127689
0.165113 0.165113 0.165113
0.215712 0.215712 0.215712
0.273329 0.273329 0.273329
0.334673 0.334673 0.334673
0.398114 0.398114 0.398114
0.462811 0.462811 0.462811
0.530571 0.530571 0.530571
0.217271 0.217271 0.217271
0.226690 0.226690 0.226690
0.248870 0.248870 0.248870
0.283604 0.283604 0.283604
0.328023 0.328023 0.328023
0.379215 0.379215 0.379215
0.434983 0.434983 0.434983
0.493845 0.493845 0.493845
0.559222 0.559222 0.559222
0.326760 0.326760 0.326760
0.332706 0.332706 0.332706
0.347292 0.347292 0.347292
0.371610 0.371610 0.371610
0.404917 0.404917 0.404917
0.445747 0.445747 0.445747
0.492506 0.492506 0.492506
0.547299 0.547299 0.547299
0.606384 0.606384 0.606384
0.436764 0.436764 0.436764
0.440956 0.440956 0.440956
0.451407 0.451407 0.451407
0.469332 0.469332 0.469332
0.494792 0.494792 0.494792
0.529421 0.529421 0.529421
0.571069 0.571069 0.571069
0.618263 0.618263 0.618263
0.670003 0.670003 0.670003
0.550734 0.550734 0.550734
0.554152 0.554152 0.554152
0.562743 0.562743 0.562743
0.577688 0.577688 0.577688
0.599344 0.599344 0.599344
0.627605 0.627605 0.627605
0.662037 0.662037 0.662037
0.702016 0.702016 0.702016
0.746839 0.746839 0.746839
0.669874 0.669874 0.669874
0.672578 0.672578 0.672578
0.679403 0.679403 0.679403
0.691370 0.691370 0.691370
0.708915 0.708915 0.708915
0.732149 0.732149 0.732149
0.760929 0.760929 0.760929
0.794927 0.794927 0.794927
0.833702 0.833702 0.833702
0.789075 0.789075 0.789075
0.791287 0.791287 0.791287
0.796883 0.796883 0.796883
0.806743 0.806743 0.806743
0.821304 0.821304 0.821304
0.840769 0.840769 0.840769
0.865150 0.865150 0.865150
0.894306 0.894306 0.894306
0.927981 0.927981 0.927981
0.908314 0.908314 0.908314
0.910170 0.910170 0.910170
0.914871 0.914871 0.914871
0.923180 0.923180 0.923180
0.935508 0.935508 0.935508
0.952092 0.952092 0.952092
0.973025 0.973025 0.973025
0.998275 0.998275 0.998275
1.000000 1.000000 1.000000
0.041270 0.041270 0.041270
0.074331 0.074331 0.074331
0.127728 0.127728 0.127728
0.189183 0.189183 0.189183
0.253630 0.253630 0.253630
0.319403 0.319403 0.319403
0.385857 0.385857 0.385857
0.452697 0.452697 0.452697
0.521358 0.521358 0.521358
0.122463 0.122463 0.122463
0.138945 0.138945 0.138945
0.173913 0.173913 0.173913
0.222370 0.222370 0.222370
0.278442 0.278442 0.278442
0.338711 0.338711 0.338711
0.401390 0.401390 0.401390
0.465533 0.465533 0.465533
0.533061 0.533061 0.533061
0.223877 0.223877 0.223877
0.232996 0.232996 0.232996
0.254556 0.254556 0.254556
0.288505 0.288505 0.288505
0.332158 0.332158 0.332158
0.382691 0.382691 0.382691
0.437921 0.437921 0.437921
0.496355 0.496355 0.496355
0.561562 0.561562 0.561562
0.330914 0.330914 0.330914
0.336772 0.336772 0.336772
0.351156 0.351156 0.351156
0.375172 0.375172 0.375172
0.408126 0.408126 0.408126
0.448598 0.448598 0.448598
0.495024 0.495024 0.495024
0.549700 0.549700 0.549700
0.608509 0.608509 0.608509
0.439688 0.439688 0.439688
0.443845 0.443845 0.443845
0.454214 0.454214 0.454214
0.472007 0.472007 0.472007
0.497296 0.497296 0.497296
0.531918 0.531918 0.531918
0.573352 0.573352 0.573352
0.620340 0.620340 0.620340
0.671888 0.671888 0.671888
0.553117 0.553117 0.553117
0.556518 0.556518 0.556518
0.565066 0.565066 0.565066
0.579940 0.579940 0.579940
0.601499 0.601499 0.601499
0.629644 0.629644 0.629644
0.663949 0.663949 0.663949
0.703796 0.703796 0.703796
0.748489 0.748489 0.748489
0.671758 0.671758 0.671758
0.674453 0.674453 0.674453
0.681255 0.681255 0.681255
0.693183 0.693183 0.693183
0.710673 0.710673 0.710673
0.733839 0.733839 0.733839
0.762541 0.762541 0.762541
0.796454 0.796454 0.796454
0.835141 0.835141 0.835141
0.790616 0.790616 0.790616
0.792823 0.792823 0.792823
0.798406 0.798406 0.798406
0.808243 0.808243 0.808243
0.822771 0.822771 0.822771
0.842193 0.842193 0.842193
0.866524 0.866524 0.866524
0.895624 0.895624 0.895624
0.929239 0.929239 0.929239
0.909607 0.909607 0.909607
0.911459 0.911459 0.911459
0.916151 0.916151 0.916151
0.924446 0.924446 0.924446
0.936753 0.936753 0.936753
0.953310 0.953310 0.953310
0.974210 0.974210 0.974210
0.999422 0.999422 0.999422
1.000000 1.000000 1.000000
0.080725 0.080725 0.080725
0.103548 0.103548 0.103548
0.147195 0.147195 0.147195
0.202616 0.202616 0.202616
0.263462 0.263462 0.263462
0.326967 0.326967 0.326967
0.391901 0.391901 0.391901
0.457671 0.457671 0.457671
0.525880 0.525880 0.525880
0.142647 0.142647 0.142647
0.157016 0.157016 0.157016
0.188529 0.188529 0.188529
0.233717 0.233717 0.233717
0.287298 0.287298 0.287298
0.345771 0.345771 0.345771
0.407152 0.407152 0.407152
0.470337 0.470337 0.470337
0.537468 0.537468 0.537468
0.235142 0.235142 0.235142
0.243787 0.243787 0.243787
0.264349 0.264349 0.264349
0.297011 0.297011 0.297011
0.339383 0.339383 0.339383
0.388795 0.388795 0.388795
0.443103 0.443103 0.443103
0.500854 0.500854 0.500854
0.565708 0.565708 0.565708
0.338171 0.338171 0.338171
0.343880 0.343880 0.343880
0.357921 0.357921 0.357921
0.381424 0.381424 0.381424
0.413773 0.413773 0.413773
0.453628 0.453628 0.453628
0.499476 0.499476 0.499476
0.553951 0.553951 0.553951
0.612277 0.612277 0.612277
0.444844 0.444844 0.444844
0.448942 0.448942 0.448942
0.459168 0.459168 0.459168
0.476730 0.476730 0.476730
0.501860 0.501860 0.501860
0.536336 0.536336 0.536336
0.577396 0.577396 0.577396
0.624022 0.624022 0.624022
0.675232 0.675232 0.675232
0.557337 0.557337 0.557337
0.560708 0.560708 0.560708
0.569181 0.569181 0.569181
0.583930 0.583930 0.583930
0.605320 0.605320 0.605320
0.633261 0.633261 0.633261
0.667342 0.667342 0.667342
0.706957 0.706957 0.706957
0.751419 0.751419 0.751419
0.675103 0.675103 0.675103
0.677782 0.677782 0.677782
0.684543 0.684543 0.684543
0.696403 0.696403 0.696403
0.713797 0.713797 0.713797
0.736842 0.736842 0.736842
0.765405 0.765405 0.765405
0.799169 0.799169 0.799169
0.837700 0.837700 0.837700
0.793355 0.793355 0.793355
0.795553 0.795553 0.795553
0.801112 0.801112 0.801112
0.810908 0.810908 0.810908
0.825378 0.825378 0.825378
0.844726 0.844726 0.844726
0.868968 0.868968 0.868968
0.897968 0.897968 0.897968
0.931477 0.931477 0.931477
0.911906 0.911906 0.911906
0.913752 0.913752 0.913752
0.918430 0.918430 0.918430
0.926699 0.926699 0.926699
0.938969 0.938969 0.938969
0.955477 0.955477 0.955477
0.976318 0.976318 0.976318
1.000000 1.000000 1.000000
1.000000 1.000000 1.000000
0.120179 0.120179 0.120179
0.136932 0.136932 0.136932
0.172321 0.172321 0.172321
0.221155 0.221155 0.221155
0.277504 0.277504 0.277504
0.337968 0.337968 0.337968
0.400786 0.400786 0.400786
0.465031 0.465031 0.465031
0.532602 0.532602 0.532602
0.168476 0.168476 0.168476
0.180723 0.180723 0.180723
0.208453 0.208453 0.208453
0.249701 0.249701 0.249701
0.300050 0.300050 0.300050
0.356079 0.356079 0.356079
0.415639 0.415639 0.415639
0.477454 0.477454 0.477454
0.544021 0.544021 0.544021
0.251024 0.251024 0.251024
0.259067 0.259067 0.259067
0.278340 0.278340 0.278340
0.309293 0.309293 0.309293
0.349917 0.349917 0.349917
0.397765 0.397765 0.397765
0.450760 0.450760 0.450760
0.507966 0.507966 0.507966
0.571879 0.571879 0.571879
0.348749 0.348749 0.348749
0.354254 0.354254 0.354254
0.367818 0.367818 0.367818
0.390602 0.390602 0.390602
0.422096 0.422096 0.422096
0.461068 0.461068 0.461068
0.506568 0.506568 0.506568
0.560276 0.560276 0.560276
0.617896 0.617896 0.617896
0.452464 0.452464 0.452464
0.456477 0.456477 0.456477
0.466498 0.466498 0.466498
0.483729 0.483729 0.483729
0.508955 0.508955 0.508955
0.542905 0.542905 0.542905
0.583420 0.583420 0.583420
0.629514 0.629514 0.629514
0.680227 0.680227 0.680227
0.563617 0.563617 0.563617
0.566944 0.566944 0.566944
0.575308 0.575308 0.575308
0.589874 0.589874 0.589874
0.611015 0.611015 0.611015
0.638657 0.638657 0.638657
0.672408 0.672408 0.672408
0.711681 0.711681 0.711681
0.755803 0.755803 0.755803
0.680099 0.680099 0.680099
0.682754 0.682754 0.682754
0.689456 0.689456 0.689456
0.701214 0.701214 0.701214
0.718465 0.718465 0.718465
0.741333 0.741333 0.741333
0.769691 0.769691 0.769691
0.803232 0.803232 0.803232
0.841532 0.841532 0.841532
0.797455 0.797455 0.797455
0.799639 0.799639 0.799639
0.805163 0.805163 0.805163
0.814898 0.814898 0.814898
0.829281 0.829281 0.829281
0.848518 0.848518 0.848518
0.872629 0.872629 0.872629
0.901481 0.901481 0.901481
0.934832 0.934832 0.934832
0.915352 0.915352 0.915352
0.917189 0.917189 0.917189
0.921845 0.921845 0.921845
0.930076 0.930076 0.930076
0.942290 0.942290 0.942290
0.958727 0.958727 0.958727
0.979480 0.979480 0.979480
1.000000 1.000000 1.000000
1.000000 1.000000 1.000000
0.159634 0.159634 0.159634
0.172546 0.172546 0.172546
0.201496 0.201496 0.201496
0.244058 0.244058 0.244058
0.295513 0.295513 0.295513
0.352393 0.352393 0.352393
0.412594 0.412594 0.412594
0.474895 0.474895 0.474895
0.541662 0.541662 0.541662
0.198259 0.198259 0.198259
0.208636 0.208636 0.208636
0.232763 0.232763 0.232763
0.269885 0.269885 0.269885
0.316565 0.316565 0.316565
0.369656 0.369656 0.369656
0.426943 0.426943 0.426943
0.487005 0.487005 0.487005
0.552861 0.552861 0.552861
0.271094 0.271094 0.271094
0.278471 0.278471 0.278471
0.296289 0.296289 0.296289
0.325254 0.325254 0.325254
0.363773 0.363773 0.363773
0.409680 0.409680 0.409680
0.461008 0.461008 0.461008
0.517535 0.517535 0.517535
0.580217 0.580217 0.580217
0.362659 0.362659 0.362659
0.367913 0.367913 0.367913
0.380890 0.380890 0.380890
0.402778 0.402778 0.402778
0.433193 0.433193 0.433193
0.471037 0.471037 0.471037
0.516168 0.516168 0.516168
0.568817 0.568817 0.568817
0.625504 0.625504 0.625504
0.462665 0.462665 0.462665
0.466568 0.466568 0.466568
0.476325 0.476325 0.476325
0.493127 0.493127 0.493127
0.518503 0.518503 0.518503
0.551765 0.551765 0.551765
0.591564 0.591564 0.591564
0.636955 0.636955 0.636955
0.687006 0.687006 0.687006
0.572099 0.572099 0.572099
0.575367 0.575367 0.575367
0.583587 0.583587 0.583587
0.597913 0.597913 0.597913
0.618726 0.618726 0.618726
0.645971 0.645971 0.645971
0.679283 0.679283 0.679283
0.718099 0.718099 0.718099
0.761767 0.761767 0.761767
0.686880 0.686880 0.686880
0.689504 0.689504 0.689504
0.696126 0.696126 0.696126
0.707749 0.707749 0.707749
0.724810 0.724810 0.724810
0.747439 0.747439 0.747439
0.775522 0.775522 0.775522
0.808764 0.808764 0.808764
0.846754 0.846754 0.846754
0.803037 0.803037 0.803037
0.805202 0.805202 0.805202
0.810679 0.810679 0.810679
0.820333 0.820333 0.820333
0.834599 0.834599 0.834599
0.853687 0.853687 0.853687
0.877620 0.877620 0.877620
0.906273 0.906273 0.906273
0.939410 0.939410 0.939410
0.920053 0.920053 0.920053
0.921878 0.921878 0.921878
0.926505 0.926505 0.926505
0.934683 0.934683 0.934683
0.946823 0.946823 0.946823
0.963161 0.963161 0.963161
0.983796 0.983796 0.983796
1.000000 1.000000 1.000000
1.000000 1.000000 1.000000
0.199089 0.199089 0.199089
0.209421 0.209421 0.209421
0.233458 0.233458 0.233458
0.270471 0.270471 0.270471
0.317051 0.317051 0.317051
0.370059 0.370059 0.370059
0.427281 0.427281 0.427281
0.487291 0.487291 0.487291
0.553127 0.553127 0.553127
0.230717 0.230717 0.230717
0.239544 0.239544 0.239544
0.260489 0.260489 0.260489
0.293649 0.293649 0.293649
0.336519 0.336519 0.336519
0.386371 0.386371 0.386371
0.441042 0.441042 0.441042
0.499025 0.499025 0.499025
0.564056 0.564056 0.564056
0.294745 0.294745 0.294745
0.301449 0.301449 0.301449
0.317765 0.317765 0.317765
0.344610 0.344610 0.344610
0.380803 0.380803 0.380803
0.424492 0.424492 0.424492
0.473860 0.473860 0.473860
0.529618 0.529618 0.529618
0.590798 0.590798 0.590798
0.379749 0.379749 0.379749
0.384720 0.384720 0.384720
0.397031 0.397031 0.397031
0.417890 0.417890 0.417890
0.447048 0.447048 0.447048
0.483557 0.483557 0.483557
0.528288 0.528288 0.528288
0.579647 0.579647 0.579647
0.635187 0.635187 0.635187
0.475461 0.475461 0.475461
0.479235 0.479235 0.479235
0.488676 0.488676 0.488676
0.505362 0.505362 0.505362
0.530560 0.530560 0.530560
0.562987 0.562987 0.562987
0.601908 0.601908 0.601908
0.646431 0.646431 0.646431
0.695660 0.695660 0.695660
0.582857 0.582857 0.582857
0.586053 0.586053 0.586053
0.594097 0.594097 0.594097
0.608127 0.608127 0.608127
0.628535 0.628535 0.628535
0.655290 0.655290 0.655290
0.688056 0.688056 0.688056
0.726301 0.726301 0.726301
0.769398 0.769398 0.769398
0.695536 0.695536 0.695536
0.698119 0.698119 0.698119
0.704643 0.704643 0.704643
0.716096 0.716096 0.716096
0.732919 0.732919 0.732919
0.755250 0.755250 0.755250
0.782988 0.782988 0.782988
0.815854 0.815854 0.815854
0.853452 0.853452 0.853452
0.810190 0.810190 0.810190
0.812331 0.812331 0.812331
0.817748 0.817748 0.817748
0.827299 0.827299 0.827299
0.841419 0.841419 0.841419
0.860317 0.860317 0.860317
0.884026 0.884026 0.884026
0.912427 0.912427 0.912427
0.945293 0.945293 0.945293
0.926091 0.926091 0.926091
0.927902 0.927902 0.927902
0.932490 0.932490 0.932490
0.940603 0.940603 0.940603
0.952647 0.952647 0.952647
0.968862 0.968862 0.968862
0.989346 0.989346 0.989346
1.000000 1.000000 1.000000
1.000000 1.000000 1.000000
0.238544 0.238544 0.238544
0.247054 0.247054 0.247054
0.267329 0.267329 0.267329
0.299614 0.299614 0.299614
0.341605 0.341605 0.341605
0.390681 0.390681 0.390681
0.444708 0.444708 0.444708
0.502343 0.502343 0.502343
0.566997 0.566997 0.566997
0.264986 0.264986 0.264986
0.272556 0.272556 0.272556
0.290798 0.290798 0.290798
0.320349 0.320349 0.320349
0.359496 0.359496 0.359496
0.405989 0.405989 0.405989
0.457823 0.457823 0.457823
0.514555 0.514555 0.514555
0.577616 0.577616 0.577616
0.321337 0.321337 0.321337
0.327401 0.327401 0.327401
0.342259 0.342259 0.342259
0.366979 0.366979 0.366979
0.400754 0.400754 0.400754
0.442055 0.442055 0.442055
0.489251 0.489251 0.489251
0.544201 0.544201 0.544201
0.603644 0.603644 0.603644
0.399765 0.399765 0.399765
0.404436 0.404436 0.404436
0.416035 0.416035 0.416035
0.435783 0.435783 0.435783
0.463560 0.463560 0.463560
0.498575 0.498575 0.498575
0.542913 0.542913 0.542913
0.592783 0.592783 0.592783
0.646981 0.646981 0.646981
0.490790 0.490790 0.490790
0.494417 0.494417 0.494417
0.503782 0.503782 0.503782
0.520746 0.520746 0.520746
0.545113 0.545113 0.545113
0.576577 0.576577 0.576577
0.614476 0.614476 0.614476
0.657981 0.657981 0.657981
0.706237 0.706237 0.706237
0.595908 0.595908 0.595908
0.599021 0.599021 0.599021
0.606860 0.606860 0.606860
0.620544 0.620544 0.620544
0.640476 0.640476 0.640476
0.666654 0.666654 0.666654
0.698774 0.698774 0.698774
0.736341 0.736341 0.736341
0.778757 0.778757 0.778757
0.706116 0.706116 0.706116
0.708652 0.708652 0.708652
0.715058 0.715058 0.715058
0.726310 0.726310 0.726310
0.742849 0.742849 0.742849
0.764824 0.764824 0.764824
0.792148 0.792148 0.792148
0.824562 0.824562 0.824562
0.861688 0.861688 0.861688
0.818973 0.818973 0.818973
0.821085 0.821085 0.821085
0.826431 0.826431 0.826431
0.835859 0.835859 0.835859
0.849801 0.849801 0.849801
0.868472 0.868472 0.868472
0.891909 0.891909 0.891909
0.920005 0.920005 0.920005
0.952542 0.952542 0.952542
0.933530 0.933530 0.933530
0.935322 0.935322 0.935322
0.939865 0.939865 0.939865
0.947898 0.947898 0.947898
0.959826 0.959826 0.959826
0.975890 0.975890 0.975890
0.996191 0.996191 0.996191
1.000000 1.000000 1.000000
1.000000 1.000000 1.000000
0.277999 0.277999 0.277999
0.285168 0.285168 0.285168
0.302525 0.302525 0.302525
0.330847 0.330847 0.330847
0.368670 0.368670 0.368670
0.413921 0.413921 0.413921
0.464675 0.464675 0.464675
0.520974 0.520974 0.520974
0.583222 0.583222 0.583222
0.300502 0.300502 0.300502
0.307058 0.307058 0.307058
0.323039 0.323039 0.323039
0.349402 0.349402 0.349402
0.385054 0.385054 0.385054
0.428215 0.428215 0.428215
0.477110 0.477110 0.477110
0.532688 0.532688 0.532688
0.593495 0.593495 0.593495
0.350293 0.350293 0.350293
0.355769 0.355769 0.355769
0.369266 0.369266 0.369266
0.391947 0.391947 0.391947
0.423319 0.423319 0.423319
0.462164 0.462164 0.462164
0.507622 0.507622 0.507622
0.561211 0.561211 0.561211
0.618728 0.618728 0.618728
0.422395 0.422395 0.422395
0.426762 0.426762 0.426762
0.437636 0.437636 0.437636
0.456236 0.456236 0.456236
0.482561 0.482561 0.482561
0.517255 0.517255 0.517255
0.559969 0.559969 0.559969
0.608190 0.608190 0.608190
0.660880 0.660880 0.660880
0.509210 0.509210 0.509210
0.512957 0.512957 0.512957
0.522353 0.522353 0.522353
0.538634 0.538634 0.538634
0.562090 0.562090 0.562090
0.592489 0.592489 0.592489
0.629248 0.629248 0.629248
0.671605 0.671605 0.671605
0.718753 0.718753 0.718753
0.611221 0.611221 0.611221
0.614241 0.614241 0.614241
0.621850 0.621850 0.621850
0.635146 0.635146 0.635146
0.654543 0.654543 0.654543
0.680066 0.680066 0.680066
0.711451 0.711451 0.711451
0.748241 0.748241 0.748241
0.789873 0.789873 0.789873
0.718634 0.718634 0.718634
0.721116 0.721116 0.721116
0.727388 0.727388 0.727388
0.738410 0.738410 0.738410
0.754623 0.754623 0.754623
0.776187 0.776187 0.776187
0.803034 0.803034 0.803034
0.834924 0.834924 0.834924
0.871501 0.871501 0.871501
0.829423 0.829423 0.829423
0.831502 0.831502 0.831502
0.836765 0.836765 0.836765
0.846049 0.846049 0.846049
0.859784 0.859784 0.859784
0.878190 0.878190 0.878190
0.901310 0.901310 0.901310
0.929050 0.929050 0.929050
0.961201 0.961201 0.961201
0.942411 0.942411 0.942411
0.944182 0.944182 0.944182
0.948671 0.948671 0.948671
0.956610 0.956610 0.956610
0.968403 0.968403 0.968403
0.984289 0.984289 0.984289
1.000000 1.000000 1.000000
1.000000 1.000000 1.000000
1.000000 1.000000 1.000000
