docs/luts/fuji_recipes/AcrosY_PE_Acros_Ellen_Mark.cube
TITLE "Fujifilm Recipe: PE Acros Ellen Mark (AcrosY)"
# FilmSim=AcrosY HL=2 SH=0 Col=0 WB=Auto WBR=0 WBB=0
LUT_3D_SIZE 33
DOMAIN_MIN 0.0 0.0 0.0
DOMAIN_MAX 1.0 1.0 1.0
0.000000 0.000000 0.000000
0.007175 0.007175 0.007175
0.015294 0.015294 0.015294
0.026936 0.026936 0.026936
0.042503 0.042503 0.042503
0.059430 0.059430 0.059430
0.076358 0.076358 0.076358
0.093286 0.093286 0.093286
0.110213 0.110213 0.110213
0.127141 0.127141 0.127141
0.144068 0.144068 0.144068
0.160996 0.160996 0.160996
0.177923 0.177923 0.177923
0.194851 0.194851 0.194851
0.211778 0.211778 0.211778
0.228706 0.228706 0.228706
0.245634 0.245634 0.245634
0.262561 0.262561 0.262561
0.279489 0.279489 0.279489
0.296416 0.296416 0.296416
0.313344 0.313344 0.313344
0.330271 0.330271 0.330271
0.347199 0.347199 0.347199
0.364127 0.364127 0.364127
0.381054 0.381054 0.381054
0.397982 0.397982 0.397982
0.414909 0.414909 0.414909
0.431837 0.431837 0.431837
0.448764 0.448764 0.448764
0.465692 0.465692 0.465692
0.482620 0.482620 0.482620
0.499547 0.499547 0.499547
0.517793 0.517793 0.517793
0.023244 0.023244 0.023244
0.030419 0.030419 0.030419
0.038538 0.038538 0.038538
0.049420 0.049420 0.049420
0.061912 0.061912 0.061912
0.075542 0.075542 0.075542
0.089972 0.089972 0.089972
0.104969 0.104969 0.104969
0.120374 0.120374 0.120374
0.136080 0.136080 0.136080
0.152012 0.152012 0.152012
0.168116 0.168116 0.168116
0.184353 0.184353 0.184353
0.200696 0.200696 0.200696
0.217124 0.217124 0.217124
0.233619 0.233619 0.233619
0.250171 0.250171 0.250171
0.266769 0.266769 0.266769
0.283406 0.283406 0.283406
0.300075 0.300075 0.300075
0.316772 0.316772 0.316772
0.333493 0.333493 0.333493
0.350234 0.350234 0.350234
0.366993 0.366993 0.366993
0.383767 0.383767 0.383767
0.400555 0.400555 0.400555
0.417354 0.417354 0.417354
0.434164 0.434164 0.434164
0.450984 0.450984 0.450984
0.467811 0.467811 0.467811
0.484647 0.484647 0.484647
0.501607 0.501607 0.501607
0.519803 0.519803 0.519803
0.048868 0.048868 0.048868
0.054889 0.054889 0.054889
0.061188 0.061188 0.061188
0.069464 0.069464 0.069464
0.079493 0.079493 0.079493
0.090935 0.090935 0.090935
0.103485 0.103485 0.103485
0.116891 0.116891 0.116891
0.130958 0.130958 0.130958
0.145537 0.145537 0.145537
0.160514 0.160514 0.160514
0.175807 0.175807 0.175807
0.191349 0.191349 0.191349
0.207093 0.207093 0.207093
0.223000 0.223000 0.223000
0.239042 0.239042 0.239042
0.255194 0.255194 0.255194
0.271440 0.271440 0.271440
0.287763 0.287763 0.287763
0.304153 0.304153 0.304153
0.320599 0.320599 0.320599
0.337093 0.337093 0.337093
0.353630 0.353630 0.353630
0.370203 0.370203 0.370203
0.386808 0.386808 0.386808
0.403442 0.403442 0.403442
0.420099 0.420099 0.420099
0.436779 0.436779 0.436779
0.453478 0.453478 0.453478
0.470195 0.470195 0.470195
0.486927 0.486927 0.486927
0.503967 0.503967 0.503967
0.522067 0.522067 0.522067
0.076492 0.076492 0.076492
0.080893 0.080893 0.080893
0.085645 0.085645 0.085645
0.092089 0.092089 0.092089
0.100167 0.100167 0.100167
0.109685 0.109685 0.109685
0.120431 0.120431 0.120431
0.132199 0.132199 0.132199
0.144806 0.144806 0.144806
0.158096 0.158096 0.158096
0.171944 0.171944 0.171944
0.186246 0.186246 0.186246
0.200920 0.200920 0.200920
0.215900 0.215900 0.215900
0.231135 0.231135 0.231135
0.246581 0.246581 0.246581
0.262204 0.262204 0.262204
0.277978 0.277978 0.277978
0.293879 0.293879 0.293879
0.309888 0.309888 0.309888
0.325992 0.325992 0.325992
0.342177 0.342177 0.342177
0.358432 0.358432 0.358432
0.374748 0.374748 0.374748
0.391119 0.391119 0.391119
0.407537 0.407537 0.407537
0.423997 0.423997 0.423997
0.440495 0.440495 0.440495
0.457026 0.457026 0.457026
0.473587 0.473587 0.473587
0.490174 0.490174 0.490174
0.507329 0.507329 0.507329
0.525293 0.525293 0.525293
0.104116 0.104116 0.104116
0.107515 0.107515 0.107515
0.111244 0.111244 0.111244
0.116396 0.116396 0.116396
0.122991 0.122991 0.122991
0.130936 0.130936 0.130936
0.140102 0.140102 0.140102
0.150344 0.150344 0.150344
0.161517 0.161517 0.161517
0.173486 0.173486 0.173486
0.186128 0.186128 0.186128
0.199340 0.199340 0.199340
0.213033 0.213033 0.213033
0.227131 0.227131 0.227131
0.241573 0.241573 0.241573
0.256307 0.256307 0.256307
0.271289 0.271289 0.271289
0.286484 0.286484 0.286484
0.301862 0.301862 0.301862
0.317398 0.317398 0.317398
0.333071 0.333071 0.333071
0.348863 0.348863 0.348863
0.364760 0.364760 0.364760
0.380748 0.380748 0.380748
0.396817 0.396817 0.396817
0.412958 0.412958 0.412958
0.429163 0.429163 0.429163
0.445424 0.445424 0.445424
0.461736 0.461736 0.461736
0.478094 0.478094 0.478094
0.494493 0.494493 0.494493
0.511802 0.511802 0.511802
0.529589 0.529589 0.529589
0.131741 0.131741 0.131741
0.134470 0.134470 0.134470
0.137493 0.137493 0.137493
0.141715 0.141715 0.141715
0.147193 0.147193 0.147193
0.153892 0.153892 0.153892
0.161742 0.161742 0.161742
0.170652 0.170652 0.170652
0.180515 0.180515 0.180515
0.191225 0.191225 0.191225
0.202680 0.202680 0.202680
0.214784 0.214784 0.214784
0.227452 0.227452 0.227452
0.240607 0.240607 0.240607
0.254185 0.254185 0.254185
0.268128 0.268128 0.268128
0.282387 0.282387 0.282387
0.296922 0.296922 0.296922
0.311696 0.311696 0.311696
0.326679 0.326679 0.326679
0.341846 0.341846 0.341846
0.357173 0.357173 0.357173
0.372642 0.372642 0.372642
0.388237 0.388237 0.388237
0.403943 0.403943 0.403943
0.419748 0.419748 0.419748
0.435642 0.435642 0.435642
0.451615 0.451615 0.451615
0.467659 0.467659 0.467659
0.483767 0.483767 0.483767
0.499933 0.499933 0.499933
0.517443 0.517443 0.517443
0.535010 0.535010 0.535010
0.159365 0.159365 0.159365
0.161621 0.161621 0.161621
0.164135 0.164135 0.164135
0.167671 0.167671 0.167671
0.172298 0.172298 0.172298
0.178016 0.178016 0.178016
0.184793 0.184793 0.184793
0.192573 0.192573 0.192573
0.201286 0.201286 0.201286
0.210855 0.210855 0.210855
0.221198 0.221198 0.221198
0.232234 0.232234 0.232234
0.243889 0.243889 0.243889
0.256090 0.256090 0.256090
0.268776 0.268776 0.268776
0.281889 0.281889 0.281889
0.295377 0.295377 0.295377
0.309198 0.309198 0.309198
0.323311 0.323311 0.323311
0.337682 0.337682 0.337682
0.352283 0.352283 0.352283
0.367086 0.367086 0.367086
0.382070 0.382070 0.382070
0.397215 0.397215 0.397215
0.412504 0.412504 0.412504
0.427921 0.427921 0.427921
0.443453 0.443453 0.443453
0.459089 0.459089 0.459089
0.474819 0.474819 0.474819
0.490634 0.490634 0.490634
0.507047 0.507047 0.507047
0.524285 0.524285 0.524285
0.541592 0.541592 0.541592
0.186989 0.186989 0.186989
0.188897 0.188897 0.188897
0.191030 0.191030 0.191030
0.194045 0.194045 0.194045
0.198015 0.198015 0.198015
0.202955 0.202955 0.202955
0.208858 0.208858 0.208858
0.215694 0.215694 0.215694
0.223419 0.223419 0.223419
0.231979 0.231979 0.231979
0.241313 0.241313 0.241313
0.251356 0.251356 0.251356
0.262047 0.262047 0.262047
0.273323 0.273323 0.273323
0.285125 0.285125 0.285125
0.297401 0.297401 0.297401
0.310101 0.310101 0.310101
0.323180 0.323180 0.323180
0.336598 0.336598 0.336598
0.350319 0.350319 0.350319
0.364312 0.364312 0.364312
0.378548 0.378548 0.378548
0.393002 0.393002 0.393002
0.407652 0.407652 0.407652
0.422478 0.422478 0.422478
0.437462 0.437462 0.437462
0.452590 0.452590 0.452590
0.467847 0.467847 0.467847
0.483222 0.483222 0.483222
0.498704 0.498704 0.498704
0.515425 0.515425 0.515425
0.532346 0.532346 0.532346
0.549354 0.549354 0.549354
0.214614 0.214614 0.214614
0.216255 0.216255 0.216255
0.218096 0.218096 0.218096
0.220706 0.220706 0.220706
0.224157 0.224157 0.224157
0.228475 0.228475 0.228475
0.233663 0.233663 0.233663
0.239712 0.239712 0.239712
0.246595 0.246595 0.246595
0.254276 0.254276 0.254276
0.262712 0.262712 0.262712
0.271854 0.271854 0.271854
0.281651 0.281651 0.281651
0.292052 0.292052 0.292052
0.303006 0.303006 0.303006
0.314464 0.314464 0.314464
0.326382 0.326382 0.326382
0.338715 0.338715 0.338715
0.351426 0.351426 0.351426
0.364478 0.364478 0.364478
0.377839 0.377839 0.377839
0.391479 0.391479 0.391479
0.405371 0.405371 0.405371
0.419493 0.419493 0.419493
0.433821 0.433821 0.433821
0.448338 0.448338 0.448338
0.463026 0.463026 0.463026
0.477869 0.477869 0.477869
0.492854 0.492854 0.492854
0.508606 0.508606 0.508606
0.525057 0.525057 0.525057
0.541625 0.541625 0.541625
0.558299 0.558299 0.558299
0.242238 0.242238 0.242238
0.243671 0.243671 0.243671
0.245282 0.245282 0.245282
0.247570 0.247570 0.247570
0.250605 0.250605 0.250605
0.254417 0.254417 0.254417
0.259018 0.259018 0.259018
0.264408 0.264408 0.264408
0.270575 0.270575 0.270575
0.277496 0.277496 0.277496
0.285142 0.285142 0.285142
0.293476 0.293476 0.293476
0.302458 0.302458 0.302458
0.312048 0.312048 0.312048
0.322203 0.322203 0.322203
0.332881 0.332881 0.332881
0.344040 0.344040 0.344040
0.355643 0.355643 0.355643
0.367651 0.367651 0.367651
0.380032 0.380032 0.380032
0.392751 0.392751 0.392751
0.405781 0.405781 0.405781
0.419094 0.419094 0.419094
0.432666 0.432666 0.432666
0.446474 0.446474 0.446474
0.460497 0.460497 0.460497
0.474718 0.474718 0.474718
0.489119 0.489119 0.489119
0.503981 0.503981 0.503981
0.519876 0.519876 0.519876
0.535922 0.535922 0.535922
0.552107 0.552107 0.552107
0.568418 0.568418 0.568418
0.269862 0.269862 0.269862
0.271129 0.271129 0.271129
0.272554 0.272554 0.272554
0.274582 0.274582 0.274582
0.277278 0.277278 0.277278
0.280673 0.280673 0.280673
0.284786 0.284786 0.284786
0.289623 0.289623 0.289623
0.295180 0.295180 0.295180
0.301444 0.301444 0.301444
0.308397 0.308397 0.308397
0.316013 0.316013 0.316013
0.324261 0.324261 0.324261
0.333110 0.333110 0.333110
0.342524 0.342524 0.342524
0.352468 0.352468 0.352468
0.362907 0.362907 0.362907
0.373805 0.373805 0.373805
0.385130 0.385130 0.385130
0.396849 0.396849 0.396849
0.408931 0.408931 0.408931
0.421349 0.421349 0.421349
0.434077 0.434077 0.434077
0.447088 0.447088 0.447088
0.460361 0.460361 0.460361
0.473874 0.473874 0.473874
0.487610 0.487610 0.487610
0.501672 0.501672 0.501672
0.516929 0.516929 0.516929
0.532373 0.532373 0.532373
0.547990 0.547990 0.547990
0.563765 0.563765 0.563765
0.579688 0.579688 0.579688
0.297487 0.297487 0.297487
0.298617 0.298617 0.298617
0.299890 0.299890 0.299890
0.301704 0.301704 0.301704
0.304120 0.304120 0.304120
0.307169 0.307169 0.307169
0.310872 0.310872 0.310872
0.315240 0.315240 0.315240
0.320275 0.320275 0.320275
0.325972 0.325972 0.325972
0.332319 0.332319 0.332319
0.339298 0.339298 0.339298
0.346889 0.346889 0.346889
0.355065 0.355065 0.355065
0.363799 0.363799 0.363799
0.373061 0.373061 0.373061
0.382823 0.382823 0.382823
0.393053 0.393053 0.393053
0.403721 0.403721 0.403721
0.414800 0.414800 0.414800
0.426260 0.426260 0.426260
0.438074 0.438074 0.438074
0.450219 0.450219 0.450219
0.462669 0.462669 0.462669
0.475402 0.475402 0.475402
0.488398 0.488398 0.488398
0.501767 0.501767 0.501767
0.516308 0.516308 0.516308
0.531074 0.531074 0.531074
0.546049 0.546049 0.546049
0.561216 0.561216 0.561216
0.576564 0.576564 0.576564
0.592077 0.592077 0.592077
0.325111 0.325111 0.325111
0.326128 0.326128 0.326128
0.327275 0.327275 0.327275
0.328911 0.328911 0.328911
0.331092 0.331092 0.331092
0.333850 0.333850 0.333850
0.337206 0.337206 0.337206
0.341174 0.341174 0.341174
0.345760 0.345760 0.345760
0.350964 0.350964 0.350964
0.356780 0.356780 0.356780
0.363197 0.363197 0.363197
0.370200 0.370200 0.370200
0.377768 0.377768 0.377768
0.385882 0.385882 0.385882
0.394517 0.394517 0.394517
0.403648 0.403648 0.403648
0.413250 0.413250 0.413250
0.423296 0.423296 0.423296
0.433761 0.433761 0.433761
0.444620 0.444620 0.444620
0.455848 0.455848 0.455848
0.467421 0.467421 0.467421
0.479316 0.479316 0.479316
0.491512 0.491512 0.491512
0.504308 0.504308 0.504308
0.518066 0.518066 0.518066
0.532087 0.532087 0.532087
0.546352 0.546352 0.546352
0.560846 0.560846 0.560846
0.575553 0.575553 0.575553
0.590458 0.590458 0.590458
0.605547 0.605547 0.605547
0.352735 0.352735 0.352735
0.353658 0.353658 0.353658
0.354698 0.354698 0.354698
0.356183 0.356183 0.356183
0.358166 0.358166 0.358166
0.360676 0.360676 0.360676
0.363736 0.363736 0.363736
0.367360 0.367360 0.367360
0.371558 0.371558 0.371558
0.376333 0.376333 0.376333
0.381683 0.381683 0.381683
0.387602 0.387602 0.387602
0.394079 0.394079 0.394079
0.401101 0.401101 0.401101
0.408651 0.408651 0.408651
0.416710 0.416710 0.416710
0.425259 0.425259 0.425259
0.434274 0.434274 0.434274
0.443736 0.443736 0.443736
0.453620 0.453620 0.453620
0.463904 0.463904 0.463904
0.474566 0.474566 0.474566
0.485584 0.485584 0.485584
0.496937 0.496937 0.496937
0.509294 0.509294 0.509294
0.522215 0.522215 0.522215
0.535435 0.535435 0.535435
0.548935 0.548935 0.548935
0.562698 0.562698 0.562698
0.576706 0.576706 0.576706
0.590943 0.590943 0.590943
0.605396 0.605396 0.605396
0.620051 0.620051 0.620051
0.380360 0.380360 0.380360
0.381201 0.381201 0.381201
0.382151 0.382151 0.382151
0.383508 0.383508 0.383508
0.385321 0.385321 0.385321
0.387618 0.387618 0.387618
0.390422 0.390422 0.390422
0.393749 0.393749 0.393749
0.397609 0.397609 0.397609
0.402008 0.402008 0.402008
0.406948 0.406948 0.406948
0.412425 0.412425 0.412425
0.418433 0.418433 0.418433
0.424963 0.424963 0.424963
0.432002 0.432002 0.432002
0.439535 0.439535 0.439535
0.447547 0.447547 0.447547
0.456020 0.456020 0.456020
0.464934 0.464934 0.464934
0.474270 0.474270 0.474270
0.484009 0.484009 0.484009
0.494131 0.494131 0.494131
0.504986 0.504986 0.504986
0.516681 0.516681 0.516681
0.528727 0.528727 0.528727
0.541105 0.541105 0.541105
0.553795 0.553795 0.553795
0.566779 0.566779 0.566779
0.580041 0.580041 0.580041
0.593563 0.593563 0.593563
0.607329 0.607329 0.607329
0.621326 0.621326 0.621326
0.635540 0.635540 0.635540
0.407984 0.407984 0.407984
0.408757 0.408757 0.408757
0.409628 0.409628 0.409628
0.410875 0.410875 0.410875
0.412541 0.412541 0.412541
0.414654 0.414654 0.414654
0.417236 0.417236 0.417236
0.420303 0.420303 0.420303
0.423868 0.423868 0.423868
0.427936 0.427936 0.427936
0.432513 0.432513 0.432513
0.437597 0.437597 0.437597
0.443186 0.443186 0.443186
0.449273 0.449273 0.449273
0.455849 0.455849 0.455849
0.462903 0.462903 0.462903
0.470422 0.470422 0.470422
0.478392 0.478392 0.478392
0.486797 0.486797 0.486797
0.495620 0.495620 0.495620
0.505233 0.505233 0.505233
0.515611 0.515611 0.515611
0.526385 0.526385 0.526385
0.537536 0.537536 0.537536
0.549046 0.549046 0.549046
0.560896 0.560896 0.560896
0.573068 0.573068 0.573068
0.585546 0.585546 0.585546
0.598313 0.598313 0.598313
0.611352 0.611352 0.611352
0.624650 0.624650 0.624650
0.638191 0.638191 0.638191
0.651961 0.651961 0.651961
0.435608 0.435608 0.435608
0.436321 0.436321 0.436321
0.437125 0.437125 0.437125
0.438275 0.438275 0.438275
0.439814 0.439814 0.439814
0.441767 0.441767 0.441767
0.444155 0.444155 0.444155
0.446995 0.446995 0.446995
0.450298 0.450298 0.450298
0.454075 0.454075 0.454075
0.458329 0.458329 0.458329
0.463063 0.463063 0.463063
0.468276 0.468276 0.468276
0.473963 0.473963 0.473963
0.480120 0.480120 0.480120
0.486737 0.486737 0.486737
0.493804 0.493804 0.493804
0.501415 0.501415 0.501415
0.509982 0.509982 0.509982
0.518995 0.518995 0.518995
0.528436 0.528436 0.528436
0.538292 0.538292 0.538292
0.548543 0.548543 0.548543
0.559174 0.559174 0.559174
0.570169 0.570169 0.570169
0.581509 0.581509 0.581509
0.593179 0.593179 0.593179
0.605163 0.605163 0.605163
0.617445 0.617445 0.617445
0.630010 0.630010 0.630010
0.642844 0.642844 0.642844
0.655932 0.655932 0.655932
0.669261 0.669261 0.669261
0.463233 0.463233 0.463233
0.463893 0.463893 0.463893
0.464638 0.464638 0.464638
0.465704 0.465704 0.465704
0.467131 0.467131 0.467131
0.468942 0.468942 0.468942
0.471160 0.471160 0.471160
0.473799 0.473799 0.473799
0.476872 0.476872 0.476872
0.480390 0.480390 0.480390
0.484357 0.484357 0.484357
0.488777 0.488777 0.488777
0.493652 0.493652 0.493652
0.498979 0.498979 0.498979
0.505135 0.505135 0.505135
0.511850 0.511850 0.511850
0.519036 0.519036 0.519036
0.526682 0.526682 0.526682
0.534776 0.534776 0.534776
0.543307 0.543307 0.543307
0.552261 0.552261 0.552261
0.561624 0.561624 0.561624
0.571381 0.571381 0.571381
0.581519 0.581519 0.581519
0.592020 0.592020 0.592020
0.602871 0.602871 0.602871
0.614057 0.614057 0.614057
0.625562 0.625562 0.625562
0.637373 0.637373 0.637373
0.649474 0.649474 0.649474
0.661852 0.661852 0.661852
0.674494 0.674494 0.674494
0.687387 0.687387 0.687387
0.490857 0.490857 0.490857
0.491471 0.491471 0.491471
0.492164 0.492164 0.492164
0.493156 0.493156 0.493156
0.494484 0.494484 0.494484
0.496171 0.496171 0.496171
0.498237 0.498237 0.498237
0.500754 0.500754 0.500754
0.503852 0.503852 0.503852
0.507401 0.507401 0.507401
0.511408 0.511408 0.511408
0.515878 0.515878 0.515878
0.520813 0.520813 0.520813
0.526214 0.526214 0.526214
0.532078 0.532078 0.532078
0.538401 0.538401 0.538401
0.545177 0.545177 0.545177
0.552398 0.552398 0.552398
0.560055 0.560055 0.560055
0.568138 0.568138 0.568138
0.576636 0.576636 0.576636
0.585538 0.585538 0.585538
0.594829 0.594829 0.594829
0.604498 0.604498 0.604498
0.614531 0.614531 0.614531
0.624915 0.624915 0.624915
0.635635 0.635635 0.635635
0.646679 0.646679 0.646679
0.658032 0.658032 0.658032
0.669683 0.669683 0.669683
0.681616 0.681616 0.681616
0.693821 0.693821 0.693821
0.706284 0.706284 0.706284
0.519960 0.519960 0.519960
0.520579 0.520579 0.520579
0.521277 0.521277 0.521277
0.522278 0.522278 0.522278
0.523617 0.523617 0.523617
0.525320 0.525320 0.525320
0.527406 0.527406 0.527406
0.529893 0.529893 0.529893
0.532793 0.532793 0.532793
0.536118 0.536118 0.536118
0.539875 0.539875 0.539875
0.544071 0.544071 0.544071
0.548709 0.548709 0.548709
0.553790 0.553790 0.553790
0.559314 0.559314 0.559314
0.565278 0.565278 0.565278
0.571678 0.571678 0.571678
0.578508 0.578508 0.578508
0.585760 0.585760 0.585760
0.593428 0.593428 0.593428
0.601501 0.601501 0.601501
0.609970 0.609970 0.609970
0.618823 0.618823 0.618823
0.628050 0.628050 0.628050
0.637639 0.637639 0.637639
0.647577 0.647577 0.647577
0.657852 0.657852 0.657852
0.668452 0.668452 0.668452
0.679365 0.679365 0.679365
0.690579 0.690579 0.690579
0.702080 0.702080 0.702080
0.713859 0.713859 0.713859
0.725902 0.725902 0.725902
0.549794 0.549794 0.549794
0.550373 0.550373 0.550373
0.551028 0.551028 0.551028
0.551965 0.551965 0.551965
0.553220 0.553220 0.553220
0.554816 0.554816 0.554816
0.556772 0.556772 0.556772
0.559105 0.559105 0.559105
0.561827 0.561827 0.561827
0.564951 0.564951 0.564951
0.568483 0.568483 0.568483
0.572432 0.572432 0.572432
0.576800 0.576800 0.576800
0.581591 0.581591 0.581591
0.586805 0.586805 0.586805
0.592440 0.592440 0.592440
0.598494 0.598494 0.598494
0.604964 0.604964 0.604964
0.611843 0.611843 0.611843
0.619124 0.619124 0.619124
0.626801 0.626801 0.626801
0.634865 0.634865 0.634865
0.643307 0.643307 0.643307
0.652117 0.652117 0.652117
0.661285 0.661285 0.661285
0.670799 0.670799 0.670799
0.680650 0.680650 0.680650
0.690826 0.690826 0.690826
0.701316 0.701316 0.701316
0.712108 0.712108 0.712108
0.723192 0.723192 0.723192
0.734556 0.734556 0.734556
0.746190 0.746190 0.746190
0.579629 0.579629 0.579629
0.580172 0.580172 0.580172
0.580787 0.580787 0.580787
0.581667 0.581667 0.581667
0.582846 0.582846 0.582846
0.584347 0.584347 0.584347
0.586186 0.586186 0.586186
0.588380 0.588380 0.588380
0.590943 0.590943 0.590943
0.593884 0.593884 0.593884
0.597213 0.597213 0.597213
0.600937 0.600937 0.600937
0.605061 0.605061 0.605061
0.609586 0.609586 0.609586
0.614517 0.614517 0.614517
0.619851 0.619851 0.619851
0.625588 0.625588 0.625588
0.631725 0.631725 0.631725
0.638257 0.638257 0.638257
0.645181 0.645181 0.645181
0.652489 0.652489 0.652489
0.660175 0.660175 0.660175
0.668230 0.668230 0.668230
0.676647 0.676647 0.676647
0.685417 0.685417 0.685417
0.694531 0.694531 0.694531
0.703978 0.703978 0.703978
0.713748 0.713748 0.713748
0.723832 0.723832 0.723832
0.734220 0.734220 0.734220
0.744901 0.744901 0.744901
0.755864 0.755864 0.755864
0.767100 0.767100 0.767100
0.609463 0.609463 0.609463
0.609975 0.609975 0.609975
0.610554 0.610554 0.610554
0.611383 0.611383 0.611383
0.612494 0.612494 0.612494
0.613907 0.613907 0.613907
0.615641 0.615641 0.615641
0.617710 0.617710 0.617710
0.620128 0.620128 0.620128
0.622905 0.622905 0.622905
0.626049 0.626049 0.626049
0.629568 0.629568 0.629568
0.633468 0.633468 0.633468
0.637752 0.637752 0.637752
0.642423 0.642423 0.642423
0.647481 0.647481 0.647481
0.652925 0.652925 0.652925
0.658755 0.658755 0.658755
0.664967 0.664967 0.664967
0.671558 0.671558 0.671558
0.678522 0.678522 0.678522
0.685854 0.685854 0.685854
0.693548 0.693548 0.693548
0.701596 0.701596 0.701596
0.709990 0.709990 0.709990
0.718724 0.718724 0.718724
0.727787 0.727787 0.727787
0.737172 0.737172 0.737172
0.746868 0.746868 0.746868
0.756868 0.756868 0.756868
0.767161 0.767161 0.767161
0.777738 0.777738 0.777738
0.788589 0.788589 0.788589
0.639297 0.639297 0.639297
0.639781 0.639781 0.639781
0.640327 0.640327 0.640327
0.641110 0.641110 0.641110
0.642159 0.642159 0.642159
0.643494 0.643494 0.643494
0.645132 0.645132 0.645132
0.647088 0.647088 0.647088
0.649374 0.649374 0.649374
0.652001 0.652001 0.652001
0.654977 0.654977 0.654977
0.658310 0.658310 0.658310
0.662005 0.662005 0.662005
0.666068 0.666068 0.666068
0.670500 0.670500 0.670500
0.675303 0.675303 0.675303
0.680478 0.680478 0.680478
0.686024 0.686024 0.686024
0.691939 0.691939 0.691939
0.698221 0.698221 0.698221
0.704864 0.704864 0.704864
0.711866 0.711866 0.711866
0.719220 0.719220 0.719220
0.726921 0.726921 0.726921
0.734962 0.734962 0.734962
0.743336 0.743336 0.743336
0.752035 0.752035 0.752035
0.761053 0.761053 0.761053
0.770379 0.770379 0.770379
0.780008 0.780008 0.780008
0.789928 0.789928 0.789928
0.800134 0.800134 0.800134
0.810614 0.810614 0.810614
0.669131 0.669131 0.669131
0.669589 0.669589 0.669589
0.670106 0.670106 0.670106
0.670847 0.670847 0.670847
0.671839 0.671839 0.671839
0.673103 0.673103 0.673103
0.674655 0.674655 0.674655
0.676507 0.676507 0.676507
0.678673 0.678673 0.678673
0.681163 0.681163 0.681163
0.683985 0.683985 0.683985
0.687147 0.687147 0.687147
0.690656 0.690656 0.690656
0.694515 0.694515 0.694515
0.698727 0.698727 0.698727
0.703296 0.703296 0.703296
0.708222 0.708222 0.708222
0.713506 0.713506 0.713506
0.719145 0.719145 0.719145
0.725138 0.725138 0.725138
0.731483 0.731483 0.731483
0.738176 0.738176 0.738176
0.745212 0.745212 0.745212
0.752587 0.752587 0.752587
0.760294 0.760294 0.760294
0.768329 0.768329 0.768329
0.776683 0.776683 0.776683
0.785352 0.785352 0.785352
0.794326 0.794326 0.794326
0.803600 0.803600 0.803600
0.813164 0.813164 0.813164
0.823012 0.823012 0.823012
0.833135 0.833135 0.833135
0.698966 0.698966 0.698966
0.699399 0.699399 0.699399
0.699890 0.699890 0.699890
0.700592 0.700592 0.700592
0.701534 0.701534 0.701534
0.702733 0.702733 0.702733
0.704204 0.704204 0.704204
0.705963 0.705963 0.705963
0.708019 0.708019 0.708019
0.710383 0.710383 0.710383
0.713064 0.713064 0.713064
0.716070 0.716070 0.716070
0.719406 0.719406 0.719406
0.723078 0.723078 0.723078
0.727088 0.727088 0.727088
0.731441 0.731441 0.731441
0.736136 0.736136 0.736136
0.741176 0.741176 0.741176
0.746559 0.746559 0.746559
0.752285 0.752285 0.752285
0.758351 0.758351 0.758351
0.764754 0.764754 0.764754
0.771492 0.771492 0.771492
0.778560 0.778560 0.778560
0.785954 0.785954 0.785954
0.793667 0.793667 0.793667
0.801696 0.801696 0.801696
0.810033 0.810033 0.810033
0.818672 0.818672 0.818672
0.827607 0.827607 0.827607
0.836831 0.836831 0.836831
0.846336 0.846336 0.846336
0.856116 0.856116 0.856116
0.728800 0.728800 0.728800
0.729212 0.729212 0.729212
0.729678 0.729678 0.729678
0.730345 0.730345 0.730345
0.731240 0.731240 0.731240
0.732379 0.732379 0.732379
0.733778 0.733778 0.733778
0.735450 0.735450 0.735450
0.737405 0.737405 0.737405
0.739655 0.739655 0.739655
0.742207 0.742207 0.742207
0.745068 0.745068 0.745068
0.748246 0.748246 0.748246
0.751745 0.751745 0.751745
0.755568 0.755568 0.755568
0.759720 0.759720 0.759720
0.764202 0.764202 0.764202
0.769016 0.769016 0.769016
0.774160 0.774160 0.774160
0.779636 0.779636 0.779636
0.785442 0.785442 0.785442
0.791575 0.791575 0.791575
0.798033 0.798033 0.798033
0.804813 0.804813 0.804813
