docs/luts/fuji_recipes/Acros_RR_Ilford_HP-5__Push_Process.cube
TITLE "Fujifilm Recipe: RR Ilford HP-5+ Push Process (Acros)"
# FilmSim=Acros HL=3 SH=4 Col=0 WB=Auto WBR=0 WBB=0
LUT_3D_SIZE 9
DOMAIN_MIN 0.0 0.0 0.0
DOMAIN_MAX 1.0 1.0 1.0
0.000000 0.000000 0.000000
0.041049 0.041049 0.041049
0.101639 0.101639 0.101639
0.162229 0.162229 0.162229
0.222818 0.222818 0.222818
0.283408 0.283408 0.283408
0.343998 0.343998 0.343998
0.404588 0.404588 0.404588
0.418690 0.418690 0.418690
0.098440 0.098440 0.098440
0.115007 0.115007 0.115007
0.149023 0.149023 0.149023
0.194742 0.194742 0.194742
0.246609 0.246609 0.246609
0.301714 0.301714 0.301714
0.358632 0.358632 0.358632
0.416634 0.416634 0.416634
0.513656 0.513656 0.513656
0.198884 0.198884 0.198884
0.207246 0.207246 0.207246
0.226956 0.226956 0.226956
0.257863 0.257863 0.257863
0.297442 0.297442 0.297442
0.343106 0.343106 0.343106
0.392892 0.392892 0.392892
0.533961 0.533961 0.533961
0.550679 0.550679 0.550679
0.299329 0.299329 0.299329
0.304566 0.304566 0.304566
0.317428 0.317428 0.317428
0.338905 0.338905 0.338905
0.368376 0.368376 0.368376
0.404575 0.404575 0.404575
0.534804 0.534804 0.534804
0.595627 0.595627 0.595627
0.610418 0.610418 0.610418
0.399773 0.399773 0.399773
0.403455 0.403455 0.403455
0.412642 0.412642 0.412642
0.511220 0.511220 0.511220
0.541138 0.541138 0.541138
0.579338 0.579338 0.579338
0.624815 0.624815 0.624815
0.676437 0.676437 0.676437
0.689215 0.689215 0.689215
0.606957 0.606957 0.606957
0.610659 0.610659 0.610659
0.619967 0.619967 0.619967
0.636172 0.636172 0.636172
0.659681 0.659681 0.659681
0.690403 0.690403 0.690403
0.727894 0.727894 0.727894
0.771492 0.771492 0.771492
0.782436 0.782436 0.782436
0.740883 0.740883 0.740883
0.743809 0.743809 0.743809
0.751197 0.751197 0.751197
0.764160 0.764160 0.764160
0.783180 0.783180 0.783180
0.808395 0.808395 0.808395
0.839669 0.839669 0.839669
0.876663 0.876663 0.876663
0.886046 0.886046 0.886046
0.874808 0.874808 0.874808
0.877201 0.877201 0.877201
0.883256 0.883256 0.883256
0.893930 0.893930 0.893930
0.909702 0.909702 0.909702
0.930803 0.930803 0.930803
0.957260 0.957260 0.957260
0.988934 0.988934 0.988934
0.997029 0.997029 0.997029
0.905979 0.905979 0.905979
0.908271 0.908271 0.908271
0.914074 0.914074 0.914074
0.924311 0.924311 0.924311
0.939456 0.939456 0.939456
0.959752 0.959752 0.959752
0.985251 0.985251 0.985251
1.000000 1.000000 1.000000
1.000000 1.000000 1.000000
0.014134 0.014134 0.014134
0.052353 0.052353 0.052353
0.107382 0.107382 0.107382
0.165833 0.165833 0.165833
0.225354 0.225354 0.225354
0.285321 0.285321 0.285321
0.345510 0.345510 0.345510
0.405824 0.405824 0.405824
0.419874 0.419874 0.419874
0.104354 0.104354 0.104354
0.120120 0.120120 0.120120
0.152965 0.152965 0.152965
0.197695 0.197695 0.197695
0.248863 0.248863 0.248863
0.303488 0.303488 0.303488
0.360069 0.360069 0.360069
0.417825 0.417825 0.417825
0.515182 0.515182 0.515182
0.201768 0.201768 0.201768
0.209999 0.209999 0.209999
0.229438 0.229438 0.229438
0.260003 0.260003 0.260003
0.299247 0.299247 0.299247
0.344623 0.344623 0.344623
0.394175 0.394175 0.394175
0.535421 0.535421 0.535421
0.552089 0.552089 0.552089
0.301120 0.301120 0.301120
0.306321 0.306321 0.306321
0.319096 0.319096 0.319096
0.340445 0.340445 0.340445
0.369766 0.369766 0.369766
0.405812 0.405812 0.405812
0.536262 0.536262 0.536262
0.596916 0.596916 0.596916
0.611670 0.611670 0.611670
0.401028 0.401028 0.401028
0.404696 0.404696 0.404696
0.413848 0.413848 0.413848
0.512754 0.512754 0.512754
0.542577 0.542577 0.542577
0.580668 0.580668 0.580668
0.626033 0.626033 0.626033
0.677547 0.677547 0.677547
0.690300 0.690300 0.690300
0.608217 0.608217 0.608217
0.611910 0.611910 0.611910
0.621196 0.621196 0.621196
0.637365 0.637365 0.637365
0.660824 0.660824 0.660824
0.691487 0.691487 0.691487
0.728911 0.728911 0.728911
0.772440 0.772440 0.772440
0.783368 0.783368 0.783368
0.741878 0.741878 0.741878
0.744800 0.744800 0.744800
0.752176 0.752176 0.752176
0.765119 0.765119 0.765119
0.784111 0.784111 0.784111
0.809291 0.809291 0.809291
0.840524 0.840524 0.840524
0.877475 0.877475 0.877475
0.886847 0.886847 0.886847
0.875622 0.875622 0.875622
0.878012 0.878012 0.878012
0.884060 0.884060 0.884060
0.894722 0.894722 0.894722
0.910477 0.910477 0.910477
0.931557 0.931557 0.931557
0.957988 0.957988 0.957988
0.989633 0.989633 0.989633
0.997721 0.997721 0.997721
0.906758 0.906758 0.906758
0.909048 0.909048 0.909048
0.914845 0.914845 0.914845
0.925071 0.925071 0.925071
0.940201 0.940201 0.940201
0.960478 0.960478 0.960478
0.985953 0.985953 0.985953
1.000000 1.000000 1.000000
1.000000 1.000000 1.000000
0.048067 0.048067 0.048067
0.075074 0.075074 0.075074
0.120792 0.120792 0.120792
0.174641 0.174641 0.174641
0.231662 0.231662 0.231662
0.290121 0.290121 0.290121
0.349323 0.349323 0.349323
0.408950 0.408950 0.408950
0.503827 0.503827 0.503827
0.118105 0.118105 0.118105
0.132232 0.132232 0.132232
0.162536 0.162536 0.162536
0.204993 0.204993 0.204993
0.254496 0.254496 0.254496
0.307948 0.307948 0.307948
0.363694 0.363694 0.363694
0.501120 0.501120 0.501120
0.519044 0.519044 0.519044
0.208905 0.208905 0.208905
0.216827 0.216827 0.216827
0.235619 0.235619 0.235619
0.265356 0.265356 0.265356
0.303783 0.303783 0.303783
0.348448 0.348448 0.348448
0.397416 0.397416 0.397416
0.539119 0.539119 0.539119
0.555659 0.555659 0.555659
0.305622 0.305622 0.305622
0.310731 0.310731 0.310731
0.323295 0.323295 0.323295
0.344327 0.344327 0.344327
0.373275 0.373275 0.373275
0.408938 0.408938 0.408938
0.539953 0.539953 0.539953
0.600180 0.600180 0.600180
0.614843 0.614843 0.614843
0.404201 0.404201 0.404201
0.407833 0.407833 0.407833
0.416899 0.416899 0.416899
0.516636 0.516636 0.516636
0.546219 0.546219 0.546219
0.584038 0.584038 0.584038
0.629122 0.629122 0.629122
0.680362 0.680362 0.680362
0.693054 0.693054 0.693054
0.611411 0.611411 0.611411
0.615082 0.615082 0.615082
0.624313 0.624313 0.624313
0.640389 0.640389 0.640389
0.663723 0.663723 0.663723
0.694234 0.694234 0.694234
0.731491 0.731491 0.731491
0.774847 0.774847 0.774847
0.785735 0.785735 0.785735
0.744405 0.744405 0.744405
0.747315 0.747315 0.747315
0.754662 0.754662 0.754662
0.767554 0.767554 0.767554
0.786475 0.786475 0.786475
0.811566 0.811566 0.811566
0.842697 0.842697 0.842697
0.879536 0.879536 0.879536
0.888882 0.888882 0.888882
0.877689 0.877689 0.877689
0.880072 0.880072 0.880072
0.886103 0.886103 0.886103
0.896735 0.896735 0.896735
0.912447 0.912447 0.912447
0.933472 0.933472 0.933472
0.959838 0.959838 0.959838
0.991410 0.991410 0.991410
0.999479 0.999479 0.999479
0.908738 0.908738 0.908738
0.911022 0.911022 0.911022
0.916803 0.916803 0.916803
0.927002 0.927002 0.927002
0.942094 0.942094 0.942094
0.962322 0.962322 0.962322
0.987738 0.987738 0.987738
1.000000 1.000000 1.000000
1.000000 1.000000 1.000000
0.086701 0.086701 0.086701
0.105062 0.105062 0.105062
0.141543 0.141543 0.141543
0.189231 0.189231 0.189231
0.242440 0.242440 0.242440
0.298451 0.298451 0.298451
0.355998 0.355998 0.355998
0.414452 0.414452 0.414452
0.510864 0.510864 0.510864
0.139268 0.139268 0.139268
0.151360 0.151360 0.151360
0.178228 0.178228 0.178228
0.217319 0.217319 0.217319
0.264189 0.264189 0.264189
0.315713 0.315713 0.315713
0.370049 0.370049 0.370049
0.508199 0.508199 0.508199
0.525851 0.525851 0.525851
0.220981 0.220981 0.220981
0.228423 0.228423 0.228423
0.246195 0.246195 0.246195
0.274596 0.274596 0.274596
0.311673 0.311673 0.311673
0.355143 0.355143 0.355143
0.403117 0.403117 0.403117
0.545641 0.545641 0.545641
0.561962 0.561962 0.561962
0.313456 0.313456 0.313456
0.318413 0.318413 0.318413
0.330622 0.330622 0.330622
0.351119 0.351119 0.351119
0.379431 0.379431 0.379431
0.414440 0.414440 0.414440
0.546464 0.546464 0.546464
0.605951 0.605951 0.605951
0.620455 0.620455 0.620455
0.409783 0.409783 0.409783
0.413354 0.413354 0.413354
0.503028 0.503028 0.503028
0.523479 0.523479 0.523479
0.552645 0.552645 0.552645
0.589993 0.589993 0.589993
0.634587 0.634587 0.634587
0.685348 0.685348 0.685348
0.697932 0.697932 0.697932
0.617060 0.617060 0.617060
0.620692 0.620692 0.620692
0.629827 0.629827 0.629827
0.645742 0.645742 0.645742
0.668856 0.668856 0.668856
0.699103 0.699103 0.699103
0.736067 0.736067 0.736067
0.779118 0.779118 0.779118
0.789934 0.789934 0.789934
0.748885 0.748885 0.748885
0.751775 0.751775 0.751775
0.759070 0.759070 0.759070
0.771873 0.771873 0.771873
0.790669 0.790669 0.790669
0.815605 0.815605 0.815605
0.846555 0.846555 0.846555
0.883197 0.883197 0.883197
0.892496 0.892496 0.892496
0.881359 0.881359 0.881359
0.883731 0.883731 0.883731
0.889731 0.889731 0.889731
0.900310 0.900310 0.900310
0.915947 0.915947 0.915947
0.936875 0.936875 0.936875
0.963126 0.963126 0.963126
0.994568 0.994568 0.994568
1.000000 1.000000 1.000000
0.912256 0.912256 0.912256
0.914528 0.914528 0.914528
0.920282 0.920282 0.920282
0.930435 0.930435 0.930435
0.945459 0.945459 0.945459
0.965599 0.965599 0.965599
0.990911 0.990911 0.990911
1.000000 1.000000 1.000000
1.000000 1.000000 1.000000
0.125336 0.125336 0.125336
0.138708 0.138708 0.138708
0.167776 0.167776 0.167776
0.209061 0.209061 0.209061
0.257671 0.257671 0.257671
0.310479 0.310479 0.310479
0.365759 0.365759 0.365759
0.503416 0.503416 0.503416
0.521251 0.521251 0.521251
0.165887 0.165887 0.165887
0.176029 0.176029 0.176029
0.199295 0.199295 0.199295
0.234475 0.234475 0.234475
0.278024 0.278024 0.278024
0.326975 0.326975 0.326975
0.379365 0.379365 0.379365
0.518647 0.518647 0.518647
0.535909 0.535909 0.535909
0.237833 0.237833 0.237833
0.244681 0.244681 0.244681
0.261169 0.261169 0.261169
0.287837 0.287837 0.287837
0.323108 0.323108 0.323108
0.364933 0.364933 0.364933
0.411508 0.411508 0.411508
0.555292 0.555292 0.555292
0.571297 0.571297 0.571297
0.324814 0.324814 0.324814
0.329563 0.329563 0.329563
0.341287 0.341287 0.341287
0.361044 0.361044 0.361044
0.388468 0.388468 0.388468
0.503401 0.503401 0.503401
0.556098 0.556098 0.556098
0.614516 0.614516 0.614516
0.628790 0.628790 0.628790
0.418007 0.418007 0.418007
0.501987 0.501987 0.501987
0.513594 0.513594 0.513594
0.533588 0.533588 0.533588
0.562158 0.562158 0.562158
0.598824 0.598824 0.598824
0.642708 0.642708 0.642708
0.692770 0.692770 0.692770
0.705197 0.705197 0.705197
0.625448 0.625448 0.625448
0.629024 0.629024 0.629024
0.638019 0.638019 0.638019
0.653700 0.653700 0.653700
0.676494 0.676494 0.676494
0.706354 0.706354 0.706354
0.742888 0.742888 0.742888
0.785491 0.785491 0.785491
0.796202 0.796202 0.796202
0.755568 0.755568 0.755568
0.758427 0.758427 0.758427
0.765645 0.765645 0.765645
0.778318 0.778318 0.778318
0.796931 0.796931 0.796931
0.821636 0.821636 0.821636
0.852320 0.852320 0.852320
0.888672 0.888672 0.888672
0.897901 0.897901 0.897901
0.886848 0.886848 0.886848
0.889201 0.889201 0.889201
0.895157 0.895157 0.895157
0.905658 0.905658 0.905658
0.921182 0.921182 0.921182
0.941967 0.941967 0.941967
0.968047 0.968047 0.968047
0.999298 0.999298 0.999298
1.000000 1.000000 1.000000
0.917518 0.917518 0.917518
0.919774 0.919774 0.919774
0.925488 0.925488 0.925488
0.935570 0.935570 0.935570
0.950494 0.950494 0.950494
0.970505 0.970505 0.970505
0.995662 0.995662 0.995662
1.000000 1.000000 1.000000
1.000000 1.000000 1.000000
0.163970 0.163970 0.163970
0.174234 0.174234 0.174234
0.197736 0.197736 0.197736
0.233184 0.233184 0.233184
0.276971 0.276971 0.276971
0.326110 0.326110 0.326110
0.378645 0.378645 0.378645
0.517837 0.517837 0.517837
0.535129 0.535129 0.535129
0.196166 0.196166 0.196166
0.204654 0.204654 0.204654
0.224624 0.224624 0.224624
0.255859 0.255859 0.255859
0.295756 0.295756 0.295756
0.341691 0.341691 0.341691
0.391697 0.391697 0.391697
0.532602 0.532602 0.532602
0.549367 0.549367 0.549367
0.258893 0.258893 0.258893
0.265105 0.265105 0.265105
0.280183 0.280183 0.280183
0.304887 0.304887 0.304887
0.338030 0.338030 0.338030
0.377854 0.377854 0.377854
0.503575 0.503575 0.503575
0.568225 0.568225 0.568225
0.583823 0.583823 0.583823
0.339645 0.339645 0.339645
0.344144 0.344144 0.344144
0.355280 0.355280 0.355280
0.374132 0.374132 0.374132
0.400452 0.400452 0.400452
0.517822 0.517822 0.517822
0.569011 0.569011 0.569011
0.626044 0.626044 0.626044
0.640018 0.640018 0.640018
0.511957 0.511957 0.511957
0.516453 0.516453 0.516453
0.527701 0.527701 0.527701
0.547111 0.547111 0.547111
0.574914 0.574914 0.574914
0.610699 0.610699 0.610699
0.653655 0.653655 0.653655
0.702801 0.702801 0.702801
0.715021 0.715021 0.715021
0.636745 0.636745 0.636745
0.640246 0.640246 0.640246
0.649059 0.649059 0.649059
0.664434 0.664434 0.664434
0.686808 0.686808 0.686808
0.716158 0.716158 0.716158
0.752125 0.752125 0.752125
0.794133 0.794133 0.794133
0.804705 0.804705 0.804705
0.764620 0.764620 0.764620
0.767438 0.767438 0.767438
0.774556 0.774556 0.774556
0.787056 0.787056 0.787056
0.805424 0.805424 0.805424
0.829823 0.829823 0.829823
0.860151 0.860151 0.860151
0.896116 0.896116 0.896116
0.905251 0.905251 0.905251
0.894310 0.894310 0.894310
0.896639 0.896639 0.896639
0.902534 0.902534 0.902534
0.912931 0.912931 0.912931
0.928306 0.928306 0.928306
0.948898 0.948898 0.948898
0.974748 0.974748 0.974748
1.000000 1.000000 1.000000
1.000000 1.000000 1.000000
0.924676 0.924676 0.924676
0.926911 0.926911 0.926911
0.932570 0.932570 0.932570
0.942559 0.942559 0.942559
0.957348 0.957348 0.957348
0.977185 0.977185 0.977185
1.000000 1.000000 1.000000
1.000000 1.000000 1.000000
1.000000 1.000000 1.000000
0.202604 0.202604 0.202604
0.210798 0.210798 0.210798
0.230159 0.230159 0.230159
0.260625 0.260625 0.260625
0.299773 0.299773 0.299773
0.345066 0.345066 0.345066
0.394549 0.394549 0.394549
0.535848 0.535848 0.535848
0.552501 0.552501 0.552501
0.228842 0.228842 0.228842
0.235997 0.235997 0.235997
0.253151 0.253151 0.253151
0.280725 0.280725 0.280725
0.316948 0.316948 0.316948
0.359647 0.359647 0.359647
0.406969 0.406969 0.406969
0.550065 0.550065 0.550065
0.566240 0.566240 0.566240
0.283444 0.283444 0.283444
0.289031 0.289031 0.289031
0.302696 0.302696 0.302696
0.325362 0.325362 0.325362
0.356213 0.356213 0.356213
0.393798 0.393798 0.393798
0.522144 0.522144 0.522144
0.584474 0.584474 0.584474
0.599584 0.599584 0.599584
0.357727 0.357727 0.357727
0.361950 0.361950 0.361950
0.372432 0.372432 0.372432
0.390265 0.390265 0.390265
0.415322 0.415322 0.415322
0.535834 0.535834 0.535834
0.585234 0.585234 0.585234
0.640602 0.640602 0.640602
0.654212 0.654212 0.654212
0.530195 0.530195 0.530195
0.534517 0.534517 0.534517
0.545343 0.545343 0.545343
0.564061 0.564061 0.564061
0.590950 0.590950 0.590950
0.625675 0.625675 0.625675
0.667508 0.667508 0.667508
0.715533 0.715533 0.715533
0.727498 0.727498 0.727498
0.651022 0.651022 0.651022
0.654434 0.654434 0.654434
0.663025 0.663025 0.663025
0.678027 0.678027 0.678027
0.699887 0.699887 0.699887
0.728612 0.728612 0.728612
0.763878 0.763878 0.763878
0.805150 0.805150 0.805150
0.815548 0.815548 0.815548
0.776146 0.776146 0.776146
0.778914 0.778914 0.778914
0.785906 0.785906 0.785906
0.798191 0.798191 0.798191
0.816256 0.816256 0.816256
0.840273 0.840273 0.840273
0.870158 0.870158 0.870158
0.905636 0.905636 0.905636
0.914655 0.914655 0.914655
0.903854 0.903854 0.903854
0.906153 0.906153 0.906153
0.911972 0.911972 0.911972
0.922238 0.922238 0.922238
0.937424 0.937424 0.937424
0.957774 0.957774 0.957774
0.983336 0.983336 0.983336
1.000000 1.000000 1.000000
1.000000 1.000000 1.000000
0.933838 0.933838 0.933838
0.936046 0.936046 0.936046
0.941638 0.941638 0.941638
0.951509 0.951509 0.951509
0.966128 0.966128 0.966128
0.985746 0.985746 0.985746
1.000000 1.000000 1.000000
1.000000 1.000000 1.000000
1.000000 1.000000 1.000000
0.241238 0.241238 0.241238
0.247977 0.247977 0.247977
0.264222 0.264222 0.264222
0.290558 0.290558 0.290558
0.325475 0.325475 0.325475
0.366972 0.366972 0.366972
0.413264 0.413264 0.413264
0.557318 0.557318 0.557318
0.573259 0.573259 0.573259
0.263104 0.263104 0.263104
0.269201 0.269201 0.269201
0.284020 0.284020 0.284020
0.308356 0.308356 0.308356
0.341092 0.341092 0.341092
0.380524 0.380524 0.380524
0.506670 0.506670 0.506670
0.570924 0.570924 0.570924
0.586439 0.586439 0.586439
0.310785 0.310785 0.310785
0.315793 0.315793 0.315793
0.328121 0.328121 0.328121
0.348798 0.348798 0.348798
0.377325 0.377325 0.377325
0.412555 0.412555 0.412555
0.544231 0.544231 0.544231
0.603970 0.603970 0.603970
0.618529 0.618529 0.618529
0.378735 0.378735 0.378735
0.382672 0.382672 0.382672
0.392471 0.392471 0.392471
0.409225 0.409225 0.409225
0.517228 0.517228 0.517228
0.557304 0.557304 0.557304
0.604702 0.604702 0.604702
0.658175 0.658175 0.658175
0.671365 0.671365 0.671365
0.551916 0.551916 0.551916
0.556046 0.556046 0.556046
0.566402 0.566402 0.566402
0.584347 0.584347 0.584347
0.610207 0.610207 0.610207
0.643727 0.643727 0.643727
0.684268 0.684268 0.684268
0.730993 0.730993 0.730993
0.742659 0.742659 0.742659
0.668272 0.668272 0.668272
0.671581 0.671581 0.671581
0.679916 0.679916 0.679916
0.694487 0.694487 0.694487
0.715751 0.715751 0.715751
0.743746 0.743746 0.743746
0.778192 0.778192 0.778192
0.818594 0.818594 0.818594
0.828788 0.828788 0.828788
0.790192 0.790192 0.790192
0.792900 0.792900 0.792900
0.799744 0.799744 0.799744
0.811776 0.811776 0.811776
0.829482 0.829482 0.829482
0.853046 0.853046 0.853046
0.882403 0.882403 0.882403
0.917302 0.917302 0.917302
0.926180 0.926180 0.926180
0.915548 0.915548 0.915548
0.917811 0.917811 0.917811
0.923539 0.923539 0.923539
0.933648 0.933648 0.933648
0.948609 0.948609 0.948609
0.968668 0.968668 0.968668
0.993883 0.993883 0.993883
1.000000 1.000000 1.000000
1.000000 1.000000 1.000000
0.945075 0.945075 0.945075
0.947251 0.947251 0.947251
0.952761 0.952761 0.952761
0.962491 0.962491 0.962491
0.976907 0.976907 0.976907
0.996262 0.996262 0.996262
1.000000 1.000000 1.000000
1.000000 1.000000 1.000000
1.000000 1.000000 1.000000
0.250230 0.250230 0.250230
0.256692 0.256692 0.256692
0.272325 0.272325 0.272325
0.297811 0.297811 0.297811
0.331812 0.331812 0.331812
0.372451 0.372451 0.372451
0.417996 0.417996 0.417996
0.562790 0.562790 0.562790
0.578557 0.578557 0.578557
0.271247 0.271247 0.271247
0.277131 0.277131 0.277131
0.291469 0.291469 0.291469
0.315115 0.315115 0.315115
0.347080 0.347080 0.347080
0.385764 0.385764 0.385764
0.512762 0.512762 0.512762
0.576247 0.576247 0.576247
0.591601 0.591601 0.591601
0.317482 0.317482 0.317482
0.322363 0.322363 0.322363
0.334397 0.334397 0.334397
0.354626 0.354626 0.354626
0.382620 0.382620 0.382620
0.417297 0.417297 0.417297
0.549853 0.549853 0.549853
0.608960 0.608960 0.608960
0.623383 0.623383 0.623383
0.384005 0.384005 0.384005
0.387876 0.387876 0.387876
0.397515 0.397515 0.397515
0.414014 0.414014 0.414014
0.523181 0.523181 0.523181
0.562776 0.562776 0.562776
0.609685 0.609685 0.609685
0.662689 0.662689 0.662689
0.675775 0.675775 0.675775
0.557449 0.557449 0.557449
0.561532 0.561532 0.561532
0.571774 0.571774 0.571774
0.589531 0.589531 0.589531
0.615138 0.615138 0.615138
0.648360 0.648360 0.648360
0.688580 0.688580 0.688580
0.734980 0.734980 0.734980
0.746572 0.746572 0.746572
0.672707 0.672707 0.672707
0.675989 0.675989 0.675989
0.684261 0.684261 0.684261
0.698724 0.698724 0.698724
0.719840 0.719840 0.719840
0.747652 0.747652 0.747652
0.781891 0.781891 0.781891
0.822074 0.822074 0.822074
0.832216 0.832216 0.832216
0.793823 0.793823 0.793823
0.796517 0.796517 0.796517
0.803323 0.803323 0.803323
0.815290 0.815290 0.815290
0.832906 0.832906 0.832906
0.856355 0.856355 0.856355
0.885578 0.885578 0.885578
0.920329 0.920329 0.920329
0.929172 0.929172 0.929172
0.918582 0.918582 0.918582
0.920836 0.920836 0.920836
0.926541 0.926541 0.926541
0.936610 0.936610 0.936610
0.951513 0.951513 0.951513
0.971498 0.971498 0.971498
0.996624 0.996624 0.996624
1.000000 1.000000 1.000000
1.000000 1.000000 1.000000
0.947993 0.947993 0.947993
0.950160 0.950160 0.950160
0.955650 0.955650 0.955650
0.965344 0.965344 0.965344
0.979707 0.979707 0.979707
0.998995 0.998995 0.998995
1.000000 1.000000 1.000000
1.000000 1.000000 1.000000
1.000000 1.000000 1.000000
