docs/luts/fuji_recipes/Acros_RR_Agfa_Scala.cube
TITLE "Fujifilm Recipe: RR Agfa Scala (Acros)"
# FilmSim=Acros HL=4 SH=0 Col=0 WB=Auto WBR=0 WBB=0
LUT_3D_SIZE 33
DOMAIN_MIN 0.0 0.0 0.0
DOMAIN_MAX 1.0 1.0 1.0
0.000000 0.000000 0.000000
0.006644 0.006644 0.006644
0.014162 0.014162 0.014162
0.024941 0.024941 0.024941
0.039416 0.039416 0.039416
0.055819 0.055819 0.055819
0.072212 0.072212 0.072212
0.088606 0.088606 0.088606
0.104999 0.104999 0.104999
0.121393 0.121393 0.121393
0.137786 0.137786 0.137786
0.154179 0.154179 0.154179
0.170573 0.170573 0.170573
0.186966 0.186966 0.186966
0.203359 0.203359 0.203359
0.219753 0.219753 0.219753
0.236146 0.236146 0.236146
0.252539 0.252539 0.252539
0.268933 0.268933 0.268933
0.285326 0.285326 0.285326
0.301720 0.301720 0.301720
0.318113 0.318113 0.318113
0.334506 0.334506 0.334506
0.350900 0.350900 0.350900
0.367293 0.367293 0.367293
0.383686 0.383686 0.383686
0.400080 0.400080 0.400080
0.416473 0.416473 0.416473
0.432866 0.432866 0.432866
0.449260 0.449260 0.449260
0.465653 0.465653 0.465653
0.482047 0.482047 0.482047
0.498440 0.498440 0.498440
0.022350 0.022350 0.022350
0.028994 0.028994 0.028994
0.036512 0.036512 0.036512
0.046871 0.046871 0.046871
0.058860 0.058860 0.058860
0.071970 0.071970 0.071970
0.085870 0.085870 0.085870
0.100333 0.100333 0.100333
0.115202 0.115202 0.115202
0.130372 0.130372 0.130372
0.145766 0.145766 0.145766
0.161334 0.161334 0.161334
0.177034 0.177034 0.177034
0.192841 0.192841 0.192841
0.208732 0.208732 0.208732
0.224692 0.224692 0.224692
0.240708 0.240708 0.240708
0.256770 0.256770 0.256770
0.272871 0.272871 0.272871
0.289005 0.289005 0.289005
0.305166 0.305166 0.305166
0.321352 0.321352 0.321352
0.337558 0.337558 0.337558
0.353781 0.353781 0.353781
0.370021 0.370021 0.370021
0.386273 0.386273 0.386273
0.402538 0.402538 0.402538
0.418813 0.418813 0.418813
0.435098 0.435098 0.435098
0.451391 0.451391 0.451391
0.467691 0.467691 0.467691
0.483999 0.483999 0.483999
0.500362 0.500362 0.500362
0.047184 0.047184 0.047184
0.052896 0.052896 0.052896
0.058888 0.058888 0.058888
0.066778 0.066778 0.066778
0.076364 0.076364 0.076364
0.087326 0.087326 0.087326
0.099372 0.099372 0.099372
0.112260 0.112260 0.112260
0.125801 0.125801 0.125801
0.139848 0.139848 0.139848
0.154292 0.154292 0.154292
0.169049 0.169049 0.169049
0.184055 0.184055 0.184055
0.199262 0.199262 0.199262
0.214633 0.214633 0.214633
0.230137 0.230137 0.230137
0.245753 0.245753 0.245753
0.261462 0.261462 0.261462
0.277249 0.277249 0.277249
0.293102 0.293102 0.293102
0.309012 0.309012 0.309012
0.324970 0.324970 0.324970
0.340971 0.340971 0.340971
0.357009 0.357009 0.357009
0.373078 0.373078 0.373078
0.389175 0.389175 0.389175
0.405298 0.405298 0.405298
0.421442 0.421442 0.421442
0.437606 0.437606 0.437606
0.453787 0.453787 0.453787
0.469984 0.469984 0.469984
0.486196 0.486196 0.486196
0.502807 0.502807 0.502807
0.074361 0.074361 0.074361
0.078534 0.078534 0.078534
0.083046 0.083046 0.083046
0.089177 0.089177 0.089177
0.096876 0.096876 0.096876
0.105967 0.105967 0.105967
0.116250 0.116250 0.116250
0.127530 0.127530 0.127530
0.139632 0.139632 0.139632
0.152406 0.152406 0.152406
0.165729 0.165729 0.165729
0.179503 0.179503 0.179503
0.193645 0.193645 0.193645
0.208092 0.208092 0.208092
0.222791 0.222791 0.222791
0.237701 0.237701 0.237701
0.252788 0.252788 0.252788
0.268024 0.268024 0.268024
0.283389 0.283389 0.283389
0.298862 0.298862 0.298862
0.314428 0.314428 0.314428
0.330076 0.330076 0.330076
0.345795 0.345795 0.345795
0.361575 0.361575 0.361575
0.377409 0.377409 0.377409
0.393291 0.393291 0.393291
0.409215 0.409215 0.409215
0.425176 0.425176 0.425176
0.441171 0.441171 0.441171
0.457196 0.457196 0.457196
0.473248 0.473248 0.473248
0.489324 0.489324 0.489324
0.506290 0.506290 0.506290
0.101537 0.101537 0.101537
0.104759 0.104759 0.104759
0.108297 0.108297 0.108297
0.113192 0.113192 0.113192
0.119466 0.119466 0.119466
0.127038 0.127038 0.127038
0.135788 0.135788 0.135788
0.145581 0.145581 0.145581
0.156280 0.156280 0.156280
0.167756 0.167756 0.167756
0.179893 0.179893 0.179893
0.192590 0.192590 0.192590
0.205761 0.205761 0.205761
0.219332 0.219332 0.219332
0.233244 0.233244 0.233244
0.247445 0.247445 0.247445
0.261894 0.261894 0.261894
0.276554 0.276554 0.276554
0.291396 0.291396 0.291396
0.306395 0.306395 0.306395
0.321532 0.321532 0.321532
0.336787 0.336787 0.336787
0.352147 0.352147 0.352147
0.367599 0.367599 0.367599
0.383131 0.383131 0.383131
0.398735 0.398735 0.398735
0.414403 0.414403 0.414403
0.430128 0.430128 0.430128
0.445903 0.445903 0.445903
0.461724 0.461724 0.461724
0.477587 0.477587 0.477587
0.493486 0.493486 0.493486
0.510926 0.510926 0.510926
0.128714 0.128714 0.128714
0.131300 0.131300 0.131300
0.134167 0.134167 0.134167
0.138175 0.138175 0.138175
0.143381 0.143381 0.143381
0.149756 0.149756 0.149756
0.157237 0.157237 0.157237
0.165738 0.165738 0.165738
0.175163 0.175163 0.175163
0.185412 0.185412 0.185412
0.196385 0.196385 0.196385
0.207994 0.207994 0.207994
0.220155 0.220155 0.220155
0.232796 0.232796 0.232796
0.245853 0.245853 0.245853
0.259271 0.259271 0.259271
0.273003 0.273003 0.273003
0.287006 0.287006 0.287006
0.301248 0.301248 0.301248
0.315697 0.315697 0.315697
0.330329 0.330329 0.330329
0.345121 0.345121 0.345121
0.360054 0.360054 0.360054
0.375112 0.375112 0.375112
0.390282 0.390282 0.390282
0.405550 0.405550 0.405550
0.420907 0.420907 0.420907
0.436343 0.436343 0.436343
0.451850 0.451850 0.451850
0.467421 0.467421 0.467421
0.483050 0.483050 0.483050
0.498732 0.498732 0.498732
0.516774 0.516774 0.516774
0.155890 0.155890 0.155890
0.158028 0.158028 0.158028
0.160412 0.160412 0.160412
0.163766 0.163766 0.163766
0.168161 0.168161 0.168161
0.173596 0.173596 0.173596
0.180045 0.180045 0.180045
0.187458 0.187458 0.187458
0.195771 0.195771 0.195771
0.204910 0.204910 0.204910
0.214800 0.214800 0.214800
0.225366 0.225366 0.225366
0.236535 0.236535 0.236535
0.248239 0.248239 0.248239
0.260418 0.260418 0.260418
0.273017 0.273017 0.273017
0.285987 0.285987 0.285987
0.299283 0.299283 0.299283
0.312870 0.312870 0.312870
0.326712 0.326712 0.326712
0.340781 0.340781 0.340781
0.355052 0.355052 0.355052
0.369502 0.369502 0.369502
0.384112 0.384112 0.384112
0.398865 0.398865 0.398865
0.413746 0.413746 0.413746
0.428742 0.428742 0.428742
0.443842 0.443842 0.443842
0.459035 0.459035 0.459035
0.474313 0.474313 0.474313
0.489668 0.489668 0.489668
0.505907 0.505907 0.505907
0.523872 0.523872 0.523872
0.183067 0.183067 0.183067
0.184874 0.184874 0.184874
0.186897 0.186897 0.186897
0.189756 0.189756 0.189756
0.193524 0.193524 0.193524
0.198217 0.198217 0.198217
0.203828 0.203828 0.203828
0.210334 0.210334 0.210334
0.217694 0.217694 0.217694
0.225859 0.225859 0.225859
0.234771 0.234771 0.234771
0.244371 0.244371 0.244371
0.254599 0.254599 0.254599
0.265398 0.265398 0.265398
0.276712 0.276712 0.276712
0.288489 0.288489 0.288489
0.300682 0.300682 0.300682
0.313248 0.313248 0.313248
0.326147 0.326147 0.326147
0.339347 0.339347 0.339347
0.352814 0.352814 0.352814
0.366522 0.366522 0.366522
0.380445 0.380445 0.380445
0.394563 0.394563 0.394563
0.408856 0.408856 0.408856
0.423307 0.423307 0.423307
0.437900 0.437900 0.437900
0.452622 0.452622 0.452622
0.467461 0.467461 0.467461
0.482407 0.482407 0.482407
0.497449 0.497449 0.497449
0.514593 0.514593 0.514593
0.532238 0.532238 0.532238
0.210243 0.210243 0.210243
0.211799 0.211799 0.211799
0.213544 0.213544 0.213544
0.216019 0.216019 0.216019
0.219293 0.219293 0.219293
0.223391 0.223391 0.223391
0.228321 0.228321 0.228321
0.234073 0.234073 0.234073
0.240624 0.240624 0.240624
0.247942 0.247942 0.247942
0.255986 0.255986 0.255986
0.264713 0.264713 0.264713
0.274074 0.274074 0.274074
0.284020 0.284020 0.284020
0.294505 0.294505 0.294505
0.305482 0.305482 0.305482
0.316908 0.316908 0.316908
0.328742 0.328742 0.328742
0.340946 0.340946 0.340946
0.353485 0.353485 0.353485
0.366328 0.366328 0.366328
0.379447 0.379447 0.379447
0.392815 0.392815 0.392815
0.406409 0.406409 0.406409
0.420209 0.420209 0.420209
0.434195 0.434195 0.434195
0.448351 0.448351 0.448351
0.462661 0.462661 0.462661
0.477112 0.477112 0.477112
0.491692 0.491692 0.491692
0.507411 0.507411 0.507411
0.524585 0.524585 0.524585
0.541873 0.541873 0.541873
0.237420 0.237420 0.237420
0.238778 0.238778 0.238778
0.240304 0.240304 0.240304
0.242474 0.242474 0.242474
0.245352 0.245352 0.245352
0.248969 0.248969 0.248969
0.253338 0.253338 0.253338
0.258460 0.258460 0.258460
0.264325 0.264325 0.264325
0.270913 0.270913 0.270913
0.278196 0.278196 0.278196
0.286143 0.286143 0.286143
0.294715 0.294715 0.294715
0.303875 0.303875 0.303875
0.313583 0.313583 0.313583
0.323799 0.323799 0.323799
0.334485 0.334485 0.334485
0.345603 0.345603 0.345603
0.357118 0.357118 0.357118
0.368997 0.368997 0.368997
0.381210 0.381210 0.381210
0.393727 0.393727 0.393727
0.406523 0.406523 0.406523
0.419575 0.419575 0.419575
0.432859 0.432859 0.432859
0.446357 0.446357 0.446357
0.460049 0.460049 0.460049
0.473921 0.473921 0.473921
0.487957 0.487957 0.487957
0.502486 0.502486 0.502486
0.519102 0.519102 0.519102
0.535865 0.535865 0.535865
0.552765 0.552765 0.552765
0.264597 0.264597 0.264597
0.265797 0.265797 0.265797
0.267147 0.267147 0.267147
0.269069 0.269069 0.269069
0.271626 0.271626 0.271626
0.274847 0.274847 0.274847
0.278751 0.278751 0.278751
0.283344 0.283344 0.283344
0.288626 0.288626 0.288626
0.294584 0.294584 0.294584
0.301202 0.301202 0.301202
0.308457 0.308457 0.308457
0.316321 0.316321 0.316321
0.324764 0.324764 0.324764
0.333753 0.333753 0.333753
0.343257 0.343257 0.343257
0.353240 0.353240 0.353240
0.363671 0.363671 0.363671
0.374518 0.374518 0.374518
0.385750 0.385750 0.385750
0.397337 0.397337 0.397337
0.409254 0.409254 0.409254
0.421474 0.421474 0.421474
0.433973 0.433973 0.433973
0.446730 0.446730 0.446730
0.459724 0.459724 0.459724
0.472936 0.472936 0.472936
0.486350 0.486350 0.486350
0.499950 0.499950 0.499950
0.515917 0.515917 0.515917
0.532075 0.532075 0.532075
0.548403 0.548403 0.548403
0.564887 0.564887 0.564887
0.291773 0.291773 0.291773
0.292844 0.292844 0.292844
0.294050 0.294050 0.294050
0.295770 0.295770 0.295770
0.298060 0.298060 0.298060
0.300952 0.300952 0.300952
0.304466 0.304466 0.304466
0.308613 0.308613 0.308613
0.313396 0.313396 0.313396
0.318811 0.318811 0.318811
0.324848 0.324848 0.324848
0.331492 0.331492 0.331492
0.338722 0.338722 0.338722
0.346516 0.346516 0.346516
0.354848 0.354848 0.354848
0.363691 0.363691 0.363691
0.373018 0.373018 0.373018
0.382798 0.382798 0.382798
0.393006 0.393006 0.393006
0.403612 0.403612 0.403612
0.414591 0.414591 0.414591
0.425916 0.425916 0.425916
0.437564 0.437564 0.437564
0.449512 0.449512 0.449512
0.461738 0.461738 0.461738
0.474222 0.474222 0.474222
0.486945 0.486945 0.486945
0.499889 0.499889 0.499889
0.515126 0.515126 0.515126
0.530602 0.530602 0.530602
0.546283 0.546283 0.546283
0.562155 0.562155 0.562155
0.578204 0.578204 0.578204
0.318950 0.318950 0.318950
0.319914 0.319914 0.319914
0.321000 0.321000 0.321000
0.322550 0.322550 0.322550
0.324618 0.324618 0.324618
0.327233 0.327233 0.327233
0.330417 0.330417 0.330417
0.334183 0.334183 0.334183
0.338538 0.338538 0.338538
0.343482 0.343482 0.343482
0.349011 0.349011 0.349011
0.355115 0.355115 0.355115
0.361781 0.361781 0.361781
0.368990 0.368990 0.368990
0.376724 0.376724 0.376724
0.384961 0.384961 0.384961
0.393677 0.393677 0.393677
0.402848 0.402848 0.402848
0.412451 0.412451 0.412451
0.422461 0.422461 0.422461
0.432853 0.432853 0.432853
0.443605 0.443605 0.443605
0.454694 0.454694 0.454694
0.466098 0.466098 0.466098
0.477797 0.477797 0.477797
0.489771 0.489771 0.489771
0.502322 0.502322 0.502322
0.516788 0.516788 0.516788
0.531513 0.531513 0.531513
0.546480 0.546480 0.546480
0.561671 0.561671 0.561671
0.577073 0.577073 0.577073
0.592670 0.592670 0.592670
0.346126 0.346126 0.346126
0.347000 0.347000 0.347000
0.347986 0.347986 0.347986
0.349394 0.349394 0.349394
0.351273 0.351273 0.351273
0.353653 0.353653 0.353653
0.356554 0.356554 0.356554
0.359993 0.359993 0.359993
0.363978 0.363978 0.363978
0.368513 0.368513 0.368513
0.373596 0.373596 0.373596
0.379224 0.379224 0.379224
0.385386 0.385386 0.385386
0.392070 0.392070 0.392070
0.399262 0.399262 0.399262
0.406943 0.406943 0.406943
0.415097 0.415097 0.415097
0.423701 0.423701 0.423701
0.432737 0.432737 0.432737
0.442182 0.442182 0.442182
0.452015 0.452015 0.452015
0.462216 0.462216 0.462216
0.472764 0.472764 0.472764
0.483638 0.483638 0.483638
0.494821 0.494821 0.494821
0.507298 0.507298 0.507298
0.520920 0.520920 0.520920
0.534836 0.534836 0.534836
0.549029 0.549029 0.549029
0.563482 0.563482 0.563482
0.578177 0.578177 0.578177
0.593100 0.593100 0.593100
0.608236 0.608236 0.608236
0.373303 0.373303 0.373303
0.374100 0.374100 0.374100
0.375000 0.375000 0.375000
0.376286 0.376286 0.376286
0.378004 0.378004 0.378004
0.380182 0.380182 0.380182
0.382841 0.382841 0.382841
0.385997 0.385997 0.385997
0.389660 0.389660 0.389660
0.393837 0.393837 0.393837
0.398528 0.398528 0.398528
0.403733 0.403733 0.403733
0.409446 0.409446 0.409446
0.415659 0.415659 0.415659
0.422359 0.422359 0.422359
0.429535 0.429535 0.429535
0.437171 0.437171 0.437171
0.445251 0.445251 0.445251
0.453757 0.453757 0.453757
0.462672 0.462672 0.462672
0.471976 0.471976 0.471976
0.481652 0.481652 0.481652
0.491681 0.491681 0.491681
0.502372 0.502372 0.502372
0.514760 0.514760 0.514760
0.527497 0.527497 0.527497
0.540561 0.540561 0.540561
0.553934 0.553934 0.553934
0.567599 0.567599 0.567599
0.581538 0.581538 0.581538
0.595736 0.595736 0.595736
0.610177 0.610177 0.610177
0.624846 0.624846 0.624846
0.400479 0.400479 0.400479
0.401211 0.401211 0.401211
0.402037 0.402037 0.402037
0.403218 0.403218 0.403218
0.404797 0.404797 0.404797
0.406801 0.406801 0.406801
0.409249 0.409249 0.409249
0.412158 0.412158 0.412158
0.415540 0.415540 0.415540
0.419402 0.419402 0.419402
0.423747 0.423747 0.423747
0.428577 0.428577 0.428577
0.433889 0.433889 0.433889
0.439677 0.439677 0.439677
0.445934 0.445934 0.445934
0.452649 0.452649 0.452649
0.459811 0.459811 0.459811
0.467406 0.467406 0.467406
0.475421 0.475421 0.475421
0.483840 0.483840 0.483840
0.492647 0.492647 0.492647
0.502117 0.502117 0.502117
0.513177 0.513177 0.513177
0.524630 0.524630 0.524630
0.536457 0.536457 0.536457
0.548640 0.548640 0.548640
0.561162 0.561162 0.561162
0.574003 0.574003 0.574003
0.587147 0.587147 0.587147
0.600579 0.600579 0.600579
0.614282 0.614282 0.614282
0.628241 0.628241 0.628241
0.642443 0.642443 0.642443
0.427656 0.427656 0.427656
0.428331 0.428331 0.428331
0.429093 0.429093 0.429093
0.430183 0.430183 0.430183
0.431641 0.431641 0.431641
0.433492 0.433492 0.433492
0.435756 0.435756 0.435756
0.438449 0.438449 0.438449
0.441583 0.441583 0.441583
0.445167 0.445167 0.445167
0.449205 0.449205 0.449205
0.453701 0.453701 0.453701
0.458654 0.458654 0.458654
0.464060 0.464060 0.464060
0.469914 0.469914 0.469914
0.476210 0.476210 0.476210
0.482938 0.482938 0.482938
0.490088 0.490088 0.490088
0.497647 0.497647 0.497647
0.506500 0.506500 0.506500
0.516175 0.516175 0.516175
0.526279 0.526279 0.526279
0.536795 0.536795 0.536795
0.547706 0.547706 0.547706
0.558995 0.558995 0.558995
0.570646 0.570646 0.570646
0.582641 0.582641 0.582641
0.594965 0.594965 0.594965
0.607601 0.607601 0.607601
0.620534 0.620534 0.620534
0.633748 0.633748 0.633748
0.647231 0.647231 0.647231
0.660967 0.660967 0.660967
0.454833 0.454833 0.454833
0.455458 0.455458 0.455458
0.456164 0.456164 0.456164
0.457174 0.457174 0.457174
0.458526 0.458526 0.458526
0.460243 0.460243 0.460243
0.462345 0.462345 0.462345
0.464848 0.464848 0.464848
0.467763 0.467763 0.467763
0.471100 0.471100 0.471100
0.474865 0.474865 0.474865
0.479062 0.479062 0.479062
0.483691 0.483691 0.483691
0.488753 0.488753 0.488753
0.494243 0.494243 0.494243
0.500182 0.500182 0.500182
0.507526 0.507526 0.507526
0.515344 0.515344 0.515344
0.523624 0.523624 0.523624
0.532356 0.532356 0.532356
0.541525 0.541525 0.541525
0.551119 0.551119 0.551119
0.561121 0.561121 0.561121
0.571518 0.571518 0.571518
0.582294 0.582294 0.582294
0.593434 0.593434 0.593434
0.604923 0.604923 0.604923
0.616746 0.616746 0.616746
0.628888 0.628888 0.628888
0.641334 0.641334 0.641334
0.654071 0.654071 0.654071
0.667085 0.667085 0.667085
0.680362 0.680362 0.680362
0.482009 0.482009 0.482009
0.482591 0.482591 0.482591
0.483247 0.483247 0.483247
0.484187 0.484187 0.484187
0.485446 0.485446 0.485446
0.487045 0.487045 0.487045
0.489003 0.489003 0.489003
0.491337 0.491337 0.491337
0.494057 0.494057 0.494057
0.497174 0.497174 0.497174
0.500805 0.500805 0.500805
0.505363 0.505363 0.505363
0.510396 0.510396 0.510396
0.515906 0.515906 0.515906
0.521892 0.521892 0.521892
0.528348 0.528348 0.528348
0.535270 0.535270 0.535270
0.542650 0.542650 0.542650
0.550479 0.550479 0.550479
0.558749 0.558749 0.558749
0.567446 0.567446 0.567446
0.576561 0.576561 0.576561
0.586080 0.586080 0.586080
0.595991 0.595991 0.595991
0.606280 0.606280 0.606280
0.616933 0.616933 0.616933
0.627936 0.627936 0.627936
0.639277 0.639277 0.639277
0.650942 0.650942 0.650942
0.662916 0.662916 0.662916
0.675187 0.675187 0.675187
0.687742 0.687742 0.687742
0.700568 0.700568 0.700568
0.510656 0.510656 0.510656
0.511285 0.511285 0.511285
0.511996 0.511996 0.511996
0.513014 0.513014 0.513014
0.514377 0.514377 0.514377
0.516111 0.516111 0.516111
0.518235 0.518235 0.518235
0.520766 0.520766 0.520766
0.523720 0.523720 0.523720
0.527107 0.527107 0.527107
0.530936 0.530936 0.530936
0.535213 0.535213 0.535213
0.539942 0.539942 0.539942
0.545125 0.545125 0.545125
0.550761 0.550761 0.550761
0.556849 0.556849 0.556849
0.563384 0.563384 0.563384
0.570362 0.570362 0.570362
0.577775 0.577775 0.577775
0.585615 0.585615 0.585615
0.593874 0.593874 0.593874
0.602541 0.602541 0.602541
0.611606 0.611606 0.611606
0.621058 0.621058 0.621058
0.630885 0.630885 0.630885
0.641075 0.641075 0.641075
0.651615 0.651615 0.651615
0.662494 0.662494 0.662494
0.673699 0.673699 0.673699
0.685217 0.685217 0.685217
0.697036 0.697036 0.697036
0.709144 0.709144 0.709144
0.721530 0.721530 0.721530
0.542180 0.542180 0.542180
0.542770 0.542770 0.542770
0.543436 0.543436 0.543436
0.544389 0.544389 0.544389
0.545666 0.545666 0.545666
0.547291 0.547291 0.547291
0.549282 0.549282 0.549282
0.551658 0.551658 0.551658
0.554430 0.554430 0.554430
0.557612 0.557612 0.557612
0.561211 0.561211 0.561211
0.565235 0.565235 0.565235
0.569688 0.569688 0.569688
0.574573 0.574573 0.574573
0.579892 0.579892 0.579892
0.585643 0.585643 0.585643
0.591823 0.591823 0.591823
0.598430 0.598430 0.598430
0.605458 0.605458 0.605458
0.612901 0.612901 0.612901
0.620751 0.620751 0.620751
0.629000 0.629000 0.629000
0.637639 0.637639 0.637639
0.646660 0.646660 0.646660
0.656050 0.656050 0.656050
0.665800 0.665800 0.665800
0.675900 0.675900 0.675900
0.686337 0.686337 0.686337
0.697100 0.697100 0.697100
0.708179 0.708179 0.708179
0.719562 0.719562 0.719562
0.731237 0.731237 0.731237
0.743195 0.743195 0.743195
0.573705 0.573705 0.573705
0.574259 0.574259 0.574259
0.574884 0.574884 0.574884
0.575780 0.575780 0.575780
0.576980 0.576980 0.576980
0.578507 0.578507 0.578507
0.580379 0.580379 0.580379
0.582613 0.582613 0.582613
0.585223 0.585223 0.585223
0.588218 0.588218 0.588218
0.591610 0.591610 0.591610
0.595404 0.595404 0.595404
0.599607 0.599607 0.599607
0.604222 0.604222 0.604222
0.609250 0.609250 0.609250
0.614692 0.614692 0.614692
0.620547 0.620547 0.620547
0.626812 0.626812 0.626812
0.633484 0.633484 0.633484
0.640557 0.640557 0.640557
0.648027 0.648027 0.648027
0.655886 0.655886 0.655886
0.664127 0.664127 0.664127
0.672741 0.672741 0.672741
0.681720 0.681720 0.681720
0.691054 0.691054 0.691054
0.700734 0.700734 0.700734
0.710750 0.710750 0.710750
0.721092 0.721092 0.721092
0.731749 0.731749 0.731749
0.742712 0.742712 0.742712
0.753969 0.753969 0.753969
0.765511 0.765511 0.765511
0.605230 0.605230 0.605230
0.605751 0.605751 0.605751
0.606340 0.606340 0.606340
0.607184 0.607184 0.607184
0.608314 0.608314 0.608314
0.609753 0.609753 0.609753
0.611518 0.611518 0.611518
0.613625 0.613625 0.613625
0.616086 0.616086 0.616086
0.618914 0.618914 0.618914
0.622117 0.622117 0.622117
0.625703 0.625703 0.625703
0.629677 0.629677 0.629677
0.634044 0.634044 0.634044
0.638806 0.638806 0.638806
0.643965 0.643965 0.643965
0.649520 0.649520 0.649520
0.655470 0.655470 0.655470
0.661813 0.661813 0.661813
0.668544 0.668544 0.668544
0.675660 0.675660 0.675660
0.683155 0.683155 0.683155
0.691022 0.691022 0.691022
0.699255 0.699255 0.699255
0.707845 0.707845 0.707845
0.716786 0.716786 0.716786
0.726069 0.726069 0.726069
0.735684 0.735684 0.735684
0.745624 0.745624 0.745624
0.755877 0.755877 0.755877
0.766436 0.766436 0.766436
0.777291 0.777291 0.777291
0.788431 0.788431 0.788431
0.636755 0.636755 0.636755
0.637247 0.637247 0.637247
0.637803 0.637803 0.637803
0.638599 0.638599 0.638599
0.639667 0.639667 0.639667
0.641026 0.641026 0.641026
0.642694 0.642694 0.642694
0.644685 0.644685 0.644685
0.647012 0.647012 0.647012
0.649687 0.649687 0.649687
0.652718 0.652718 0.652718
0.656113 0.656113 0.656113
0.659879 0.659879 0.659879
0.664019 0.664019 0.664019
0.668538 0.668538 0.668538
0.673436 0.673436 0.673436
0.678715 0.678715 0.678715
0.684374 0.684374 0.684374
0.690412 0.690412 0.690412
0.696825 0.696825 0.696825
0.703611 0.703611 0.703611
0.710765 0.710765 0.710765
0.718283 0.718283 0.718283
0.726157 0.726157 0.726157
0.734383 0.734383 0.734383
0.742952 0.742952 0.742952
0.751858 0.751858 0.751858
0.761093 0.761093 0.761093
0.770649 0.770649 0.770649
0.780517 0.780517 0.780517
0.790689 0.790689 0.790689
0.801156 0.801156 0.801156
0.811910 0.811910 0.811910
0.668280 0.668280 0.668280
0.668745 0.668745 0.668745
0.669271 0.669271 0.669271
0.670025 0.670025 0.670025
0.671035 0.671035 0.671035
0.672322 0.672322 0.672322
0.673901 0.673901 0.673901
0.675787 0.675787 0.675787
0.677992 0.677992 0.677992
0.680527 0.680527 0.680527
0.683401 0.683401 0.683401
0.686622 0.686622 0.686622
0.690197 0.690197 0.690197
0.694129 0.694129 0.694129
0.698423 0.698423 0.698423
0.703082 0.703082 0.703082
0.708105 0.708105 0.708105
0.713495 0.713495 0.713495
0.719250 0.719250 0.719250
0.725368 0.725368 0.725368
0.731847 0.731847 0.731847
0.738683 0.738683 0.738683
0.745873 0.745873 0.745873
0.753412 0.753412 0.753412
0.761293 0.761293 0.761293
0.769512 0.769512 0.769512
0.778061 0.778061 0.778061
0.786935 0.786935 0.786935
0.796126 0.796126 0.796126
0.805626 0.805626 0.805626
0.815428 0.815428 0.815428
0.825524 0.825524 0.825524
0.835907 0.835907 0.835907
0.699805 0.699805 0.699805
0.700246 0.700246 0.700246
0.700745 0.700745 0.700745
0.701459 0.701459 0.701459
0.702418 0.702418 0.702418
0.703638 0.703638 0.703638
0.705136 0.705136 0.705136
0.706926 0.706926 0.706926
0.709019 0.709019 0.709019
0.711426 0.711426 0.711426
0.714157 0.714157 0.714157
0.717218 0.717218 0.717218
0.720617 0.720617 0.720617
0.724358 0.724358 0.724358
0.728445 0.728445 0.728445
0.732882 0.732882 0.732882
0.737670 0.737670 0.737670
0.742810 0.742810 0.742810
0.748302 0.748302 0.748302
0.754146 0.754146 0.754146
0.760338 0.760338 0.760338
0.766878 0.766878 0.766878
0.773761 0.773761 0.773761
0.780983 0.780983 0.780983
0.788541 0.788541 0.788541
0.796429 0.796429 0.796429
0.804641 0.804641 0.804641
0.813172 0.813172 0.813172
0.822016 0.822016 0.822016
0.831166 0.831166 0.831166
0.840614 0.840614 0.840614
0.850355 0.850355 0.850355
0.860381 0.860381 0.860381
0.731329 0.731329 0.731329
0.731749 0.731749 0.731749
0.732223 0.732223 0.732223
0.732902 0.732902 0.732902
0.733812 0.733812 0.733812
0.734972 0.734972 0.734972
0.736396 0.736396 0.736396
0.738097 0.738097 0.738097
0.740088 0.740088 0.740088
0.742378 0.742378 0.742378
0.744977 0.744977 0.744977
0.747891 0.747891 0.747891
0.751128 0.751128 0.751128
0.754692 0.754692 0.754692
0.758589 0.758589 0.758589
0.762821 0.762821 0.762821
0.767390 0.767390 0.767390
0.772299 0.772299 0.772299
0.777547 0.777547 0.777547
0.783134 0.783134 0.783134
0.789059 0.789059 0.789059
0.795321 0.795321 0.795321
0.801916 0.801916 0.801916
0.808842 0.808842 0.808842
