docs/luts/fuji_recipes/AcrosR_LC_Tri-X.cube
TITLE "Fujifilm Recipe: LC Tri-X (AcrosR)"
# FilmSim=AcrosR HL=3 SH=4 Col=0 WB=Auto WBR=0 WBB=0
LUT_3D_SIZE 9
DOMAIN_MIN 0.0 0.0 0.0
DOMAIN_MAX 1.0 1.0 1.0
0.000000 0.000000 0.000000
0.046281 0.046281 0.046281
0.110504 0.110504 0.110504
0.174727 0.174727 0.174727
0.238950 0.238950 0.238950
0.303172 0.303172 0.303172
0.367395 0.367395 0.367395
0.515491 0.515491 0.515491
0.535421 0.535421 0.535421
0.090286 0.090286 0.090286
0.110496 0.110496 0.110496
0.150130 0.150130 0.150130
0.201412 0.201412 0.201412
0.258295 0.258295 0.258295
0.317985 0.317985 0.317985
0.379203 0.379203 0.379203
0.528428 0.528428 0.528428
0.547824 0.547824 0.547824
0.185068 0.185068 0.185068
0.195421 0.195421 0.195421
0.219313 0.219313 0.219313
0.255714 0.255714 0.255714
0.301079 0.301079 0.301079
0.352326 0.352326 0.352326
0.407361 0.407361 0.407361
0.559831 0.559831 0.559831
0.578027 0.578027 0.578027
0.279850 0.279850 0.279850
0.286361 0.286361 0.286361
0.302179 0.302179 0.302179
0.328130 0.328130 0.328130
0.363002 0.363002 0.363002
0.404966 0.404966 0.404966
0.543014 0.543014 0.543014
0.611291 0.611291 0.611291
0.627772 0.627772 0.627772
0.374632 0.374632 0.374632
0.379216 0.379216 0.379216
0.390583 0.390583 0.390583
0.409886 0.409886 0.409886
0.522595 0.522595 0.522595
0.567911 0.567911 0.567911
0.620990 0.620990 0.620990
0.680349 0.680349 0.680349
0.694921 0.694921 0.694921
0.565885 0.565885 0.565885
0.570497 0.570497 0.570497
0.582049 0.582049 0.582049
0.602015 0.602015 0.602015
0.630683 0.630683 0.630683
0.667684 0.667684 0.667684
0.712231 0.712231 0.712231
0.763343 0.763343 0.763343
0.776072 0.776072 0.776072
0.692261 0.692261 0.692261
0.695908 0.695908 0.695908
0.705092 0.705092 0.705092
0.721125 0.721125 0.721125
0.744477 0.744477 0.744477
0.775145 0.775145 0.775145
0.812773 0.812773 0.812773
0.856780 0.856780 0.856780
0.867864 0.867864 0.867864
0.818636 0.818636 0.818636
0.821620 0.821620 0.821620
0.829154 0.829154 0.829154
0.842387 0.842387 0.842387
0.861834 0.861834 0.861834
0.887666 0.887666 0.887666
0.919779 0.919779 0.919779
0.957862 0.957862 0.957862
0.967537 0.967537 0.967537
0.848050 0.848050 0.848050
0.850908 0.850908 0.850908
0.858129 0.858129 0.858129
0.870826 0.870826 0.870826
0.889514 0.889514 0.889514
0.914390 0.914390 0.914390
0.945390 0.945390 0.945390
0.982252 0.982252 0.982252
0.991631 0.991631 0.991631
0.012297 0.012297 0.012297
0.055526 0.055526 0.055526
0.115139 0.115139 0.115139
0.177625 0.177625 0.177625
0.240986 0.240986 0.240986
0.304708 0.304708 0.304708
0.368609 0.368609 0.368609
0.516814 0.516814 0.516814
0.536688 0.536688 0.536688
0.095866 0.095866 0.095866
0.115132 0.115132 0.115132
0.153540 0.153540 0.153540
0.203888 0.203888 0.203888
0.260154 0.260154 0.260154
0.319434 0.319434 0.319434
0.380370 0.380370 0.380370
0.529714 0.529714 0.529714
0.549058 0.549058 0.549058
0.187789 0.187789 0.187789
0.197983 0.197983 0.197983
0.221561 0.221561 0.221561
0.257595 0.257595 0.257595
0.302627 0.302627 0.302627
0.353604 0.353604 0.353604
0.408428 0.408428 0.408428
0.561035 0.561035 0.561035
0.579187 0.579187 0.579187
0.281540 0.281540 0.281540
0.288005 0.288005 0.288005
0.303720 0.303720 0.303720
0.329524 0.329524 0.329524
0.364234 0.364234 0.364234
0.406041 0.406041 0.406041
0.544261 0.544261 0.544261
0.612379 0.612379 0.612379
0.628826 0.628826 0.628826
0.375816 0.375816 0.375816
0.380382 0.380382 0.380382
0.391708 0.391708 0.391708
0.410945 0.410945 0.410945
0.523898 0.523898 0.523898
0.569096 0.569096 0.569096
0.622058 0.622058 0.622058
0.681308 0.681308 0.681308
0.695856 0.695856 0.695856
0.567074 0.567074 0.567074
0.571676 0.571676 0.571676
0.583200 0.583200 0.583200
0.603122 0.603122 0.603122
0.631732 0.631732 0.631732
0.668665 0.668665 0.668665
0.713139 0.713139 0.713139
0.764179 0.764179 0.764179
0.776891 0.776891 0.776891
0.693200 0.693200 0.693200
0.696842 0.696842 0.696842
0.706011 0.706011 0.706011
0.722020 0.722020 0.722020
0.745338 0.745338 0.745338
0.775965 0.775965 0.775965
0.813548 0.813548 0.813548
0.857506 0.857506 0.857506
0.868579 0.868579 0.868579
0.819404 0.819404 0.819404
0.822384 0.822384 0.822384
0.829910 0.829910 0.829910
0.843128 0.843128 0.843128
0.862555 0.862555 0.862555
0.888361 0.888361 0.888361
0.920444 0.920444 0.920444
0.958495 0.958495 0.958495
0.968162 0.968162 0.968162
0.848785 0.848785 0.848785
0.851640 0.851640 0.851640
0.858854 0.858854 0.858854
0.871537 0.871537 0.871537
0.890208 0.890208 0.890208
0.915061 0.915061 0.915061
0.946033 0.946033 0.946033
0.982865 0.982865 0.982865
0.992237 0.992237 0.992237
0.042753 0.042753 0.042753
0.074925 0.074925 0.074925
0.126168 0.126168 0.126168
0.184776 0.184776 0.184776
0.246080 0.246080 0.246080
0.308574 0.308574 0.308574
0.371675 0.371675 0.371675
0.520163 0.520163 0.520163
0.539898 0.539898 0.539898
0.108843 0.108843 0.108843
0.126162 0.126162 0.126162
0.161870 0.161870 0.161870
0.210041 0.210041 0.210041
0.264815 0.264815 0.264815
0.323086 0.323086 0.323086
0.383319 0.383319 0.383319
0.532971 0.532971 0.532971
0.552186 0.552186 0.552186
0.194524 0.194524 0.194524
0.204339 0.204339 0.204339
0.227167 0.227167 0.227167
0.262311 0.262311 0.262311
0.306525 0.306525 0.306525
0.356831 0.356831 0.356831
0.411128 0.411128 0.411128
0.564086 0.564086 0.564086
0.582129 0.582129 0.582129
0.285788 0.285788 0.285788
0.292141 0.292141 0.292141
0.307601 0.307601 0.307601
0.333042 0.333042 0.333042
0.367346 0.367346 0.367346
0.408761 0.408761 0.408761
0.547420 0.547420 0.547420
0.615137 0.615137 0.615137
0.631500 0.631500 0.631500
0.378810 0.378810 0.378810
0.383332 0.383332 0.383332
0.394552 0.394552 0.394552
0.413624 0.413624 0.413624
0.527196 0.527196 0.527196
0.572098 0.572098 0.572098
0.624766 0.624766 0.624766
0.683741 0.683741 0.683741
0.698230 0.698230 0.698230
0.570088 0.570088 0.570088
0.574662 0.574662 0.574662
0.586119 0.586119 0.586119
0.605930 0.605930 0.605930
0.634392 0.634392 0.634392
0.671153 0.671153 0.671153
0.715445 0.715445 0.715445
0.766301 0.766301 0.766301
0.778972 0.778972 0.778972
0.695584 0.695584 0.695584
0.699211 0.699211 0.699211
0.708344 0.708344 0.708344
0.724291 0.724291 0.724291
0.747525 0.747525 0.747525
0.778048 0.778048 0.778048
0.815515 0.815515 0.815515
0.859351 0.859351 0.859351
0.870395 0.870395 0.870395
0.821354 0.821354 0.821354
0.824325 0.824325 0.824325
0.831830 0.831830 0.831830
0.845012 0.845012 0.845012
0.864386 0.864386 0.864386
0.890128 0.890128 0.890128
0.922135 0.922135 0.922135
0.960104 0.960104 0.960104
0.969750 0.969750 0.969750
0.850653 0.850653 0.850653
0.853500 0.853500 0.853500
0.860695 0.860695 0.860695
0.873346 0.873346 0.873346
0.891970 0.891970 0.891970
0.916764 0.916764 0.916764
0.947668 0.947668 0.947668
0.984424 0.984424 0.984424
0.993778 0.993778 0.993778
0.079209 0.079209 0.079209
0.101523 0.101523 0.101523
0.143700 0.143700 0.143700
0.196811 0.196811 0.196811
0.254868 0.254868 0.254868
0.315325 0.315325 0.315325
0.377067 0.377067 0.377067
0.526077 0.526077 0.526077
0.545568 0.545568 0.545568
0.128813 0.128813 0.128813
0.143694 0.143694 0.143694
0.175666 0.175666 0.175666
0.220528 0.220528 0.220528
0.272894 0.272894 0.272894
0.329477 0.329477 0.329477
0.388511 0.388511 0.388511
0.538725 0.538725 0.538725
0.557714 0.557714 0.557714
0.205919 0.205919 0.205919
0.215145 0.215145 0.215145
0.236785 0.236785 0.236785
0.270479 0.270479 0.270479
0.313331 0.313331 0.313331
0.362498 0.362498 0.362498
0.415888 0.415888 0.415888
0.569481 0.569481 0.569481
0.587333 0.587333 0.587333
0.293181 0.293181 0.293181
0.299345 0.299345 0.299345
0.314378 0.314378 0.314378
0.339203 0.339203 0.339203
0.372816 0.372816 0.372816
0.413555 0.413555 0.413555
0.553002 0.553002 0.553002
0.620020 0.620020 0.620020
0.636237 0.636237 0.636237
0.384077 0.384077 0.384077
0.388523 0.388523 0.388523
0.399561 0.399561 0.399561
0.418349 0.418349 0.418349
0.533021 0.533021 0.533021
0.577406 0.577406 0.577406
0.629562 0.629562 0.629562
0.688056 0.688056 0.688056
0.702439 0.702439 0.702439
0.575418 0.575418 0.575418
0.579944 0.579944 0.579944
0.591282 0.591282 0.591282
0.610899 0.610899 0.610899
0.639103 0.639103 0.639103
0.675563 0.675563 0.675563
0.719534 0.719534 0.719534
0.770067 0.770067 0.770067
0.782665 0.782665 0.782665
0.699812 0.699812 0.699812
0.703414 0.703414 0.703414
0.712482 0.712482 0.712482
0.728321 0.728321 0.728321
0.751405 0.751405 0.751405
0.781747 0.781747 0.781747
0.819009 0.819009 0.819009
0.862630 0.862630 0.862630
0.873623 0.873623 0.873623
0.824818 0.824818 0.824818
0.827774 0.827774 0.827774
0.835241 0.835241 0.835241
0.848358 0.848358 0.848358
0.867641 0.867641 0.867641
0.893268 0.893268 0.893268
0.925142 0.925142 0.925142
0.962964 0.962964 0.962964
0.972576 0.972576 0.972576
0.853973 0.853973 0.853973
0.856806 0.856806 0.856806
0.863967 0.863967 0.863967
0.876560 0.876560 0.876560
0.895102 0.895102 0.895102
0.919792 0.919792 0.919792
0.950575 0.950575 0.950575
0.987197 0.987197 0.987197
0.996519 0.996519 0.996519
0.115665 0.115665 0.115665
0.132084 0.132084 0.132084
0.166459 0.166459 0.166459
0.213490 0.213490 0.213490
0.267454 0.267454 0.267454
0.325165 0.325165 0.325165
0.385004 0.385004 0.385004
0.534835 0.534835 0.534835
0.553976 0.553976 0.553976
0.153931 0.153931 0.153931
0.166454 0.166454 0.166454
0.194409 0.194409 0.194409
0.235301 0.235301 0.235301
0.284538 0.284538 0.284538
0.338817 0.338817 0.338817
0.396163 0.396163 0.396163
0.547254 0.547254 0.547254
0.565915 0.565915 0.565915
0.221821 0.221821 0.221821
0.230318 0.230318 0.230318
0.250449 0.250449 0.250449
0.282242 0.282242 0.282242
0.323244 0.323244 0.323244
0.370825 0.370825 0.370825
0.503899 0.503899 0.503899
0.577490 0.577490 0.577490
0.595065 0.595065 0.595065
0.303898 0.303898 0.303898
0.309805 0.309805 0.309805
0.324253 0.324253 0.324253
0.348224 0.348224 0.348224
0.380863 0.380863 0.380863
0.500855 0.500855 0.500855
0.561283 0.561283 0.561283
0.627285 0.627285 0.627285
0.643287 0.643287 0.643287
0.391838 0.391838 0.391838
0.396175 0.396175 0.396175
0.406954 0.406954 0.406954
0.507112 0.507112 0.507112
0.541652 0.541652 0.541652
0.585291 0.585291 0.585291
0.636699 0.636699 0.636699
0.694489 0.694489 0.694489
0.708717 0.708717 0.708717
0.583334 0.583334 0.583334
0.587789 0.587789 0.587789
0.598955 0.598955 0.598955
0.618289 0.618289 0.618289
0.646117 0.646117 0.646117
0.682137 0.682137 0.682137
0.725635 0.725635 0.725635
0.775694 0.775694 0.775694
0.788183 0.788183 0.788183
0.706118 0.706118 0.706118
0.709681 0.709681 0.709681
0.718655 0.718655 0.718655
0.734335 0.734335 0.734335
0.757200 0.757200 0.757200
0.787272 0.787272 0.787272
0.824233 0.824233 0.824233
0.867534 0.867534 0.867534
0.878452 0.878452 0.878452
0.829997 0.829997 0.829997
0.832931 0.832931 0.832931
0.840342 0.840342 0.840342
0.853363 0.853363 0.853363
0.872511 0.872511 0.872511
0.897967 0.897967 0.897967
0.929643 0.929643 0.929643
0.967248 0.967248 0.967248
0.976808 0.976808 0.976808
0.858938 0.858938 0.858938
0.861751 0.861751 0.861751
0.868862 0.868862 0.868862
0.881370 0.881370 0.881370
0.899790 0.899790 0.899790
0.924326 0.924326 0.924326
0.954929 0.954929 0.954929
0.991352 0.991352 0.991352
1.000000 1.000000 1.000000
0.152122 0.152122 0.152122
0.164793 0.164793 0.164793
0.193015 0.193015 0.193015
0.234183 0.234183 0.234183
0.283647 0.283647 0.283647
0.338097 0.338097 0.338097
0.395570 0.395570 0.395570
0.546591 0.546591 0.546591
0.565278 0.565278 0.565278
0.182503 0.182503 0.182503
0.193010 0.193010 0.193010
0.217203 0.217203 0.217203
0.253954 0.253954 0.253954
0.299634 0.299634 0.299634
0.351135 0.351135 0.351135
0.406368 0.406368 0.406368
0.558711 0.558711 0.558711
0.576948 0.576948 0.576948
0.241693 0.241693 0.241693
0.249408 0.249408 0.249408
0.267872 0.267872 0.267872
0.297479 0.297479 0.297479
0.336266 0.336266 0.336266
0.381882 0.381882 0.381882
0.516458 0.516458 0.516458
0.588273 0.588273 0.588273
0.605486 0.605486 0.605486
0.317893 0.317893 0.317893
0.323490 0.323490 0.323490
0.337227 0.337227 0.337227
0.360147 0.360147 0.360147
0.391569 0.391569 0.391569
0.513497 0.513497 0.513497
0.572419 0.572419 0.572419
0.637093 0.637093 0.637093
0.652814 0.652814 0.652814
0.402180 0.402180 0.402180
0.406380 0.406380 0.406380
0.416830 0.416830 0.416830
0.519583 0.519583 0.519583
0.553242 0.553242 0.553242
0.595910 0.595910 0.595910
0.646340 0.646340 0.646340
0.703200 0.703200 0.703200
0.717222 0.717222 0.717222
0.593993 0.593993 0.593993
0.598356 0.598356 0.598356
0.609298 0.609298 0.609298
0.628262 0.628262 0.628262
0.655595 0.655595 0.655595
0.691033 0.691033 0.691033
0.733906 0.733906 0.733906
0.783333 0.783333 0.783333
0.795677 0.795677 0.795677
0.714660 0.714660 0.714660
0.718173 0.718173 0.718173
0.727022 0.727022 0.727022
0.742490 0.742490 0.742490
0.765063 0.765063 0.765063
0.794777 0.794777 0.794777
0.831334 0.831334 0.831334
0.874207 0.874207 0.874207
0.885024 0.885024 0.885024
0.837039 0.837039 0.837039
0.839942 0.839942 0.839942
0.847278 0.847278 0.847278
0.860171 0.860171 0.860171
0.879138 0.879138 0.879138
0.904365 0.904365 0.904365
0.935775 0.935775 0.935775
0.973088 0.973088 0.973088
0.982576 0.982576 0.982576
0.865692 0.865692 0.865692
0.868479 0.868479 0.868479
0.875523 0.875523 0.875523
0.887915 0.887915 0.887915
0.906172 0.906172 0.906172
0.930501 0.930501 0.930501
0.960861 0.960861 0.960861
0.997016 0.997016 0.997016
1.000000 1.000000 1.000000
0.188578 0.188578 0.188578
0.198726 0.198726 0.198726
0.222214 0.222214 0.222214
0.258143 0.258143 0.258143
0.303079 0.303079 0.303079
0.353977 0.353977 0.353977
0.408739 0.408739 0.408739
0.561387 0.561387 0.561387
0.579526 0.579526 0.579526
0.213337 0.213337 0.213337
0.222211 0.222211 0.222211
0.243126 0.243126 0.243126
0.275916 0.275916 0.275916
0.317897 0.317897 0.317897
0.366323 0.366323 0.366323
0.419114 0.419114 0.419114
0.573148 0.573148 0.573148
0.590872 0.590872 0.590872
0.264860 0.264860 0.264860
0.271804 0.271804 0.271804
0.288584 0.288584 0.288584
0.315892 0.315892 0.315892
0.352248 0.352248 0.352248
0.395623 0.395623 0.395623
0.532213 0.532213 0.532213
0.601894 0.601894 0.601894
0.618668 0.618668 0.618668
0.334956 0.334956 0.334956
0.340211 0.340211 0.340211
0.353155 0.353155 0.353155
0.374886 0.374886 0.374886
0.404901 0.404901 0.404901
0.529352 0.529352 0.529352
0.586468 0.586468 0.586468
0.649528 0.649528 0.649528
0.664903 0.664903 0.664903
0.415088 0.415088 0.415088
0.419125 0.419125 0.419125
0.512249 0.512249 0.512249
0.535234 0.535234 0.535234
0.567839 0.567839 0.567839
0.609333 0.609333 0.609333
0.658570 0.658570 0.658570
0.714285 0.714285 0.714285
0.728052 0.728052 0.728052
0.607466 0.607466 0.607466
0.611718 0.611718 0.611718
0.622386 0.622386 0.622386
0.640898 0.640898 0.640898
0.667625 0.667625 0.667625
0.702347 0.702347 0.702347
0.744447 0.744447 0.744447
0.793087 0.793087 0.793087
0.805249 0.805249 0.805249
0.725536 0.725536 0.725536
0.728986 0.728986 0.728986
0.737680 0.737680 0.737680
0.752886 0.752886 0.752886
0.775095 0.775095 0.775095
0.804362 0.804362 0.804362
0.840414 0.840414 0.840414
0.882751 0.882751 0.882751
0.893441 0.893441 0.893441
0.846045 0.846045 0.846045
0.848911 0.848911 0.848911
0.856153 0.856153 0.856153
0.868885 0.868885 0.868885
0.887623 0.887623 0.887623
0.912563 0.912563 0.912563
0.943637 0.943637 0.943637
0.980580 0.980580 0.980580
0.989979 0.989979 0.989979
0.874338 0.874338 0.874338
0.877091 0.877091 0.877091
0.884051 0.884051 0.884051
0.896299 0.896299 0.896299
0.914350 0.914350 0.914350
0.938418 0.938418 0.938418
0.968471 0.968471 0.968471
1.000000 1.000000 1.000000
1.000000 1.000000 1.000000
0.225034 0.225034 0.225034
0.233396 0.233396 0.233396
0.253242 0.253242 0.253242
0.284668 0.284668 0.284668
0.325304 0.325304 0.325304
0.372565 0.372565 0.372565
0.505868 0.505868 0.505868
0.579176 0.579176 0.579176
0.596694 0.596694 0.596694
0.245667 0.245667 0.245667
0.253239 0.253239 0.253239
0.271396 0.271396 0.271396
0.300590 0.300590 0.300590
0.338949 0.338949 0.338949
0.384176 0.384176 0.384176
0.519077 0.519077 0.519077
0.590530 0.590530 0.590530
0.607668 0.607668 0.607668
0.290660 0.290660 0.290660
0.296887 0.296887 0.296887
0.312064 0.312064 0.312064
0.337097 0.337097 0.337097
0.370943 0.370943 0.370943
0.411912 0.411912 0.411912
0.551087 0.551087 0.551087
0.618343 0.618343 0.618343
0.634610 0.634610 0.634610
0.354779 0.354779 0.354779
0.359680 0.359680 0.359680
0.371794 0.371794 0.371794
0.392256 0.392256 0.392256
0.500989 0.500989 0.500989
0.548339 0.548339 0.548339
0.603406 0.603406 0.603406
0.664605 0.664605 0.664605
0.679578 0.679578 0.679578
0.513947 0.513947 0.513947
0.519091 0.519091 0.519091
0.531931 0.531931 0.531931
0.553991 0.553991 0.553991
0.585403 0.585403 0.585403
0.625554 0.625554 0.625554
0.673408 0.673408 0.673408
0.727785 0.727785 0.727785
0.741252 0.741252 0.741252
0.623744 0.623744 0.623744
0.627867 0.627867 0.627867
0.638220 0.638220 0.638220
0.656209 0.656209 0.656209
0.682231 0.682231 0.682231
0.716116 0.716116 0.716116
0.757304 0.757304 0.757304
0.805012 0.805012 0.805012
0.816960 0.816960 0.816960
0.738790 0.738790 0.738790
0.742166 0.742166 0.742166
0.750677 0.750677 0.750677
0.765573 0.765573 0.765573
0.787352 0.787352 0.787352
0.816088 0.816088 0.816088
0.851538 0.851538 0.851538
0.893232 0.893232 0.893232
0.903770 0.903770 0.903770
0.857079 0.857079 0.857079
0.859900 0.859900 0.859900
0.867030 0.867030 0.867030
0.879569 0.879569 0.879569
0.898035 0.898035 0.898035
0.922628 0.922628 0.922628
0.953298 0.953298 0.953298
0.989795 0.989795 0.989795
0.999087 0.999087 0.999087
0.884942 0.884942 0.884942
0.887655 0.887655 0.887655
0.894514 0.894514 0.894514
0.906587 0.906587 0.906587
0.924391 0.924391 0.924391
0.948145 0.948145 0.948145
0.977829 0.977829 0.977829
1.000000 1.000000 1.000000
1.000000 1.000000 1.000000
0.233519 0.233519 0.233519
0.241540 0.241540 0.241540
0.260663 0.260663 0.260663
0.291144 0.291144 0.291144
0.330829 0.330829 0.330829
0.377249 0.377249 0.377249
0.511182 0.511182 0.511182
0.583735 0.583735 0.583735
0.601099 0.601099 0.601099
0.253351 0.253351 0.253351
0.260660 0.260660 0.260660
0.278245 0.278245 0.278245
0.306663 0.306663 0.306663
0.344206 0.344206 0.344206
0.388686 0.388686 0.388686
0.524240 0.524240 0.524240
0.594988 0.594988 0.594988
0.611982 0.611982 0.611982
0.296979 0.296979 0.296979
0.303050 0.303050 0.303050
0.317872 0.317872 0.317872
0.342389 0.342389 0.342389
0.375652 0.375652 0.375652
0.416049 0.416049 0.416049
0.555912 0.555912 0.555912
0.622570 0.622570 0.622570
0.638711 0.638711 0.638711
0.359753 0.359753 0.359753
0.364571 0.364571 0.364571
0.376490 0.376490 0.376490
0.396652 0.396652 0.396652
0.506361 0.506361 0.506361
0.553191 0.553191 0.553191
0.607755 0.607755 0.607755
0.668490 0.668490 0.668490
0.683363 0.683363 0.683363
0.519168 0.519168 0.519168
0.524254 0.524254 0.524254
0.536953 0.536953 0.536953
0.558787 0.558787 0.558787
0.589906 0.589906 0.589906
0.629725 0.629725 0.629725
0.677233 0.677233 0.677233
0.731273 0.731273 0.731273
0.744665 0.744665 0.744665
0.627928 0.627928 0.627928
0.632019 0.632019 0.632019
0.642294 0.642294 0.642294
0.660153 0.660153 0.660153
0.685998 0.685998 0.685998
0.719673 0.719673 0.719673
0.760631 0.760631 0.760631
0.808102 0.808102 0.808102
0.819995 0.819995 0.819995
0.742217 0.742217 0.742217
0.745574 0.745574 0.745574
0.754039 0.754039 0.754039
0.768857 0.768857 0.768857
0.790526 0.790526 0.790526
0.819128 0.819128 0.819128
0.854424 0.854424 0.854424
0.895954 0.895954 0.895954
0.906453 0.906453 0.906453
0.859942 0.859942 0.859942
0.862752 0.862752 0.862752
0.869853 0.869853 0.869853
0.882343 0.882343 0.882343
0.900739 0.900739 0.900739
0.925244 0.925244 0.925244
0.955810 0.955810 0.955810
0.992193 0.992193 0.992193
1.000000 1.000000 1.000000
0.887695 0.887695 0.887695
0.890398 0.890398 0.890398
0.897231 0.897231 0.897231
0.909260 0.909260 0.909260
0.927001 0.927001 0.927001
0.950674 0.950674 0.950674
0.980263 0.980263 0.980263
1.000000 1.000000 1.000000
1.000000 1.000000 1.000000
