docs/luts/fuji_recipes/AcrosR_PE_Moriyama.cube
TITLE "Fujifilm Recipe: PE Moriyama (AcrosR)"
# FilmSim=AcrosR HL=4 SH=4 Col=0 WB=Auto WBR=0 WBB=0
LUT_3D_SIZE 9
DOMAIN_MIN 0.0 0.0 0.0
DOMAIN_MAX 1.0 1.0 1.0
0.000000 0.000000 0.000000
0.037874 0.037874 0.037874
0.096258 0.096258 0.096258
0.154643 0.154643 0.154643
0.213027 0.213027 0.213027
0.271412 0.271412 0.271412
0.329797 0.329797 0.329797
0.388181 0.388181 0.388181
0.536686 0.536686 0.536686
0.077878 0.077878 0.077878
0.096251 0.096251 0.096251
0.132283 0.132283 0.132283
0.178902 0.178902 0.178902
0.230614 0.230614 0.230614
0.284878 0.284878 0.284878
0.340531 0.340531 0.340531
0.397002 0.397002 0.397002
0.546933 0.546933 0.546933
0.164044 0.164044 0.164044
0.173456 0.173456 0.173456
0.195176 0.195176 0.195176
0.228268 0.228268 0.228268
0.269509 0.269509 0.269509
0.316097 0.316097 0.316097
0.366129 0.366129 0.366129
0.418413 0.418413 0.418413
0.572099 0.572099 0.572099
0.250210 0.250210 0.250210
0.256129 0.256129 0.256129
0.270509 0.270509 0.270509
0.294101 0.294101 0.294101
0.325803 0.325803 0.325803
0.363952 0.363952 0.363952
0.406947 0.406947 0.406947
0.546261 0.546261 0.546261
0.614140 0.614140 0.614140
0.336375 0.336375 0.336375
0.340543 0.340543 0.340543
0.350876 0.350876 0.350876
0.368425 0.368425 0.368425
0.393025 0.393025 0.393025
0.505417 0.505417 0.505417
0.555394 0.555394 0.555394
0.611284 0.611284 0.611284
0.671858 0.671858 0.671858
0.503509 0.503509 0.503509
0.507852 0.507852 0.507852
0.518728 0.518728 0.518728
0.537528 0.537528 0.537528
0.564521 0.564521 0.564521
0.599359 0.599359 0.599359
0.641303 0.641303 0.641303
0.689428 0.689428 0.689428
0.742784 0.742784 0.742784
0.622499 0.622499 0.622499
0.625934 0.625934 0.625934
0.634581 0.634581 0.634581
0.649677 0.649677 0.649677
0.671664 0.671664 0.671664
0.700540 0.700540 0.700540
0.735969 0.735969 0.735969
0.777404 0.777404 0.777404
0.824187 0.824187 0.824187
0.741490 0.741490 0.741490
0.744299 0.744299 0.744299
0.751392 0.751392 0.751392
0.763852 0.763852 0.763852
0.782162 0.782162 0.782162
0.806485 0.806485 0.806485
0.836721 0.836721 0.836721
0.872579 0.872579 0.872579
0.913638 0.913638 0.913638
0.860480 0.860480 0.860480
0.862836 0.862836 0.862836
0.868797 0.868797 0.868797
0.879308 0.879308 0.879308
0.894846 0.894846 0.894846
0.915646 0.915646 0.915646
0.941742 0.941742 0.941742
0.973007 0.973007 0.973007
1.000000 1.000000 1.000000
0.009782 0.009782 0.009782
0.046278 0.046278 0.046278
0.100472 0.100472 0.100472
0.157278 0.157278 0.157278
0.214879 0.214879 0.214879
0.272808 0.272808 0.272808
0.330900 0.330900 0.330900
0.389083 0.389083 0.389083
0.537730 0.537730 0.537730
0.082952 0.082952 0.082952
0.100465 0.100465 0.100465
0.135382 0.135382 0.135382
0.181153 0.181153 0.181153
0.232304 0.232304 0.232304
0.286195 0.286195 0.286195
0.341592 0.341592 0.341592
0.397879 0.397879 0.397879
0.547955 0.547955 0.547955
0.166518 0.166518 0.166518
0.175785 0.175785 0.175785
0.197220 0.197220 0.197220
0.229978 0.229978 0.229978
0.270917 0.270917 0.270917
0.317259 0.317259 0.317259
0.367099 0.367099 0.367099
0.419234 0.419234 0.419234
0.573072 0.573072 0.573072
0.251746 0.251746 0.251746
0.257624 0.257624 0.257624
0.271910 0.271910 0.271910
0.295368 0.295368 0.295368
0.326923 0.326923 0.326923
0.364929 0.364929 0.364929
0.407797 0.407797 0.407797
0.547285 0.547285 0.547285
0.615038 0.615038 0.615038
0.337452 0.337452 0.337452
0.341603 0.341603 0.341603
0.351899 0.351899 0.351899
0.369387 0.369387 0.369387
0.393913 0.393913 0.393913
0.506532 0.506532 0.506532
0.556399 0.556399 0.556399
0.612186 0.612186 0.612186
0.672668 0.672668 0.672668
0.504628 0.504628 0.504628
0.508961 0.508961 0.508961
0.519812 0.519812 0.519812
0.538570 0.538570 0.538570
0.565508 0.565508 0.565508
0.600282 0.600282 0.600282
0.642158 0.642158 0.642158
0.690215 0.690215 0.690215
0.743505 0.743505 0.743505
0.623384 0.623384 0.623384
0.626813 0.626813 0.626813
0.635446 0.635446 0.635446
0.650519 0.650519 0.650519
0.672475 0.672475 0.672475
0.701312 0.701312 0.701312
0.736698 0.736698 0.736698
0.778088 0.778088 0.778088
0.824825 0.824825 0.824825
0.742213 0.742213 0.742213
0.745018 0.745018 0.745018
0.752104 0.752104 0.752104
0.764550 0.764550 0.764550
0.782841 0.782841 0.782841
0.807139 0.807139 0.807139
0.837348 0.837348 0.837348
0.873175 0.873175 0.873175
0.914201 0.914201 0.914201
0.861086 0.861086 0.861086
0.863440 0.863440 0.863440
0.869396 0.869396 0.869396
0.879898 0.879898 0.879898
0.895424 0.895424 0.895424
0.916208 0.916208 0.916208
0.942286 0.942286 0.942286
0.973529 0.973529 0.973529
1.000000 1.000000 1.000000
0.034667 0.034667 0.034667
0.063914 0.063914 0.063914
0.110499 0.110499 0.110499
0.163779 0.163779 0.163779
0.219510 0.219510 0.219510
0.276322 0.276322 0.276322
0.333687 0.333687 0.333687
0.391367 0.391367 0.391367
0.540378 0.540378 0.540378
0.094748 0.094748 0.094748
0.110493 0.110493 0.110493
0.142955 0.142955 0.142955
0.186747 0.186747 0.186747
0.236542 0.236542 0.236542
0.289515 0.289515 0.289515
0.344273 0.344273 0.344273
0.400100 0.400100 0.400100
0.550549 0.550549 0.550549
0.172640 0.172640 0.172640
0.181563 0.181563 0.181563
0.202316 0.202316 0.202316
0.234265 0.234265 0.234265
0.274460 0.274460 0.274460
0.320193 0.320193 0.320193
0.369553 0.369553 0.369553
0.501815 0.501815 0.501815
0.575540 0.575540 0.575540
0.255608 0.255608 0.255608
0.261383 0.261383 0.261383
0.275438 0.275438 0.275438
0.298566 0.298566 0.298566
0.329752 0.329752 0.329752
0.367402 0.367402 0.367402
0.409951 0.409951 0.409951
0.549882 0.549882 0.549882
0.617317 0.617317 0.617317
0.340174 0.340174 0.340174
0.344285 0.344285 0.344285
0.354484 0.354484 0.354484
0.371823 0.371823 0.371823
0.396162 0.396162 0.396162
0.509358 0.509358 0.509358
0.558949 0.558949 0.558949
0.614478 0.614478 0.614478
0.674727 0.674727 0.674727
0.507466 0.507466 0.507466
0.511773 0.511773 0.511773
0.522560 0.522560 0.522560
0.541213 0.541213 0.541213
0.568012 0.568012 0.568012
0.602625 0.602625 0.602625
0.644328 0.644328 0.644328
0.692212 0.692212 0.692212
0.745338 0.745338 0.745338
0.625629 0.625629 0.625629
0.629044 0.629044 0.629044
0.637643 0.637643 0.637643
0.652658 0.652658 0.652658
0.674534 0.674534 0.674534
0.703273 0.703273 0.703273
0.738551 0.738551 0.738551
0.779825 0.779825 0.779825
0.826446 0.826446 0.826446
0.744049 0.744049 0.744049
0.746846 0.746846 0.746846
0.753912 0.753912 0.753912
0.766323 0.766323 0.766323
0.784566 0.784566 0.784566
0.808803 0.808803 0.808803
0.838940 0.838940 0.838940
0.874690 0.874690 0.874690
0.915635 0.915635 0.915635
0.862626 0.862626 0.862626
0.864975 0.864975 0.864975
0.870918 0.870918 0.870918
0.881399 0.881399 0.881399
0.896894 0.896894 0.896894
0.917638 0.917638 0.917638
0.943667 0.943667 0.943667
0.974857 0.974857 0.974857
1.000000 1.000000 1.000000
0.067809 0.067809 0.067809
0.088094 0.088094 0.088094
0.126436 0.126436 0.126436
0.174720 0.174720 0.174720
0.227499 0.227499 0.227499
0.282460 0.282460 0.282460
0.338589 0.338589 0.338589
0.395399 0.395399 0.395399
0.545065 0.545065 0.545065
0.112903 0.112903 0.112903
0.126431 0.126431 0.126431
0.155497 0.155497 0.155497
0.196281 0.196281 0.196281
0.243886 0.243886 0.243886
0.295325 0.295325 0.295325
0.348992 0.348992 0.348992
0.404023 0.404023 0.404023
0.555141 0.555141 0.555141
0.183000 0.183000 0.183000
0.191387 0.191387 0.191387
0.211059 0.211059 0.211059
0.241691 0.241691 0.241691
0.280647 0.280647 0.280647
0.325345 0.325345 0.325345
0.373881 0.373881 0.373881
0.506895 0.506895 0.506895
0.579911 0.579911 0.579911
0.262329 0.262329 0.262329
0.267932 0.267932 0.267932
0.281599 0.281599 0.281599
0.304167 0.304167 0.304167
0.334724 0.334724 0.334724
0.371760 0.371760 0.371760
0.413757 0.413757 0.413757
0.554480 0.554480 0.554480
0.621359 0.621359 0.621359
0.344962 0.344962 0.344962
0.349004 0.349004 0.349004
0.359038 0.359038 0.359038
0.376118 0.376118 0.376118
0.400134 0.400134 0.400134
0.514357 0.514357 0.514357
0.563465 0.563465 0.563465
0.618541 0.618541 0.618541
0.678379 0.678379 0.678379
0.512485 0.512485 0.512485
0.516746 0.516746 0.516746
0.527422 0.527422 0.527422
0.545892 0.545892 0.545892
0.572448 0.572448 0.572448
0.606778 0.606778 0.606778
0.648179 0.648179 0.648179
0.695759 0.695759 0.695759
0.748592 0.748592 0.748592
0.629610 0.629610 0.629610
0.633000 0.633000 0.633000
0.641539 0.641539 0.641539
0.656452 0.656452 0.656452
0.678188 0.678188 0.678188
0.706756 0.706756 0.706756
0.741840 0.741840 0.741840
0.782912 0.782912 0.782912
0.829328 0.829328 0.829328
0.747310 0.747310 0.747310
0.750093 0.750093 0.750093
0.757124 0.757124 0.757124
0.769474 0.769474 0.769474
0.787631 0.787631 0.787631
0.811759 0.811759 0.811759
0.841771 0.841771 0.841771
0.877383 0.877383 0.877383
0.918183 0.918183 0.918183
0.865364 0.865364 0.865364
0.867704 0.867704 0.867704
0.873626 0.873626 0.873626
0.884068 0.884068 0.884068
0.899507 0.899507 0.899507
0.920180 0.920180 0.920180
0.946125 0.946125 0.946125
0.977219 0.977219 0.977219
1.000000 1.000000 1.000000
0.100951 0.100951 0.100951
0.115876 0.115876 0.115876
0.147126 0.147126 0.147126
0.189882 0.189882 0.189882
0.238941 0.238941 0.238941
0.291405 0.291405 0.291405
0.345805 0.345805 0.345805
0.401371 0.401371 0.401371
0.552035 0.552035 0.552035
0.135737 0.135737 0.135737
0.147122 0.147122 0.147122
0.172536 0.172536 0.172536
0.209711 0.209711 0.209711
0.254472 0.254472 0.254472
0.303816 0.303816 0.303816
0.355949 0.355949 0.355949
0.409838 0.409838 0.409838
0.561972 0.561972 0.561972
0.197456 0.197456 0.197456
0.205181 0.205181 0.205181
0.223482 0.223482 0.223482
0.252385 0.252385 0.252385
0.289659 0.289659 0.289659
0.332914 0.332914 0.332914
0.380278 0.380278 0.380278
0.514436 0.514436 0.514436
0.586421 0.586421 0.586421
0.272072 0.272072 0.272072
0.277442 0.277442 0.277442
0.290576 0.290576 0.290576
0.312368 0.312368 0.312368
0.342040 0.342040 0.342040
0.378202 0.378202 0.378202
0.419403 0.419403 0.419403
0.561321 0.561321 0.561321
0.627385 0.627385 0.627385
0.352017 0.352017 0.352017
0.355960 0.355960 0.355960
0.365759 0.365759 0.365759
0.382469 0.382469 0.382469
0.406018 0.406018 0.406018
0.521780 0.521780 0.521780
0.570185 0.570185 0.570185
0.624598 0.624598 0.624598
0.683833 0.683833 0.683833
0.519938 0.519938 0.519938
0.524132 0.524132 0.524132
0.534646 0.534646 0.534646
0.552851 0.552851 0.552851
0.579052 0.579052 0.579052
0.612967 0.612967 0.612967
0.653923 0.653923 0.653923
0.701057 0.701057 0.701057
0.753459 0.753459 0.753459
0.635547 0.635547 0.635547
0.638902 0.638902 0.638902
0.647352 0.647352 0.647352
0.662115 0.662115 0.662115
0.683643 0.683643 0.683643
0.711959 0.711959 0.711959
0.746759 0.746759 0.746759
0.787530 0.787530 0.787530
0.833642 0.833642 0.833642
0.752187 0.752187 0.752187
0.754949 0.754949 0.754949
0.761927 0.761927 0.761927
0.774187 0.774187 0.774187
0.792216 0.792216 0.792216
0.816184 0.816184 0.816184
0.846010 0.846010 0.846010
0.881417 0.881417 0.881417
0.922003 0.922003 0.922003
0.869466 0.869466 0.869466
0.871792 0.871792 0.871792
0.877680 0.877680 0.877680
0.888065 0.888065 0.888065
0.903422 0.903422 0.903422
0.923990 0.923990 0.923990
0.949809 0.949809 0.949809
0.980761 0.980761 0.980761
1.000000 1.000000 1.000000
0.134093 0.134093 0.134093
0.145613 0.145613 0.145613
0.171268 0.171268 0.171268
0.208694 0.208694 0.208694
0.253662 0.253662 0.253662
0.303161 0.303161 0.303161
0.355410 0.355410 0.355410
0.409386 0.409386 0.409386
0.561440 0.561440 0.561440
0.161712 0.161712 0.161712
0.171264 0.171264 0.171264
0.193258 0.193258 0.193258
0.226668 0.226668 0.226668
0.268196 0.268196 0.268196
0.315015 0.315015 0.315015
0.365226 0.365226 0.365226
0.417650 0.417650 0.417650
0.571195 0.571195 0.571195
0.215522 0.215522 0.215522
0.222535 0.222535 0.222535
0.239321 0.239321 0.239321
0.266236 0.266236 0.266236
0.301498 0.301498 0.301498
0.342966 0.342966 0.342966
0.388841 0.388841 0.388841
0.524588 0.524588 0.524588
0.595221 0.595221 0.595221
0.284795 0.284795 0.284795
0.289883 0.289883 0.289883
0.302371 0.302371 0.302371
0.323208 0.323208 0.323208
0.351773 0.351773 0.351773
0.386822 0.386822 0.386822
0.509661 0.509661 0.509661
0.570556 0.570556 0.570556
0.635546 0.635546 0.635546
0.361420 0.361420 0.361420
0.365237 0.365237 0.365237
0.374737 0.374737 0.374737
0.390972 0.390972 0.390972
0.413921 0.413921 0.413921
0.531779 0.531779 0.531779
0.579262 0.579262 0.579262
0.632800 0.632800 0.632800
0.691234 0.691234 0.691234
0.529975 0.529975 0.529975
0.534083 0.534083 0.534083
0.544385 0.544385 0.544385
0.562241 0.562241 0.562241
0.587976 0.587976 0.587976
0.621344 0.621344 0.621344
0.661711 0.661711 0.661711
0.708250 0.708250 0.708250
0.760076 0.760076 0.760076
0.643590 0.643590 0.643590
0.646897 0.646897 0.646897
0.655229 0.655229 0.655229
0.669794 0.669794 0.669794
0.691047 0.691047 0.691047
0.719025 0.719025 0.719025
0.753445 0.753445 0.753445
0.793813 0.793813 0.793813
0.839517 0.839517 0.839517
0.758817 0.758817 0.758817
0.761551 0.761551 0.761551
0.768458 0.768458 0.768458
0.780597 0.780597 0.780597
0.798456 0.798456 0.798456
0.822209 0.822209 0.822209
0.851783 0.851783 0.851783
0.886915 0.886915 0.886915
0.927212 0.927212 0.927212
0.875054 0.875054 0.875054
0.877363 0.877363 0.877363
0.883206 0.883206 0.883206
0.893514 0.893514 0.893514
0.908760 0.908760 0.908760
0.929185 0.929185 0.929185
0.954834 0.954834 0.954834
0.985595 0.985595 0.985595
1.000000 1.000000 1.000000
0.167235 0.167235 0.167235
0.176460 0.176460 0.176460
0.197814 0.197814 0.197814
0.230476 0.230476 0.230476
0.271327 0.271327 0.271327
0.317598 0.317598 0.317598
0.367382 0.367382 0.367382
0.419474 0.419474 0.419474
0.573356 0.573356 0.573356
0.189743 0.189743 0.189743
0.197810 0.197810 0.197810
0.216824 0.216824 0.216824
0.246633 0.246633 0.246633
0.284798 0.284798 0.284798
0.328822 0.328822 0.328822
0.376814 0.376814 0.376814
0.510347 0.510347 0.510347
0.582889 0.582889 0.582889
0.236583 0.236583 0.236583
0.242895 0.242895 0.242895
0.258150 0.258150 0.258150
0.282975 0.282975 0.282975
0.316026 0.316026 0.316026
0.355458 0.355458 0.355458
0.399583 0.399583 0.399583
0.537414 0.537414 0.537414
0.606395 0.606395 0.606395
0.300306 0.300306 0.300306
0.305083 0.305083 0.305083
0.316851 0.316851 0.316851
0.336606 0.336606 0.336606
0.363893 0.363893 0.363893
0.397632 0.397632 0.397632
0.522889 0.522889 0.522889
0.582264 0.582264 0.582264
0.645932 0.645932 0.645932
0.373154 0.373154 0.373154
0.376824 0.376824 0.376824
0.385971 0.385971 0.385971
0.401643 0.401643 0.401643
0.505349 0.505349 0.505349
0.544418 0.544418 0.544418
0.590777 0.590777 0.590777
0.643237 0.643237 0.643237
0.700677 0.700677 0.700677
0.542660 0.542660 0.542660
0.546663 0.546663 0.546663
0.556708 0.556708 0.556708
0.574138 0.574138 0.574138
0.599303 0.599303 0.599303
0.631996 0.631996 0.631996
0.671635 0.671635 0.671635
0.717433 0.717433 0.717433
0.768539 0.768539 0.768539
0.653830 0.653830 0.653830
0.657079 0.657079 0.657079
0.665264 0.665264 0.665264
0.679582 0.679582 0.679582
0.700493 0.700493 0.700493
0.728050 0.728050 0.728050
0.761995 0.761995 0.761995
0.801857 0.801857 0.801857
0.847048 0.847048 0.847048
0.767296 0.767296 0.767296
0.769995 0.769995 0.769995
0.776813 0.776813 0.776813
0.788801 0.788801 0.788801
0.806445 0.806445 0.806445
0.829927 0.829927 0.829927
0.859185 0.859185 0.859185
0.893969 0.893969 0.893969
0.933900 0.933900 0.933900
0.882223 0.882223 0.882223
0.884509 0.884509 0.884509
0.890296 0.890296 0.890296
0.900506 0.900506 0.900506
0.915612 0.915612 0.915612
0.935856 0.935856 0.935856
0.961290 0.961290 0.961290
0.991808 0.991808 0.991808
1.000000 1.000000 1.000000
0.200377 0.200377 0.200377
0.207979 0.207979 0.207979
0.226021 0.226021 0.226021
0.254589 0.254589 0.254589
0.291532 0.291532 0.291532
0.334496 0.334496 0.334496
0.381620 0.381620 0.381620
0.516023 0.516023 0.516023
0.587794 0.587794 0.587794
0.219134 0.219134 0.219134
0.226018 0.226018 0.226018
0.242524 0.242524 0.242524
0.269064 0.269064 0.269064
0.303936 0.303936 0.303936
0.345051 0.345051 0.345051
0.390626 0.390626 0.390626
0.526713 0.526713 0.526713
0.597068 0.597068 0.597068
0.260037 0.260037 0.260037
0.265698 0.265698 0.265698
0.279495 0.279495 0.279495
0.302252 0.302252 0.302252
0.333022 0.333022 0.333022
0.370266 0.370266 0.370266
0.412451 0.412451 0.412451
0.552901 0.552901 0.552901
0.619970 0.619970 0.619970
0.318328 0.318328 0.318328
0.322783 0.322783 0.322783
0.333796 0.333796 0.333796
0.352398 0.352398 0.352398
0.378294 0.378294 0.378294
0.410577 0.410577 0.410577
0.538837 0.538837 0.538837
0.596460 0.596460 0.596460
0.658583 0.658583 0.658583
0.387129 0.387129 0.387129
0.390636 0.390636 0.390636
0.399390 0.399390 0.399390
0.414431 0.414431 0.414431
0.521887 0.521887 0.521887
0.559691 0.559691 0.559691
0.604749 0.604749 0.604749
0.655947 0.655947 0.655947
0.712214 0.712214 0.712214
0.557986 0.557986 0.557986
0.561868 0.561868 0.561868
0.571617 0.571617 0.571617
0.588555 0.588555 0.588555
0.613056 0.613056 0.613056
0.644961 0.644961 0.644961
0.683742 0.683742 0.683742
0.728662 0.728662 0.728662
0.778910 0.778910 0.778910
0.666310 0.666310 0.666310
0.669488 0.669488 0.669488
0.677502 0.677502 0.677502
0.691528 0.691528 0.691528
0.712033 0.712033 0.712033
0.739091 0.739091 0.739091
0.772469 0.772469 0.772469
0.811726 0.811726 0.811726
0.856299 0.856299 0.856299
0.777686 0.777686 0.777686
0.780342 0.780342 0.780342
0.787055 0.787055 0.787055
0.798862 0.798862 0.798862
0.816248 0.816248 0.816248
0.839404 0.839404 0.839404
0.868282 0.868282 0.868282
0.902646 0.902646 0.902646
0.942135 0.942135 0.942135
0.891038 0.891038 0.891038
0.893297 0.893297 0.893297
0.899016 0.899016 0.899016
0.909108 0.909108 0.909108
0.924044 0.924044 0.924044
0.944070 0.944070 0.944070
0.969243 0.969243 0.969243
0.999465 0.999465 0.999465
1.000000 1.000000 1.000000
0.233519 0.233519 0.233519
0.239926 0.239926 0.239926
0.255389 0.255389 0.255389
0.280504 0.280504 0.280504
0.313867 0.313867 0.313867
0.353591 0.353591 0.353591
0.397971 0.397971 0.397971
0.535483 0.535483 0.535483
0.604709 0.604709 0.604709
0.249447 0.249447 0.249447
0.255387 0.255387 0.255387
0.269813 0.269813 0.269813
0.293472 0.293472 0.293472
0.325248 0.325248 0.325248
0.363468 0.363468 0.363468
0.406527 0.406527 0.406527
0.545755 0.545755 0.545755
0.613695 0.613695 0.613695
0.285367 0.285367 0.285367
0.290443 0.290443 0.290443
0.302904 0.302904 0.302904
0.323699 0.323699 0.323699
0.352215 0.352215 0.352215
0.387215 0.387215 0.387215
0.510140 0.510140 0.510140
0.570979 0.570979 0.570979
0.635921 0.635921 0.635921
0.338545 0.338545 0.338545
0.342680 0.342680 0.342680
0.352937 0.352937 0.352937
0.370366 0.370366 0.370366
0.394816 0.394816 0.394816
0.507666 0.507666 0.507666
0.557422 0.557422 0.557422
0.613106 0.613106 0.613106
0.673494 0.673494 0.673494
0.403201 0.403201 0.403201
0.406536 0.406536 0.406536
0.414872 0.414872 0.414872
0.512755 0.512755 0.512755
0.541115 0.541115 0.541115
0.577532 0.577532 0.577532
0.621144 0.621144 0.621144
0.670925 0.670925 0.670925
0.725858 0.725858 0.725858
0.575886 0.575886 0.575886
0.579635 0.579635 0.579635
0.589055 0.589055 0.589055
0.605446 0.605446 0.605446
0.629206 0.629206 0.629206
0.660225 0.660225 0.660225
0.698034 0.698034 0.698034
0.741954 0.741954 0.741954
0.791216 0.791216 0.791216
0.681026 0.681026 0.681026
0.684125 0.684125 0.684125
0.691944 0.691944 0.691944
0.705638 0.705638 0.705638
0.725681 0.725681 0.725681
0.752167 0.752167 0.752167
0.784894 0.784894 0.784894
0.823453 0.823453 0.823453
0.867311 0.867311 0.867311
0.790014 0.790014 0.790014
0.792622 0.792622 0.792622
0.799213 0.799213 0.799213
0.810810 0.810810 0.810810
0.827899 0.827899 0.827899
0.850678 0.850678 0.850678
0.879114 0.879114 0.879114
0.912989 0.912989 0.912989
0.951961 0.951961 0.951961
0.901542 0.901542 0.901542
0.903769 0.903769 0.903769
0.909409 0.909409 0.909409
0.919363 0.919363 0.919363
0.934102 0.934102 0.934102
0.953872 0.953872 0.953872
0.978739 0.978739 0.978739
1.000000 1.000000 1.000000
1.000000 1.000000 1.000000
