docs/luts/fuji_recipes/Acros_RR_Faded_Color_Vintage_2_2.cube
TITLE "Fujifilm Recipe: RR Faded Color Vintage 2/2 (Acros)"
# FilmSim=Acros HL=4 SH=4 Col=4 WB=Auto WBR=-5 WBB=5
LUT_3D_SIZE 9
DOMAIN_MIN 0.0 0.0 0.0
DOMAIN_MAX 1.0 1.0 1.0
0.000000 0.000000 0.000000
0.013765 0.013765 0.013765
0.044930 0.044930 0.044930
0.081036 0.081036 0.081036
0.117143 0.117143 0.117143
0.153249 0.153249 0.153249
0.189356 0.189356 0.189356
0.225462 0.225462 0.225462
0.261569 0.261569 0.261569
0.052307 0.052307 0.052307
0.061803 0.061803 0.061803
0.080501 0.080501 0.080501
0.106160 0.106160 0.106160
0.135841 0.135841 0.135841
0.167788 0.167788 0.167788
0.201057 0.201057 0.201057
0.235139 0.235139 0.235139
0.269745 0.269745 0.269745
0.120715 0.120715 0.120715
0.125468 0.125468 0.125468
0.135997 0.135997 0.135997
0.152600 0.152600 0.152600
0.174238 0.174238 0.174238
0.199663 0.199663 0.199663
0.227807 0.227807 0.227807
0.257879 0.257879 0.257879
0.289326 0.289326 0.289326
0.189122 0.189122 0.189122
0.192094 0.192094 0.192094
0.198898 0.198898 0.198898
0.210200 0.210200 0.210200
0.225851 0.225851 0.225851
0.245353 0.245353 0.245353
0.268074 0.268074 0.268074
0.293386 0.293386 0.293386
0.320745 0.320745 0.320745
0.257530 0.257530 0.257530
0.259617 0.259617 0.259617
0.264458 0.264458 0.264458
0.272679 0.272679 0.272679
0.284405 0.284405 0.284405
0.299516 0.299516 0.299516
0.317724 0.317724 0.317724
0.338662 0.338662 0.338662
0.361939 0.361939 0.361939
0.325938 0.325938 0.325938
0.327511 0.327511 0.327511
0.331182 0.331182 0.331182
0.337486 0.337486 0.337486
0.346618 0.346618 0.346618
0.358612 0.358612 0.358612
0.373375 0.373375 0.373375
0.390722 0.390722 0.390722
0.410417 0.410417 0.410417
0.394346 0.394346 0.394346
0.395589 0.395589 0.395589
0.398500 0.398500 0.398500
0.403528 0.403528 0.403528
0.410877 0.410877 0.410877
0.500886 0.500886 0.500886
0.517703 0.517703 0.517703
0.537755 0.537755 0.537755
0.560865 0.560865 0.560865
0.559040 0.559040 0.559040
0.560444 0.560444 0.560444
0.563737 0.563737 0.563737
0.569444 0.569444 0.569444
0.577832 0.577832 0.577832
0.589056 0.589056 0.589056
0.603178 0.603178 0.603178
0.620181 0.620181 0.620181
0.639986 0.639986 0.639986
0.653508 0.653508 0.653508
0.654685 0.654685 0.654685
0.657449 0.657449 0.657449
0.662251 0.662251 0.662251
0.669334 0.669334 0.669334
0.678856 0.678856 0.678856
0.690906 0.690906 0.690906
0.705515 0.705515 0.705515
0.722659 0.722659 0.722659
0.006673 0.006673 0.006673
0.020438 0.020438 0.020438
0.050199 0.050199 0.050199
0.084410 0.084410 0.084410
0.119541 0.119541 0.119541
0.155069 0.155069 0.155069
0.190801 0.190801 0.190801
0.226647 0.226647 0.226647
0.262565 0.262565 0.262565
0.057063 0.057063 0.057063
0.066011 0.066011 0.066011
0.083895 0.083895 0.083895
0.108798 0.108798 0.108798
0.137907 0.137907 0.137907
0.169439 0.169439 0.169439
0.202408 0.202408 0.202408
0.236267 0.236267 0.236267
0.270705 0.270705 0.270705
0.123042 0.123042 0.123042
0.127707 0.127707 0.127707
0.138060 0.138060 0.138060
0.154428 0.154428 0.154428
0.175823 0.175823 0.175823
0.201024 0.201024 0.201024
0.228978 0.228978 0.228978
0.258892 0.258892 0.258892
0.290208 0.290208 0.290208
0.190569 0.190569 0.190569
0.193516 0.193516 0.193516
0.200265 0.200265 0.200265
0.211484 0.211484 0.211484
0.227033 0.227033 0.227033
0.246427 0.246427 0.246427
0.269041 0.269041 0.269041
0.294254 0.294254 0.294254
0.321524 0.321524 0.321524
0.258544 0.258544 0.258544
0.260622 0.260622 0.260622
0.265441 0.265441 0.265441
0.273626 0.273626 0.273626
0.285306 0.285306 0.285306
0.300362 0.300362 0.300362
0.318512 0.318512 0.318512
0.339391 0.339391 0.339391
0.362611 0.362611 0.362611
0.326702 0.326702 0.326702
0.328271 0.328271 0.328271
0.331932 0.331932 0.331932
0.338218 0.338218 0.338218
0.347326 0.347326 0.347326
0.359291 0.359291 0.359291
0.374021 0.374021 0.374021
0.391332 0.391332 0.391332
0.410991 0.410991 0.410991
0.394949 0.394949 0.394949
0.396190 0.396190 0.396190
0.399096 0.399096 0.399096
0.404114 0.404114 0.404114
0.411451 0.411451 0.411451
0.501654 0.501654 0.501654
0.518445 0.518445 0.518445
0.538466 0.538466 0.538466
0.561544 0.561544 0.561544
0.559721 0.559721 0.559721
0.561123 0.561123 0.561123
0.564411 0.564411 0.564411
0.570111 0.570111 0.570111
0.578489 0.578489 0.578489
0.589698 0.589698 0.589698
0.603803 0.603803 0.603803
0.620787 0.620787 0.620787
0.640571 0.640571 0.640571
0.654079 0.654079 0.654079
0.655255 0.655255 0.655255
0.658016 0.658016 0.658016
0.662814 0.662814 0.662814
0.669889 0.669889 0.669889
0.679402 0.679402 0.679402
0.691442 0.691442 0.691442
0.706037 0.706037 0.706037
0.723167 0.723167 0.723167
0.024778 0.024778 0.024778
0.038302 0.038302 0.038302
0.062783 0.062783 0.062783
0.093001 0.093001 0.093001
0.125814 0.125814 0.125814
0.159895 0.159895 0.159895
0.194660 0.194660 0.194660
0.229826 0.229826 0.229826
0.265244 0.265244 0.265244
0.068634 0.068634 0.068634
0.076443 0.076443 0.076443
0.092530 0.092530 0.092530
0.115659 0.115659 0.115659
0.143353 0.143353 0.143353
0.173832 0.173832 0.173832
0.206022 0.206022 0.206022
0.239298 0.239298 0.239298
0.273290 0.273290 0.273290
0.129143 0.129143 0.129143
0.133589 0.133589 0.133589
0.143500 0.143500 0.143500
0.159275 0.159275 0.159275
0.180044 0.180044 0.180044
0.204666 0.204666 0.204666
0.232120 0.232120 0.232120
0.261616 0.261616 0.261616
0.292587 0.292587 0.292587
0.194434 0.194434 0.194434
0.197315 0.197315 0.197315
0.203922 0.203922 0.203922
0.214924 0.214924 0.214924
0.230206 0.230206 0.230206
0.249313 0.249313 0.249313
0.271644 0.271644 0.271644
0.296593 0.296593 0.296593
0.323626 0.323626 0.323626
0.261273 0.261273 0.261273
0.263325 0.263325 0.263325
0.268086 0.268086 0.268086
0.276178 0.276178 0.276178
0.287734 0.287734 0.287734
0.302645 0.302645 0.302645
0.320639 0.320639 0.320639
0.341359 0.341359 0.341359
0.364425 0.364425 0.364425
0.328763 0.328763 0.328763
0.330320 0.330320 0.330320
0.333954 0.333954 0.333954
0.340194 0.340194 0.340194
0.349239 0.349239 0.349239
0.361126 0.361126 0.361126
0.375767 0.375767 0.375767
0.392983 0.392983 0.392983
0.412544 0.412544 0.412544
0.396580 0.396580 0.396580
0.397815 0.397815 0.397815
0.400706 0.400706 0.400706
0.405700 0.405700 0.405700
0.413001 0.413001 0.413001
0.503733 0.503733 0.503733
0.520450 0.520450 0.520450
0.540390 0.540390 0.540390
0.563380 0.563380 0.563380
0.561564 0.561564 0.561564
0.562961 0.562961 0.562961
0.566238 0.566238 0.566238
0.571917 0.571917 0.571917
0.580265 0.580265 0.580265
0.591437 0.591437 0.591437
0.605496 0.605496 0.605496
0.622428 0.622428 0.622428
0.642155 0.642155 0.642155
0.655625 0.655625 0.655625
0.656798 0.656798 0.656798
0.659552 0.659552 0.659552
0.664336 0.664336 0.664336
0.671394 0.671394 0.671394
0.680882 0.680882 0.680882
0.692892 0.692892 0.692892
0.707453 0.707453 0.707453
0.724544 0.724544 0.724544
0.053695 0.053695 0.053695
0.063025 0.063025 0.063025
0.081481 0.081481 0.081481
0.106918 0.106918 0.106918
0.136433 0.136433 0.136433
0.168260 0.168260 0.168260
0.201443 0.201443 0.201443
0.235461 0.235461 0.235461
0.270019 0.270019 0.270019
0.086222 0.086222 0.086222
0.092703 0.092703 0.092703
0.106506 0.106506 0.106506
0.127149 0.127149 0.127149
0.152701 0.152701 0.152701
0.181495 0.181495 0.181495
0.212394 0.212394 0.212394
0.244679 0.244679 0.244679
0.277901 0.277901 0.277901
0.139499 0.139499 0.139499
0.143611 0.143611 0.143611
0.152839 0.152839 0.152839
0.167674 0.167674 0.167674
0.187425 0.187425 0.187425
0.211085 0.211085 0.211085
0.237691 0.237691 0.237691
0.266469 0.266469 0.266469
0.296840 0.296840 0.296840
0.201226 0.201226 0.201226
0.203998 0.203998 0.203998
0.210367 0.210367 0.210367
0.221002 0.221002 0.221002
0.235830 0.235830 0.235830
0.254446 0.254446 0.254446
0.276288 0.276288 0.276288
0.300778 0.300778 0.300778
0.327394 0.327394 0.327394
0.266133 0.266133 0.266133
0.268141 0.268141 0.268141
0.272802 0.272802 0.272802
0.280732 0.280732 0.280732
0.292073 0.292073 0.292073
0.306730 0.306730 0.306730
0.324449 0.324449 0.324449
0.344890 0.344890 0.344890
0.367684 0.367684 0.367684
0.332460 0.332460 0.332460
0.333996 0.333996 0.333996
0.337581 0.337581 0.337581
0.343740 0.343740 0.343740
0.352673 0.352673 0.352673
0.364422 0.364422 0.364422
0.378905 0.378905 0.378905
0.395952 0.395952 0.395952
0.415338 0.415338 0.415338
0.399516 0.399516 0.399516
0.400740 0.400740 0.400740
0.403604 0.403604 0.403604
0.408553 0.408553 0.408553
0.415792 0.415792 0.415792
0.507476 0.507476 0.507476
0.524063 0.524063 0.524063
0.543858 0.543858 0.543858
0.566692 0.566692 0.566692
0.564888 0.564888 0.564888
0.566276 0.566276 0.566276
0.569531 0.569531 0.569531
0.575174 0.575174 0.575174
0.583470 0.583470 0.583470
0.594574 0.594574 0.594574
0.608552 0.608552 0.608552
0.625390 0.625390 0.625390
0.645013 0.645013 0.645013
0.658417 0.658417 0.658417
0.659584 0.659584 0.659584
0.662324 0.662324 0.662324
0.667086 0.667086 0.667086
0.674110 0.674110 0.674110
0.683556 0.683556 0.683556
0.695512 0.695512 0.695512
0.710010 0.710010 0.710010
0.727032 0.727032 0.727032
0.083296 0.083296 0.083296
0.089971 0.089971 0.089971
0.104120 0.104120 0.104120
0.125157 0.125157 0.125157
0.151062 0.151062 0.151062
0.180140 0.180140 0.180140
0.211261 0.211261 0.211261
0.243719 0.243719 0.243719
0.277076 0.277076 0.277076
0.107923 0.107923 0.107923
0.113216 0.113216 0.113216
0.124805 0.124805 0.124805
0.142780 0.142780 0.142780
0.165808 0.165808 0.165808
0.192473 0.192473 0.192473
0.221659 0.221659 0.221659
0.252584 0.252584 0.252584
0.284724 0.284724 0.284724
0.153820 0.153820 0.153820
0.157535 0.157535 0.157535
0.165934 0.165934 0.165934
0.179597 0.179597 0.179597
0.198036 0.198036 0.198036
0.220414 0.220414 0.220414
0.245862 0.245862 0.245862
0.273635 0.273635 0.273635
0.303154 0.303154 0.303154
0.211055 0.211055 0.211055
0.213683 0.213683 0.213683
0.219731 0.219731 0.219731
0.229868 0.229868 0.229868
0.244074 0.244074 0.244074
0.262005 0.262005 0.262005
0.283158 0.283158 0.283158
0.306994 0.306994 0.306994
0.333010 0.333010 0.333010
0.273310 0.273310 0.273310
0.275255 0.275255 0.275255
0.279775 0.279775 0.279775
0.287475 0.287475 0.287475
0.298508 0.298508 0.298508
0.312802 0.312802 0.312802
0.330127 0.330127 0.330127
0.350163 0.350163 0.350163
0.372561 0.372561 0.372561
0.337973 0.337973 0.337973
0.339478 0.339478 0.339478
0.342993 0.342993 0.342993
0.349035 0.349035 0.349035
0.357805 0.357805 0.357805
0.369353 0.369353 0.369353
0.383605 0.383605 0.383605
0.400403 0.400403 0.400403
0.419533 0.419533 0.419533
0.403918 0.403918 0.403918
0.405125 0.405125 0.405125
0.407951 0.407951 0.407951
0.412835 0.412835 0.412835
0.419981 0.419981 0.419981
0.513098 0.513098 0.513098
0.529493 0.529493 0.529493
0.549071 0.549071 0.549071
0.571675 0.571675 0.571675
0.569888 0.569888 0.569888
0.571262 0.571262 0.571262
0.574486 0.574486 0.574486
0.580075 0.580075 0.580075
0.588294 0.588294 0.588294
0.599298 0.599298 0.599298
0.613154 0.613154 0.613154
0.629852 0.629852 0.629852
0.649322 0.649322 0.649322
0.662626 0.662626 0.662626
0.663784 0.663784 0.663784
0.666505 0.666505 0.666505
0.671233 0.671233 0.671233
0.678207 0.678207 0.678207
0.687588 0.687588 0.687588
0.699464 0.699464 0.699464
0.713870 0.713870 0.713870
0.730786 0.730786 0.730786
0.112897 0.112897 0.112897
0.117968 0.117968 0.117968
0.129126 0.129126 0.129126
0.146550 0.146550 0.146550
0.169028 0.169028 0.169028
0.195209 0.195209 0.195209
0.223991 0.223991 0.223991
0.254588 0.254588 0.254588
0.286463 0.286463 0.286463
0.132209 0.132209 0.132209
0.136551 0.136551 0.136551
0.146252 0.146252 0.146252
0.161740 0.161740 0.161740
0.182202 0.182202 0.182202
0.206536 0.206536 0.206536
0.233739 0.233739 0.233739
0.263023 0.263023 0.263023
0.293818 0.293818 0.293818
0.171474 0.171474 0.171474
0.174782 0.174782 0.174782
0.182315 0.182315 0.182315
0.194712 0.194712 0.194712
0.211681 0.211681 0.211681
0.232568 0.232568 0.232568
0.256624 0.256624 0.256624
0.283159 0.283159 0.283159
0.311603 0.311603 0.311603
0.223799 0.223799 0.223799
0.226256 0.226256 0.226256
0.231926 0.231926 0.231926
0.241472 0.241472 0.241472
0.254925 0.254925 0.254925
0.272016 0.272016 0.272016
0.292311 0.292311 0.292311
0.315318 0.315318 0.315318
0.340565 0.340565 0.340565
0.282846 0.282846 0.282846
0.284714 0.284714 0.284714
0.289057 0.289057 0.289057
0.296468 0.296468 0.296468
0.307113 0.307113 0.307113
0.320943 0.320943 0.320943
0.337761 0.337761 0.337761
0.357274 0.357274 0.357274
0.379155 0.379155 0.379155
0.345395 0.345395 0.345395
0.346860 0.346860 0.346860
0.350284 0.350284 0.350284
0.356173 0.356173 0.356173
0.364732 0.364732 0.364732
0.376017 0.376017 0.376017
0.389968 0.389968 0.389968
0.406439 0.406439 0.406439
0.507221 0.507221 0.507221
0.409889 0.409889 0.409889
0.411074 0.411074 0.411074
0.413849 0.413849 0.413849
0.418646 0.418646 0.418646
0.507829 0.507829 0.507829
0.520738 0.520738 0.520738
0.536877 0.536877 0.536877
0.556169 0.556169 0.556169
0.578464 0.578464 0.578464
0.576701 0.576701 0.576701
0.578057 0.578057 0.578057
0.581238 0.581238 0.581238
0.586755 0.586755 0.586755
0.594870 0.594870 0.594870
0.605740 0.605740 0.605740
0.619433 0.619433 0.619433
0.635944 0.635944 0.635944
0.655207 0.655207 0.655207
0.668377 0.668377 0.668377
0.669524 0.669524 0.669524
0.672218 0.672218 0.672218
0.676900 0.676900 0.676900
0.683808 0.683808 0.683808
0.693100 0.693100 0.693100
0.704869 0.704869 0.704869
0.719149 0.719149 0.719149
0.735924 0.735924 0.735924
0.142497 0.142497 0.142497
0.146520 0.146520 0.146520
0.155564 0.155564 0.155564
0.170142 0.170142 0.170142
0.189609 0.189609 0.189609
0.212996 0.212996 0.212996
0.239358 0.239358 0.239358
0.267926 0.267926 0.267926
0.298121 0.298121 0.298121
0.158105 0.158105 0.158105
0.161714 0.161714 0.161714
0.169888 0.169888 0.169888
0.183227 0.183227 0.183227
0.201294 0.201294 0.201294
0.223301 0.223301 0.223301
0.248406 0.248406 0.248406
0.275879 0.275879 0.275879
0.305139 0.305139 0.305139
0.191765 0.191765 0.191765
0.194691 0.194691 0.194691
0.201395 0.201395 0.201395
0.212546 0.212546 0.212546
0.228012 0.228012 0.228012
0.247317 0.247317 0.247317
0.269843 0.269843 0.269843
0.294974 0.294974 0.294974
0.322171 0.322171 0.322171
0.239180 0.239180 0.239180
0.241455 0.241455 0.241455
0.246720 0.246720 0.246720
0.255622 0.255622 0.255622
0.268243 0.268243 0.268243
0.284389 0.284389 0.284389
0.303699 0.303699 0.303699
0.325739 0.325739 0.325739
0.350074 0.350074 0.350074
0.294677 0.294677 0.294677
0.296455 0.296455 0.296455
0.300594 0.300594 0.300594
0.307670 0.307670 0.307670
0.317862 0.317862 0.317862
0.331149 0.331149 0.331149
0.347364 0.347364 0.347364
0.366251 0.366251 0.366251
0.387508 0.387508 0.387508
0.354745 0.354745 0.354745
0.356163 0.356163 0.356163
0.359477 0.359477 0.359477
0.365184 0.365184 0.365184
0.373488 0.373488 0.373488
0.384454 0.384454 0.384454
0.398038 0.398038 0.398038
0.414109 0.414109 0.414109
0.517238 0.517238 0.517238
0.417480 0.417480 0.417480
0.418638 0.418638 0.418638
0.501864 0.501864 0.501864
0.508343 0.508343 0.508343
0.517833 0.517833 0.517833
0.530476 0.530476 0.530476
0.546298 0.546298 0.546298
0.565234 0.565234 0.565234
0.587145 0.587145 0.587145
0.585412 0.585412 0.585412
0.586745 0.586745 0.586745
0.589874 0.589874 0.589874
0.595302 0.595302 0.595302
0.603287 0.603287 0.603287
0.613988 0.613988 0.613988
0.627478 0.627478 0.627478
0.643754 0.643754 0.643754
0.662758 0.662758 0.662758
0.675759 0.675759 0.675759
0.676891 0.676891 0.676891
0.679552 0.679552 0.679552
0.684176 0.684176 0.684176
0.691000 0.691000 0.691000
0.700182 0.700182 0.700182
0.711815 0.711815 0.711815
0.725936 0.725936 0.725936
0.742532 0.742532 0.742532
0.172098 0.172098 0.172098
0.175393 0.175393 0.175393
0.182898 0.182898 0.182898
0.195254 0.195254 0.195254
0.212173 0.212173 0.212173
0.233010 0.233010 0.233010
0.257017 0.257017 0.257017
0.283509 0.283509 0.283509
0.311915 0.311915 0.311915
0.185030 0.185030 0.185030
0.188074 0.188074 0.188074
0.195036 0.195036 0.195036
0.206579 0.206579 0.206579
0.222522 0.222522 0.222522
0.242336 0.242336 0.242336
0.265361 0.265361 0.265361
0.290954 0.290954 0.290954
0.318565 0.318565 0.318565
0.214072 0.214072 0.214072
0.216657 0.216657 0.216657
0.222612 0.222612 0.222612
0.232605 0.232605 0.232605
0.246626 0.246626 0.246626
0.264354 0.264354 0.264354
0.285300 0.285300 0.285300
0.308938 0.308938 0.308938
0.334771 0.334771 0.334771
0.256854 0.256854 0.256854
0.258947 0.258947 0.258947
0.263802 0.263802 0.263802
0.272047 0.272047 0.272047
0.283805 0.283805 0.283805
0.298952 0.298952 0.298952
0.317199 0.317199 0.317199
0.338177 0.338177 0.338177
0.361492 0.361492 0.361492
0.308657 0.308657 0.308657
0.310338 0.310338 0.310338
0.314256 0.314256 0.314256
0.320968 0.320968 0.320968
0.330663 0.330663 0.330663
0.343347 0.343347 0.343347
0.358889 0.358889 0.358889
0.377067 0.377067 0.377067
0.397609 0.397609 0.397609
0.365983 0.365983 0.365983
0.367348 0.367348 0.367348
0.370538 0.370538 0.370538
0.376038 0.376038 0.376038
0.384051 0.384051 0.384051
0.394653 0.394653 0.394653
0.407814 0.407814 0.407814
0.504726 0.504726 0.504726
0.529429 0.529429 0.529429
0.509253 0.509253 0.509253
0.510809 0.510809 0.510809
0.514454 0.514454 0.514454
0.520762 0.520762 0.520762
0.530009 0.530009 0.530009
0.542340 0.542340 0.542340
0.557791 0.557791 0.557791
0.576307 0.576307 0.576307
0.597765 0.597765 0.597765
0.596066 0.596066 0.596066
0.597373 0.597373 0.597373
0.600439 0.600439 0.600439
0.605760 0.605760 0.605760
0.613592 0.613592 0.613592
0.624093 0.624093 0.624093
0.637339 0.637339 0.637339
0.653336 0.653336 0.653336
0.672030 0.672030 0.672030
0.684828 0.684828 0.684828
0.685943 0.685943 0.685943
0.688563 0.688563 0.688563
0.693118 0.693118 0.693118
0.699841 0.699841 0.699841
0.708890 0.708890 0.708890
0.720360 0.720360 0.720360
0.734290 0.734290 0.734290
0.750670 0.750670 0.750670
0.201699 0.201699 0.201699
0.204464 0.204464 0.204464
0.210817 0.210817 0.210817
0.221427 0.221427 0.221427
0.236224 0.236224 0.236224
0.254806 0.254806 0.254806
0.276614 0.276614 0.276614
0.301073 0.301073 0.301073
0.327660 0.327660 0.327660
0.212634 0.212634 0.212634
0.215239 0.215239 0.215239
0.221239 0.221239 0.221239
0.231300 0.231300 0.231300
0.245408 0.245408 0.245408
0.263233 0.263233 0.263233
0.284277 0.284277 0.284277
0.308009 0.308009 0.308009
0.333929 0.333929 0.333929
0.237903 0.237903 0.237903
0.240192 0.240192 0.240192
0.245489 0.245489 0.245489
0.254442 0.254442 0.254442
0.267129 0.267129 0.267129
0.283350 0.283350 0.283350
0.302740 0.302740 0.302740
0.324859 0.324859 0.324859
0.349269 0.349269 0.349269
0.276464 0.276464 0.276464
0.278383 0.278383 0.278383
0.282843 0.282843 0.282843
0.290446 0.290446 0.290446
0.301348 0.301348 0.301348
0.315486 0.315486 0.315486
0.332641 0.332641 0.332641
0.352503 0.352503 0.352503
0.374728 0.374728 0.374728
0.324595 0.324595 0.324595
0.326176 0.326176 0.326176
0.329865 0.329865 0.329865
0.336199 0.336199 0.336199
0.345373 0.345373 0.345373
0.357419 0.357419 0.357419
0.372240 0.372240 0.372240
0.389650 0.389650 0.389650
0.409410 0.409410 0.409410
0.379025 0.379025 0.379025
0.380332 0.380332 0.380332
0.383388 0.383388 0.383388
0.388662 0.388662 0.388662
0.396358 0.396358 0.396358
0.406562 0.406562 0.406562
0.419256 0.419256 0.419256
0.519817 0.519817 0.519817
0.543770 0.543770 0.543770
0.524202 0.524202 0.524202
0.525709 0.525709 0.525709
0.529242 0.529242 0.529242
0.535359 0.535359 0.535359
0.544333 0.544333 0.544333
0.556314 0.556314 0.556314
0.571345 0.571345 0.571345
0.589387 0.589387 0.589387
0.610328 0.610328 0.610328
0.608669 0.608669 0.608669
0.609945 0.609945 0.609945
0.612941 0.612941 0.612941
0.618140 0.618140 0.618140
0.625796 0.625796 0.625796
0.636069 0.636069 0.636069
0.649037 0.649037 0.649037
0.664712 0.664712 0.664712
0.683048 0.683048 0.683048
0.695612 0.695612 0.695612
0.696708 0.696708 0.696708
0.699281 0.699281 0.699281
0.703755 0.703755 0.703755
0.710362 0.710362 0.710362
0.719257 0.719257 0.719257
0.730538 0.730538 0.730538
0.744245 0.744245 0.744245
0.760375 0.760375 0.760375
