docs/luts/fuji_recipes/AcrosY_BLP_Kodak_Panatomic.cube
TITLE "Fujifilm Recipe: BLP Kodak Panatomic (AcrosY)"
# FilmSim=AcrosY HL=3 SH=3 Col=0 WB=Auto WBR=0 WBB=0
LUT_3D_SIZE 9
DOMAIN_MIN 0.0 0.0 0.0
DOMAIN_MAX 1.0 1.0 1.0
0.000000 0.000000 0.000000
0.029802 0.029802 0.029802
0.083771 0.083771 0.083771
0.137939 0.137939 0.137939
0.192107 0.192107 0.192107
0.246276 0.246276 0.246276
0.300444 0.300444 0.300444
0.354613 0.354613 0.354613
0.408781 0.408781 0.408781
0.078893 0.078893 0.078893
0.093993 0.093993 0.093993
0.124814 0.124814 0.124814
0.166027 0.166027 0.166027
0.212632 0.212632 0.212632
0.262057 0.262057 0.262057
0.313055 0.313055 0.313055
0.364990 0.364990 0.364990
0.417519 0.417519 0.417519
0.167291 0.167291 0.167291
0.174926 0.174926 0.174926
0.192877 0.192877 0.192877
0.220922 0.220922 0.220922
0.256706 0.256706 0.256706
0.297872 0.297872 0.297872
0.342658 0.342658 0.342658
0.389885 0.389885 0.389885
0.438786 0.438786 0.438786
0.255690 0.255690 0.255690
0.260475 0.260475 0.260475
0.272209 0.272209 0.272209
0.291760 0.291760 0.291760
0.318519 0.318519 0.318519
0.351297 0.351297 0.351297
0.388811 0.388811 0.388811
0.429936 0.429936 0.429936
0.542998 0.542998 0.542998
0.344088 0.344088 0.344088
0.347452 0.347452 0.347452
0.355840 0.355840 0.355840
0.370222 0.370222 0.370222
0.390644 0.390644 0.390644
0.416665 0.416665 0.416665
0.509645 0.509645 0.509645
0.554215 0.554215 0.554215
0.603066 0.603066 0.603066
0.432486 0.432486 0.432486
0.435023 0.435023 0.435023
0.501781 0.501781 0.501781
0.515897 0.515897 0.515897
0.536349 0.536349 0.536349
0.563036 0.563036 0.563036
0.595545 0.595545 0.595545
0.633285 0.633285 0.633285
0.675591 0.675591 0.675591
0.602943 0.602943 0.602943
0.605496 0.605496 0.605496
0.611939 0.611939 0.611939
0.623235 0.623235 0.623235
0.639797 0.639797 0.639797
0.661726 0.661726 0.661726
0.688888 0.688888 0.688888
0.720972 0.720972 0.720972
0.757560 0.757560 0.757560
0.715450 0.715450 0.715450
0.717537 0.717537 0.717537
0.722818 0.722818 0.722818
0.732122 0.732122 0.732122
0.745862 0.745862 0.745862
0.764229 0.764229 0.764229
0.787233 0.787233 0.787233
0.814740 0.814740 0.814740
0.846510 0.846510 0.846510
0.827957 0.827957 0.827957
0.829707 0.829707 0.829707
0.834142 0.834142 0.834142
0.841981 0.841981 0.841981
0.853611 0.853611 0.853611
0.869257 0.869257 0.869257
0.889004 0.889004 0.889004
0.912823 0.912823 0.912823
0.940592 0.940592 0.940592
0.008153 0.008153 0.008153
0.037872 0.037872 0.037872
0.087928 0.087928 0.087928
0.140541 0.140541 0.140541
0.193936 0.193936 0.193936
0.247654 0.247654 0.247654
0.301534 0.301534 0.301534
0.355503 0.355503 0.355503
0.409528 0.409528 0.409528
0.083267 0.083267 0.083267
0.097752 0.097752 0.097752
0.127691 0.127691 0.127691
0.168170 0.168170 0.168170
0.214264 0.214264 0.214264
0.263339 0.263339 0.263339
0.314092 0.314092 0.314092
0.365850 0.365850 0.365850
0.418246 0.418246 0.418246
0.169417 0.169417 0.169417
0.176952 0.176952 0.176952
0.194697 0.194697 0.194697
0.222484 0.222484 0.222484
0.258019 0.258019 0.258019
0.298973 0.298973 0.298973
0.343587 0.343587 0.343587
0.390677 0.390677 0.390677
0.439469 0.439469 0.439469
0.257009 0.257009 0.257009
0.261766 0.261766 0.261766
0.273434 0.273434 0.273434
0.292889 0.292889 0.292889
0.319535 0.319535 0.319535
0.352198 0.352198 0.352198
0.389606 0.389606 0.389606
0.430637 0.430637 0.430637
0.543787 0.543787 0.543787
0.345012 0.345012 0.345012
0.348365 0.348365 0.348365
0.356727 0.356727 0.356727
0.371067 0.371067 0.371067
0.391435 0.391435 0.391435
0.417395 0.417395 0.417395
0.510493 0.510493 0.510493
0.554987 0.554987 0.554987
0.603765 0.603765 0.603765
0.433182 0.433182 0.433182
0.435714 0.435714 0.435714
0.502644 0.502644 0.502644
0.516733 0.516733 0.516733
0.537150 0.537150 0.537150
0.563793 0.563793 0.563793
0.596255 0.596255 0.596255
0.633946 0.633946 0.633946
0.676203 0.676203 0.676203
0.603643 0.603643 0.603643
0.606192 0.606192 0.606192
0.612626 0.612626 0.612626
0.623909 0.623909 0.623909
0.640449 0.640449 0.640449
0.662354 0.662354 0.662354
0.689486 0.689486 0.689486
0.721539 0.721539 0.721539
0.758094 0.758094 0.758094
0.716022 0.716022 0.716022
0.718107 0.718107 0.718107
0.723383 0.723383 0.723383
0.732679 0.732679 0.732679
0.746406 0.746406 0.746406
0.764757 0.764757 0.764757
0.787743 0.787743 0.787743
0.815229 0.815229 0.815229
0.846977 0.846977 0.846977
0.828436 0.828436 0.828436
0.830185 0.830185 0.830185
0.834617 0.834617 0.834617
0.842450 0.842450 0.842450
0.854073 0.854073 0.854073
0.869708 0.869708 0.869708
0.889443 0.889443 0.889443
0.913248 0.913248 0.913248
0.941002 0.941002 0.941002
0.028905 0.028905 0.028905
0.055065 0.055065 0.055065
0.097782 0.097782 0.097782
0.146947 0.146947 0.146947
0.198504 0.198504 0.198504
0.251123 0.251123 0.251123
0.304286 0.304286 0.304286
0.357759 0.357759 0.357759
0.411422 0.411422 0.411422
0.093571 0.093571 0.093571
0.106756 0.106756 0.106756
0.134731 0.134731 0.134731
0.173496 0.173496 0.173496
0.218354 0.218354 0.218354
0.266569 0.266569 0.266569
0.316713 0.316713 0.316713
0.368027 0.368027 0.368027
0.420091 0.420091 0.420091
0.174702 0.174702 0.174702
0.181998 0.181998 0.181998
0.199246 0.199246 0.199246
0.226405 0.226405 0.226405
0.261327 0.261327 0.261327
0.301753 0.301753 0.301753
0.345938 0.345938 0.345938
0.392685 0.392685 0.392685
0.501531 0.501531 0.501531
0.260332 0.260332 0.260332
0.265018 0.265018 0.265018
0.276525 0.276525 0.276525
0.295739 0.295739 0.295739
0.322102 0.322102 0.322102
0.354479 0.354479 0.354479
0.391621 0.391621 0.391621
0.432416 0.432416 0.432416
0.545791 0.545791 0.545791
0.347351 0.347351 0.347351
0.350677 0.350677 0.350677
0.358973 0.358973 0.358973
0.373206 0.373206 0.373206
0.393438 0.393438 0.393438
0.419244 0.419244 0.419244
0.512645 0.512645 0.512645
0.556944 0.556944 0.556944
0.605542 0.605542 0.605542
0.434947 0.434947 0.434947
0.437467 0.437467 0.437467
0.504834 0.504834 0.504834
0.518857 0.518857 0.518857
0.539182 0.539182 0.539182
0.565716 0.565716 0.565716
0.598058 0.598058 0.598058
0.635624 0.635624 0.635624
0.677758 0.677758 0.677758
0.605420 0.605420 0.605420
0.607961 0.607961 0.607961
0.614373 0.614373 0.614373
0.625618 0.625618 0.625618
0.642107 0.642107 0.642107
0.663947 0.663947 0.663947
0.691006 0.691006 0.691006
0.722978 0.722978 0.722978
0.759451 0.759451 0.759451
0.717475 0.717475 0.717475
0.719555 0.719555 0.719555
0.724818 0.724818 0.724818
0.734092 0.734092 0.734092
0.747789 0.747789 0.747789
0.766100 0.766100 0.766100
0.789038 0.789038 0.789038
0.816472 0.816472 0.816472
0.848163 0.848163 0.848163
0.829654 0.829654 0.829654
0.831400 0.831400 0.831400
0.835825 0.835825 0.835825
0.843644 0.843644 0.843644
0.855247 0.855247 0.855247
0.870857 0.870857 0.870857
0.890560 0.890560 0.890560
0.914329 0.914329 0.914329
0.942044 0.942044 0.942044
0.060180 0.060180 0.060180
0.078439 0.078439 0.078439
0.113357 0.113357 0.113357
0.157693 0.157693 0.157693
0.206370 0.206370 0.206370
0.257174 0.257174 0.257174
0.309121 0.309121 0.309121
0.361738 0.361738 0.361738
0.414772 0.414772 0.414772
0.109718 0.109718 0.109718
0.121213 0.121213 0.121213
0.146424 0.146424 0.146424
0.182574 0.182574 0.182574
0.225439 0.225439 0.225439
0.272218 0.272218 0.272218
0.321323 0.321323 0.321323
0.371871 0.371871 0.371871
0.423355 0.423355 0.423355
0.183714 0.183714 0.183714
0.190631 0.190631 0.190631
0.207080 0.207080 0.207080
0.233209 0.233209 0.233209
0.267107 0.267107 0.267107
0.306637 0.306637 0.306637
0.350083 0.350083 0.350083
0.396234 0.396234 0.396234
0.505439 0.505439 0.505439
0.266137 0.266137 0.266137
0.270705 0.270705 0.270705
0.281938 0.281938 0.281938
0.300740 0.300740 0.300740
0.326620 0.326620 0.326620
0.358503 0.358503 0.358503
0.395182 0.395182 0.395182
0.435565 0.435565 0.435565
0.549343 0.549343 0.549343
0.351476 0.351476 0.351476
0.354754 0.354754 0.354754
0.362935 0.362935 0.362935
0.376985 0.376985 0.376985
0.396979 0.396979 0.396979
0.422517 0.422517 0.422517
0.516459 0.516459 0.516459
0.560416 0.560416 0.560416
0.608694 0.608694 0.608694
0.438073 0.438073 0.438073
0.500726 0.500726 0.500726
0.508714 0.508714 0.508714
0.522619 0.522619 0.522619
0.542784 0.542784 0.542784
0.569126 0.569126 0.569126
0.601256 0.601256 0.601256
0.638604 0.638604 0.638604
0.680521 0.680521 0.680521
0.608573 0.608573 0.608573
0.611099 0.611099 0.611099
0.617473 0.617473 0.617473
0.628654 0.628654 0.628654
0.645052 0.645052 0.645052
0.666778 0.666778 0.666778
0.693707 0.693707 0.693707
0.725537 0.725537 0.725537
0.761863 0.761863 0.761863
0.720057 0.720057 0.720057
0.722129 0.722129 0.722129
0.727369 0.727369 0.727369
0.736605 0.736605 0.736605
0.750246 0.750246 0.750246
0.768487 0.768487 0.768487
0.791342 0.791342 0.791342
0.818682 0.818682 0.818682
0.850273 0.850273 0.850273
0.831822 0.831822 0.831822
0.833562 0.833562 0.833562
0.837973 0.837973 0.837973
0.845768 0.845768 0.845768
0.857336 0.857336 0.857336
0.872900 0.872900 0.872900
0.892547 0.892547 0.892547
0.916253 0.916253 0.916253
0.943899 0.943899 0.943899
0.091744 0.091744 0.091744
0.105146 0.105146 0.105146
0.133457 0.133457 0.133457
0.172524 0.172524 0.172524
0.217604 0.217604 0.217604
0.265975 0.265975 0.265975
0.316230 0.316230 0.316230
0.367625 0.367625 0.367625
0.419750 0.419750 0.419750
0.130381 0.130381 0.130381
0.140179 0.140179 0.140179
0.162363 0.162363 0.162363
0.195362 0.195362 0.195362
0.235641 0.235641 0.235641
0.280464 0.280464 0.280464
0.328112 0.328112 0.328112
0.377564 0.377564 0.377564
0.428209 0.428209 0.428209
0.196419 0.196419 0.196419
0.202854 0.202854 0.202854
0.218272 0.218272 0.218272
0.243035 0.243035 0.243035
0.275535 0.275535 0.275535
0.313813 0.313813 0.313813
0.356209 0.356209 0.356209
0.401502 0.401502 0.401502
0.511257 0.511257 0.511257
0.274600 0.274600 0.274600
0.279004 0.279004 0.279004
0.289856 0.289856 0.289856
0.308082 0.308082 0.308082
0.333278 0.333278 0.333278
0.364456 0.364456 0.364456
0.400467 0.400467 0.400467
0.500318 0.500318 0.500318
0.554640 0.554640 0.554640
0.357572 0.357572 0.357572
0.360783 0.360783 0.360783
0.368799 0.368799 0.368799
0.382584 0.382584 0.382584
0.402234 0.402234 0.402234
0.427382 0.427382 0.427382
0.522138 0.522138 0.522138
0.565594 0.565594 0.565594
0.613403 0.613403 0.613403
0.503468 0.503468 0.503468
0.506604 0.506604 0.506604
0.514490 0.514490 0.514490
0.528222 0.528222 0.528222
0.548153 0.548153 0.548153
0.574213 0.574213 0.574213
0.606032 0.606032 0.606032
0.643057 0.643057 0.643057
0.684654 0.684654 0.684654
0.613283 0.613283 0.613283
0.615786 0.615786 0.615786
0.622104 0.622104 0.622104
0.633189 0.633189 0.633189
0.649453 0.649453 0.649453
0.671012 0.671012 0.671012
0.697747 0.697747 0.697747
0.729368 0.729368 0.729368
0.765476 0.765476 0.765476
0.723922 0.723922 0.723922
0.725981 0.725981 0.725981
0.731188 0.731188 0.731188
0.740367 0.740367 0.740367
0.753927 0.753927 0.753927
0.772063 0.772063 0.772063
0.794793 0.794793 0.794793
0.821994 0.821994 0.821994
0.853436 0.853436 0.853436
0.835071 0.835071 0.835071
0.836803 0.836803 0.836803
0.841193 0.841193 0.841193
0.848952 0.848952 0.848952
0.860467 0.860467 0.860467
0.875963 0.875963 0.875963
0.895528 0.895528 0.895528
0.919140 0.919140 0.919140
0.946681 0.946681 0.946681
0.123308 0.123308 0.123308
0.133638 0.133638 0.133638
0.156798 0.156798 0.156798
0.190847 0.190847 0.190847
0.232011 0.232011 0.232011
0.277515 0.277515 0.277515
0.325676 0.325676 0.325676
0.375517 0.375517 0.375517
0.426462 0.426462 0.426462
0.154208 0.154208 0.154208
0.162510 0.162510 0.162510
0.181811 0.181811 0.181811
0.211508 0.211508 0.211508
0.248853 0.248853 0.248853
0.291325 0.291325 0.291325
0.337155 0.337155 0.337155
0.385205 0.385205 0.385205
0.434757 0.434757 0.434757
0.212476 0.212476 0.212476
0.218378 0.218378 0.218378
0.232632 0.232632 0.232632
0.255804 0.255804 0.255804
0.286620 0.286620 0.286620
0.323345 0.323345 0.323345
0.364407 0.364407 0.364407
0.408590 0.408590 0.408590
0.519117 0.519117 0.519117
0.285728 0.285728 0.285728
0.289931 0.289931 0.289931
0.300313 0.300313 0.300313
0.317823 0.317823 0.317823
0.342155 0.342155 0.342155
0.372431 0.372431 0.372431
0.407578 0.407578 0.407578
0.508370 0.508370 0.508370
0.561813 0.561813 0.561813
0.365733 0.365733 0.365733
0.368856 0.368856 0.368856
0.376661 0.376661 0.376661
0.390103 0.390103 0.390103
0.409307 0.409307 0.409307
0.433946 0.433946 0.433946
0.529816 0.529816 0.529816
0.572609 0.572609 0.572609
0.619795 0.619795 0.619795
0.511464 0.511464 0.511464
0.514545 0.514545 0.514545
0.522295 0.522295 0.522295
0.535801 0.535801 0.535801
0.555422 0.555422 0.555422
0.581109 0.581109 0.581109
0.612514 0.612514 0.612514
0.649108 0.649108 0.649108
0.690276 0.690276 0.690276
0.619676 0.619676 0.619676
0.622149 0.622149 0.622149
0.628393 0.628393 0.628393
0.639350 0.639350 0.639350
0.655435 0.655435 0.655435
0.676769 0.676769 0.676769
0.703244 0.703244 0.703244
0.734584 0.734584 0.734584
0.770399 0.770399 0.770399
0.729185 0.729185 0.729185
0.731225 0.731225 0.731225
0.736389 0.736389 0.736389
0.745490 0.745490 0.745490
0.758940 0.758940 0.758940
0.776935 0.776935 0.776935
0.799498 0.799498 0.799498
0.826512 0.826512 0.826512
0.857752 0.857752 0.857752
0.839503 0.839503 0.839503
0.841224 0.841224 0.841224
0.845585 0.845585 0.845585
0.853296 0.853296 0.853296
0.864740 0.864740 0.864740
0.880144 0.880144 0.880144
0.899597 0.899597 0.899597
0.923081 0.923081 0.923081
0.950481 0.950481 0.950481
0.154872 0.154872 0.154872
0.163138 0.163138 0.163138
0.182367 0.182367 0.182367
0.211978 0.211978 0.211978
0.249242 0.249242 0.249242
0.291648 0.291648 0.291648
0.337426 0.337426 0.337426
0.385434 0.385434 0.385434
0.434954 0.434954 0.434954
0.180174 0.180174 0.180174
0.187236 0.187236 0.187236
0.203992 0.203992 0.203992
0.230520 0.230520 0.230520
0.264816 0.264816 0.264816
0.304698 0.304698 0.304698
0.348435 0.348435 0.348435
0.394821 0.394821 0.394821
0.503882 0.503882 0.503882
0.231396 0.231396 0.231396
0.236760 0.236760 0.236760
0.249813 0.249813 0.249813
0.271289 0.271289 0.271289
0.300243 0.300243 0.300243
0.335194 0.335194 0.335194
0.374689 0.374689 0.374689
0.417541 0.417541 0.417541
0.529094 0.529094 0.529094
0.299400 0.299400 0.299400
0.303377 0.303377 0.303377
0.313226 0.313226 0.313226
0.329913 0.329913 0.329913
0.353240 0.353240 0.353240
0.382447 0.382447 0.382447
0.416555 0.416555 0.416555
0.518581 0.518581 0.518581
0.570942 0.570942 0.570942
0.375970 0.375970 0.375970
0.378989 0.378989 0.378989
0.386542 0.386542 0.386542
0.399573 0.399573 0.399573
0.418238 0.418238 0.418238
0.502874 0.502874 0.502874
0.539567 0.539567 0.539567
0.581542 0.581542 0.581542
0.627953 0.627953 0.627953
0.521607 0.521607 0.521607
0.524620 0.524620 0.524620
0.532204 0.532204 0.532204
0.545431 0.545431 0.545431
0.564670 0.564670 0.564670
0.589894 0.589894 0.589894
0.620784 0.620784 0.620784
0.656840 0.656840 0.656840
0.697471 0.697471 0.697471
0.627836 0.627836 0.627836
0.630272 0.630272 0.630272
0.636422 0.636422 0.636422
0.647220 0.647220 0.647220
0.663080 0.663080 0.663080
0.684133 0.684133 0.684133
0.710283 0.710283 0.710283
0.741268 0.741268 0.741268
0.776714 0.776714 0.776714
0.735928 0.735928 0.735928
0.737946 0.737946 0.737946
0.743053 0.743053 0.743053
0.752058 0.752058 0.752058
0.765369 0.765369 0.765369
0.783186 0.783186 0.783186
0.805538 0.805538 0.805538
0.832313 0.832313 0.832313
0.863298 0.863298 0.863298
0.845196 0.845196 0.845196
0.846903 0.846903 0.846903
0.851228 0.851228 0.851228
0.858877 0.858877 0.858877
0.870232 0.870232 0.870232
0.885518 0.885518 0.885518
0.904830 0.904830 0.904830
0.928150 0.928150 0.928150
0.955371 0.955371 0.955371
0.186436 0.186436 0.186436
0.193244 0.193244 0.193244
0.209464 0.209464 0.209464
0.235292 0.235292 0.235292
0.268885 0.268885 0.268885
0.308146 0.308146 0.308146
0.351368 0.351368 0.351368
0.397336 0.397336 0.397336
0.506655 0.506655 0.506655
0.207590 0.207590 0.207590
0.213646 0.213646 0.213646
0.228239 0.228239 0.228239
0.251880 0.251880 0.251880
0.283198 0.283198 0.283198
0.320392 0.320392 0.320392
0.361860 0.361860 0.361860
0.406383 0.406383 0.406383
0.516666 0.516666 0.516666
0.252671 0.252671 0.252671
0.257522 0.257522 0.257522
0.269408 0.269408 0.269408
0.289184 0.289184 0.289184
0.316204 0.316204 0.316204
0.349245 0.349245 0.349245
0.387002 0.387002 0.387002
0.428342 0.428342 0.428342
0.541204 0.541204 0.541204
0.315413 0.315413 0.315413
0.319150 0.319150 0.319150
0.328429 0.328429 0.328429
0.344228 0.344228 0.344228
0.366449 0.366449 0.366449
0.394461 0.394461 0.394461
0.427388 0.427388 0.427388
0.530965 0.530965 0.530965
0.582060 0.582060 0.582060
0.388233 0.388233 0.388233
0.391135 0.391135 0.391135
0.398403 0.398403 0.398403
0.410968 0.410968 0.410968
0.429018 0.429018 0.429018
0.515686 0.515686 0.515686
0.551416 0.551416 0.551416
0.592431 0.592431 0.592431
0.637925 0.637925 0.637925
0.533911 0.533911 0.533911
0.536846 0.536846 0.536846
0.544236 0.544236 0.544236
0.557137 0.557137 0.557137
0.575928 0.575928 0.575928
0.600607 0.600607 0.600607
0.630889 0.630889 0.630889
0.666306 0.666306 0.666306
0.706294 0.706294 0.706294
0.637811 0.637811 0.637811
0.640202 0.640202 0.640202
0.646241 0.646241 0.646241
0.656849 0.656849 0.656849
0.672442 0.672442 0.672442
0.693158 0.693158 0.693158
0.718919 0.718919 0.718919
0.749478 0.749478 0.749478
0.784478 0.784478 0.784478
0.744209 0.744209 0.744209
0.746200 0.746200 0.746200
0.751240 0.751240 0.751240
0.760128 0.760128 0.760128
0.773272 0.773272 0.773272
0.790874 0.790874 0.790874
0.812970 0.812970 0.812970
0.839458 0.839458 0.839458
0.870132 0.870132 0.870132
0.852208 0.852208 0.852208
0.853898 0.853898 0.853898
0.858181 0.858181 0.858181
0.865754 0.865754 0.865754
0.877000 0.877000 0.877000
0.892144 0.892144 0.892144
0.911283 0.911283 0.911283
0.934405 0.934405 0.934405
0.961407 0.961407 0.961407
0.218000 0.218000 0.218000
0.223735 0.223735 0.223735
0.237621 0.237621 0.237621
0.260279 0.260279 0.260279
0.290537 0.290537 0.290537
0.326738 0.326738 0.326738
0.367341 0.367341 0.367341
0.411137 0.411137 0.411137
0.521951 0.521951 0.521951
0.236002 0.236002 0.236002
0.241247 0.241247 0.241247
0.254032 0.254032 0.254032
0.275122 0.275122 0.275122
0.303644 0.303644 0.303644
0.338173 0.338173 0.338173
0.377289 0.377289 0.377289
0.419814 0.419814 0.419814
0.531636 0.531636 0.531636
0.275835 0.275835 0.275835
0.280216 0.280216 0.280216
0.291013 0.291013 0.291013
0.309159 0.309159 0.309159
0.334256 0.334256 0.334256
0.365332 0.365332 0.365332
0.401247 0.401247 0.401247
0.501200 0.501200 0.501200
0.555425 0.555425 0.555425
0.333517 0.333517 0.333517
0.337011 0.337011 0.337011
0.345710 0.345710 0.345710
0.360590 0.360590 0.360590
0.381650 0.381650 0.381650
0.408383 0.408383 0.408383
0.500029 0.500029 0.500029
0.545490 0.545490 0.545490
0.595164 0.595164 0.595164
0.402423 0.402423 0.402423
0.405199 0.405199 0.405199
0.412159 0.412159 0.412159
0.424219 0.424219 0.424219
0.502029 0.502029 0.502029
0.530688 0.530688 0.530688
0.565342 0.565342 0.565342
0.605275 0.605275 0.605275
0.649725 0.649725 0.649725
0.548347 0.548347 0.548347
0.551195 0.551195 0.551195
0.558368 0.558368 0.558368
0.570903 0.570903 0.570903
0.589190 0.589190 0.589190
0.613252 0.613252 0.613252
0.642841 0.642841 0.642841
0.677525 0.677525 0.677525
0.716774 0.716774 0.716774
0.649613 0.649613 0.649613
0.651953 0.651953 0.651953
0.657865 0.657865 0.657865
0.668256 0.668256 0.668256
0.683542 0.683542 0.683542
0.703871 0.703871 0.703871
0.729182 0.729182 0.729182
0.759247 0.759247 0.759247
0.793730 0.793730 0.793730
0.754060 0.754060 0.754060
0.756020 0.756020 0.756020
0.760981 0.760981 0.760981
0.769734 0.769734 0.769734
0.782683 0.782683 0.782683
0.800036 0.800036 0.800036
0.821833 0.821833 0.821833
0.847985 0.847985 0.847985
0.878296 0.878296 0.878296
0.860581 0.860581 0.860581
0.862250 0.862250 0.862250
0.866482 0.866482 0.866482
0.873968 0.873968 0.873968
0.885085 0.885085 0.885085
0.900063 0.900063 0.900063
0.918999 0.918999 0.918999
0.941887 0.941887 0.941887
0.968632 0.968632 0.968632
