docs/luts/fuji_recipes/AcrosR_LC_Tri-X.cube
TITLE "Fujifilm Recipe: LC Tri-X (AcrosR)"
# FilmSim=AcrosR HL=3 SH=4 Col=0 WB=Auto WBR=0 WBB=0
LUT_3D_SIZE 33
DOMAIN_MIN 0.0 0.0 0.0
DOMAIN_MAX 1.0 1.0 1.0
0.000000 0.000000 0.000000
0.008067 0.008067 0.008067
0.017196 0.017196 0.017196
0.030285 0.030285 0.030285
0.046281 0.046281 0.046281
0.062337 0.062337 0.062337
0.078392 0.078392 0.078392
0.094448 0.094448 0.094448
0.110504 0.110504 0.110504
0.126560 0.126560 0.126560
0.142615 0.142615 0.142615
0.158671 0.158671 0.158671
0.174727 0.174727 0.174727
0.190782 0.190782 0.190782
0.206838 0.206838 0.206838
0.222894 0.222894 0.222894
0.238950 0.238950 0.238950
0.255005 0.255005 0.255005
0.271061 0.271061 0.271061
0.287117 0.287117 0.287117
0.303172 0.303172 0.303172
0.319228 0.319228 0.319228
0.335284 0.335284 0.335284
0.351340 0.351340 0.351340
0.367395 0.367395 0.367395
0.383451 0.383451 0.383451
0.399507 0.399507 0.399507
0.415562 0.415562 0.415562
0.515491 0.515491 0.515491
0.535421 0.535421 0.535421
0.535421 0.535421 0.535421
0.535421 0.535421 0.535421
0.535421 0.535421 0.535421
0.020531 0.020531 0.020531
0.028599 0.028599 0.028599
0.037552 0.037552 0.037552
0.048618 0.048618 0.048618
0.061111 0.061111 0.061111
0.074568 0.074568 0.074568
0.088682 0.088682 0.088682
0.103250 0.103250 0.103250
0.118142 0.118142 0.118142
0.133268 0.133268 0.133268
0.148569 0.148569 0.148569
0.164002 0.164002 0.164002
0.179537 0.179537 0.179537
0.195153 0.195153 0.195153
0.210833 0.210833 0.210833
0.226564 0.226564 0.226564
0.242338 0.242338 0.242338
0.258147 0.258147 0.258147
0.273985 0.273985 0.273985
0.289847 0.289847 0.289847
0.305730 0.305730 0.305730
0.321632 0.321632 0.321632
0.337548 0.337548 0.337548
0.353477 0.353477 0.353477
0.369419 0.369419 0.369419
0.385370 0.385370 0.385370
0.401330 0.401330 0.401330
0.417298 0.417298 0.417298
0.517697 0.517697 0.517697
0.537535 0.537535 0.537535
0.537535 0.537535 0.537535
0.537535 0.537535 0.537535
0.537535 0.537535 0.537535
0.042895 0.042895 0.042895
0.049402 0.049402 0.049402
0.056088 0.056088 0.056088
0.064723 0.064723 0.064723
0.075017 0.075017 0.075017
0.086592 0.086592 0.086592
0.099136 0.099136 0.099136
0.112407 0.112407 0.112407
0.126225 0.126225 0.126225
0.140458 0.140458 0.140458
0.155012 0.155012 0.155012
0.169814 0.169814 0.169814
0.184813 0.184813 0.184813
0.199969 0.199969 0.199969
0.215251 0.215251 0.215251
0.230636 0.230636 0.230636
0.246107 0.246107 0.246107
0.261648 0.261648 0.261648
0.277249 0.277249 0.277249
0.292900 0.292900 0.292900
0.308594 0.308594 0.308594
0.324325 0.324325 0.324325
0.340087 0.340087 0.340087
0.355877 0.355877 0.355877
0.371691 0.371691 0.371691
0.387527 0.387527 0.387527
0.403380 0.403380 0.403380
0.419251 0.419251 0.419251
0.520181 0.520181 0.520181
0.539915 0.539915 0.539915
0.539915 0.539915 0.539915
0.539915 0.539915 0.539915
0.539915 0.539915 0.539915
0.066590 0.066590 0.066590
0.071367 0.071367 0.071367
0.076464 0.076464 0.076464
0.083292 0.083292 0.083292
0.091736 0.091736 0.091736
0.101556 0.101556 0.101556
0.112508 0.112508 0.112508
0.124372 0.124372 0.124372
0.136965 0.136965 0.136965
0.150138 0.150138 0.150138
0.163776 0.163776 0.163776
0.177786 0.177786 0.177786
0.192096 0.192096 0.192096
0.206652 0.206652 0.206652
0.221409 0.221409 0.221409
0.236333 0.236333 0.236333
0.251395 0.251395 0.251395
0.266573 0.266573 0.266573
0.281850 0.281850 0.281850
0.297211 0.297211 0.297211
0.312644 0.312644 0.312644
0.328140 0.328140 0.328140
0.343688 0.343688 0.343688
0.359284 0.359284 0.359284
0.374921 0.374921 0.374921
0.390593 0.390593 0.390593
0.406298 0.406298 0.406298
0.502708 0.502708 0.502708
0.523719 0.523719 0.523719
0.543307 0.543307 0.543307
0.543307 0.543307 0.543307
0.543307 0.543307 0.543307
0.543307 0.543307 0.543307
0.090286 0.090286 0.090286
0.093982 0.093982 0.093982
0.098006 0.098006 0.098006
0.103516 0.103516 0.103516
0.110496 0.110496 0.110496
0.118813 0.118813 0.118813
0.128302 0.128302 0.128302
0.138794 0.138794 0.138794
0.150130 0.150130 0.150130
0.162171 0.162171 0.162171
0.174795 0.174795 0.174795
0.187902 0.187902 0.187902
0.201412 0.201412 0.201412
0.215255 0.215255 0.215255
0.229379 0.229379 0.229379
0.243738 0.243738 0.243738
0.258295 0.258295 0.258295
0.273021 0.273021 0.273021
0.287891 0.287891 0.287891
0.302884 0.302884 0.302884
0.317985 0.317985 0.317985
0.333178 0.333178 0.333178
0.348452 0.348452 0.348452
0.363796 0.363796 0.363796
0.379203 0.379203 0.379203
0.394665 0.394665 0.394665
0.410175 0.410175 0.410175
0.507638 0.507638 0.507638
0.528428 0.528428 0.528428
0.547824 0.547824 0.547824
0.547824 0.547824 0.547824
0.547824 0.547824 0.547824
0.547824 0.547824 0.547824
0.113981 0.113981 0.113981
0.116953 0.116953 0.116953
0.120227 0.120227 0.120227
0.124769 0.124769 0.124769
0.130615 0.130615 0.130615
0.137700 0.137700 0.137700
0.145925 0.145925 0.145925
0.155171 0.155171 0.155171
0.165313 0.165313 0.165313
0.176233 0.176233 0.176233
0.187821 0.187821 0.187821
0.199980 0.199980 0.199980
0.212625 0.212625 0.212625
0.225685 0.225685 0.225685
0.239099 0.239099 0.239099
0.252815 0.252815 0.252815
0.266791 0.266791 0.266791
0.280989 0.280989 0.280989
0.295380 0.295380 0.295380
0.309938 0.309938 0.309938
0.324642 0.324642 0.324642
0.339472 0.339472 0.339472
0.354414 0.354414 0.354414
0.369453 0.369453 0.369453
0.384580 0.384580 0.384580
0.399783 0.399783 0.399783
0.415054 0.415054 0.415054
0.513849 0.513849 0.513849
0.534366 0.534366 0.534366
0.553525 0.553525 0.553525
0.553525 0.553525 0.553525
0.553525 0.553525 0.553525
0.553525 0.553525 0.553525
0.137677 0.137677 0.137677
0.140135 0.140135 0.140135
0.142864 0.142864 0.142864
0.146682 0.146682 0.146682
0.151649 0.151649 0.151649
0.157741 0.157741 0.157741
0.164905 0.164905 0.164905
0.173061 0.173061 0.173061
0.182120 0.182120 0.182120
0.191988 0.191988 0.191988
0.202573 0.202573 0.202573
0.213787 0.213787 0.213787
0.225551 0.225551 0.225551
0.237795 0.237795 0.237795
0.250457 0.250457 0.250457
0.263481 0.263481 0.263481
0.276820 0.276820 0.276820
0.290435 0.290435 0.290435
0.304291 0.304291 0.304291
0.318358 0.318358 0.318358
0.332609 0.332609 0.332609
0.347024 0.347024 0.347024
0.361583 0.361583 0.361583
0.376269 0.376269 0.376269
0.391069 0.391069 0.391069
0.405969 0.405969 0.405969
0.501281 0.501281 0.501281
0.521377 0.521377 0.521377
0.541570 0.541570 0.541570
0.560448 0.560448 0.560448
0.560448 0.560448 0.560448
0.560448 0.560448 0.560448
0.560448 0.560448 0.560448
0.161372 0.161372 0.161372
0.163452 0.163452 0.163452
0.165771 0.165771 0.165771
0.169035 0.169035 0.169035
0.173312 0.173312 0.173312
0.178605 0.178605 0.178605
0.184886 0.184886 0.184886
0.192109 0.192109 0.192109
0.200211 0.200211 0.200211
0.209123 0.209123 0.209123
0.218771 0.218771 0.218771
0.229081 0.229081 0.229081
0.239983 0.239983 0.239983
0.251412 0.251412 0.251412
0.263307 0.263307 0.263307
0.275615 0.275615 0.275615
0.288288 0.288288 0.288288
0.301284 0.301284 0.301284
0.314565 0.314565 0.314565
0.328098 0.328098 0.328098
0.341855 0.341855 0.341855
0.355811 0.355811 0.355811
0.369945 0.369945 0.369945
0.384236 0.384236 0.384236
0.398669 0.398669 0.398669
0.413228 0.413228 0.413228
0.510534 0.510534 0.510534
0.530234 0.530234 0.530234
0.550058 0.550058 0.550058
0.568614 0.568614 0.568614
0.568614 0.568614 0.568614
0.568614 0.568614 0.568614
0.568614 0.568614 0.568614
0.185068 0.185068 0.185068
0.186858 0.186858 0.186858
0.188861 0.188861 0.188861
0.191692 0.191692 0.191692
0.195421 0.195421 0.195421
0.200064 0.200064 0.200064
0.205613 0.205613 0.205613
0.212043 0.212043 0.212043
0.219313 0.219313 0.219313
0.227373 0.227373 0.227373
0.236166 0.236166 0.236166
0.245633 0.245633 0.245633
0.255714 0.255714 0.255714
0.266352 0.266352 0.266352
0.277492 0.277492 0.277492
0.289083 0.289083 0.289083
0.301079 0.301079 0.301079
0.313438 0.313438 0.313438
0.326120 0.326120 0.326120
0.339093 0.339093 0.339093
0.352326 0.352326 0.352326
0.365791 0.365791 0.365791
0.379466 0.379466 0.379466
0.393329 0.393329 0.393329
0.407361 0.407361 0.407361
0.502060 0.502060 0.502060
0.521156 0.521156 0.521156
0.540418 0.540418 0.540418
0.559831 0.559831 0.559831
0.578027 0.578027 0.578027
0.578027 0.578027 0.578027
0.578027 0.578027 0.578027
0.578027 0.578027 0.578027
0.208763 0.208763 0.208763
0.210327 0.210327 0.210327
0.212080 0.212080 0.212080
0.214566 0.214566 0.214566
0.217852 0.217852 0.217852
0.221962 0.221962 0.221962
0.226902 0.226902 0.226902
0.232659 0.232659 0.232659
0.239209 0.239209 0.239209
0.246517 0.246517 0.246517
0.254542 0.254542 0.254542
0.263237 0.263237 0.263237
0.272553 0.272553 0.272553
0.282441 0.282441 0.282441
0.292854 0.292854 0.292854
0.303744 0.303744 0.303744
0.315069 0.315069 0.315069
0.326788 0.326788 0.326788
0.338864 0.338864 0.338864
0.351262 0.351262 0.351262
0.363952 0.363952 0.363952
0.376906 0.376906 0.376906
0.390099 0.390099 0.390099
0.403508 0.403508 0.403508
0.417113 0.417113 0.417113
0.514527 0.514527 0.514527
0.533119 0.533119 0.533119
0.551907 0.551907 0.551907
0.570873 0.570873 0.570873
0.588676 0.588676 0.588676
0.588676 0.588676 0.588676
0.588676 0.588676 0.588676
0.588676 0.588676 0.588676
0.232459 0.232459 0.232459
0.233841 0.233841 0.233841
0.235393 0.235393 0.235393
0.237598 0.237598 0.237598
0.240521 0.240521 0.240521
0.244191 0.244191 0.244191
0.248619 0.248619 0.248619
0.253804 0.253804 0.253804
0.259732 0.259732 0.259732
0.266381 0.266381 0.266381
0.273721 0.273721 0.273721
0.281717 0.281717 0.281717
0.290329 0.290329 0.290329
0.299518 0.299518 0.299518
0.309241 0.309241 0.309241
0.319459 0.319459 0.319459
0.330132 0.330132 0.330132
0.341222 0.341222 0.341222
0.352694 0.352694 0.352694
0.364516 0.364516 0.364516
0.376657 0.376657 0.376657
0.389088 0.389088 0.389088
0.401784 0.401784 0.401784
0.414723 0.414723 0.414723
0.510509 0.510509 0.510509
0.528324 0.528324 0.528324
0.546383 0.546383 0.546383
0.564667 0.564667 0.564667
0.583157 0.583157 0.583157
0.600540 0.600540 0.600540
0.600540 0.600540 0.600540
0.600540 0.600540 0.600540
0.600540 0.600540 0.600540
0.256154 0.256154 0.256154
0.257388 0.257388 0.257388
0.258775 0.258775 0.258775
0.260749 0.260749 0.260749
0.263372 0.263372 0.263372
0.266673 0.266673 0.266673
0.270669 0.270669 0.270669
0.275365 0.275365 0.275365
0.280755 0.280755 0.280755
0.286827 0.286827 0.286827
0.293559 0.293559 0.293559
0.300926 0.300926 0.300926
0.308896 0.308896 0.308896
0.317438 0.317438 0.317438
0.326518 0.326518 0.326518
0.336099 0.336099 0.336099
0.346147 0.346147 0.346147
0.356629 0.356629 0.356629
0.367511 0.367511 0.367511
0.378763 0.378763 0.378763
0.390356 0.390356 0.390356
0.402262 0.402262 0.402262
0.414456 0.414456 0.414456
0.509220 0.509220 0.509220
0.526156 0.526156 0.526156
0.543389 0.543389 0.543389
0.560896 0.560896 0.560896
0.578655 0.578655 0.578655
0.596645 0.596645 0.596645
0.613586 0.613586 0.613586
0.613586 0.613586 0.613586
0.613586 0.613586 0.613586
0.613586 0.613586 0.613586
0.279850 0.279850 0.279850
0.280960 0.280960 0.280960
0.282210 0.282210 0.282210
0.283991 0.283991 0.283991
0.286361 0.286361 0.286361
0.289351 0.289351 0.289351
0.292979 0.292979 0.292979
0.297255 0.297255 0.297255
0.302179 0.302179 0.302179
0.307744 0.307744 0.307744
0.313938 0.313938 0.313938
0.320740 0.320740 0.320740
0.328130 0.328130 0.328130
0.336079 0.336079 0.336079
0.344561 0.344561 0.344561
0.353545 0.353545 0.353545
0.363002 0.363002 0.363002
0.372902 0.372902 0.372902
0.383214 0.383214 0.383214
0.393912 0.393912 0.393912
0.404966 0.404966 0.404966
0.416352 0.416352 0.416352
0.510726 0.510726 0.510726
0.526695 0.526695 0.526695
0.543014 0.543014 0.543014
0.559657 0.559657 0.559657
0.576599 0.576599 0.576599
0.593817 0.593817 0.593817
0.611291 0.611291 0.611291
0.627772 0.627772 0.627772
0.627772 0.627772 0.627772
0.627772 0.627772 0.627772
0.627772 0.627772 0.627772
0.303545 0.303545 0.303545
0.304552 0.304552 0.304552
0.305686 0.305686 0.305686
0.307304 0.307304 0.307304
0.309460 0.309460 0.309460
0.312184 0.312184 0.312184
0.315496 0.315496 0.315496
0.319409 0.319409 0.319409
0.323927 0.323927 0.323927
0.329047 0.329047 0.329047
0.334763 0.334763 0.334763
0.341061 0.341061 0.341061
0.347925 0.347925 0.347925
0.355334 0.355334 0.355334
0.363265 0.363265 0.363265
0.371694 0.371694 0.371694
0.380596 0.380596 0.380596
0.389944 0.389944 0.389944
0.399711 0.399711 0.399711
0.409874 0.409874 0.409874
0.500540 0.500540 0.500540
0.515042 0.515042 0.515042
0.529973 0.529973 0.529973
0.545304 0.545304 0.545304
0.561007 0.561007 0.561007
0.577055 0.577055 0.577055
0.593426 0.593426 0.593426
0.610095 0.610095 0.610095
0.627042 0.627042 0.627042
0.643052 0.643052 0.643052
0.643052 0.643052 0.643052
0.643052 0.643052 0.643052
0.643052 0.643052 0.643052
0.327241 0.327241 0.327241
0.328159 0.328159 0.328159
0.329195 0.329195 0.329195
0.330674 0.330674 0.330674
0.332646 0.332646 0.332646
0.335141 0.335141 0.335141
0.338180 0.338180 0.338180
0.341777 0.341777 0.341777
0.345939 0.345939 0.345939
0.350668 0.350668 0.350668
0.355960 0.355960 0.355960
0.361806 0.361806 0.361806
0.368196 0.368196 0.368196
0.375112 0.375112 0.375112
0.382538 0.382538 0.382538
0.390453 0.390453 0.390453
0.398836 0.398836 0.398836
0.407665 0.407665 0.407665
0.416916 0.416916 0.416916
0.508755 0.508755 0.508755
0.522125 0.522125 0.522125
0.535968 0.535968 0.535968
0.550256 0.550256 0.550256
0.564959 0.564959 0.564959
0.580052 0.580052 0.580052
0.595511 0.595511 0.595511
0.611309 0.611309 0.611309
0.627427 0.627427 0.627427
0.643842 0.643842 0.643842
0.659373 0.659373 0.659373
0.659373 0.659373 0.659373
0.659373 0.659373 0.659373
0.659373 0.659373 0.659373
0.350936 0.350936 0.350936
0.351779 0.351779 0.351779
0.352730 0.352730 0.352730
0.354088 0.354088 0.354088
0.355902 0.355902 0.355902
0.358199 0.358199 0.358199
0.361001 0.361001 0.361001
0.364321 0.364321 0.364321
0.368170 0.368170 0.368170
0.372552 0.372552 0.372552
0.377467 0.377467 0.377467
0.382908 0.382908 0.382908
0.388869 0.388869 0.388869
0.395338 0.395338 0.395338
0.402301 0.402301 0.402301
0.409742 0.409742 0.409742
0.417643 0.417643 0.417643
0.507981 0.507981 0.507981
0.519665 0.519665 0.519665
0.531885 0.531885 0.531885
0.544613 0.544613 0.544613
0.557821 0.557821 0.557821
0.571485 0.571485 0.571485
0.585577 0.585577 0.585577
0.600073 0.600073 0.600073
0.614948 0.614948 0.614948
0.630181 0.630181 0.630181
0.645748 0.645748 0.645748
0.661630 0.661630 0.661630
0.676682 0.676682 0.676682
0.676682 0.676682 0.676682
0.676682 0.676682 0.676682
0.676682 0.676682 0.676682
0.374632 0.374632 0.374632
0.375409 0.375409 0.375409
0.376287 0.376287 0.376287
0.377540 0.377540 0.377540
0.379216 0.379216 0.379216
0.381340 0.381340 0.381340
0.383933 0.383933 0.383933
0.387010 0.387010 0.387010
0.390583 0.390583 0.390583
0.394657 0.394657 0.394657
0.399234 0.399234 0.399234
0.404312 0.404312 0.404312
0.409886 0.409886 0.409886
0.415949 0.415949 0.415949
0.503318 0.503318 0.503318
0.512656 0.512656 0.512656
0.522595 0.522595 0.522595
0.533113 0.533113 0.533113
0.544187 0.544187 0.544187
0.555795 0.555795 0.555795
0.567911 0.567911 0.567911
0.580513 0.580513 0.580513
0.593576 0.593576 0.593576
0.607076 0.607076 0.607076
0.620990 0.620990 0.620990
0.635296 0.635296 0.635296
0.649971 0.649971 0.649971
0.664996 0.664996 0.664996
0.680349 0.680349 0.680349
0.694921 0.694921 0.694921
0.694921 0.694921 0.694921
0.694921 0.694921 0.694921
0.694921 0.694921 0.694921
0.398327 0.398327 0.398327
0.399047 0.399047 0.399047
0.399860 0.399860 0.399860
0.401023 0.401023 0.401023
0.402577 0.402577 0.402577
0.404548 0.404548 0.404548
0.406958 0.406958 0.406958
0.409820 0.409820 0.409820
0.413147 0.413147 0.413147
0.416947 0.416947 0.416947
0.501629 0.501629 0.501629
0.507964 0.507964 0.507964
0.514930 0.514930 0.514930
0.522519 0.522519 0.522519
0.530722 0.530722 0.530722
0.539525 0.539525 0.539525
0.548913 0.548913 0.548913
0.558868 0.558868 0.558868
0.569370 0.569370 0.569370
0.580401 0.580401 0.580401
0.591939 0.591939 0.591939
0.603962 0.603962 0.603962
0.616450 0.616450 0.616450
0.629380 0.629380 0.629380
0.642731 0.642731 0.642731
0.656483 0.656483 0.656483
0.670614 0.670614 0.670614
0.685105 0.685105 0.685105
0.699937 0.699937 0.699937
0.714035 0.714035 0.714035
0.714035 0.714035 0.714035
0.714035 0.714035 0.714035
0.714035 0.714035 0.714035
0.502697 0.502697 0.502697
0.503590 0.503590 0.503590
0.504598 0.504598 0.504598
0.506041 0.506041 0.506041
0.507970 0.507970 0.507970
0.510419 0.510419 0.510419
0.513414 0.513414 0.513414
0.516976 0.516976 0.516976
0.521120 0.521120 0.521120
0.525858 0.525858 0.525858
0.531197 0.531197 0.531197
0.537138 0.537138 0.537138
0.543681 0.543681 0.543681
0.550821 0.550821 0.550821
0.558551 0.558551 0.558551
0.566862 0.566862 0.566862
0.575740 0.575740 0.575740
0.585171 0.585171 0.585171
0.595140 0.595140 0.595140
0.605629 0.605629 0.605629
0.616621 0.616621 0.616621
0.628095 0.628095 0.628095
0.640035 0.640035 0.640035
0.652418 0.652418 0.652418
0.665228 0.665228 0.665228
0.678443 0.678443 0.678443
0.692045 0.692045 0.692045
0.706015 0.706015 0.706015
0.720336 0.720336 0.720336
0.733967 0.733967 0.733967
0.733967 0.733967 0.733967
0.733967 0.733967 0.733967
0.733967 0.733967 0.733967
0.534291 0.534291 0.534291
0.535124 0.535124 0.535124
0.536066 0.536066 0.536066
0.537413 0.537413 0.537413
0.539215 0.539215 0.539215
0.541504 0.541504 0.541504
0.544305 0.544305 0.544305
0.547639 0.547639 0.547639
0.551522 0.551522 0.551522
0.555966 0.555966 0.555966
0.560978 0.560978 0.560978
0.566563 0.566563 0.566563
0.572722 0.572722 0.572722
0.579453 0.579453 0.579453
0.586750 0.586750 0.586750
0.594607 0.594607 0.594607
0.603014 0.603014 0.603014
0.611960 0.611960 0.611960
0.621430 0.621430 0.621430
0.631412 0.631412 0.631412
0.641889 0.641889 0.641889
0.652845 0.652845 0.652845
0.664263 0.664263 0.664263
0.676125 0.676125 0.676125
0.688414 0.688414 0.688414
0.701113 0.701113 0.701113
0.714203 0.714203 0.714203
0.727667 0.727667 0.727667
0.741489 0.741489 0.741489
0.754664 0.754664 0.754664
0.754664 0.754664 0.754664
0.754664 0.754664 0.754664
0.754664 0.754664 0.754664
0.565885 0.565885 0.565885
0.566665 0.566665 0.566665
0.567547 0.567547 0.567547
0.568809 0.568809 0.568809
0.570497 0.570497 0.570497
0.572644 0.572644 0.572644
0.575271 0.575271 0.575271
0.578401 0.578401 0.578401
0.582049 0.582049 0.582049
0.586227 0.586227 0.586227
0.590944 0.590944 0.590944
0.596206 0.596206 0.596206
0.602015 0.602015 0.602015
0.608371 0.608371 0.608371
0.615272 0.615272 0.615272
0.622712 0.622712 0.622712
0.630683 0.630683 0.630683
0.639178 0.639178 0.639178
0.648184 0.648184 0.648184
0.657691 0.657691 0.657691
0.667684 0.667684 0.667684
0.678150 0.678150 0.678150
0.689074 0.689074 0.689074
0.700439 0.700439 0.700439
0.712231 0.712231 0.712231
0.724434 0.724434 0.724434
0.737031 0.737031 0.737031
0.750006 0.750006 0.750006
0.763343 0.763343 0.763343
0.776072 0.776072 0.776072
0.776072 0.776072 0.776072
0.776072 0.776072 0.776072
0.776072 0.776072 0.776072
0.597479 0.597479 0.597479
0.598212 0.598212 0.598212
0.599040 0.599040 0.599040
0.600225 0.600225 0.600225
0.601812 0.601812 0.601812
0.603830 0.603830 0.603830
0.606302 0.606302 0.606302
0.609247 0.609247 0.609247
0.612682 0.612682 0.612682
0.616620 0.616620 0.616620
0.621069 0.621069 0.621069
0.626037 0.626037 0.626037
0.631527 0.631527 0.631527
0.637541 0.637541 0.637541
0.644077 0.644077 0.644077
0.651133 0.651133 0.651133
0.658702 0.658702 0.658702
0.666777 0.666777 0.666777
0.675351 0.675351 0.675351
0.684414 0.684414 0.684414
0.693953 0.693953 0.693953
0.703957 0.703957 0.703957
0.714412 0.714412 0.714412
0.725306 0.725306 0.725306
0.736624 0.736624 0.736624
0.748352 0.748352 0.748352
0.760474 0.760474 0.760474
0.772977 0.772977 0.772977
0.785846 0.785846 0.785846
0.798143 0.798143 0.798143
0.798143 0.798143 0.798143
0.798143 0.798143 0.798143
0.798143 0.798143 0.798143
0.629073 0.629073 0.629073
0.629763 0.629763 0.629763
0.630543 0.630543 0.630543
0.631659 0.631659 0.631659
0.633155 0.633155 0.633155
0.635056 0.635056 0.635056
0.637387 0.637387 0.637387
0.640166 0.640166 0.640166
0.643408 0.643408 0.643408
0.647128 0.647128 0.647128
0.651334 0.651334 0.651334
0.656033 0.656033 0.656033
0.661232 0.661232 0.661232
0.666931 0.666931 0.666931
0.673132 0.673132 0.673132
0.679832 0.679832 0.679832
0.687029 0.687029 0.687029
0.694716 0.694716 0.694716
0.702887 0.702887 0.702887
0.711534 0.711534 0.711534
0.720646 0.720646 0.720646
0.730215 0.730215 0.730215
0.740229 0.740229 0.740229
0.750675 0.750675 0.750675
0.761542 0.761542 0.761542
0.772816 0.772816 0.772816
0.784484 0.784484 0.784484
0.796533 0.796533 0.796533
0.808949 0.808949 0.808949
0.820827 0.820827 0.820827
0.820827 0.820827 0.820827
0.820827 0.820827 0.820827
0.820827 0.820827 0.820827
0.660667 0.660667 0.660667
0.661318 0.661318 0.661318
0.662055 0.662055 0.662055
0.663109 0.663109 0.663109
0.664521 0.664521 0.664521
0.666318 0.666318 0.666318
0.668520 0.668520 0.668520
0.671148 0.671148 0.671148
0.674215 0.674215 0.674215
0.677735 0.677735 0.677735
0.681719 0.681719 0.681719
0.686173 0.686173 0.686173
0.691104 0.691104 0.691104
0.696515 0.696515 0.696515
0.702407 0.702407 0.702407
0.708780 0.708780 0.708780
0.715631 0.715631 0.715631
0.722957 0.722957 0.722957
0.730752 0.730752 0.730752
0.739010 0.739010 0.739010
0.747723 0.747723 0.747723
0.756882 0.756882 0.756882
0.766479 0.766479 0.766479
0.776501 0.776501 0.776501
0.786939 0.786939 0.786939
0.797780 0.797780 0.797780
0.809014 0.809014 0.809014
0.820627 0.820627 0.820627
0.832608 0.832608 0.832608
0.844082 0.844082 0.844082
0.844082 0.844082 0.844082
0.844082 0.844082 0.844082
0.844082 0.844082 0.844082
0.692261 0.692261 0.692261
0.692877 0.692877 0.692877
0.693574 0.693574 0.693574
0.694571 0.694571 0.694571
0.695908 0.695908 0.695908
0.697609 0.697609 0.697609
0.699696 0.699696 0.699696
0.702185 0.702185 0.702185
0.705092 0.705092 0.705092
0.708431 0.708431 0.708431
0.712211 0.712211 0.712211
0.716440 0.716440 0.716440
0.721125 0.721125 0.721125
0.726270 0.726270 0.726270
0.731877 0.731877 0.731877
0.737946 0.737946 0.737946
0.744477 0.744477 0.744477
0.751467 0.751467 0.751467
0.758912 0.758912 0.758912
0.766807 0.766807 0.766807
0.775145 0.775145 0.775145
0.783919 0.783919 0.783919
0.793121 0.793121 0.793121
0.802743 0.802743 0.802743
0.812773 0.812773 0.812773
0.823203 0.823203 0.823203
0.834022 0.834022 0.834022
0.845218 0.845218 0.845218
0.856780 0.856780 0.856780
0.867864 0.867864 0.867864
0.867864 0.867864 0.867864
0.867864 0.867864 0.867864
0.867864 0.867864 0.867864
0.723855 0.723855 0.723855
0.724439 0.724439 0.724439
0.725100 0.725100 0.725100
0.726046 0.726046 0.726046
0.727314 0.727314 0.727314
0.728928 0.728928 0.728928
0.730907 0.730907 0.730907
0.733270 0.733270 0.733270
0.736032 0.736032 0.736032
0.739203 0.739203 0.739203
0.742797 0.742797 0.742797
0.746819 0.746819 0.746819
0.751278 0.751278 0.751278
0.756177 0.756177 0.756177
0.761520 0.761520 0.761520
0.767309 0.767309 0.767309
0.773542 0.773542 0.773542
0.780219 0.780219 0.780219
0.787337 0.787337 0.787337
0.794892 0.794892 0.794892
0.802878 0.802878 0.802878
0.811290 0.811290 0.811290
0.820121 0.820121 0.820121
0.829363 0.829363 0.829363
0.839007 0.839007 0.839007
0.849046 0.849046 0.849046
0.859468 0.859468 0.859468
0.870265 0.870265 0.870265
0.881426 0.881426 0.881426
0.892136 0.892136 0.892136
0.892136 0.892136 0.892136
0.892136 0.892136 0.892136
0.892136 0.892136 0.892136
0.755449 0.755449 0.755449
0.756004 0.756004 0.756004
0.756631 0.756631 0.756631
0.757530 0.757530 0.757530
0.758735 0.758735 0.758735
0.760269 0.760269 0.760269
0.762151 0.762151 0.762151
0.764399 0.764399 0.764399
0.767026 0.767026 0.767026
0.770044 0.770044 0.770044
0.773465 0.773465 0.773465
0.777297 0.777297 0.777297
0.781547 0.781547 0.781547
0.786220 0.786220 0.786220
0.791318 0.791318 0.791318
0.796846 0.796846 0.796846
0.802803 0.802803 0.802803
0.809188 0.809188 0.809188
0.816001 0.816001 0.816001
0.823237 0.823237 0.823237
0.830893 0.830893 0.830893
0.838964 0.838964 0.838964
0.847445 0.847445 0.847445
0.856328 0.856328 0.856328
0.865607 0.865607 0.865607
