docs/luts/fuji_recipes/Acros_VM_Double_A.cube
TITLE "Fujifilm Recipe: VM Double A (Acros)"
# FilmSim=Acros HL=-2 SH=-1 Col=0 WB=Auto WBR=0 WBB=0
LUT_3D_SIZE 33
DOMAIN_MIN 0.0 0.0 0.0
DOMAIN_MAX 1.0 1.0 1.0
0.040000 0.040000 0.040000
0.046378 0.046378 0.046378
0.053595 0.053595 0.053595
0.063944 0.063944 0.063944
0.077839 0.077839 0.077839
0.093586 0.093586 0.093586
0.109324 0.109324 0.109324
0.125062 0.125062 0.125062
0.140799 0.140799 0.140799
0.156537 0.156537 0.156537
0.172275 0.172275 0.172275
0.188012 0.188012 0.188012
0.203750 0.203750 0.203750
0.219487 0.219487 0.219487
0.235225 0.235225 0.235225
0.250963 0.250963 0.250963
0.266700 0.266700 0.266700
0.282438 0.282438 0.282438
0.298176 0.298176 0.298176
0.313913 0.313913 0.313913
0.329651 0.329651 0.329651
0.345388 0.345388 0.345388
0.361126 0.361126 0.361126
0.376864 0.376864 0.376864
0.392601 0.392601 0.392601
0.408339 0.408339 0.408339
0.424077 0.424077 0.424077
0.439814 0.439814 0.439814
0.455552 0.455552 0.455552
0.471289 0.471289 0.471289
0.487027 0.487027 0.487027
0.502765 0.502765 0.502765
0.518502 0.518502 0.518502
0.061456 0.061456 0.061456
0.067834 0.067834 0.067834
0.075051 0.075051 0.075051
0.084996 0.084996 0.084996
0.096506 0.096506 0.096506
0.109091 0.109091 0.109091
0.122435 0.122435 0.122435
0.136319 0.136319 0.136319
0.150594 0.150594 0.150594
0.165157 0.165157 0.165157
0.179936 0.179936 0.179936
0.194880 0.194880 0.194880
0.209953 0.209953 0.209953
0.225127 0.225127 0.225127
0.240383 0.240383 0.240383
0.255704 0.255704 0.255704
0.271079 0.271079 0.271079
0.286499 0.286499 0.286499
0.301956 0.301956 0.301956
0.317445 0.317445 0.317445
0.332960 0.332960 0.332960
0.348498 0.348498 0.348498
0.364055 0.364055 0.364055
0.379630 0.379630 0.379630
0.395220 0.395220 0.395220
0.410822 0.410822 0.410822
0.426437 0.426437 0.426437
0.442061 0.442061 0.442061
0.457694 0.457694 0.457694
0.473335 0.473335 0.473335
0.488984 0.488984 0.488984
0.504639 0.504639 0.504639
0.500274 0.500274 0.500274
0.085297 0.085297 0.085297
0.090780 0.090780 0.090780
0.096532 0.096532 0.096532
0.104107 0.104107 0.104107
0.113310 0.113310 0.113310
0.123833 0.123833 0.123833
0.135397 0.135397 0.135397
0.147770 0.147770 0.147770
0.160769 0.160769 0.160769
0.174254 0.174254 0.174254
0.188120 0.188120 0.188120
0.202287 0.202287 0.202287
0.216693 0.216693 0.216693
0.231292 0.231292 0.231292
0.246047 0.246047 0.246047
0.260932 0.260932 0.260932
0.275923 0.275923 0.275923
0.291003 0.291003 0.291003
0.306159 0.306159 0.306159
0.321378 0.321378 0.321378
0.336651 0.336651 0.336651
0.351972 0.351972 0.351972
0.367332 0.367332 0.367332
0.382728 0.382728 0.382728
0.398155 0.398155 0.398155
0.413608 0.413608 0.413608
0.429086 0.429086 0.429086
0.444584 0.444584 0.444584
0.460102 0.460102 0.460102
0.475636 0.475636 0.475636
0.491185 0.491185 0.491185
0.506748 0.506748 0.506748
0.502129 0.502129 0.502129
0.111386 0.111386 0.111386
0.115393 0.115393 0.115393
0.119724 0.119724 0.119724
0.125610 0.125610 0.125610
0.133001 0.133001 0.133001
0.141729 0.141729 0.141729
0.151600 0.151600 0.151600
0.162429 0.162429 0.162429
0.174046 0.174046 0.174046
0.186310 0.186310 0.186310
0.199100 0.199100 0.199100
0.212323 0.212323 0.212323
0.225899 0.225899 0.225899
0.239768 0.239768 0.239768
0.253879 0.253879 0.253879
0.268193 0.268193 0.268193
0.282676 0.282676 0.282676
0.297303 0.297303 0.297303
0.312053 0.312053 0.312053
0.326907 0.326907 0.326907
0.341851 0.341851 0.341851
0.356873 0.356873 0.356873
0.371963 0.371963 0.371963
0.387112 0.387112 0.387112
0.402313 0.402313 0.402313
0.417559 0.417559 0.417559
0.432846 0.432846 0.432846
0.448169 0.448169 0.448169
0.463525 0.463525 0.463525
0.478908 0.478908 0.478908
0.494318 0.494318 0.494318
0.509751 0.509751 0.509751
0.504771 0.504771 0.504771
0.137476 0.137476 0.137476
0.140568 0.140568 0.140568
0.143966 0.143966 0.143966
0.148664 0.148664 0.148664
0.154688 0.154688 0.154688
0.161957 0.161957 0.161957
0.170357 0.170357 0.170357
0.179758 0.179758 0.179758
0.190029 0.190029 0.190029
0.201046 0.201046 0.201046
0.212697 0.212697 0.212697
0.224886 0.224886 0.224886
0.237530 0.237530 0.237530
0.250559 0.250559 0.250559
0.263914 0.263914 0.263914
0.277548 0.277548 0.277548
0.291418 0.291418 0.291418
0.305491 0.305491 0.305491
0.319740 0.319740 0.319740
0.334139 0.334139 0.334139
0.348670 0.348670 0.348670
0.363316 0.363316 0.363316
0.378061 0.378061 0.378061
0.392895 0.392895 0.392895
0.407806 0.407806 0.407806
0.422786 0.422786 0.422786
0.437827 0.437827 0.437827
0.452923 0.452923 0.452923
0.468067 0.468067 0.468067
0.483255 0.483255 0.483255
0.498483 0.498483 0.498483
0.513747 0.513747 0.513747
0.508289 0.508289 0.508289
0.163565 0.163565 0.163565
0.166048 0.166048 0.166048
0.168801 0.168801 0.168801
0.172648 0.172648 0.172648
0.177646 0.177646 0.177646
0.183765 0.183765 0.183765
0.190947 0.190947 0.190947
0.199109 0.199109 0.199109
0.208157 0.208157 0.208157
0.217995 0.217995 0.217995
0.228530 0.228530 0.228530
0.239674 0.239674 0.239674
0.251349 0.251349 0.251349
0.263485 0.263485 0.263485
0.276019 0.276019 0.276019
0.288901 0.288901 0.288901
0.302082 0.302082 0.302082
0.315526 0.315526 0.315526
0.329198 0.329198 0.329198
0.343069 0.343069 0.343069
0.357116 0.357116 0.357116
0.371316 0.371316 0.371316
0.385652 0.385652 0.385652
0.400108 0.400108 0.400108
0.414670 0.414670 0.414670
0.429328 0.429328 0.429328
0.444071 0.444071 0.444071
0.458889 0.458889 0.458889
0.473776 0.473776 0.473776
0.488724 0.488724 0.488724
0.503728 0.503728 0.503728
0.518782 0.518782 0.518782
0.512725 0.512725 0.512725
0.189655 0.189655 0.189655
0.191707 0.191707 0.191707
0.193995 0.193995 0.193995
0.197216 0.197216 0.197216
0.201434 0.201434 0.201434
0.206652 0.206652 0.206652
0.212843 0.212843 0.212843
0.219960 0.219960 0.219960
0.227940 0.227940 0.227940
0.236714 0.236714 0.236714
0.246208 0.246208 0.246208
0.256351 0.256351 0.256351
0.267073 0.267073 0.267073
0.278310 0.278310 0.278310
0.290002 0.290002 0.290002
0.302097 0.302097 0.302097
0.314547 0.314547 0.314547
0.327312 0.327312 0.327312
0.340355 0.340355 0.340355
0.353643 0.353643 0.353643
0.367150 0.367150 0.367150
0.380850 0.380850 0.380850
0.394722 0.394722 0.394722
0.408747 0.408747 0.408747
0.422910 0.422910 0.422910
0.437196 0.437196 0.437196
0.451592 0.451592 0.451592
0.466088 0.466088 0.466088
0.480674 0.480674 0.480674
0.495341 0.495341 0.495341
0.510081 0.510081 0.510081
0.504481 0.504481 0.504481
0.518110 0.518110 0.518110
0.215744 0.215744 0.215744
0.217479 0.217479 0.217479
0.219421 0.219421 0.219421
0.222166 0.222166 0.222166
0.225783 0.225783 0.225783
0.230288 0.230288 0.230288
0.235675 0.235675 0.235675
0.241921 0.241921 0.241921
0.248987 0.248987 0.248987
0.256824 0.256824 0.256824
0.265380 0.265380 0.265380
0.274596 0.274596 0.274596
0.284416 0.284416 0.284416
0.294782 0.294782 0.294782
0.305643 0.305643 0.305643
0.316949 0.316949 0.316949
0.328655 0.328655 0.328655
0.340718 0.340718 0.340718
0.353102 0.353102 0.353102
0.365773 0.365773 0.365773
0.378701 0.378701 0.378701
0.391861 0.391861 0.391861
0.405228 0.405228 0.405228
0.418781 0.418781 0.418781
0.432502 0.432502 0.432502
0.446375 0.446375 0.446375
0.460384 0.460384 0.460384
0.474517 0.474517 0.474517
0.488763 0.488763 0.488763
0.503111 0.503111 0.503111
0.517551 0.517551 0.517551
0.511070 0.511070 0.511070
0.524456 0.524456 0.524456
0.241834 0.241834 0.241834
0.243327 0.243327 0.243327
0.245002 0.245002 0.245002
0.247378 0.247378 0.247378
0.250521 0.250521 0.250521
0.254456 0.254456 0.254456
0.259188 0.259188 0.259188
0.264710 0.264710 0.264710
0.270999 0.270999 0.270999
0.278024 0.278024 0.278024
0.285747 0.285747 0.285747
0.294124 0.294124 0.294124
0.303111 0.303111 0.303111
0.312659 0.312659 0.312659
0.322725 0.322725 0.322725
0.333263 0.333263 0.333263
0.344232 0.344232 0.344232
0.355592 0.355592 0.355592
0.367308 0.367308 0.367308
0.379345 0.379345 0.379345
0.391675 0.391675 0.391675
0.404269 0.404269 0.404269
0.417102 0.417102 0.417102
0.430153 0.430153 0.430153
0.443401 0.443401 0.443401
0.456827 0.456827 0.456827
0.470417 0.470417 0.470417
0.484155 0.484155 0.484155
0.498028 0.498028 0.498028
0.512024 0.512024 0.512024
0.505622 0.505622 0.505622
0.518651 0.518651 0.518651
0.531766 0.531766 0.531766
0.267923 0.267923 0.267923
0.269227 0.269227 0.269227
0.270692 0.270692 0.270692
0.272775 0.272775 0.272775
0.275538 0.275538 0.275538
0.279010 0.279010 0.279010
0.283205 0.283205 0.283205
0.288122 0.288122 0.288122
0.293752 0.293752 0.293752
0.300076 0.300076 0.300076
0.307068 0.307068 0.307068
0.314697 0.314697 0.314697
0.322927 0.322927 0.322927
0.331720 0.331720 0.331720
0.341040 0.341040 0.341040
0.350847 0.350847 0.350847
0.361106 0.361106 0.361106
0.371779 0.371779 0.371779
0.382833 0.382833 0.382833
0.394237 0.394237 0.394237
0.405961 0.405961 0.405961
0.417978 0.417978 0.417978
0.430262 0.430262 0.430262
0.442792 0.442792 0.442792
0.455545 0.455545 0.455545
0.468502 0.468502 0.468502
0.481647 0.481647 0.481647
0.494964 0.494964 0.494964
0.508438 0.508438 0.508438
0.501886 0.501886 0.501886
0.514491 0.514491 0.514491
0.527208 0.527208 0.527208
0.540028 0.540028 0.540028
0.294013 0.294013 0.294013
0.295165 0.295165 0.295165
0.296461 0.296461 0.296461
0.298306 0.298306 0.298306
0.300761 0.300761 0.300761
0.303853 0.303853 0.303853
0.307601 0.307601 0.307601
0.312011 0.312011 0.312011
0.317081 0.317081 0.317081
0.322801 0.322801 0.322801
0.329154 0.329154 0.329154
0.336119 0.336119 0.336119
0.343668 0.343668 0.343668
0.351773 0.351773 0.351773
0.360403 0.360403 0.360403
0.369527 0.369527 0.369527
0.379111 0.379111 0.379111
0.389125 0.389125 0.389125
0.399537 0.399537 0.399537
0.410320 0.410320 0.410320
0.421444 0.421444 0.421444
0.432884 0.432884 0.432884
0.444615 0.444615 0.444615
0.456614 0.456614 0.456614
0.468860 0.468860 0.468860
0.481335 0.481335 0.481335
0.494019 0.494019 0.494019
0.506896 0.506896 0.506896
0.519952 0.519952 0.519952
0.512075 0.512075 0.512075
0.524333 0.524333 0.524333
0.536719 0.536719 0.536719
0.549225 0.549225 0.549225
0.320102 0.320102 0.320102
0.321130 0.321130 0.321130
0.322288 0.322288 0.322288
0.323939 0.323939 0.323939
0.326138 0.326138 0.326138
0.328914 0.328914 0.328914
0.332287 0.332287 0.332287
0.336268 0.336268 0.336268
0.340860 0.340860 0.340860
0.346058 0.346058 0.346058
0.351854 0.351854 0.351854
0.358232 0.358232 0.358232
0.365173 0.365173 0.365173
0.372655 0.372655 0.372655
0.380654 0.380654 0.380654
0.389144 0.389144 0.389144
0.398097 0.398097 0.398097
0.407486 0.407486 0.407486
0.417286 0.417286 0.417286
0.427468 0.427468 0.427468
0.438007 0.438007 0.438007
0.448880 0.448880 0.448880
0.460062 0.460062 0.460062
0.471532 0.471532 0.471532
0.483268 0.483268 0.483268
0.495253 0.495253 0.495253
0.507467 0.507467 0.507467
0.519894 0.519894 0.519894
0.511475 0.511475 0.511475
0.523215 0.523215 0.523215
0.535111 0.535111 0.535111
0.547152 0.547152 0.547152
0.559327 0.559327 0.559327
0.346192 0.346192 0.346192
0.347117 0.347117 0.347117
0.348160 0.348160 0.348160
0.349648 0.349648 0.349648
0.351634 0.351634 0.351634
0.354144 0.354144 0.354144
0.357200 0.357200 0.357200
0.360816 0.360816 0.360816
0.364996 0.364996 0.364996
0.369743 0.369743 0.369743
0.375051 0.375051 0.375051
0.380911 0.380911 0.380911
0.387310 0.387310 0.387310
0.394231 0.394231 0.394231
0.401655 0.401655 0.401655
0.409563 0.409563 0.409563
0.417930 0.417930 0.417930
0.426735 0.426735 0.426735
0.435953 0.435953 0.435953
0.445562 0.445562 0.445562
0.455539 0.455539 0.455539
0.465861 0.465861 0.465861
0.476506 0.476506 0.476506
0.487454 0.487454 0.487454
0.498685 0.498685 0.498685
0.510180 0.510180 0.510180
0.501762 0.501762 0.501762
0.512736 0.512736 0.512736
0.523907 0.523907 0.523907
0.535260 0.535260 0.535260
0.546785 0.546785 0.546785
0.558469 0.558469 0.558469
0.570302 0.570302 0.570302
0.372281 0.372281 0.372281
0.373120 0.373120 0.373120
0.374067 0.374067 0.374067
0.375418 0.375418 0.375418
0.377222 0.377222 0.377222
0.379507 0.379507 0.379507
0.382292 0.382292 0.382292
0.385593 0.385593 0.385593
0.389419 0.389419 0.389419
0.393772 0.393772 0.393772
0.398653 0.398653 0.398653
0.404055 0.404055 0.404055
0.409970 0.409970 0.409970
0.416387 0.416387 0.416387
0.423291 0.423291 0.423291
0.430666 0.430666 0.430666
0.438493 0.438493 0.438493
0.446753 0.446753 0.446753
0.455427 0.455427 0.455427
0.464494 0.464494 0.464494
0.473934 0.473934 0.473934
0.483727 0.483727 0.483727
0.493853 0.493853 0.493853
0.504293 0.504293 0.504293
0.515028 0.515028 0.515028
0.505537 0.505537 0.505537
0.515870 0.515870 0.515870
0.526427 0.526427 0.526427
0.537195 0.537195 0.537195
0.548158 0.548158 0.548158
0.559307 0.559307 0.559307
0.570627 0.570627 0.570627
0.582110 0.582110 0.582110
0.398371 0.398371 0.398371
0.399136 0.399136 0.399136
0.400000 0.400000 0.400000
0.401235 0.401235 0.401235
0.402884 0.402884 0.402884
0.404975 0.404975 0.404975
0.407528 0.407528 0.407528
0.410557 0.410557 0.410557
0.414074 0.414074 0.414074
0.418083 0.418083 0.418083
0.422587 0.422587 0.422587
0.427584 0.427584 0.427584
0.433069 0.433069 0.433069
0.439032 0.439032 0.439032
0.445465 0.445465 0.445465
0.452354 0.452354 0.452354
0.459684 0.459684 0.459684
0.467441 0.467441 0.467441
0.475607 0.475607 0.475607
0.484165 0.484165 0.484165
0.493097 0.493097 0.493097
0.502386 0.502386 0.502386
0.512014 0.512014 0.512014
0.501799 0.501799 0.501799
0.511198 0.511198 0.511198
0.520860 0.520860 0.520860
0.530770 0.530770 0.530770
0.540916 0.540916 0.540916
0.551282 0.551282 0.551282
0.561857 0.561857 0.561857
0.572627 0.572627 0.572627
0.583582 0.583582 0.583582
0.594711 0.594711 0.594711
0.424460 0.424460 0.424460
0.425163 0.425163 0.425163
0.425956 0.425956 0.425956
0.427090 0.427090 0.427090
0.428606 0.428606 0.428606
0.430529 0.430529 0.430529
0.432879 0.432879 0.432879
0.435672 0.435672 0.435672
0.438918 0.438918 0.438918
0.442625 0.442625 0.442625
0.446797 0.446797 0.446797
0.451434 0.451434 0.451434
0.456533 0.456533 0.456533
0.462090 0.462090 0.462090
0.468096 0.468096 0.468096
0.474543 0.474543 0.474543
0.481418 0.481418 0.481418
0.488710 0.488710 0.488710
0.496404 0.496404 0.496404
0.504486 0.504486 0.504486
0.512941 0.512941 0.512941
0.501606 0.501606 0.501606
0.509996 0.509996 0.509996
0.518685 0.518685 0.518685
0.527657 0.527657 0.527657
0.536900 0.536900 0.536900
0.546398 0.546398 0.546398
0.556140 0.556140 0.556140
0.566112 0.566112 0.566112
0.576301 0.576301 0.576301
0.586697 0.586697 0.586697
0.597286 0.597286 0.597286
0.608060 0.608060 0.608060
0.450550 0.450550 0.450550
0.451198 0.451198 0.451198
0.451929 0.451929 0.451929
0.452976 0.452976 0.452976
0.454375 0.454375 0.454375
0.456152 0.456152 0.456152
0.458326 0.458326 0.458326
0.460911 0.460911 0.460911
0.463920 0.463920 0.463920
0.467360 0.467360 0.467360
0.471237 0.471237 0.471237
0.475553 0.475553 0.475553
0.480307 0.480307 0.480307
0.485497 0.485497 0.485497
0.491118 0.491118 0.491118
0.497162 0.497162 0.497162
0.503621 0.503621 0.503621
0.510484 0.510484 0.510484
0.517741 0.517741 0.517741
0.504931 0.504931 0.504931
0.512271 0.512271 0.512271
0.519936 0.519936 0.519936
0.527913 0.527913 0.527913
0.536191 0.536191 0.536191
0.544755 0.544755 0.544755
0.553593 0.553593 0.553593
0.562693 0.562693 0.562693
0.572042 0.572042 0.572042
0.581628 0.581628 0.581628
0.591439 0.591439 0.591439
0.601464 0.601464 0.601464
0.611693 0.611693 0.611693
0.622113 0.622113 0.622113
0.476639 0.476639 0.476639
0.477239 0.477239 0.477239
0.477917 0.477917 0.477917
0.478887 0.478887 0.478887
0.480185 0.480185 0.480185
0.481834 0.481834 0.481834
0.483852 0.483852 0.483852
0.486254 0.486254 0.486254
0.489052 0.489052 0.489052
0.492256 0.492256 0.492256
0.495870 0.495870 0.495870
0.499899 0.499899 0.499899
0.504344 0.504344 0.504344
0.509203 0.509203 0.509203
0.514474 0.514474 0.514474
0.500138 0.500138 0.500138
0.505709 0.505709 0.505709
0.511640 0.511640 0.511640
0.517922 0.517922 0.517922
0.524546 0.524546 0.524546
0.531502 0.531502 0.531502
0.538780 0.538780 0.538780
0.546368 0.546368 0.546368
0.554255 0.554255 0.554255
0.562430 0.562430 0.562430
0.570881 0.570881 0.570881
0.579597 0.579597 0.579597
0.588566 0.588566 0.588566
0.597777 0.597777 0.597777
0.607219 0.607219 0.607219
0.616881 0.616881 0.616881
0.626754 0.626754 0.626754
0.636826 0.636826 0.636826
0.502729 0.502729 0.502729
0.503287 0.503287 0.503287
0.503917 0.503917 0.503917
0.504820 0.504820 0.504820
0.506028 0.506028 0.506028
0.507563 0.507563 0.507563
0.509443 0.509443 0.509443
0.511683 0.511683 0.511683
0.514295 0.514295 0.514295
0.517287 0.517287 0.517287
0.500611 0.500611 0.500611
0.504068 0.504068 0.504068
0.507887 0.507887 0.507887
0.512067 0.512067 0.512067
0.516607 0.516607 0.516607
0.521505 0.521505 0.521505
0.526756 0.526756 0.526756
0.532355 0.532355 0.532355
0.538295 0.538295 0.538295
0.544568 0.544568 0.544568
0.551166 0.551166 0.551166
0.558081 0.558081 0.558081
0.565302 0.565302 0.565302
0.572821 0.572821 0.572821
0.580626 0.580626 0.580626
0.588708 0.588708 0.588708
0.597055 0.597055 0.597055
0.605659 0.605659 0.605659
0.614507 0.614507 0.614507
0.623591 0.623591 0.623591
0.632900 0.632900 0.632900
0.642425 0.642425 0.642425
0.652155 0.652155 0.652155
0.508084 0.508084 0.508084
0.508561 0.508561 0.508561
0.509100 0.509100 0.509100
0.509873 0.509873 0.509873
0.510907 0.510907 0.510907
0.512222 0.512222 0.512222
0.513833 0.513833 0.513833
0.515754 0.515754 0.515754
0.517995 0.517995 0.517995
0.520564 0.520564 0.520564
0.523469 0.523469 0.523469
0.526713 0.526713 0.526713
0.530301 0.530301 0.530301
0.534233 0.534233 0.534233
0.538509 0.538509 0.538509
0.543127 0.543127 0.543127
0.548085 0.548085 0.548085
0.553378 0.553378 0.553378
0.559001 0.559001 0.559001
0.564949 0.564949 0.564949
0.571215 0.571215 0.571215
0.577790 0.577790 0.577790
0.584667 0.584667 0.584667
0.591837 0.591837 0.591837
0.599292 0.599292 0.599292
0.607022 0.607022 0.607022
0.615019 0.615019 0.615019
0.623271 0.623271 0.623271
0.631772 0.631772 0.631772
0.640509 0.640509 0.640509
0.649476 0.649476 0.649476
0.658661 0.658661 0.658661
0.668057 0.668057 0.668057
0.531999 0.531999 0.531999
0.532446 0.532446 0.532446
0.532951 0.532951 0.532951
0.533674 0.533674 0.533674
0.534643 0.534643 0.534643
0.535876 0.535876 0.535876
0.537387 0.537387 0.537387
0.539188 0.539188 0.539188
0.541292 0.541292 0.541292
0.543705 0.543705 0.543705
0.546436 0.546436 0.546436
0.549488 0.549488 0.549488
0.552867 0.552867 0.552867
0.556573 0.556573 0.556573
0.560608 0.560608 0.560608
0.564970 0.564970 0.564970
0.569659 0.569659 0.569659
0.574671 0.574671 0.574671
0.580003 0.580003 0.580003
0.585649 0.585649 0.585649
0.591604 0.591604 0.591604
0.597862 0.597862 0.597862
0.604416 0.604416 0.604416
0.611259 0.611259 0.611259
0.618383 0.618383 0.618383
0.625780 0.625780 0.625780
0.633441 0.633441 0.633441
0.641359 0.641359 0.641359
0.649525 0.649525 0.649525
0.657929 0.657929 0.657929
0.666564 0.666564 0.666564
0.675422 0.675422 0.675422
0.684492 0.684492 0.684492
0.555914 0.555914 0.555914
0.556334 0.556334 0.556334
0.556809 0.556809 0.556809
0.557488 0.557488 0.557488
0.558399 0.558399 0.558399
0.559557 0.559557 0.559557
0.560977 0.560977 0.560977
0.562672 0.562672 0.562672
0.564652 0.564652 0.564652
0.566924 0.566924 0.566924
0.569497 0.569497 0.569497
0.572376 0.572376 0.572376
0.575564 0.575564 0.575564
0.579065 0.579065 0.579065
0.582879 0.582879 0.582879
0.587007 0.587007 0.587007
0.591449 0.591449 0.591449
0.596202 0.596202 0.596202
0.601264 0.601264 0.601264
0.606630 0.606630 0.606630
0.612297 0.612297 0.612297
0.618258 0.618258 0.618258
0.624510 0.624510 0.624510
0.631045 0.631045 0.631045
0.637856 0.637856 0.637856
0.644938 0.644938 0.644938
0.652281 0.652281 0.652281
0.659880 0.659880 0.659880
0.667725 0.667725 0.667725
0.675810 0.675810 0.675810
0.684126 0.684126 0.684126
0.692666 0.692666 0.692666
0.701422 0.701422 0.701422
0.579830 0.579830 0.579830
0.580225 0.580225 0.580225
0.580672 0.580672 0.580672
0.581312 0.581312 0.581312
0.582170 0.582170 0.582170
0.583261 0.583261 0.583261
0.584600 0.584600 0.584600
0.586198 0.586198 0.586198
0.588065 0.588065 0.588065
0.590211 0.590211 0.590211
0.592640 0.592640 0.592640
0.595361 0.595361 0.595361
0.598376 0.598376 0.598376
0.601688 0.601688 0.601688
0.605301 0.605301 0.605301
0.609215 0.609215 0.609215
0.613429 0.613429 0.613429
0.617943 0.617943 0.617943
0.622755 0.622755 0.622755
0.627861 0.627861 0.627861
0.633259 0.633259 0.633259
0.638945 0.638945 0.638945
0.644913 0.644913 0.644913
0.651159 0.651159 0.651159
0.657676 0.657676 0.657676
0.664459 0.664459 0.664459
0.671501 0.671501 0.671501
0.678795 0.678795 0.678795
0.686335 0.686335 0.686335
0.694114 0.694114 0.694114
0.702124 0.702124 0.702124
0.710358 0.710358 0.710358
0.718810 0.718810 0.718810
0.603745 0.603745 0.603745
0.604118 0.604118 0.604118
0.604540 0.604540 0.604540
0.605144 0.605144 0.605144
0.605954 0.605954 0.605954
0.606985 0.606985 0.606985
0.608250 0.608250 0.608250
0.609761 0.609761 0.609761
0.611526 0.611526 0.611526
0.613555 0.613555 0.613555
0.615855 0.615855 0.615855
0.618431 0.618431 0.618431
0.621287 0.621287 0.621287
0.624428 0.624428 0.624428
0.627856 0.627856 0.627856
0.631572 0.631572 0.631572
0.635577 0.635577 0.635577
0.639870 0.639870 0.639870
0.644450 0.644450 0.644450
0.649316 0.649316 0.649316
0.654464 0.654464 0.654464
0.659891 0.659891 0.659891
0.665594 0.665594 0.665594
0.671568 0.671568 0.671568
0.677808 0.677808 0.677808
0.684309 0.684309 0.684309
0.691065 0.691065 0.691065
0.698071 0.698071 0.698071
0.705320 0.705320 0.705320
0.712806 0.712806 0.712806
0.720523 0.720523 0.720523
0.728463 0.728463 0.728463
0.736622 0.736622 0.736622
0.627660 0.627660 0.627660
0.628014 0.628014 0.628014
0.628413 0.628413 0.628413
0.628984 0.628984 0.628984
0.629751 0.629751 0.629751
0.630727 0.630727 0.630727
0.631925 0.631925 0.631925
0.633355 0.633355 0.633355
0.635028 0.635028 0.635028
0.636951 0.636951 0.636951
0.639132 0.639132 0.639132
0.641576 0.641576 0.641576
0.644287 0.644287 0.644287
0.647270 0.647270 0.647270
0.650528 0.650528 0.650528
0.654062 0.654062 0.654062
0.657873 0.657873 0.657873
0.661962 0.661962 0.661962
0.666328 0.666328 0.666328
0.670969 0.670969 0.670969
0.675884 0.675884 0.675884
0.681070 0.681070 0.681070
0.686525 0.686525 0.686525
0.692243 0.692243 0.692243
0.698222 0.698222 0.698222
0.704457 0.704457 0.704457
0.710943 0.710943 0.710943
0.717675 0.717675 0.717675
0.724647 0.724647 0.724647
0.731854 0.731854 0.731854
0.739290 0.739290 0.739290
0.746949 0.746949 0.746949
0.754826 0.754826 0.754826
0.651576 0.651576 0.651576
0.651911 0.651911 0.651911
0.652289 0.652289 0.652289
0.652831 0.652831 0.652831
0.653558 0.653558 0.653558
0.654484 0.654484 0.654484
0.655620 0.655620 0.655620
0.656978 0.656978 0.656978
0.658566 0.658566 0.658566
0.660392 0.660392 0.660392
0.662464 0.662464 0.662464
0.664786 0.664786 0.664786
0.667365 0.667365 0.667365
0.670203 0.670203 0.670203
0.673303 0.673303 0.673303
0.676669 0.676669 0.676669
0.680302 0.680302 0.680302
0.684201 0.684201 0.684201
0.688367 0.688367 0.688367
0.692800 0.692800 0.692800
0.697498 0.697498 0.697498
0.702459 0.702459 0.702459
0.707680 0.707680 0.707680
0.713160 0.713160 0.713160
0.718893 0.718893 0.718893
0.724877 0.724877 0.724877
0.731107 0.731107 0.731107
0.737579 0.737579 0.737579
0.744288 0.744288 0.744288
0.751229 0.751229 0.751229
0.758397 0.758397 0.758397
0.765787 0.765787 0.765787
0.773392 0.773392 0.773392
0.675491 0.675491 0.675491
0.675809 0.675809 0.675809
0.676169 0.676169 0.676169
0.676684 0.676684 0.676684
0.677375 0.677375 0.677375
0.678255 0.678255 0.678255
0.679335 0.679335 0.679335
0.680626 0.680626 0.680626
0.682136 0.682136 0.682136
0.683873 0.683873 0.683873
0.685844 0.685844 0.685844
0.688055 0.688055 0.688055
0.690511 0.690511 0.690511
0.693215 0.693215 0.693215
0.696171 0.696171 0.696171
0.699381 0.699381 0.699381
0.702848 0.702848 0.702848
0.706571 0.706571 0.706571
0.710553 0.710553 0.710553
0.714791 0.714791 0.714791
0.719286 0.719286 0.719286
0.724036 0.724036 0.724036
0.729040 0.729040 0.729040
0.734294 0.734294 0.734294
