docs/luts/fuji_recipes/Acros_RR_Ilford_HP-5__Push_Process.cube
TITLE "Fujifilm Recipe: RR Ilford HP-5+ Push Process (Acros)"
# FilmSim=Acros HL=3 SH=4 Col=0 WB=Auto WBR=0 WBB=0
LUT_3D_SIZE 33
DOMAIN_MIN 0.0 0.0 0.0
DOMAIN_MAX 1.0 1.0 1.0
0.000000 0.000000 0.000000
0.007015 0.007015 0.007015
0.014953 0.014953 0.014953
0.026335 0.026335 0.026335
0.041049 0.041049 0.041049
0.056197 0.056197 0.056197
0.071344 0.071344 0.071344
0.086491 0.086491 0.086491
0.101639 0.101639 0.101639
0.116786 0.116786 0.116786
0.131934 0.131934 0.131934
0.147081 0.147081 0.147081
0.162229 0.162229 0.162229
0.177376 0.177376 0.177376
0.192523 0.192523 0.192523
0.207671 0.207671 0.207671
0.222818 0.222818 0.222818
0.237966 0.237966 0.237966
0.253113 0.253113 0.253113
0.268261 0.268261 0.268261
0.283408 0.283408 0.283408
0.298556 0.298556 0.298556
0.313703 0.313703 0.313703
0.328850 0.328850 0.328850
0.343998 0.343998 0.343998
0.359145 0.359145 0.359145
0.374293 0.374293 0.374293
0.389440 0.389440 0.389440
0.404588 0.404588 0.404588
0.418690 0.418690 0.418690
0.418690 0.418690 0.418690
0.418690 0.418690 0.418690
0.418690 0.418690 0.418690
0.023599 0.023599 0.023599
0.030614 0.030614 0.030614
0.038310 0.038310 0.038310
0.047929 0.047929 0.047929
0.059007 0.059007 0.059007
0.071120 0.071120 0.071120
0.083964 0.083964 0.083964
0.097327 0.097327 0.097327
0.111066 0.111066 0.111066
0.125083 0.125083 0.125083
0.139308 0.139308 0.139308
0.153692 0.153692 0.153692
0.168199 0.168199 0.168199
0.182805 0.182805 0.182805
0.197488 0.197488 0.197488
0.212235 0.212235 0.212235
0.227033 0.227033 0.227033
0.241875 0.241875 0.241875
0.256752 0.256752 0.256752
0.271660 0.271660 0.271660
0.286593 0.286593 0.286593
0.301548 0.301548 0.301548
0.316523 0.316523 0.316523
0.331513 0.331513 0.331513
0.346518 0.346518 0.346518
0.361536 0.361536 0.361536
0.376564 0.376564 0.376564
0.391602 0.391602 0.391602
0.406649 0.406649 0.406649
0.500886 0.500886 0.500886
0.500886 0.500886 0.500886
0.500886 0.500886 0.500886
0.500886 0.500886 0.500886
0.048218 0.048218 0.048218
0.053496 0.053496 0.053496
0.059032 0.059032 0.059032
0.066323 0.066323 0.066323
0.075180 0.075180 0.075180
0.085309 0.085309 0.085309
0.096439 0.096439 0.096439
0.108348 0.108348 0.108348
0.120860 0.120860 0.120860
0.133839 0.133839 0.133839
0.147185 0.147185 0.147185
0.160821 0.160821 0.160821
0.174686 0.174686 0.174686
0.188738 0.188738 0.188738
0.202940 0.202940 0.202940
0.217266 0.217266 0.217266
0.231695 0.231695 0.231695
0.246210 0.246210 0.246210
0.260797 0.260797 0.260797
0.275445 0.275445 0.275445
0.290146 0.290146 0.290146
0.304892 0.304892 0.304892
0.319676 0.319676 0.319676
0.334495 0.334495 0.334495
0.349343 0.349343 0.349343
0.364217 0.364217 0.364217
0.379114 0.379114 0.379114
0.394031 0.394031 0.394031
0.408967 0.408967 0.408967
0.503848 0.503848 0.503848
0.503848 0.503848 0.503848
0.503848 0.503848 0.503848
0.503848 0.503848 0.503848
0.073329 0.073329 0.073329
0.077185 0.077185 0.077185
0.081354 0.081354 0.081354
0.087019 0.087019 0.087019
0.094133 0.094133 0.094133
0.102534 0.102534 0.102534
0.112035 0.112035 0.112035
0.122457 0.122457 0.122457
0.133639 0.133639 0.133639
0.145442 0.145442 0.145442
0.157754 0.157754 0.157754
0.170480 0.170480 0.170480
0.183547 0.183547 0.183547
0.196896 0.196896 0.196896
0.210478 0.210478 0.210478
0.224255 0.224255 0.224255
0.238195 0.238195 0.238195
0.252274 0.252274 0.252274
0.266470 0.266470 0.266470
0.280767 0.280767 0.280767
0.295151 0.295151 0.295151
0.309610 0.309610 0.309610
0.324134 0.324134 0.324134
0.338714 0.338714 0.338714
0.353345 0.353345 0.353345
0.368020 0.368020 0.368020
0.382733 0.382733 0.382733
0.397482 0.397482 0.397482
0.412261 0.412261 0.412261
0.508061 0.508061 0.508061
0.508061 0.508061 0.508061
0.508061 0.508061 0.508061
0.508061 0.508061 0.508061
0.098440 0.098440 0.098440
0.101417 0.101417 0.101417
0.104687 0.104687 0.104687
0.109209 0.109209 0.109209
0.115007 0.115007 0.115007
0.122003 0.122003 0.122003
0.130088 0.130088 0.130088
0.139137 0.139137 0.139137
0.149023 0.149023 0.149023
0.159626 0.159626 0.159626
0.170841 0.170841 0.170841
0.182572 0.182572 0.182572
0.194742 0.194742 0.194742
0.207282 0.207282 0.207282
0.220137 0.220137 0.220137
0.233259 0.233259 0.233259
0.246609 0.246609 0.246609
0.260155 0.260155 0.260155
0.273869 0.273869 0.273869
0.287728 0.287728 0.287728
0.301714 0.301714 0.301714
0.315810 0.315810 0.315810
0.330003 0.330003 0.330003
0.344280 0.344280 0.344280
0.358632 0.358632 0.358632
0.373050 0.373050 0.373050
0.387527 0.387527 0.387527
0.402057 0.402057 0.402057
0.416634 0.416634 0.416634
0.513656 0.513656 0.513656
0.513656 0.513656 0.513656
0.513656 0.513656 0.513656
0.513656 0.513656 0.513656
0.123551 0.123551 0.123551
0.125941 0.125941 0.125941
0.128590 0.128590 0.128590
0.132294 0.132294 0.132294
0.137104 0.137104 0.137104
0.142994 0.142994 0.142994
0.149906 0.149906 0.149906
0.157762 0.157762 0.157762
0.166470 0.166470 0.166470
0.175940 0.175940 0.175940
0.186080 0.186080 0.186080
0.196806 0.196806 0.196806
0.208043 0.208043 0.208043
0.219723 0.219723 0.219723
0.231788 0.231788 0.231788
0.244186 0.244186 0.244186
0.256874 0.256874 0.256874
0.269813 0.269813 0.269813
0.282972 0.282972 0.282972
0.296323 0.296323 0.296323
0.309843 0.309843 0.309843
0.323510 0.323510 0.323510
0.337309 0.337309 0.337309
0.351223 0.351223 0.351223
0.365239 0.365239 0.365239
0.379347 0.379347 0.379347
0.393537 0.393537 0.393537
0.407800 0.407800 0.407800
0.502838 0.502838 0.502838
0.520695 0.520695 0.520695
0.520695 0.520695 0.520695
0.520695 0.520695 0.520695
0.520695 0.520695 0.520695
0.148662 0.148662 0.148662
0.150638 0.150638 0.150638
0.152840 0.152840 0.152840
0.155940 0.155940 0.155940
0.160000 0.160000 0.160000
0.165022 0.165022 0.165022
0.170981 0.170981 0.170981
0.177831 0.177831 0.177831
0.185511 0.185511 0.185511
0.193956 0.193956 0.193956
0.203095 0.203095 0.203095
0.212858 0.212858 0.212858
0.223177 0.223177 0.223177
0.233992 0.233992 0.233992
0.245246 0.245246 0.245246
0.256887 0.256887 0.256887
0.268871 0.268871 0.268871
0.281157 0.281157 0.281157
0.293711 0.293711 0.293711
0.306501 0.306501 0.306501
0.319501 0.319501 0.319501
0.332687 0.332687 0.332687
0.346039 0.346039 0.346039
0.359538 0.359538 0.359538
0.373170 0.373170 0.373170
0.386920 0.386920 0.386920
0.400777 0.400777 0.400777
0.414729 0.414729 0.414729
0.511690 0.511690 0.511690
0.529210 0.529210 0.529210
0.529210 0.529210 0.529210
0.529210 0.529210 0.529210
0.529210 0.529210 0.529210
0.173773 0.173773 0.173773
0.175443 0.175443 0.175443
0.177312 0.177312 0.177312
0.179954 0.179954 0.179954
0.183435 0.183435 0.183435
0.187771 0.187771 0.187771
0.192957 0.192957 0.192957
0.198968 0.198968 0.198968
0.205769 0.205769 0.205769
0.213313 0.213313 0.213313
0.221547 0.221547 0.221547
0.230418 0.230418 0.230418
0.239869 0.239869 0.239869
0.249847 0.249847 0.249847
0.260301 0.260301 0.260301
0.271183 0.271183 0.271183
0.282449 0.282449 0.282449
0.294060 0.294060 0.294060
0.305979 0.305979 0.305979
0.318175 0.318175 0.318175
0.330619 0.330619 0.330619
0.343285 0.343285 0.343285
0.356151 0.356151 0.356151
0.369196 0.369196 0.369196
0.382402 0.382402 0.382402
0.395754 0.395754 0.395754
0.409239 0.409239 0.409239
0.503789 0.503789 0.503789
0.522071 0.522071 0.522071
0.539209 0.539209 0.539209
0.539209 0.539209 0.539209
0.539209 0.539209 0.539209
0.539209 0.539209 0.539209
0.198884 0.198884 0.198884
0.200322 0.200322 0.200322
0.201934 0.201934 0.201934
0.204220 0.204220 0.204220
0.207246 0.207246 0.207246
0.211033 0.211033 0.211033
0.215588 0.215588 0.215588
0.220902 0.220902 0.220902
0.226956 0.226956 0.226956
0.233717 0.233717 0.233717
0.241151 0.241151 0.241151
0.249214 0.249214 0.249214
0.257863 0.257863 0.257863
0.267054 0.267054 0.267054
0.276742 0.276742 0.276742
0.286885 0.286885 0.286885
0.297442 0.297442 0.297442
0.308377 0.308377 0.308377
0.319653 0.319653 0.319653
0.331239 0.331239 0.331239
0.343106 0.343106 0.343106
0.355228 0.355228 0.355228
0.367580 0.367580 0.367580
0.380141 0.380141 0.380141
0.392892 0.392892 0.392892
0.405815 0.405815 0.405815
0.418895 0.418895 0.418895
0.516157 0.516157 0.516157
0.533961 0.533961 0.533961
0.550679 0.550679 0.550679
0.550679 0.550679 0.550679
0.550679 0.550679 0.550679
0.550679 0.550679 0.550679
0.223995 0.223995 0.223995
0.225250 0.225250 0.225250
0.226661 0.226661 0.226661
0.228665 0.228665 0.228665
0.231325 0.231325 0.231325
0.234667 0.234667 0.234667
0.238704 0.238704 0.238704
0.243437 0.243437 0.243437
0.248856 0.248856 0.248856
0.254943 0.254943 0.254943
0.261673 0.261673 0.261673
0.269015 0.269015 0.269015
0.276936 0.276936 0.276936
0.285400 0.285400 0.285400
0.294370 0.294370 0.294370
0.303810 0.303810 0.303810
0.313683 0.313683 0.313683
0.323956 0.323956 0.323956
0.334596 0.334596 0.334596
0.345572 0.345572 0.345572
0.356857 0.356857 0.356857
0.368423 0.368423 0.368423
0.380246 0.380246 0.380246
0.392306 0.392306 0.392306
0.404581 0.404581 0.404581
0.417052 0.417052 0.417052
0.512939 0.512939 0.512939
0.530029 0.530029 0.530029
0.547321 0.547321 0.547321
0.563586 0.563586 0.563586
0.563586 0.563586 0.563586
0.563586 0.563586 0.563586
0.563586 0.563586 0.563586
0.249107 0.249107 0.249107
0.250215 0.250215 0.250215
0.251463 0.251463 0.251463
0.253239 0.253239 0.253239
0.255602 0.255602 0.255602
0.258578 0.258578 0.258578
0.262185 0.262185 0.262185
0.266429 0.266429 0.266429
0.271309 0.271309 0.271309
0.276815 0.276815 0.276815
0.282930 0.282930 0.282930
0.289633 0.289633 0.289633
0.296900 0.296900 0.296900
0.304701 0.304701 0.304701
0.313007 0.313007 0.313007
0.321788 0.321788 0.321788
0.331013 0.331013 0.331013
0.340651 0.340651 0.340651
0.350674 0.350674 0.350674
0.361052 0.361052 0.361052
0.371759 0.371759 0.371759
0.382770 0.382770 0.382770
0.394061 0.394061 0.394061
0.405610 0.405610 0.405610
0.417397 0.417397 0.417397
0.512538 0.512538 0.512538
0.528816 0.528816 0.528816
0.545342 0.545342 0.545342
0.562097 0.562097 0.562097
0.577886 0.577886 0.577886
0.577886 0.577886 0.577886
0.577886 0.577886 0.577886
0.577886 0.577886 0.577886
0.274218 0.274218 0.274218
0.275207 0.275207 0.275207
0.276322 0.276322 0.276322
0.277910 0.277910 0.277910
0.280027 0.280027 0.280027
0.282699 0.282699 0.282699
0.285946 0.285946 0.285946
0.289777 0.289777 0.289777
0.294197 0.294197 0.294197
0.299200 0.299200 0.299200
0.304779 0.304779 0.304779
0.310917 0.310917 0.310917
0.317598 0.317598 0.317598
0.324800 0.324800 0.324800
0.332499 0.332499 0.332499
0.340670 0.340670 0.340670
0.349287 0.349287 0.349287
0.358325 0.358325 0.358325
0.367756 0.367756 0.367756
0.377557 0.377557 0.377557
0.387701 0.387701 0.387701
0.398166 0.398166 0.398166
0.408928 0.408928 0.408928
0.419968 0.419968 0.419968
0.515019 0.515019 0.515019
0.530399 0.530399 0.530399
0.546074 0.546074 0.546074
0.562022 0.562022 0.562022
0.578223 0.578223 0.578223
0.593518 0.593518 0.593518
0.593518 0.593518 0.593518
0.593518 0.593518 0.593518
0.593518 0.593518 0.593518
0.299329 0.299329 0.299329
0.300219 0.300219 0.300219
0.301223 0.301223 0.301223
0.302656 0.302656 0.302656
0.304566 0.304566 0.304566
0.306983 0.306983 0.306983
0.309924 0.309924 0.309924
0.313404 0.313404 0.313404
0.317428 0.317428 0.317428
0.321997 0.321997 0.321997
0.327105 0.327105 0.327105
0.332746 0.332746 0.332746
0.338905 0.338905 0.338905
0.345566 0.345566 0.345566
0.352712 0.352712 0.352712
0.360323 0.360323 0.360323
0.368376 0.368376 0.368376
0.376851 0.376851 0.376851
0.385724 0.385724 0.385724
0.394973 0.394973 0.394973
0.404575 0.404575 0.404575
0.414510 0.414510 0.414510
0.506341 0.506341 0.506341
0.520391 0.520391 0.520391
0.534804 0.534804 0.534804
0.549556 0.549556 0.549556
0.564625 0.564625 0.564625
0.579989 0.579989 0.579989
0.595627 0.595627 0.595627
0.610418 0.610418 0.610418
0.610418 0.610418 0.610418
0.610418 0.610418 0.610418
0.610418 0.610418 0.610418
0.324440 0.324440 0.324440
0.325247 0.325247 0.325247
0.326158 0.326158 0.326158
0.327459 0.327459 0.327459
0.329195 0.329195 0.329195
0.331394 0.331394 0.331394
0.334075 0.334075 0.334075
0.337253 0.337253 0.337253
0.340935 0.340935 0.340935
0.345125 0.345125 0.345125
0.349822 0.349822 0.349822
0.355022 0.355022 0.355022
0.360716 0.360716 0.360716
0.366892 0.366892 0.366892
0.373537 0.373537 0.373537
0.380635 0.380635 0.380635
0.388168 0.388168 0.388168
0.396119 0.396119 0.396119
0.404467 0.404467 0.404467
0.413195 0.413195 0.413195
0.503041 0.503041 0.503041
0.515608 0.515608 0.515608
0.528603 0.528603 0.528603
0.542001 0.542001 0.542001
0.555777 0.555777 0.555777
0.569910 0.569910 0.569910
0.584376 0.584376 0.584376
0.599157 0.599157 0.599157
0.614231 0.614231 0.614231
0.628512 0.628512 0.628512
0.628512 0.628512 0.628512
0.628512 0.628512 0.628512
0.628512 0.628512 0.628512
0.349551 0.349551 0.349551
0.350288 0.350288 0.350288
0.351119 0.351119 0.351119
0.352307 0.352307 0.352307
0.353895 0.353895 0.353895
0.355907 0.355907 0.355907
0.358364 0.358364 0.358364
0.361280 0.361280 0.361280
0.364665 0.364665 0.364665
0.368524 0.368524 0.368524
0.372859 0.372859 0.372859
0.377669 0.377669 0.377669
0.382947 0.382947 0.382947
0.388688 0.388688 0.388688
0.394879 0.394879 0.394879
0.401510 0.401510 0.401510
0.408565 0.408565 0.408565
0.416031 0.416031 0.416031
0.505187 0.505187 0.505187
0.516170 0.516170 0.516170
0.527633 0.527633 0.527633
0.539554 0.539554 0.539554
0.551909 0.551909 0.551909
0.564677 0.564677 0.564677
0.577835 0.577835 0.577835
0.591362 0.591362 0.591362
0.605237 0.605237 0.605237
0.619440 0.619440 0.619440
0.633953 0.633953 0.633953
0.647727 0.647727 0.647727
0.647727 0.647727 0.647727
0.647727 0.647727 0.647727
0.647727 0.647727 0.647727
0.374662 0.374662 0.374662
0.375338 0.375338 0.375338
0.376102 0.376102 0.376102
0.377193 0.377193 0.377193
0.378652 0.378652 0.378652
0.380503 0.380503 0.380503
0.382765 0.382765 0.382765
0.385453 0.385453 0.385453
0.388578 0.388578 0.388578
0.392146 0.392146 0.392146
0.396161 0.396161 0.396161
0.400624 0.400624 0.400624
0.405532 0.405532 0.405532
0.410880 0.410880 0.410880
0.416662 0.416662 0.416662
0.503822 0.503822 0.503822
0.512645 0.512645 0.512645
0.522003 0.522003 0.522003
0.531877 0.531877 0.531877
0.542249 0.542249 0.542249
0.553099 0.553099 0.553099
0.564407 0.564407 0.564407
0.576153 0.576153 0.576153
0.588317 0.588317 0.588317
0.600878 0.600878 0.600878
0.613818 0.613818 0.613818
0.627116 0.627116 0.627116
0.640754 0.640754 0.640754
0.654715 0.654715 0.654715
0.667986 0.667986 0.667986
0.667986 0.667986 0.667986
0.667986 0.667986 0.667986
0.667986 0.667986 0.667986
0.399773 0.399773 0.399773
0.400397 0.400397 0.400397
0.401101 0.401101 0.401101
0.402108 0.402108 0.402108
0.403455 0.403455 0.403455
0.405165 0.405165 0.405165
0.407257 0.407257 0.407257
0.409746 0.409746 0.409746
0.412642 0.412642 0.412642
0.415953 0.415953 0.415953
0.419685 0.419685 0.419685
0.505118 0.505118 0.505118
0.511220 0.511220 0.511220
0.517880 0.517880 0.517880
0.525093 0.525093 0.525093
0.532849 0.532849 0.532849
0.541138 0.541138 0.541138
0.549946 0.549946 0.549946
0.559260 0.559260 0.559260
0.569062 0.569062 0.569062
0.579338 0.579338 0.579338
0.590068 0.590068 0.590068
0.601237 0.601237 0.601237
0.612825 0.612825 0.612825
0.624815 0.624815 0.624815
0.637189 0.637189 0.637189
0.649929 0.649929 0.649929
0.663017 0.663017 0.663017
0.676437 0.676437 0.676437
0.689215 0.689215 0.689215
0.689215 0.689215 0.689215
0.689215 0.689215 0.689215
0.689215 0.689215 0.689215
0.506512 0.506512 0.506512
0.507282 0.507282 0.507282
0.508152 0.508152 0.508152
0.509397 0.509397 0.509397
0.511062 0.511062 0.511062
0.513178 0.513178 0.513178
0.515768 0.515768 0.515768
0.518851 0.518851 0.518851
0.522442 0.522442 0.522442
0.526553 0.526553 0.526553
0.531192 0.531192 0.531192
0.536362 0.536362 0.536362
0.542066 0.542066 0.542066
0.548302 0.548302 0.548302
0.555066 0.555066 0.555066
0.562352 0.562352 0.562352
0.570152 0.570152 0.570152
0.578454 0.578454 0.578454
0.587249 0.587249 0.587249
0.596523 0.596523 0.596523
0.606261 0.606261 0.606261
0.616450 0.616450 0.616450
0.627073 0.627073 0.627073
0.638115 0.638115 0.638115
0.649560 0.649560 0.649560
0.661391 0.661391 0.661391
0.673594 0.673594 0.673594
0.686150 0.686150 0.686150
0.699046 0.699046 0.699046
0.711342 0.711342 0.711342
0.711342 0.711342 0.711342
0.711342 0.711342 0.711342
0.711342 0.711342 0.711342
0.539994 0.539994 0.539994
0.540710 0.540710 0.540710
0.541519 0.541519 0.541519
0.542677 0.542677 0.542677
0.544227 0.544227 0.544227
0.546198 0.546198 0.546198
0.548611 0.548611 0.548611
0.551485 0.551485 0.551485
0.554837 0.554837 0.554837
0.558677 0.558677 0.558677
0.563014 0.563014 0.563014
0.567854 0.567854 0.567854
0.573200 0.573200 0.573200
0.579052 0.579052 0.579052
0.585409 0.585409 0.585409
0.592266 0.592266 0.592266
0.599617 0.599617 0.599617
0.607455 0.607455 0.607455
0.615771 0.615771 0.615771
0.624553 0.624553 0.624553
0.633791 0.633791 0.633791
0.643471 0.643471 0.643471
0.653581 0.653581 0.653581
0.664107 0.664107 0.664107
0.675034 0.675034 0.675034
0.686349 0.686349 0.686349
0.698035 0.698035 0.698035
0.710080 0.710080 0.710080
0.722468 0.722468 0.722468
0.734298 0.734298 0.734298
0.734298 0.734298 0.734298
0.734298 0.734298 0.734298
0.734298 0.734298 0.734298
0.573475 0.573475 0.573475
0.574144 0.574144 0.574144
0.574899 0.574899 0.574899
0.575980 0.575980 0.575980
0.577428 0.577428 0.577428
0.579269 0.579269 0.579269
0.581525 0.581525 0.581525
0.584214 0.584214 0.584214
0.587351 0.587351 0.587351
0.590948 0.590948 0.590948
0.595014 0.595014 0.595014
0.599557 0.599557 0.599557
0.604580 0.604580 0.604580
0.610084 0.610084 0.610084
0.616070 0.616070 0.616070
0.622536 0.622536 0.622536
0.629477 0.629477 0.629477
0.636887 0.636887 0.636887
0.644760 0.644760 0.644760
0.653087 0.653087 0.653087
0.661858 0.661858 0.661858
0.671064 0.671064 0.671064
0.680692 0.680692 0.680692
0.690730 0.690730 0.690730
0.701167 0.701167 0.701167
0.711989 0.711989 0.711989
0.723184 0.723184 0.723184
0.734738 0.734738 0.734738
0.746638 0.746638 0.746638
0.758016 0.758016 0.758016
0.758016 0.758016 0.758016
0.758016 0.758016 0.758016
0.758016 0.758016 0.758016
0.606957 0.606957 0.606957
0.607583 0.607583 0.607583
0.608290 0.608290 0.608290
0.609302 0.609302 0.609302
0.610659 0.610659 0.610659
0.612384 0.612384 0.612384
0.614500 0.614500 0.614500
0.617022 0.617022 0.617022
0.619967 0.619967 0.619967
0.623346 0.623346 0.623346
0.627168 0.627168 0.627168
0.631442 0.631442 0.631442
0.636172 0.636172 0.636172
0.641360 0.641360 0.641360
0.647009 0.647009 0.647009
0.653116 0.653116 0.653116
0.659681 0.659681 0.659681
0.666698 0.666698 0.666698
0.674162 0.674162 0.674162
0.682066 0.682066 0.682066
0.690403 0.690403 0.690403
0.699165 0.699165 0.699165
0.708341 0.708341 0.708341
0.717921 0.717921 0.717921
0.727894 0.727894 0.727894
0.738249 0.738249 0.738249
0.748976 0.748976 0.748976
0.760060 0.760060 0.760060
0.771492 0.771492 0.771492
0.782436 0.782436 0.782436
0.782436 0.782436 0.782436
0.782436 0.782436 0.782436
0.782436 0.782436 0.782436
0.640438 0.640438 0.640438
0.641026 0.641026 0.641026
0.641690 0.641690 0.641690
0.642641 0.642641 0.642641
0.643916 0.643916 0.643916
0.645538 0.645538 0.645538
0.647526 0.647526 0.647526
0.649899 0.649899 0.649899
0.652670 0.652670 0.652670
0.655852 0.655852 0.655852
0.659454 0.659454 0.659454
0.663484 0.663484 0.663484
0.667948 0.667948 0.667948
0.672848 0.672848 0.672848
0.678189 0.678189 0.678189
0.683968 0.683968 0.683968
0.690187 0.690187 0.690187
0.696841 0.696841 0.696841
0.703927 0.703927 0.703927
0.711440 0.711440 0.711440
0.719373 0.719373 0.719373
0.727720 0.727720 0.727720
0.736472 0.736472 0.736472
0.745621 0.745621 0.745621
0.755157 0.755157 0.755157
0.765071 0.765071 0.765071
0.775351 0.775351 0.775351
0.785989 0.785989 0.785989
0.796973 0.796973 0.796973
0.807500 0.807500 0.807500
0.807500 0.807500 0.807500
0.807500 0.807500 0.807500
0.807500 0.807500 0.807500
0.673920 0.673920 0.673920
0.674473 0.674473 0.674473
0.675099 0.675099 0.675099
0.675995 0.675995 0.675995
0.677195 0.677195 0.677195
0.678723 0.678723 0.678723
0.680598 0.680598 0.680598
0.682835 0.682835 0.682835
0.685450 0.685450 0.685450
0.688453 0.688453 0.688453
0.691855 0.691855 0.691855
0.695663 0.695663 0.695663
0.699884 0.699884 0.699884
0.704522 0.704522 0.704522
0.709580 0.709580 0.709580
0.715059 0.715059 0.715059
0.720959 0.720959 0.720959
0.727278 0.727278 0.727278
0.734014 0.734014 0.734014
0.741164 0.741164 0.741164
0.748721 0.748721 0.748721
0.756681 0.756681 0.756681
0.765036 0.765036 0.765036
0.773780 0.773780 0.773780
0.782904 0.782904 0.782904
0.792400 0.792400 0.792400
0.802258 0.802258 0.802258
0.812471 0.812471 0.812471
0.823027 0.823027 0.823027
0.833155 0.833155 0.833155
0.833155 0.833155 0.833155
0.833155 0.833155 0.833155
0.833155 0.833155 0.833155
0.707401 0.707401 0.707401
0.707924 0.707924 0.707924
0.708514 0.708514 0.708514
0.709360 0.709360 0.709360
0.710494 0.710494 0.710494
0.711937 0.711937 0.711937
0.713708 0.713708 0.713708
0.715823 0.715823 0.715823
0.718295 0.718295 0.718295
0.721135 0.721135 0.721135
0.724355 0.724355 0.724355
0.727961 0.727961 0.727961
0.731960 0.731960 0.731960
0.736358 0.736358 0.736358
0.741156 0.741156 0.741156
0.746359 0.746359 0.746359
0.751965 0.751965 0.751965
0.757976 0.757976 0.757976
0.764388 0.764388 0.764388
0.771200 0.771200 0.771200
0.778407 0.778407 0.778407
0.786005 0.786005 0.786005
0.793989 0.793989 0.793989
0.802352 0.802352 0.802352
0.811088 0.811088 0.811088
0.820190 0.820190 0.820190
0.829648 0.829648 0.829648
0.839456 0.839456 0.839456
0.849605 0.849605 0.849605
0.859352 0.859352 0.859352
0.859352 0.859352 0.859352
0.859352 0.859352 0.859352
0.859352 0.859352 0.859352
0.740883 0.740883 0.740883
0.741377 0.741377 0.741377
0.741936 0.741936 0.741936
0.742736 0.742736 0.742736
0.743809 0.743809 0.743809
0.745176 0.745176 0.745176
0.746853 0.746853 0.746853
0.748855 0.748855 0.748855
0.751197 0.751197 0.751197
0.753890 0.753890 0.753890
0.756943 0.756943 0.756943
0.760364 0.760364 0.760364
0.764160 0.764160 0.764160
0.768336 0.768336 0.768336
0.772897 0.772897 0.772897
0.777844 0.777844 0.777844
0.783180 0.783180 0.783180
0.788904 0.788904 0.788904
0.795016 0.795016 0.795016
0.801514 0.801514 0.801514
0.808395 0.808395 0.808395
0.815656 0.815656 0.815656
0.823292 0.823292 0.823292
0.831298 0.831298 0.831298
0.839669 0.839669 0.839669
0.848398 0.848398 0.848398
0.857478 0.857478 0.857478
0.866902 0.866902 0.866902
0.876663 0.876663 0.876663
0.886046 0.886046 0.886046
0.886046 0.886046 0.886046
0.886046 0.886046 0.886046
0.886046 0.886046 0.886046
0.774364 0.774364 0.774364
0.774833 0.774833 0.774833
0.775363 0.775363 0.775363
0.776122 0.776122 0.776122
0.777139 0.777139 0.777139
0.778435 0.778435 0.778435
0.780026 0.780026 0.780026
0.781927 0.781927 0.781927
0.784150 0.784150 0.784150
0.786707 0.786707 0.786707
0.789607 0.789607 0.789607
0.792859 0.792859 0.792859
0.796468 0.796468 0.796468
0.800441 0.800441 0.800441
0.804783 0.804783 0.804783
0.809495 0.809495 0.809495
0.814580 0.814580 0.814580
0.820039 0.820039 0.820039
0.825872 0.825872 0.825872
0.832078 0.832078 0.832078
0.838655 0.838655 0.838655
0.845600 0.845600 0.845600
0.852910 0.852910 0.852910
0.860581 0.860581 0.860581
0.868608 0.868608 0.868608
0.876985 0.876985 0.876985
0.885707 0.885707 0.885707
0.894768 0.894768 0.894768
0.904161 0.904161 0.904161
0.913197 0.913197 0.913197
0.913197 0.913197 0.913197
0.913197 0.913197 0.913197
0.913197 0.913197 0.913197
0.807845 0.807845 0.807845
0.808291 0.808291 0.808291
0.808794 0.808794 0.808794
0.809515 0.809515 0.809515
0.810482 0.810482 0.810482
0.811714 0.811714 0.811714
0.813226 0.813226 0.813226
0.815033 0.815033 0.815033
0.817148 0.817148 0.817148
0.819580 0.819580 0.819580
0.822340 0.822340 0.822340
0.825435 0.825435 0.825435
0.828873 0.828873 0.828873
0.832659 0.832659 0.832659
0.836797 0.836797 0.836797
0.841292 0.841292 0.841292
0.846145 0.846145 0.846145
0.851358 0.851358 0.851358
0.856931 0.856931 0.856931
0.862865 0.862865 0.862865
0.869158 0.869158 0.869158
0.875808 0.875808 0.875808
0.882813 0.882813 0.882813
0.890169 0.890169 0.890169
