docs/luts/fuji_recipes/Acros_JP_Acros.cube
TITLE "Fujifilm Recipe: JP Acros (Acros)"
# FilmSim=Acros HL=1 SH=0 Col=0 WB=Auto WBR=0 WBB=0
LUT_3D_SIZE 9
DOMAIN_MIN 0.0 0.0 0.0
DOMAIN_MAX 1.0 1.0 1.0
0.000000 0.000000 0.000000
0.039416 0.039416 0.039416
0.104999 0.104999 0.104999
0.170573 0.170573 0.170573
0.236146 0.236146 0.236146
0.301720 0.301720 0.301720
0.367293 0.367293 0.367293
0.432866 0.432866 0.432866
0.498440 0.498440 0.498440
0.101537 0.101537 0.101537
0.119466 0.119466 0.119466
0.156280 0.156280 0.156280
0.205761 0.205761 0.205761
0.261894 0.261894 0.261894
0.321532 0.321532 0.321532
0.383131 0.383131 0.383131
0.445903 0.445903 0.445903
0.509796 0.509796 0.509796
0.210243 0.210243 0.210243
0.219293 0.219293 0.219293
0.240624 0.240624 0.240624
0.274074 0.274074 0.274074
0.316908 0.316908 0.316908
0.366328 0.366328 0.366328
0.420209 0.420209 0.420209
0.477112 0.477112 0.477112
0.537541 0.537541 0.537541
0.318950 0.318950 0.318950
0.324618 0.324618 0.324618
0.338538 0.338538 0.338538
0.361781 0.361781 0.361781
0.393677 0.393677 0.393677
0.432853 0.432853 0.432853
0.477797 0.477797 0.477797
0.528253 0.528253 0.528253
0.583084 0.583084 0.583084
0.427656 0.427656 0.427656
0.431641 0.431641 0.431641
0.441583 0.441583 0.441583
0.458654 0.458654 0.458654
0.482938 0.482938 0.482938
0.514502 0.514502 0.514502
0.552892 0.552892 0.552892
0.596470 0.596470 0.596470
0.644316 0.644316 0.644316
0.537817 0.537817 0.537817
0.540942 0.540942 0.540942
0.548799 0.548799 0.548799
0.562479 0.562479 0.562479
0.582324 0.582324 0.582324
0.608259 0.608259 0.608259
0.639907 0.639907 0.639907
0.676711 0.676711 0.676711
0.718036 0.718036 0.718036
0.650871 0.650871 0.650871
0.653342 0.653342 0.653342
0.659579 0.659579 0.659579
0.670521 0.670521 0.670521
0.686577 0.686577 0.686577
0.707863 0.707863 0.707863
0.734263 0.734263 0.734263
0.765492 0.765492 0.765492
0.801158 0.801158 0.801158
0.763926 0.763926 0.763926
0.765946 0.765946 0.765946
0.771057 0.771057 0.771057
0.780067 0.780067 0.780067
0.793381 0.793381 0.793381
0.811194 0.811194 0.811194
0.833528 0.833528 0.833528
0.860266 0.860266 0.860266
0.891186 0.891186 0.891186
0.876981 0.876981 0.876981
0.878674 0.878674 0.878674
0.882967 0.882967 0.882967
0.890556 0.890556 0.890556
0.901822 0.901822 0.901822
0.916988 0.916988 0.916988
0.936145 0.936145 0.936145
0.959275 0.959275 0.959275
0.986270 0.986270 0.986270
0.013386 0.013386 0.013386
0.051659 0.051659 0.051659
0.111215 0.111215 0.111215
0.174473 0.174473 0.174473
0.238890 0.238890 0.238890
0.303790 0.303790 0.303790
0.368930 0.368930 0.368930
0.434205 0.434205 0.434205
0.499562 0.499562 0.499562
0.107937 0.107937 0.107937
0.125000 0.125000 0.125000
0.160547 0.160547 0.160547
0.208956 0.208956 0.208956
0.264333 0.264333 0.264333
0.323452 0.323452 0.323452
0.384686 0.384686 0.384686
0.447193 0.447193 0.447193
0.510931 0.510931 0.510931
0.213365 0.213365 0.213365
0.222272 0.222272 0.222272
0.243310 0.243310 0.243310
0.276389 0.276389 0.276389
0.318862 0.318862 0.318862
0.367970 0.367970 0.367970
0.421597 0.421597 0.421597
0.478298 0.478298 0.478298
0.538606 0.538606 0.538606
0.320888 0.320888 0.320888
0.326517 0.326517 0.326517
0.340343 0.340343 0.340343
0.363448 0.363448 0.363448
0.395181 0.395181 0.395181
0.434191 0.434191 0.434191
0.478980 0.478980 0.478980
0.529341 0.529341 0.529341
0.584047 0.584047 0.584047
0.429014 0.429014 0.429014
0.432984 0.432984 0.432984
0.442889 0.442889 0.442889
0.459899 0.459899 0.459899
0.484106 0.484106 0.484106
0.515625 0.515625 0.515625
0.553921 0.553921 0.553921
0.597406 0.597406 0.597406
0.645167 0.645167 0.645167
0.538881 0.538881 0.538881
0.541999 0.541999 0.541999
0.549837 0.549837 0.549837
0.563486 0.563486 0.563486
0.583289 0.583289 0.583289
0.609173 0.609173 0.609173
0.640765 0.640765 0.640765
0.677511 0.677511 0.677511
0.718779 0.718779 0.718779
0.651712 0.651712 0.651712
0.654179 0.654179 0.654179
0.660405 0.660405 0.660405
0.671331 0.671331 0.671331
0.687363 0.687363 0.687363
0.708619 0.708619 0.708619
0.734985 0.734985 0.734985
0.766177 0.766177 0.766177
0.801804 0.801804 0.801804
0.764613 0.764613 0.764613
0.766631 0.766631 0.766631
0.771736 0.771736 0.771736
0.780736 0.780736 0.780736
0.794036 0.794036 0.794036
0.811830 0.811830 0.811830
0.834143 0.834143 0.834143
0.860856 0.860856 0.860856
0.891750 0.891750 0.891750
0.877556 0.877556 0.877556
0.879249 0.879249 0.879249
0.883538 0.883538 0.883538
0.891121 0.891121 0.891121
0.902378 0.902378 0.902378
0.917531 0.917531 0.917531
0.936674 0.936674 0.936674
0.959788 0.959788 0.959788
0.986764 0.986764 0.986764
0.047021 0.047021 0.047021
0.076250 0.076250 0.076250
0.125728 0.125728 0.125728
0.184006 0.184006 0.184006
0.245717 0.245717 0.245717
0.308984 0.308984 0.308984
0.373056 0.373056 0.373056
0.437588 0.437588 0.437588
0.502500 0.502500 0.502500
0.122820 0.122820 0.122820
0.138109 0.138109 0.138109
0.170906 0.170906 0.170906
0.216855 0.216855 0.216855
0.270429 0.270429 0.270429
0.328278 0.328278 0.328278
0.388609 0.388609 0.388609
0.450456 0.450456 0.450456
0.513808 0.513808 0.513808
0.221088 0.221088 0.221088
0.229662 0.229662 0.229662
0.250000 0.250000 0.250000
0.282183 0.282183 0.282183
0.323770 0.323770 0.323770
0.372109 0.372109 0.372109
0.425106 0.425106 0.425106
0.481299 0.481299 0.481299
0.541304 0.541304 0.541304
0.325760 0.325760 0.325760
0.331290 0.331290 0.331290
0.344888 0.344888 0.344888
0.367649 0.367649 0.367649
0.398978 0.398978 0.398978
0.437575 0.437575 0.437575
0.481976 0.481976 0.481976
0.532096 0.532096 0.532096
0.586490 0.586490 0.586490
0.432448 0.432448 0.432448
0.436379 0.436379 0.436379
0.446190 0.446190 0.446190
0.463050 0.463050 0.463050
0.487062 0.487062 0.487062
0.518470 0.518470 0.518470
0.556528 0.556528 0.556528
0.599782 0.599782 0.599782
0.647327 0.647327 0.647327
0.541577 0.541577 0.541577
0.544676 0.544676 0.544676
0.552468 0.552468 0.552468
0.566039 0.566039 0.566039
0.585736 0.585736 0.585736
0.611493 0.611493 0.611493
0.642944 0.642944 0.642944
0.679543 0.679543 0.679543
0.720666 0.720666 0.720666
0.653845 0.653845 0.653845
0.656301 0.656301 0.656301
0.662503 0.662503 0.662503
0.673386 0.673386 0.673386
0.689359 0.689359 0.689359
0.710540 0.710540 0.710540
0.736819 0.736819 0.736819
0.767917 0.767917 0.767917
0.803446 0.803446 0.803446
0.766357 0.766357 0.766357
0.768369 0.768369 0.768369
0.773460 0.773460 0.773460
0.782435 0.782435 0.782435
0.795699 0.795699 0.795699
0.813447 0.813447 0.813447
0.835704 0.835704 0.835704
0.862356 0.862356 0.862356
0.893184 0.893184 0.893184
0.879020 0.879020 0.879020
0.880708 0.880708 0.880708
0.884988 0.884988 0.884988
0.892555 0.892555 0.892555
0.903789 0.903789 0.903789
0.918913 0.918913 0.918913
0.938019 0.938019 0.938019
0.961091 0.961091 0.961091
0.988022 0.988022 0.988022
0.088833 0.088833 0.088833
0.108704 0.108704 0.108704
0.148185 0.148185 0.148185
0.199796 0.199796 0.199796
0.257382 0.257382 0.257382
0.318000 0.318000 0.318000
0.380280 0.380280 0.380280
0.443542 0.443542 0.443542
0.507720 0.507720 0.507720
0.145724 0.145724 0.145724
0.158810 0.158810 0.158810
0.187888 0.187888 0.187888
0.230194 0.230194 0.230194
0.280920 0.280920 0.280920
0.336681 0.336681 0.336681
0.395487 0.395487 0.395487
0.456202 0.456202 0.456202
0.518890 0.518890 0.518890
0.234158 0.234158 0.234158
0.242212 0.242212 0.242212
0.261446 0.261446 0.261446
0.292183 0.292183 0.292183
0.332310 0.332310 0.332310
0.379355 0.379355 0.379355
0.431274 0.431274 0.431274
0.486593 0.486593 0.486593
0.546075 0.546075 0.546075
0.334239 0.334239 0.334239
0.339604 0.339604 0.339604
0.352818 0.352818 0.352818
0.375000 0.375000 0.375000
0.405641 0.405641 0.405641
0.443529 0.443529 0.443529
0.487261 0.487261 0.487261
0.536968 0.536968 0.536968
0.590817 0.590817 0.590817
0.438490 0.438490 0.438490
0.442354 0.442354 0.442354
0.452004 0.452004 0.452004
0.468604 0.468604 0.468604
0.492279 0.492279 0.492279
0.523497 0.523497 0.523497
0.561141 0.561141 0.561141
0.603991 0.603991 0.603991
0.651156 0.651156 0.651156
0.546346 0.546346 0.546346
0.549412 0.549412 0.549412
0.557123 0.557123 0.557123
0.570558 0.570558 0.570558
0.590070 0.590070 0.590070
0.615603 0.615603 0.615603
0.646806 0.646806 0.646806
0.683148 0.683148 0.683148
0.724014 0.724014 0.724014
0.657627 0.657627 0.657627
0.660066 0.660066 0.660066
0.666224 0.666224 0.666224
0.677032 0.677032 0.677032
0.692899 0.692899 0.692899
0.713949 0.713949 0.713949
0.740075 0.740075 0.740075
0.771008 0.771008 0.771008
0.806365 0.806365 0.806365
0.769456 0.769456 0.769456
0.771458 0.771458 0.771458
0.776523 0.776523 0.776523
0.785453 0.785453 0.785453
0.798653 0.798653 0.798653
0.816320 0.816320 0.816320
0.838480 0.838480 0.838480
0.865022 0.865022 0.865022
0.895733 0.895733 0.895733
0.881621 0.881621 0.881621
0.883304 0.883304 0.883304
0.887567 0.887567 0.887567
0.895106 0.895106 0.895106
0.906300 0.906300 0.906300
0.921371 0.921371 0.921371
0.940412 0.940412 0.940412
0.963410 0.963410 0.963410
0.990260 0.990260 0.990260
0.130645 0.130645 0.130645
0.145118 0.145118 0.145118
0.176576 0.176576 0.176576
0.221258 0.221258 0.221258
0.273865 0.273865 0.273865
0.331018 0.331018 0.331018
0.390844 0.390844 0.390844
0.452320 0.452320 0.452320
0.515454 0.515454 0.515454
0.174532 0.174532 0.174532
0.185508 0.185508 0.185508
0.210688 0.210688 0.210688
0.248762 0.248762 0.248762
0.295893 0.295893 0.295893
0.348870 0.348870 0.348870
0.405569 0.405569 0.405569
0.464682 0.464682 0.464682
0.526425 0.526425 0.526425
0.252395 0.252395 0.252395
0.259807 0.259807 0.259807
0.277651 0.277651 0.277651
0.306513 0.306513 0.306513
0.344685 0.344685 0.344685
0.389950 0.389950 0.389950
0.440356 0.440356 0.440356
0.494427 0.494427 0.494427
0.553161 0.553161 0.553161
0.346531 0.346531 0.346531
0.351671 0.351671 0.351671
0.364359 0.364359 0.364359
0.385741 0.385741 0.385741
0.415421 0.415421 0.415421
0.452307 0.452307 0.452307
0.495081 0.495081 0.495081
0.544199 0.544199 0.544199
0.597254 0.597254 0.597254
0.447390 0.447390 0.447390
0.451159 0.451159 0.451159
0.460581 0.460581 0.460581
0.476810 0.476810 0.476810
0.500000 0.500000 0.500000
0.530952 0.530952 0.530952
0.567996 0.567996 0.567996
0.610257 0.610257 0.610257
0.656867 0.656867 0.656867
0.553427 0.553427 0.553427
0.556445 0.556445 0.556445
0.564038 0.564038 0.564038
0.577276 0.577276 0.577276
0.596517 0.596517 0.596517
0.621724 0.621724 0.621724
0.652564 0.652564 0.652564
0.688528 0.688528 0.688528
0.729017 0.729017 0.729017
0.663268 0.663268 0.663268
0.665681 0.665681 0.665681
0.671775 0.671775 0.671775
0.682473 0.682473 0.682473
0.698185 0.698185 0.698185
0.719040 0.719040 0.719040
0.744942 0.744942 0.744942
0.775629 0.775629 0.775629
0.810731 0.810731 0.810731
0.774089 0.774089 0.774089
0.776076 0.776076 0.776076
0.781103 0.781103 0.781103
0.789968 0.789968 0.789968
0.803073 0.803073 0.803073
0.820618 0.820618 0.820618
0.842634 0.842634 0.842634
0.869015 0.869015 0.869015
0.899551 0.899551 0.899551
0.885518 0.885518 0.885518
0.887191 0.887191 0.887191
0.891430 0.891430 0.891430
0.898928 0.898928 0.898928
0.910061 0.910061 0.910061
0.925053 0.925053 0.925053
0.943999 0.943999 0.943999
0.966887 0.966887 0.966887
0.993615 0.993615 0.993615
0.172457 0.172457 0.172457
0.183566 0.183566 0.183566
0.209000 0.209000 0.209000
0.247365 0.247365 0.247365
0.294753 0.294753 0.294753
0.347934 0.347934 0.347934
0.404791 0.404791 0.404791
0.464025 0.464025 0.464025
0.525839 0.525839 0.525839
0.207301 0.207301 0.207301
0.216487 0.216487 0.216487
0.238101 0.238101 0.238101
0.271905 0.271905 0.271905
0.315083 0.315083 0.315083
0.364797 0.364797 0.364797
0.418916 0.418916 0.418916
0.476009 0.476009 0.476009
0.536552 0.536552 0.536552
0.275188 0.275188 0.275188
0.281911 0.281911 0.281911
0.298229 0.298229 0.298229
0.324965 0.324965 0.324965
0.360835 0.360835 0.360835
0.403934 0.403934 0.403934
0.452448 0.452448 0.452448
0.505121 0.505121 0.505121
0.562702 0.562702 0.562702
0.362582 0.362582 0.362582
0.367451 0.367451 0.367451
0.379503 0.379503 0.379503
0.399906 0.399906 0.399906
0.428391 0.428391 0.428391
0.464013 0.464013 0.464013
0.505784 0.505784 0.505784
0.553930 0.553930 0.553930
0.605948 0.605948 0.605948
0.459252 0.459252 0.459252
0.462901 0.462901 0.462901
0.472031 0.472031 0.472031
0.487786 0.487786 0.487786
0.510768 0.510768 0.510768
0.540976 0.540976 0.540976
0.577237 0.577237 0.577237
0.618725 0.618725 0.618725
0.664601 0.664601 0.664601
0.562963 0.562963 0.562963
0.565918 0.565918 0.565918
0.573358 0.573358 0.573358
0.586337 0.586337 0.586337
0.605224 0.605224 0.605224
0.630000 0.630000 0.630000
0.660362 0.660362 0.660362
0.695823 0.695823 0.695823
0.735810 0.735810 0.735810
0.670910 0.670910 0.670910
0.673289 0.673289 0.673289
0.679297 0.679297 0.679297
0.689849 0.689849 0.689849
0.705355 0.705355 0.705355
0.725951 0.725951 0.725951
0.751553 0.751553 0.751553
0.781913 0.781913 0.781913
0.816672 0.816672 0.816672
0.780389 0.780389 0.780389
0.782355 0.782355 0.782355
0.787331 0.787331 0.787331
0.796107 0.796107 0.796107
0.809086 0.809086 0.809086
0.826469 0.826469 0.826469
0.848291 0.848291 0.848291
0.874454 0.874454 0.874454
0.904754 0.904754 0.904754
0.890827 0.890827 0.890827
0.892487 0.892487 0.892487
0.896695 0.896695 0.896695
0.904136 0.904136 0.904136
0.915188 0.915188 0.915188
0.930073 0.930073 0.930073
0.948890 0.948890 0.948890
0.971629 0.971629 0.971629
0.998193 0.998193 0.998193
0.214269 0.214269 0.214269
0.223137 0.223137 0.223137
0.244091 0.244091 0.244091
0.277063 0.277063 0.277063
0.319431 0.319431 0.319431
0.368449 0.368449 0.368449
0.422003 0.422003 0.422003
0.478644 0.478644 0.478644
0.538917 0.538917 0.538917
0.242665 0.242665 0.242665
0.250409 0.250409 0.250409
0.268973 0.268973 0.268973
0.298816 0.298816 0.298816
0.338018 0.338018 0.338018
0.384229 0.384229 0.384229
0.435444 0.435444 0.435444
0.490184 0.490184 0.490184
0.549319 0.549319 0.549319
0.301758 0.301758 0.301758
0.307806 0.307806 0.307806
0.322594 0.322594 0.322594
0.347124 0.347124 0.347124
0.380513 0.380513 0.380513
0.421189 0.421189 0.421189
0.467521 0.467521 0.467521
0.518838 0.518838 0.518838
0.574762 0.574762 0.574762
0.382151 0.382151 0.382151
0.386722 0.386722 0.386722
0.398066 0.398066 0.398066
0.417366 0.417366 0.417366
0.444484 0.444484 0.444484
0.478633 0.478633 0.478633
0.519479 0.519479 0.519479
0.566219 0.566219 0.566219
0.616973 0.616973 0.616973
0.474056 0.474056 0.474056
0.477564 0.477564 0.477564
0.486351 0.486351 0.486351
0.501606 0.501606 0.501606
0.524305 0.524305 0.524305
0.553618 0.553618 0.553618
0.588931 0.588931 0.588931
0.629473 0.629473 0.629473
0.674445 0.674445 0.674445
0.575015 0.575015 0.575015
0.577895 0.577895 0.577895
0.585147 0.585147 0.585147
0.597812 0.597812 0.597812
0.616265 0.616265 0.616265
0.640513 0.640513 0.640513
0.670284 0.670284 0.670284
0.705123 0.705123 0.705123
0.744484 0.744484 0.744484
0.680640 0.680640 0.680640
0.682976 0.682976 0.682976
0.688878 0.688878 0.688878
0.699249 0.699249 0.699249
0.714499 0.714499 0.714499
0.734772 0.734772 0.734772
0.760000 0.760000 0.760000
0.789949 0.789949 0.789949
0.824279 0.824279 0.824279
0.788445 0.788445 0.788445
0.790386 0.790386 0.790386
0.795298 0.795298 0.795298
0.803964 0.803964 0.803964
0.816784 0.816784 0.816784
0.833962 0.833962 0.833962
0.855540 0.855540 0.855540
0.881428 0.881428 0.881428
0.911432 0.911432 0.911432
0.897638 0.897638 0.897638
0.899282 0.899282 0.899282
0.903449 0.903449 0.903449
0.910819 0.910819 0.910819
0.921768 0.921768 0.921768
0.936518 0.936518 0.936518
0.955172 0.955172 0.955172
0.977723 0.977723 0.977723
1.000000 1.000000 1.000000
0.256081 0.256081 0.256081
0.263374 0.263374 0.263374
0.280955 0.280955 0.280955
0.309458 0.309458 0.309458
0.347246 0.347246 0.347246
0.392157 0.392157 0.392157
0.442257 0.442257 0.442257
0.496071 0.496071 0.496071
0.554652 0.554652 0.554652
0.279745 0.279745 0.279745
0.286344 0.286344 0.286344
0.302382 0.302382 0.302382
0.328719 0.328719 0.328719
0.364148 0.364148 0.364148
0.406824 0.406824 0.406824
0.454961 0.454961 0.454961
0.507400 0.507400 0.507400
0.564700 0.564700 0.564700
0.331348 0.331348 0.331348
0.336768 0.336768 0.336768
0.350111 0.350111 0.350111
0.372488 0.372488 0.372488
0.403361 0.403361 0.403361
0.441490 0.441490 0.441490
0.485449 0.485449 0.485449
0.535296 0.535296 0.535296
0.589331 0.589331 0.589331
0.404887 0.404887 0.404887
0.409148 0.409148 0.409148
0.419754 0.419754 0.419754
0.437885 0.437885 0.437885
0.463530 0.463530 0.463530
0.496060 0.496060 0.496060
0.535914 0.535914 0.535914
0.581053 0.581053 0.581053
0.630346 0.630346 0.630346
0.491686 0.491686 0.491686
0.495039 0.495039 0.495039
0.503582 0.503582 0.503582
0.518731 0.518731 0.518731
0.540561 0.540561 0.540561
0.568857 0.568857 0.568857
0.603080 0.603080 0.603080
0.642523 0.642523 0.642523
0.686436 0.686436 0.686436
0.589577 0.589577 0.589577
0.592370 0.592370 0.592370
0.599406 0.599406 0.599406
0.611706 0.611706 0.611706
0.629657 0.629657 0.629657
0.653289 0.653289 0.653289
0.682367 0.682367 0.682367
0.716472 0.716472 0.716472
0.755091 0.755091 0.755091
0.692496 0.692496 0.692496
0.694783 0.694783 0.694783
0.700560 0.700560 0.700560
0.710716 0.710716 0.710716
0.725664 0.725664 0.725664
0.745555 0.745555 0.745555
0.770337 0.770337 0.770337
0.799797 0.799797 0.799797
0.833613 0.833613 0.833613
0.798317 0.798317 0.798317
0.800227 0.800227 0.800227
0.805063 0.805063 0.805063
0.813596 0.813596 0.813596
0.826225 0.826225 0.826225
0.843158 0.843158 0.843158
0.864444 0.864444 0.864444
0.890000 0.890000 0.890000
0.919645 0.919645 0.919645
0.906014 0.906014 0.906014
0.907638 0.907638 0.907638
0.911756 0.911756 0.911756
0.919040 0.919040 0.919040
0.929864 0.929864 0.929864
0.944452 0.944452 0.944452
0.962907 0.962907 0.962907
0.985229 0.985229 0.985229
1.000000 1.000000 1.000000
0.297893 0.297893 0.297893
0.304031 0.304031 0.304031
0.319028 0.319028 0.319028
0.343861 0.343861 0.343861
0.377597 0.377597 0.377597
0.418619 0.418619 0.418619
0.465266 0.465266 0.465266
0.516778 0.516778 0.516778
0.572946 0.572946 0.572946
0.317987 0.317987 0.317987
0.323676 0.323676 0.323676
0.337642 0.337642 0.337642
0.360954 0.360954 0.360954
0.392932 0.392932 0.392932
0.432190 0.432190 0.432190
0.477211 0.477211 0.477211
0.527715 0.527715 0.527715
0.582607 0.582607 0.582607
0.363304 0.363304 0.363304
0.368162 0.368162 0.368162
0.380186 0.380186 0.380186
0.400546 0.400546 0.400546
0.428980 0.428980 0.428980
0.464545 0.464545 0.464545
0.506282 0.506282 0.506282
0.554375 0.554375 0.554375
0.606346 0.606346 0.606346
0.430394 0.430394 0.430394
0.434348 0.434348 0.434348
0.444215 0.444215 0.444215
0.461165 0.461165 0.461165
0.485293 0.485293 0.485293
0.516767 0.516767 0.516767
0.554967 0.554967 0.554967
0.598360 0.598360 0.598360
0.646033 0.646033 0.646033
0.512442 0.512442 0.512442
0.515756 0.515756 0.515756
0.524077 0.524077 0.524077
0.538529 0.538529 0.538529
0.559421 0.559421 0.559421
0.586608 0.586608 0.586608
0.619629 0.619629 0.619629
0.657849 0.657849 0.657849
0.700570 0.700570 0.700570
0.606584 0.606584 0.606584
0.609280 0.609280 0.609280
0.616078 0.616078 0.616078
0.627975 0.627975 0.627975
0.645365 0.645365 0.645365
0.668308 0.668308 0.668308
0.696604 0.696604 0.696604
0.729878 0.729878 0.729878
0.767650 0.767650 0.767650
0.706478 0.706478 0.706478
0.708708 0.708708 0.708708
0.714343 0.714343 0.714343
0.724257 0.724257 0.724257
0.738859 0.738859 0.738859
0.758315 0.758315 0.758315
0.782587 0.782587 0.782587
0.811483 0.811483 0.811483
0.844705 0.844705 0.844705
0.810030 0.810030 0.810030
0.811905 0.811905 0.811905
0.816653 0.816653 0.816653
0.825033 0.825033 0.825033
0.837443 0.837443 0.837443
0.854092 0.854092 0.854092
0.875038 0.875038 0.875038
0.900209 0.900209 0.900209
0.929437 0.929437 0.929437
0.915994 0.915994 0.915994
0.917595 0.917595 0.917595
0.921656 0.921656 0.921656
0.928840 0.928840 0.928840
0.939518 0.939518 0.939518
0.953916 0.953916 0.953916
0.972139 0.972139 0.972139
0.994194 0.994194 0.994194
1.000000 1.000000 1.000000
