docs/luts/fuji_recipes/Acros_JP_Acros.cube
TITLE "Fujifilm Recipe: JP Acros (Acros)"
# FilmSim=Acros HL=1 SH=0 Col=0 WB=Auto WBR=0 WBB=0
LUT_3D_SIZE 33
DOMAIN_MIN 0.0 0.0 0.0
DOMAIN_MAX 1.0 1.0 1.0
0.000000 0.000000 0.000000
0.006644 0.006644 0.006644
0.014162 0.014162 0.014162
0.024941 0.024941 0.024941
0.039416 0.039416 0.039416
0.055819 0.055819 0.055819
0.072212 0.072212 0.072212
0.088606 0.088606 0.088606
0.104999 0.104999 0.104999
0.121393 0.121393 0.121393
0.137786 0.137786 0.137786
0.154179 0.154179 0.154179
0.170573 0.170573 0.170573
0.186966 0.186966 0.186966
0.203359 0.203359 0.203359
0.219753 0.219753 0.219753
0.236146 0.236146 0.236146
0.252539 0.252539 0.252539
0.268933 0.268933 0.268933
0.285326 0.285326 0.285326
0.301720 0.301720 0.301720
0.318113 0.318113 0.318113
0.334506 0.334506 0.334506
0.350900 0.350900 0.350900
0.367293 0.367293 0.367293
0.383686 0.383686 0.383686
0.400080 0.400080 0.400080
0.416473 0.416473 0.416473
0.432866 0.432866 0.432866
0.449260 0.449260 0.449260
0.465653 0.465653 0.465653
0.482047 0.482047 0.482047
0.498440 0.498440 0.498440
0.022350 0.022350 0.022350
0.028994 0.028994 0.028994
0.036512 0.036512 0.036512
0.046871 0.046871 0.046871
0.058860 0.058860 0.058860
0.071970 0.071970 0.071970
0.085870 0.085870 0.085870
0.100333 0.100333 0.100333
0.115202 0.115202 0.115202
0.130372 0.130372 0.130372
0.145766 0.145766 0.145766
0.161334 0.161334 0.161334
0.177034 0.177034 0.177034
0.192841 0.192841 0.192841
0.208732 0.208732 0.208732
0.224692 0.224692 0.224692
0.240708 0.240708 0.240708
0.256770 0.256770 0.256770
0.272871 0.272871 0.272871
0.289005 0.289005 0.289005
0.305166 0.305166 0.305166
0.321352 0.321352 0.321352
0.337558 0.337558 0.337558
0.353781 0.353781 0.353781
0.370021 0.370021 0.370021
0.386273 0.386273 0.386273
0.402538 0.402538 0.402538
0.418813 0.418813 0.418813
0.435098 0.435098 0.435098
0.451391 0.451391 0.451391
0.467691 0.467691 0.467691
0.483999 0.483999 0.483999
0.500324 0.500324 0.500324
0.047184 0.047184 0.047184
0.052896 0.052896 0.052896
0.058888 0.058888 0.058888
0.066778 0.066778 0.066778
0.076364 0.076364 0.076364
0.087326 0.087326 0.087326
0.099372 0.099372 0.099372
0.112260 0.112260 0.112260
0.125801 0.125801 0.125801
0.139848 0.139848 0.139848
0.154292 0.154292 0.154292
0.169049 0.169049 0.169049
0.184055 0.184055 0.184055
0.199262 0.199262 0.199262
0.214633 0.214633 0.214633
0.230137 0.230137 0.230137
0.245753 0.245753 0.245753
0.261462 0.261462 0.261462
0.277249 0.277249 0.277249
0.293102 0.293102 0.293102
0.309012 0.309012 0.309012
0.324970 0.324970 0.324970
0.340971 0.340971 0.340971
0.357009 0.357009 0.357009
0.373078 0.373078 0.373078
0.389175 0.389175 0.389175
0.405298 0.405298 0.405298
0.421442 0.421442 0.421442
0.437606 0.437606 0.437606
0.453787 0.453787 0.453787
0.469984 0.469984 0.469984
0.486196 0.486196 0.486196
0.502516 0.502516 0.502516
0.074361 0.074361 0.074361
0.078534 0.078534 0.078534
0.083046 0.083046 0.083046
0.089177 0.089177 0.089177
0.096876 0.096876 0.096876
0.105967 0.105967 0.105967
0.116250 0.116250 0.116250
0.127530 0.127530 0.127530
0.139632 0.139632 0.139632
0.152406 0.152406 0.152406
0.165729 0.165729 0.165729
0.179503 0.179503 0.179503
0.193645 0.193645 0.193645
0.208092 0.208092 0.208092
0.222791 0.222791 0.222791
0.237701 0.237701 0.237701
0.252788 0.252788 0.252788
0.268024 0.268024 0.268024
0.283389 0.283389 0.283389
0.298862 0.298862 0.298862
0.314428 0.314428 0.314428
0.330076 0.330076 0.330076
0.345795 0.345795 0.345795
0.361575 0.361575 0.361575
0.377409 0.377409 0.377409
0.393291 0.393291 0.393291
0.409215 0.409215 0.409215
0.425176 0.425176 0.425176
0.441171 0.441171 0.441171
0.457196 0.457196 0.457196
0.473248 0.473248 0.473248
0.489324 0.489324 0.489324
0.505639 0.505639 0.505639
0.101537 0.101537 0.101537
0.104759 0.104759 0.104759
0.108297 0.108297 0.108297
0.113192 0.113192 0.113192
0.119466 0.119466 0.119466
0.127038 0.127038 0.127038
0.135788 0.135788 0.135788
0.145581 0.145581 0.145581
0.156280 0.156280 0.156280
0.167756 0.167756 0.167756
0.179893 0.179893 0.179893
0.192590 0.192590 0.192590
0.205761 0.205761 0.205761
0.219332 0.219332 0.219332
0.233244 0.233244 0.233244
0.247445 0.247445 0.247445
0.261894 0.261894 0.261894
0.276554 0.276554 0.276554
0.291396 0.291396 0.291396
0.306395 0.306395 0.306395
0.321532 0.321532 0.321532
0.336787 0.336787 0.336787
0.352147 0.352147 0.352147
0.367599 0.367599 0.367599
0.383131 0.383131 0.383131
0.398735 0.398735 0.398735
0.414403 0.414403 0.414403
0.430128 0.430128 0.430128
0.445903 0.445903 0.445903
0.461724 0.461724 0.461724
0.477587 0.477587 0.477587
0.493486 0.493486 0.493486
0.509796 0.509796 0.509796
0.128714 0.128714 0.128714
0.131300 0.131300 0.131300
0.134167 0.134167 0.134167
0.138175 0.138175 0.138175
0.143381 0.143381 0.143381
0.149756 0.149756 0.149756
0.157237 0.157237 0.157237
0.165738 0.165738 0.165738
0.175163 0.175163 0.175163
0.185412 0.185412 0.185412
0.196385 0.196385 0.196385
0.207994 0.207994 0.207994
0.220155 0.220155 0.220155
0.232796 0.232796 0.232796
0.245853 0.245853 0.245853
0.259271 0.259271 0.259271
0.273003 0.273003 0.273003
0.287006 0.287006 0.287006
0.301248 0.301248 0.301248
0.315697 0.315697 0.315697
0.330329 0.330329 0.330329
0.345121 0.345121 0.345121
0.360054 0.360054 0.360054
0.375112 0.375112 0.375112
0.390282 0.390282 0.390282
0.405550 0.405550 0.405550
0.420907 0.420907 0.420907
0.436343 0.436343 0.436343
0.451850 0.451850 0.451850
0.467421 0.467421 0.467421
0.483050 0.483050 0.483050
0.498732 0.498732 0.498732
0.515039 0.515039 0.515039
0.155890 0.155890 0.155890
0.158028 0.158028 0.158028
0.160412 0.160412 0.160412
0.163766 0.163766 0.163766
0.168161 0.168161 0.168161
0.173596 0.173596 0.173596
0.180045 0.180045 0.180045
0.187458 0.187458 0.187458
0.195771 0.195771 0.195771
0.204910 0.204910 0.204910
0.214800 0.214800 0.214800
0.225366 0.225366 0.225366
0.236535 0.236535 0.236535
0.248239 0.248239 0.248239
0.260418 0.260418 0.260418
0.273017 0.273017 0.273017
0.285987 0.285987 0.285987
0.299283 0.299283 0.299283
0.312870 0.312870 0.312870
0.326712 0.326712 0.326712
0.340781 0.340781 0.340781
0.355052 0.355052 0.355052
0.369502 0.369502 0.369502
0.384112 0.384112 0.384112
0.398865 0.398865 0.398865
0.413746 0.413746 0.413746
0.428742 0.428742 0.428742
0.443842 0.443842 0.443842
0.459035 0.459035 0.459035
0.474313 0.474313 0.474313
0.489668 0.489668 0.489668
0.505296 0.505296 0.505296
0.521403 0.521403 0.521403
0.183067 0.183067 0.183067
0.184874 0.184874 0.184874
0.186897 0.186897 0.186897
0.189756 0.189756 0.189756
0.193524 0.193524 0.193524
0.198217 0.198217 0.198217
0.203828 0.203828 0.203828
0.210334 0.210334 0.210334
0.217694 0.217694 0.217694
0.225859 0.225859 0.225859
0.234771 0.234771 0.234771
0.244371 0.244371 0.244371
0.254599 0.254599 0.254599
0.265398 0.265398 0.265398
0.276712 0.276712 0.276712
0.288489 0.288489 0.288489
0.300682 0.300682 0.300682
0.313248 0.313248 0.313248
0.326147 0.326147 0.326147
0.339347 0.339347 0.339347
0.352814 0.352814 0.352814
0.366522 0.366522 0.366522
0.380445 0.380445 0.380445
0.394563 0.394563 0.394563
0.408856 0.408856 0.408856
0.423307 0.423307 0.423307
0.437900 0.437900 0.437900
0.452622 0.452622 0.452622
0.467461 0.467461 0.467461
0.482407 0.482407 0.482407
0.497449 0.497449 0.497449
0.513083 0.513083 0.513083
0.528903 0.528903 0.528903
0.210243 0.210243 0.210243
0.211799 0.211799 0.211799
0.213544 0.213544 0.213544
0.216019 0.216019 0.216019
0.219293 0.219293 0.219293
0.223391 0.223391 0.223391
0.228321 0.228321 0.228321
0.234073 0.234073 0.234073
0.240624 0.240624 0.240624
0.247942 0.247942 0.247942
0.255986 0.255986 0.255986
0.264713 0.264713 0.264713
0.274074 0.274074 0.274074
0.284020 0.284020 0.284020
0.294505 0.294505 0.294505
0.305482 0.305482 0.305482
0.316908 0.316908 0.316908
0.328742 0.328742 0.328742
0.340946 0.340946 0.340946
0.353485 0.353485 0.353485
0.366328 0.366328 0.366328
0.379447 0.379447 0.379447
0.392815 0.392815 0.392815
0.406409 0.406409 0.406409
0.420209 0.420209 0.420209
0.434195 0.434195 0.434195
0.448351 0.448351 0.448351
0.462661 0.462661 0.462661
0.477112 0.477112 0.477112
0.491692 0.491692 0.491692
0.506645 0.506645 0.506645
0.522042 0.522042 0.522042
0.537541 0.537541 0.537541
0.237420 0.237420 0.237420
0.238778 0.238778 0.238778
0.240304 0.240304 0.240304
0.242474 0.242474 0.242474
0.245352 0.245352 0.245352
0.248969 0.248969 0.248969
0.253338 0.253338 0.253338
0.258460 0.258460 0.258460
0.264325 0.264325 0.264325
0.270913 0.270913 0.270913
0.278196 0.278196 0.278196
0.286143 0.286143 0.286143
0.294715 0.294715 0.294715
0.303875 0.303875 0.303875
0.313583 0.313583 0.313583
0.323799 0.323799 0.323799
0.334485 0.334485 0.334485
0.345603 0.345603 0.345603
0.357118 0.357118 0.357118
0.368997 0.368997 0.368997
0.381210 0.381210 0.381210
0.393727 0.393727 0.393727
0.406523 0.406523 0.406523
0.419575 0.419575 0.419575
0.432859 0.432859 0.432859
0.446357 0.446357 0.446357
0.460049 0.460049 0.460049
0.473921 0.473921 0.473921
0.487957 0.487957 0.487957
0.502228 0.502228 0.502228
0.517126 0.517126 0.517126
0.532155 0.532155 0.532155
0.547306 0.547306 0.547306
0.264597 0.264597 0.264597
0.265797 0.265797 0.265797
0.267147 0.267147 0.267147
0.269069 0.269069 0.269069
0.271626 0.271626 0.271626
0.274847 0.274847 0.274847
0.278751 0.278751 0.278751
0.283344 0.283344 0.283344
0.288626 0.288626 0.288626
0.294584 0.294584 0.294584
0.301202 0.301202 0.301202
0.308457 0.308457 0.308457
0.316321 0.316321 0.316321
0.324764 0.324764 0.324764
0.333753 0.333753 0.333753
0.343257 0.343257 0.343257
0.353240 0.353240 0.353240
0.363671 0.363671 0.363671
0.374518 0.374518 0.374518
0.385750 0.385750 0.385750
0.397337 0.397337 0.397337
0.409254 0.409254 0.409254
0.421474 0.421474 0.421474
0.433973 0.433973 0.433973
0.446730 0.446730 0.446730
0.459724 0.459724 0.459724
0.472936 0.472936 0.472936
0.486350 0.486350 0.486350
0.499950 0.499950 0.499950
0.514270 0.514270 0.514270
0.528757 0.528757 0.528757
0.543395 0.543395 0.543395
0.558175 0.558175 0.558175
0.291773 0.291773 0.291773
0.292844 0.292844 0.292844
0.294050 0.294050 0.294050
0.295770 0.295770 0.295770
0.298060 0.298060 0.298060
0.300952 0.300952 0.300952
0.304466 0.304466 0.304466
0.308613 0.308613 0.308613
0.313396 0.313396 0.313396
0.318811 0.318811 0.318811
0.324848 0.324848 0.324848
0.331492 0.331492 0.331492
0.338722 0.338722 0.338722
0.346516 0.346516 0.346516
0.354848 0.354848 0.354848
0.363691 0.363691 0.363691
0.373018 0.373018 0.373018
0.382798 0.382798 0.382798
0.393006 0.393006 0.393006
0.403612 0.403612 0.403612
0.414591 0.414591 0.414591
0.425916 0.425916 0.425916
0.437564 0.437564 0.437564
0.449512 0.449512 0.449512
0.461738 0.461738 0.461738
0.474222 0.474222 0.474222
0.486945 0.486945 0.486945
0.499889 0.499889 0.499889
0.513562 0.513562 0.513562
0.527436 0.527436 0.527436
0.541495 0.541495 0.541495
0.555725 0.555725 0.555725
0.570114 0.570114 0.570114
0.318950 0.318950 0.318950
0.319914 0.319914 0.319914
0.321000 0.321000 0.321000
0.322550 0.322550 0.322550
0.324618 0.324618 0.324618
0.327233 0.327233 0.327233
0.330417 0.330417 0.330417
0.334183 0.334183 0.334183
0.338538 0.338538 0.338538
0.343482 0.343482 0.343482
0.349011 0.349011 0.349011
0.355115 0.355115 0.355115
0.361781 0.361781 0.361781
0.368990 0.368990 0.368990
0.376724 0.376724 0.376724
0.384961 0.384961 0.384961
0.393677 0.393677 0.393677
0.402848 0.402848 0.402848
0.412451 0.412451 0.412451
0.422461 0.422461 0.422461
0.432853 0.432853 0.432853
0.443605 0.443605 0.443605
0.454694 0.454694 0.454694
0.466098 0.466098 0.466098
0.477797 0.477797 0.477797
0.489771 0.489771 0.489771
0.502082 0.502082 0.502082
0.515052 0.515052 0.515052
0.528253 0.528253 0.528253
0.541671 0.541671 0.541671
0.555291 0.555291 0.555291
0.569100 0.569100 0.569100
0.583084 0.583084 0.583084
0.346126 0.346126 0.346126
0.347000 0.347000 0.347000
0.347986 0.347986 0.347986
0.349394 0.349394 0.349394
0.351273 0.351273 0.351273
0.353653 0.353653 0.353653
0.356554 0.356554 0.356554
0.359993 0.359993 0.359993
0.363978 0.363978 0.363978
0.368513 0.368513 0.368513
0.373596 0.373596 0.373596
0.379224 0.379224 0.379224
0.385386 0.385386 0.385386
0.392070 0.392070 0.392070
0.399262 0.399262 0.399262
0.406943 0.406943 0.406943
0.415097 0.415097 0.415097
0.423701 0.423701 0.423701
0.432737 0.432737 0.432737
0.442182 0.442182 0.442182
0.452015 0.452015 0.452015
0.462216 0.462216 0.462216
0.472764 0.472764 0.472764
0.483638 0.483638 0.483638
0.494821 0.494821 0.494821
0.506543 0.506543 0.506543
0.518756 0.518756 0.518756
0.531232 0.531232 0.531232
0.543957 0.543957 0.543957
0.556914 0.556914 0.556914
0.570090 0.570090 0.570090
0.583469 0.583469 0.583469
0.597039 0.597039 0.597039
0.373303 0.373303 0.373303
0.374100 0.374100 0.374100
0.375000 0.375000 0.375000
0.376286 0.376286 0.376286
0.378004 0.378004 0.378004
0.380182 0.380182 0.380182
0.382841 0.382841 0.382841
0.385997 0.385997 0.385997
0.389660 0.389660 0.389660
0.393837 0.393837 0.393837
0.398528 0.398528 0.398528
0.403733 0.403733 0.403733
0.409446 0.409446 0.409446
0.415659 0.415659 0.415659
0.422359 0.422359 0.422359
0.429535 0.429535 0.429535
0.437171 0.437171 0.437171
0.445251 0.445251 0.445251
0.453757 0.453757 0.453757
0.462672 0.462672 0.462672
0.471976 0.471976 0.471976
0.481652 0.481652 0.481652
0.491681 0.491681 0.491681
0.502126 0.502126 0.502126
0.513233 0.513233 0.513233
0.524652 0.524652 0.524652
0.536365 0.536365 0.536365
0.548355 0.548355 0.548355
0.560606 0.560606 0.560606
0.573103 0.573103 0.573103
0.585832 0.585832 0.585832
0.598779 0.598779 0.598779
0.611931 0.611931 0.611931
0.400479 0.400479 0.400479
0.401211 0.401211 0.401211
0.402037 0.402037 0.402037
0.403218 0.403218 0.403218
0.404797 0.404797 0.404797
0.406801 0.406801 0.406801
0.409249 0.409249 0.409249
0.412158 0.412158 0.412158
0.415540 0.415540 0.415540
0.419402 0.419402 0.419402
0.423747 0.423747 0.423747
0.428577 0.428577 0.428577
0.433889 0.433889 0.433889
0.439677 0.439677 0.439677
0.445934 0.445934 0.445934
0.452649 0.452649 0.452649
0.459811 0.459811 0.459811
0.467406 0.467406 0.467406
0.475421 0.475421 0.475421
0.483840 0.483840 0.483840
0.492647 0.492647 0.492647
0.501898 0.501898 0.501898
0.511814 0.511814 0.511814
0.522082 0.522082 0.522082
0.532686 0.532686 0.532686
0.543609 0.543609 0.543609
0.554834 0.554834 0.554834
0.566347 0.566347 0.566347
0.578132 0.578132 0.578132
0.590174 0.590174 0.590174
0.602460 0.602460 0.602460
0.614975 0.614975 0.614975
0.627707 0.627707 0.627707
0.427656 0.427656 0.427656
0.428331 0.428331 0.428331
0.429093 0.429093 0.429093
0.430183 0.430183 0.430183
0.431641 0.431641 0.431641
0.433492 0.433492 0.433492
0.435756 0.435756 0.435756
0.438449 0.438449 0.438449
0.441583 0.441583 0.441583
0.445167 0.445167 0.445167
0.449205 0.449205 0.449205
0.453701 0.453701 0.453701
0.458654 0.458654 0.458654
0.464060 0.464060 0.464060
0.469914 0.469914 0.469914
0.476210 0.476210 0.476210
0.482938 0.482938 0.482938
0.490088 0.490088 0.490088
0.497647 0.497647 0.497647
0.505828 0.505828 0.505828
0.514502 0.514502 0.514502
0.523561 0.523561 0.523561
0.532989 0.532989 0.532989
0.542771 0.542771 0.542771
0.552892 0.552892 0.552892
0.563338 0.563338 0.563338
0.574092 0.574092 0.574092
0.585141 0.585141 0.585141
0.596470 0.596470 0.596470
0.608065 0.608065 0.608065
0.619912 0.619912 0.619912
0.632000 0.632000 0.632000
0.644316 0.644316 0.644316
0.454833 0.454833 0.454833
0.455458 0.455458 0.455458
0.456164 0.456164 0.456164
0.457174 0.457174 0.457174
0.458526 0.458526 0.458526
0.460243 0.460243 0.460243
0.462345 0.462345 0.462345
0.464848 0.464848 0.464848
0.467763 0.467763 0.467763
0.471100 0.471100 0.471100
0.474865 0.474865 0.474865
0.479062 0.479062 0.479062
0.483691 0.483691 0.483691
0.488753 0.488753 0.488753
0.494243 0.494243 0.494243
0.500164 0.500164 0.500164
0.506748 0.506748 0.506748
0.513757 0.513757 0.513757
0.521181 0.521181 0.521181
0.529009 0.529009 0.529009
0.537230 0.537230 0.537230
0.545830 0.545830 0.545830
0.554798 0.554798 0.554798
0.564119 0.564119 0.564119
0.573781 0.573781 0.573781
0.583768 0.583768 0.583768
0.594069 0.594069 0.594069
0.604669 0.604669 0.604669
0.615555 0.615555 0.615555
0.626713 0.626713 0.626713
0.638133 0.638133 0.638133
0.649800 0.649800 0.649800
0.661704 0.661704 0.661704
0.482009 0.482009 0.482009
0.482591 0.482591 0.482591
0.483247 0.483247 0.483247
0.484187 0.484187 0.484187
0.485446 0.485446 0.485446
0.487045 0.487045 0.487045
0.489003 0.489003 0.489003
0.491337 0.491337 0.491337
0.494057 0.494057 0.494057
0.497174 0.497174 0.497174
0.500722 0.500722 0.500722
0.504808 0.504808 0.504808
0.509321 0.509321 0.509321
0.514261 0.514261 0.514261
0.519627 0.519627 0.519627
0.525415 0.525415 0.525415
0.531621 0.531621 0.531621
0.538238 0.538238 0.538238
0.545257 0.545257 0.545257
0.552671 0.552671 0.552671
0.560469 0.560469 0.560469
0.568641 0.568641 0.568641
0.577175 0.577175 0.577175
0.586061 0.586061 0.586061
0.595285 0.595285 0.595285
0.604836 0.604836 0.604836
0.614702 0.614702 0.614702
0.624869 0.624869 0.624869
0.635327 0.635327 0.635327
0.646062 0.646062 0.646062
0.657064 0.657064 0.657064
0.668320 0.668320 0.668320
0.679819 0.679819 0.679819
0.509553 0.509553 0.509553
0.510118 0.510118 0.510118
0.510755 0.510755 0.510755
0.511668 0.511668 0.511668
0.512890 0.512890 0.512890
0.514444 0.514444 0.514444
0.516348 0.516348 0.516348
0.518618 0.518618 0.518618
0.521266 0.521266 0.521266
0.524303 0.524303 0.524303
0.527736 0.527736 0.527736
0.531570 0.531570 0.531570
0.535810 0.535810 0.535810
0.540457 0.540457 0.540457
0.545510 0.545510 0.545510
0.550968 0.550968 0.550968
0.556827 0.556827 0.556827
0.563083 0.563083 0.563083
0.569729 0.569729 0.569729
0.576758 0.576758 0.576758
0.584163 0.584163 0.584163
0.591933 0.591933 0.591933
0.600061 0.600061 0.600061
0.608535 0.608535 0.608535
0.617345 0.617345 0.617345
0.626481 0.626481 0.626481
0.635931 0.635931 0.635931
0.645684 0.645684 0.645684
0.655730 0.655730 0.655730
0.666056 0.666056 0.666056
0.676653 0.676653 0.676653
0.687509 0.687509 0.687509
0.698613 0.698613 0.698613
0.537817 0.537817 0.537817
0.538345 0.538345 0.538345
0.538942 0.538942 0.538942
0.539797 0.539797 0.539797
0.540942 0.540942 0.540942
0.542399 0.542399 0.542399
0.544184 0.544184 0.544184
0.546314 0.546314 0.546314
0.548799 0.548799 0.548799
0.551652 0.551652 0.551652
0.554879 0.554879 0.554879
0.558486 0.558486 0.558486
0.562479 0.562479 0.562479
0.566859 0.566859 0.566859
0.571627 0.571627 0.571627
0.576783 0.576783 0.576783
0.582324 0.582324 0.582324
0.588248 0.588248 0.588248
0.594548 0.594548 0.594548
0.601221 0.601221 0.601221
0.608259 0.608259 0.608259
0.615655 0.615655 0.615655
0.623401 0.623401 0.623401
0.631488 0.631488 0.631488
0.639907 0.639907 0.639907
0.648649 0.648649 0.648649
0.657703 0.657703 0.657703
0.667061 0.667061 0.667061
0.676711 0.676711 0.676711
0.686644 0.686644 0.686644
0.696849 0.696849 0.696849
0.707316 0.707316 0.707316
0.718036 0.718036 0.718036
0.566081 0.566081 0.566081
0.566577 0.566577 0.566577
0.567138 0.567138 0.567138
0.567940 0.567940 0.567940
0.569016 0.569016 0.569016
0.570385 0.570385 0.570385
0.572064 0.572064 0.572064
0.574067 0.574067 0.574067
0.576406 0.576406 0.576406
0.579092 0.579092 0.579092
0.582133 0.582133 0.582133
0.585535 0.585535 0.585535
0.589303 0.589303 0.589303
0.593440 0.593440 0.593440
0.597948 0.597948 0.597948
0.602827 0.602827 0.602827
0.608076 0.608076 0.608076
0.613693 0.613693 0.613693
0.619675 0.619675 0.619675
0.626017 0.626017 0.626017
0.632714 0.632714 0.632714
0.639760 0.639760 0.639760
0.647148 0.647148 0.647148
0.654871 0.654871 0.654871
0.662921 0.662921 0.662921
0.671290 0.671290 0.671290
0.679969 0.679969 0.679969
0.688949 0.688949 0.688949
0.698221 0.698221 0.698221
0.707775 0.707775 0.707775
0.717604 0.717604 0.717604
0.727697 0.727697 0.727697
0.738044 0.738044 0.738044
0.594344 0.594344 0.594344
0.594811 0.594811 0.594811
0.595340 0.595340 0.595340
0.596096 0.596096 0.596096
0.597109 0.597109 0.597109
0.598399 0.598399 0.598399
0.599982 0.599982 0.599982
0.601870 0.601870 0.601870
0.604077 0.604077 0.604077
0.606613 0.606613 0.606613
0.609484 0.609484 0.609484
0.612699 0.612699 0.612699
0.616262 0.616262 0.616262
0.620177 0.620177 0.620177
0.624447 0.624447 0.624447
0.629072 0.629072 0.629072
0.634053 0.634053 0.634053
0.639387 0.639387 0.639387
0.645074 0.645074 0.645074
0.651109 0.651109 0.651109
0.657488 0.657488 0.657488
0.664208 0.664208 0.664208
0.671261 0.671261 0.671261
0.678642 0.678642 0.678642
0.686344 0.686344 0.686344
0.694360 0.694360 0.694360
0.702682 0.702682 0.702682
0.711303 0.711303 0.711303
0.720214 0.720214 0.720214
0.729407 0.729407 0.729407
0.738874 0.738874 0.738874
0.748605 0.748605 0.748605
0.758594 0.758594 0.758594
0.622608 0.622608 0.622608
0.623049 0.623049 0.623049
0.623547 0.623547 0.623547
0.624261 0.624261 0.624261
0.625219 0.625219 0.625219
0.626437 0.626437 0.626437
0.627932 0.627932 0.627932
0.629717 0.629717 0.629717
0.631804 0.631804 0.631804
0.634202 0.634202 0.634202
0.636919 0.636919 0.636919
0.639964 0.639964 0.639964
0.643340 0.643340 0.643340
0.647052 0.647052 0.647052
0.651103 0.651103 0.651103
0.655494 0.655494 0.655494
0.660227 0.660227 0.660227
0.665301 0.665301 0.665301
0.670714 0.670714 0.670714
0.676464 0.676464 0.676464
0.682548 0.682548 0.682548
0.688962 0.688962 0.688962
0.695702 0.695702 0.695702
0.702762 0.702762 0.702762
0.710136 0.710136 0.710136
0.717819 0.717819 0.717819
0.725804 0.725804 0.725804
0.734083 0.734083 0.734083
0.742651 0.742651 0.742651
0.751498 0.751498 0.751498
0.760618 0.760618 0.760618
0.770002 0.770002 0.770002
0.779644 0.779644 0.779644
0.650871 0.650871 0.650871
0.651289 0.651289 0.651289
0.651760 0.651760 0.651760
0.652436 0.652436 0.652436
0.653342 0.653342 0.653342
0.654495 0.654495 0.654495
0.655911 0.655911 0.655911
0.657602 0.657602 0.657602
0.659579 0.659579 0.659579
0.661852 0.661852 0.661852
0.664429 0.664429 0.664429
0.667317 0.667317 0.667317
0.670521 0.670521 0.670521
0.674047 0.674047 0.674047
0.677897 0.677897 0.677897
0.682073 0.682073 0.682073
0.686577 0.686577 0.686577
0.691409 0.691409 0.691409
0.696569 0.696569 0.696569
0.702054 0.702054 0.702054
0.707863 0.707863 0.707863
0.713992 0.713992 0.713992
0.720438 0.720438 0.720438
0.727197 0.727197 0.727197
0.734263 0.734263 0.734263
0.741631 0.741631 0.741631
0.749296 0.749296 0.749296
0.757252 0.757252 0.757252
0.765492 0.765492 0.765492
0.774009 0.774009 0.774009
0.782797 0.782797 0.782797
0.791849 0.791849 0.791849
0.801158 0.801158 0.801158
0.679135 0.679135 0.679135
0.679531 0.679531 0.679531
0.679978 0.679978 0.679978
0.680619 0.680619 0.680619
0.681478 0.681478 0.681478
0.682572 0.682572 0.682572
0.683915 0.683915 0.683915
0.685520 0.685520 0.685520
0.687396 0.687396 0.687396
0.689555 0.689555 0.689555
0.692003 0.692003 0.692003
0.694747 0.694747 0.694747
0.697794 0.697794 0.697794
0.701148 0.701148 0.701148
0.704813 0.704813 0.704813
0.708791 0.708791 0.708791
0.713084 0.713084 0.713084
0.717692 0.717692 0.717692
0.722616 0.722616 0.722616
0.727855 0.727855 0.727855
0.733407 0.733407 0.733407
0.739270 0.739270 0.739270
0.745440 0.745440 0.745440
0.751916 0.751916 0.751916
0.758692 0.758692 0.758692
0.765764 0.765764 0.765764
0.773126 0.773126 0.773126
0.780775 0.780775 0.780775
0.788704 0.788704 0.788704
0.796907 0.796907 0.796907
0.805378 0.805378 0.805378
0.814111 0.814111 0.814111
0.823100 0.823100 0.823100
0.707399 0.707399 0.707399
0.707775 0.707775 0.707775
0.708200 0.708200 0.708200
0.708808 0.708808 0.708808
0.709625 0.709625 0.709625
0.710664 0.710664 0.710664
0.711941 0.711941 0.711941
0.713467 0.713467 0.713467
0.715251 0.715251 0.715251
0.717305 0.717305 0.717305
0.719634 0.719634 0.719634
0.722247 0.722247 0.722247
0.725149 0.725149 0.725149
0.728345 0.728345 0.728345
0.731838 0.731838 0.731838
0.735632 0.735632 0.735632
0.739729 0.739729 0.739729
0.744130 0.744130 0.744130
0.748835 0.748835 0.748835
0.753844 0.753844 0.753844
0.759156 0.759156 0.759156
0.764770 0.764770 0.764770
0.770683 0.770683 0.770683
0.776893 0.776893 0.776893
0.783395 0.783395 0.783395
