docs/luts/fuji_recipes/Acros_JC_Acros_2.cube
TITLE "Fujifilm Recipe: JC Acros 2 (Acros)"
# FilmSim=Acros HL=2 SH=2 Col=0 WB=Auto WBR=1 WBB=0
LUT_3D_SIZE 9
DOMAIN_MIN 0.0 0.0 0.0
DOMAIN_MAX 1.0 1.0 1.0
0.000000 0.000000 0.000000
0.037780 0.037780 0.037780
0.099616 0.099616 0.099616
0.161451 0.161451 0.161451
0.223287 0.223287 0.223287
0.285123 0.285123 0.285123
0.346959 0.346959 0.346959
0.408794 0.408794 0.408794
0.458565 0.458565 0.458565
0.093414 0.093414 0.093414
0.110554 0.110554 0.110554
0.145836 0.145836 0.145836
0.193009 0.193009 0.193009
0.246315 0.246315 0.246315
0.302814 0.302814 0.302814
0.361087 0.361087 0.361087
0.420416 0.420416 0.420416
0.510173 0.510173 0.510173
0.193424 0.193424 0.193424
0.202092 0.202092 0.202092
0.222665 0.222665 0.222665
0.254838 0.254838 0.254838
0.295867 0.295867 0.295867
0.343026 0.343026 0.343026
0.394293 0.394293 0.394293
0.448321 0.448321 0.448321
0.538985 0.538985 0.538985
0.293434 0.293434 0.293434
0.298866 0.298866 0.298866
0.312321 0.312321 0.312321
0.334776 0.334776 0.334776
0.365509 0.365509 0.365509
0.403131 0.403131 0.403131
0.446154 0.446154 0.446154
0.539071 0.539071 0.539071
0.586279 0.586279 0.586279
0.393444 0.393444 0.393444
0.397263 0.397263 0.397263
0.406883 0.406883 0.406883
0.423410 0.423410 0.423410
0.446888 0.446888 0.446888
0.519714 0.519714 0.519714
0.561395 0.561395 0.561395
0.608580 0.608580 0.608580
0.649866 0.649866 0.649866
0.539271 0.539271 0.539271
0.542653 0.542653 0.542653
0.551238 0.551238 0.551238
0.566204 0.566204 0.566204
0.587904 0.587904 0.587904
0.616217 0.616217 0.616217
0.650695 0.650695 0.650695
0.690697 0.690697 0.690697
0.726422 0.726422 0.726422
0.656674 0.656674 0.656674
0.659348 0.659348 0.659348
0.666164 0.666164 0.666164
0.678143 0.678143 0.678143
0.695720 0.695720 0.695720
0.718999 0.718999 0.718999
0.747827 0.747827 0.747827
0.781865 0.781865 0.781865
0.812741 0.812741 0.812741
0.774077 0.774077 0.774077
0.776263 0.776263 0.776263
0.781850 0.781850 0.781850
0.791717 0.791717 0.791717
0.806303 0.806303 0.806303
0.825807 0.825807 0.825807
0.850234 0.850234 0.850234
0.879436 0.879436 0.879436
0.906232 0.906232 0.906232
0.891480 0.891480 0.891480
0.893313 0.893313 0.893313
0.898005 0.898005 0.898005
0.906319 0.906319 0.906319
0.918667 0.918667 0.918667
0.935285 0.935285 0.935285
0.956261 0.956261 0.956261
0.981560 0.981560 0.981560
1.000000 1.000000 1.000000
0.012315 0.012315 0.012315
0.048802 0.048802 0.048802
0.105181 0.105181 0.105181
0.164935 0.164935 0.164935
0.225735 0.225735 0.225735
0.286968 0.286968 0.286968
0.348417 0.348417 0.348417
0.409986 0.409986 0.409986
0.459597 0.459597 0.459597
0.099302 0.099302 0.099302
0.115617 0.115617 0.115617
0.149705 0.149705 0.149705
0.195888 0.195888 0.195888
0.248504 0.248504 0.248504
0.304532 0.304532 0.304532
0.362475 0.362475 0.362475
0.421567 0.421567 0.421567
0.511352 0.511352 0.511352
0.196295 0.196295 0.196295
0.204828 0.204828 0.204828
0.225120 0.225120 0.225120
0.256943 0.256943 0.256943
0.297633 0.297633 0.297633
0.344505 0.344505 0.344505
0.395540 0.395540 0.395540
0.449383 0.449383 0.449383
0.540091 0.540091 0.540091
0.295217 0.295217 0.295217
0.300611 0.300611 0.300611
0.313977 0.313977 0.313977
0.336299 0.336299 0.336299
0.366877 0.366877 0.366877
0.404343 0.404343 0.404343
0.447222 0.447222 0.447222
0.540176 0.540176 0.540176
0.587280 0.587280 0.587280
0.394693 0.394693 0.394693
0.398498 0.398498 0.398498
0.408081 0.408081 0.408081
0.424551 0.424551 0.424551
0.447955 0.447955 0.447955
0.520868 0.520868 0.520868
0.562449 0.562449 0.562449
0.609537 0.609537 0.609537
0.650750 0.650750 0.650750
0.540376 0.540376 0.540376
0.543750 0.543750 0.543750
0.552314 0.552314 0.552314
0.567247 0.567247 0.567247
0.588901 0.588901 0.588901
0.617160 0.617160 0.617160
0.651578 0.651578 0.651578
0.691518 0.691518 0.691518
0.727194 0.727194 0.727194
0.657547 0.657547 0.657547
0.660216 0.660216 0.660216
0.667021 0.667021 0.667021
0.678982 0.678982 0.678982
0.696533 0.696533 0.696533
0.719780 0.719780 0.719780
0.748571 0.748571 0.748571
0.782569 0.782569 0.782569
0.813412 0.813412 0.813412
0.774790 0.774790 0.774790
0.776974 0.776974 0.776974
0.782554 0.782554 0.782554
0.792411 0.792411 0.792411
0.806981 0.806981 0.806981
0.826465 0.826465 0.826465
0.850869 0.850869 0.850869
0.880044 0.880044 0.880044
0.906818 0.906818 0.906818
0.892078 0.892078 0.892078
0.893909 0.893909 0.893909
0.898598 0.898598 0.898598
0.906904 0.906904 0.906904
0.919243 0.919243 0.919243
0.935848 0.935848 0.935848
0.956808 0.956808 0.956808
0.982089 0.982089 0.982089
1.000000 1.000000 1.000000
0.043259 0.043259 0.043259
0.071107 0.071107 0.071107
0.118222 0.118222 0.118222
0.173466 0.173466 0.173466
0.231832 0.231832 0.231832
0.291602 0.291602 0.291602
0.352095 0.352095 0.352095
0.413001 0.413001 0.413001
0.502597 0.502597 0.502597
0.112994 0.112994 0.112994
0.127619 0.127619 0.127619
0.159109 0.159109 0.159109
0.203009 0.203009 0.203009
0.253976 0.253976 0.253976
0.308853 0.308853 0.308853
0.365981 0.365981 0.365981
0.424479 0.424479 0.424479
0.514339 0.514339 0.514339
0.203401 0.203401 0.203401
0.211614 0.211614 0.211614
0.231236 0.231236 0.231236
0.262210 0.262210 0.262210
0.302073 0.302073 0.302073
0.348234 0.348234 0.348234
0.398690 0.398690 0.398690
0.452072 0.452072 0.452072
0.542893 0.542893 0.542893
0.299700 0.299700 0.299700
0.304999 0.304999 0.304999
0.318144 0.318144 0.318144
0.340138 0.340138 0.340138
0.370332 0.370332 0.370332
0.407410 0.407410 0.407410
0.449928 0.449928 0.449928
0.542978 0.542978 0.542978
0.589817 0.589817 0.589817
0.397852 0.397852 0.397852
0.401620 0.401620 0.401620
0.411113 0.411113 0.411113
0.427437 0.427437 0.427437
0.450655 0.450655 0.450655
0.523792 0.523792 0.523792
0.565120 0.565120 0.565120
0.611964 0.611964 0.611964
0.652993 0.652993 0.652993
0.543176 0.543176 0.543176
0.546530 0.546530 0.546530
0.555043 0.555043 0.555043
0.569891 0.569891 0.569891
0.591430 0.591430 0.591430
0.619551 0.619551 0.619551
0.653817 0.653817 0.653817
0.693601 0.693601 0.693601
0.729153 0.729153 0.729153
0.659762 0.659762 0.659762
0.662420 0.662420 0.662420
0.669198 0.669198 0.669198
0.681112 0.681112 0.681112
0.698598 0.698598 0.698598
0.721764 0.721764 0.721764
0.750461 0.750461 0.750461
0.784359 0.784359 0.784359
0.815117 0.815117 0.815117
0.776602 0.776602 0.776602
0.778779 0.778779 0.778779
0.784344 0.784344 0.784344
0.794173 0.794173 0.794173
0.808704 0.808704 0.808704
0.828137 0.828137 0.828137
0.852481 0.852481 0.852481
0.881590 0.881590 0.881590
0.908306 0.908306 0.908306
0.893597 0.893597 0.893597
0.895425 0.895425 0.895425
0.900103 0.900103 0.900103
0.908393 0.908393 0.908393
0.920706 0.920706 0.920706
0.937278 0.937278 0.937278
0.958199 0.958199 0.958199
0.983435 0.983435 0.983435
1.000000 1.000000 1.000000
0.081726 0.081726 0.081726
0.100712 0.100712 0.100712
0.138502 0.138502 0.138502
0.187642 0.187642 0.187642
0.242271 0.242271 0.242271
0.299655 0.299655 0.299655
0.358541 0.358541 0.358541
0.418310 0.418310 0.418310
0.508017 0.508017 0.508017
0.134066 0.134066 0.134066
0.146591 0.146591 0.146591
0.174554 0.174554 0.174554
0.215058 0.215058 0.215058
0.263406 0.263406 0.263406
0.316383 0.316383 0.316383
0.372133 0.372133 0.372133
0.429611 0.429611 0.429611
0.519616 0.519616 0.519616
0.215425 0.215425 0.215425
0.223141 0.223141 0.223141
0.241704 0.241704 0.241704
0.271307 0.271307 0.271307
0.309802 0.309802 0.309802
0.354765 0.354765 0.354765
0.404234 0.404234 0.404234
0.456819 0.456819 0.456819
0.547848 0.547848 0.547848
0.307500 0.307500 0.307500
0.312641 0.312641 0.312641
0.325416 0.325416 0.325416
0.346856 0.346856 0.346856
0.376397 0.376397 0.376397
0.412808 0.412808 0.412808
0.454703 0.454703 0.454703
0.547932 0.547932 0.547932
0.594310 0.594310 0.594310
0.403410 0.403410 0.403410
0.407114 0.407114 0.407114
0.416452 0.416452 0.416452
0.432526 0.432526 0.432526
0.455420 0.455420 0.455420
0.528958 0.528958 0.528958
0.569846 0.569846 0.569846
0.616264 0.616264 0.616264
0.656970 0.656970 0.656970
0.548128 0.548128 0.548128
0.551446 0.551446 0.551446
0.559871 0.559871 0.559871
0.574571 0.574571 0.574571
0.595908 0.595908 0.595908
0.623787 0.623787 0.623787
0.657788 0.657788 0.657788
0.697298 0.697298 0.697298
0.732630 0.732630 0.732630
0.663690 0.663690 0.663690
0.666329 0.666329 0.666329
0.673059 0.673059 0.673059
0.684892 0.684892 0.684892
0.702263 0.702263 0.702263
0.725285 0.725285 0.725285
0.753818 0.753818 0.753818
0.787537 0.787537 0.787537
0.818148 0.818148 0.818148
0.779820 0.779820 0.779820
0.781986 0.781986 0.781986
0.787522 0.787522 0.787522
0.797303 0.797303 0.797303
0.811764 0.811764 0.811764
0.831108 0.831108 0.831108
0.855347 0.855347 0.855347
0.884338 0.884338 0.884338
0.910953 0.910953 0.910953
0.896299 0.896299 0.896299
0.898120 0.898120 0.898120
0.902780 0.902780 0.902780
0.911039 0.911039 0.911039
0.923308 0.923308 0.923308
0.939823 0.939823 0.939823
0.960674 0.960674 0.960674
0.985829 0.985829 0.985829
1.000000 1.000000 1.000000
0.120193 0.120193 0.120193
0.134040 0.134040 0.134040
0.164263 0.164263 0.164263
0.206983 0.206983 0.206983
0.257063 0.257063 0.257063
0.311307 0.311307 0.311307
0.367980 0.367980 0.367980
0.426143 0.426143 0.426143
0.516049 0.516049 0.516049
0.160569 0.160569 0.160569
0.171079 0.171079 0.171079
0.195331 0.195331 0.195331
0.231867 0.231867 0.231867
0.276893 0.276893 0.276893
0.327324 0.327324 0.327324
0.381162 0.381162 0.381162
0.437193 0.437193 0.437193
0.527441 0.527441 0.527441
0.232204 0.232204 0.232204
0.239306 0.239306 0.239306
0.256534 0.256534 0.256534
0.284354 0.284354 0.284354
0.321013 0.321013 0.321013
0.364325 0.364325 0.364325
0.412402 0.412402 0.412402
0.504517 0.504517 0.504517
0.555205 0.555205 0.555205
0.318809 0.318809 0.318809
0.323735 0.323735 0.323735
0.336003 0.336003 0.336003
0.356675 0.356675 0.356675
0.385302 0.385302 0.385302
0.420770 0.420770 0.420770
0.502080 0.502080 0.502080
0.555288 0.555288 0.555288
0.600995 0.600995 0.600995
0.411599 0.411599 0.411599
0.415212 0.415212 0.415212
0.424329 0.424329 0.424329
0.440045 0.440045 0.440045
0.502906 0.502906 0.502906
0.536623 0.536623 0.536623
0.576872 0.576872 0.576872
0.622667 0.622667 0.622667
0.662900 0.662900 0.662900
0.555481 0.555481 0.555481
0.558747 0.558747 0.558747
0.567044 0.567044 0.567044
0.581528 0.581528 0.581528
0.602572 0.602572 0.602572
0.630098 0.630098 0.630098
0.663710 0.663710 0.663710
0.702816 0.702816 0.702816
0.737825 0.737825 0.737825
0.669548 0.669548 0.669548
0.672159 0.672159 0.672159
0.678819 0.678819 0.678819
0.690531 0.690531 0.690531
0.707733 0.707733 0.707733
0.730544 0.730544 0.730544
0.758835 0.758835 0.758835
0.792291 0.792291 0.792291
0.822682 0.822682 0.822682
0.784631 0.784631 0.784631
0.786781 0.786781 0.786781
0.792276 0.792276 0.792276
0.801984 0.801984 0.801984
0.816342 0.816342 0.816342
0.835555 0.835555 0.835555
0.859637 0.859637 0.859637
0.888453 0.888453 0.888453
0.914918 0.914918 0.914918
0.900345 0.900345 0.900345
0.902156 0.902156 0.902156
0.906790 0.906790 0.906790
0.915004 0.915004 0.915004
0.927206 0.927206 0.927206
0.943635 0.943635 0.943635
0.964382 0.964382 0.964382
0.989418 0.989418 0.989418
1.000000 1.000000 1.000000
0.158660 0.158660 0.158660
0.169297 0.169297 0.169297
0.193792 0.193792 0.193792
0.230601 0.230601 0.230601
0.275865 0.275865 0.275865
0.326483 0.326483 0.326483
0.380464 0.380464 0.380464
0.436605 0.436605 0.436605
0.526833 0.526833 0.526833
0.190717 0.190717 0.190717
0.199516 0.199516 0.199516
0.220359 0.220359 0.220359
0.252868 0.252868 0.252868
0.294218 0.294218 0.294218
0.341648 0.341648 0.341648
0.393133 0.393133 0.393133
0.447333 0.447333 0.447333
0.537957 0.537957 0.537957
0.253173 0.253173 0.253173
0.259615 0.259615 0.259615
0.275378 0.275378 0.275378
0.301172 0.301172 0.301172
0.335663 0.335663 0.335663
0.376957 0.376957 0.376957
0.423289 0.423289 0.423289
0.515584 0.515584 0.515584
0.565114 0.565114 0.565114
0.333576 0.333576 0.333576
0.338242 0.338242 0.338242
0.349897 0.349897 0.349897
0.369629 0.369629 0.369629
0.397119 0.397119 0.397119
0.431395 0.431395 0.431395
0.513209 0.513209 0.513209
0.565195 0.565195 0.565195
0.610023 0.610023 0.610023
0.422512 0.422512 0.422512
0.426010 0.426010 0.426010
0.434845 0.434845 0.434845
0.450104 0.450104 0.450104
0.514014 0.514014 0.514014
0.546932 0.546932 0.546932
0.586346 0.586346 0.586346
0.631323 0.631323 0.631323
0.670932 0.670932 0.670932
0.565384 0.565384 0.565384
0.568583 0.568583 0.568583
0.576711 0.576711 0.576711
0.590914 0.590914 0.590914
0.611572 0.611572 0.611572
0.638633 0.638633 0.638633
0.671730 0.671730 0.671730
0.710300 0.710300 0.710300
0.744879 0.744879 0.744879
0.677483 0.677483 0.677483
0.680058 0.680058 0.680058
0.686624 0.686624 0.686624
0.698177 0.698177 0.698177
0.715154 0.715154 0.715154
0.737684 0.737684 0.737684
0.765650 0.765650 0.765650
0.798754 0.798754 0.798754
0.828852 0.828852 0.828852
0.791173 0.791173 0.791173
0.793300 0.793300 0.793300
0.798740 0.798740 0.798740
0.808352 0.808352 0.808352
0.822572 0.822572 0.822572
0.841607 0.841607 0.841607
0.865479 0.865479 0.865479
0.894059 0.894059 0.894059
0.920322 0.920322 0.920322
0.905859 0.905859 0.905859
0.907656 0.907656 0.907656
0.912255 0.912255 0.912255
0.920407 0.920407 0.920407
0.932520 0.932520 0.932520
0.948833 0.948833 0.948833
0.969439 0.969439 0.969439
0.994314 0.994314 0.994314
1.000000 1.000000 1.000000
0.197127 0.197127 0.197127
0.205622 0.205622 0.205622
0.225834 0.225834 0.225834
0.257555 0.257555 0.257555
0.298148 0.298148 0.298148
0.344936 0.344936 0.344936
0.395904 0.395904 0.395904
0.449694 0.449694 0.449694
0.540414 0.540414 0.540414
0.223252 0.223252 0.223252
0.230671 0.230671 0.230671
0.248592 0.248592 0.248592
0.277344 0.277344 0.277344
0.314972 0.314972 0.314972
0.359161 0.359161 0.359161
0.407983 0.407983 0.407983
0.500047 0.500047 0.500047
0.551216 0.551216 0.551216
0.277618 0.277618 0.277618
0.283413 0.283413 0.283413
0.297705 0.297705 0.297705
0.321391 0.321391 0.321391
0.353538 0.353538 0.353538
0.392567 0.392567 0.392567
0.436878 0.436878 0.436878
0.529505 0.529505 0.529505
0.577637 0.577637 0.577637
0.351579 0.351579 0.351579
0.355960 0.355960 0.355960
0.366933 0.366933 0.366933
0.385604 0.385604 0.385604
0.411791 0.411791 0.411791
0.444675 0.444675 0.444675
0.527204 0.527204 0.527204
0.577716 0.577716 0.577716
0.621472 0.621472 0.621472
0.436131 0.436131 0.436131
0.439494 0.439494 0.439494
0.447998 0.447998 0.447998
0.503188 0.503188 0.503188
0.527983 0.527983 0.527983
0.559939 0.559939 0.559939
0.598341 0.598341 0.598341
0.642316 0.642316 0.642316
0.681154 0.681154 0.681154
0.577901 0.577901 0.577901
0.581017 0.581017 0.581017
0.588941 0.588941 0.588941
0.602800 0.602800 0.602800
0.622987 0.622987 0.622987
0.649476 0.649476 0.649476
0.681937 0.681937 0.681937
0.719843 0.719843 0.719843
0.753887 0.753887 0.753887
0.687587 0.687587 0.687587
0.690116 0.690116 0.690116
0.696566 0.696566 0.696566
0.707921 0.707921 0.707921
0.724619 0.724619 0.724619
0.746799 0.746799 0.746799
0.774360 0.774360 0.774360
0.807023 0.807023 0.807023
0.836752 0.836752 0.836752
0.799539 0.799539 0.799539
0.801639 0.801639 0.801639
0.807009 0.807009 0.807009
0.816500 0.816500 0.816500
0.830546 0.830546 0.830546
0.849359 0.849359 0.849359
0.872966 0.872966 0.872966
0.901249 0.901249 0.901249
0.927256 0.927256 0.927256
0.912932 0.912932 0.912932
0.914711 0.914711 0.914711
0.919266 0.919266 0.919266
0.927340 0.927340 0.927340
0.939341 0.939341 0.939341
0.955506 0.955506 0.955506
0.975935 0.975935 0.975935
1.000000 1.000000 1.000000
1.000000 1.000000 1.000000
0.235594 0.235594 0.235594
0.242582 0.242582 0.242582
0.259559 0.259559 0.259559
0.287037 0.287037 0.287037
0.323336 0.323336 0.323336
0.366317 0.366317 0.366317
0.414113 0.414113 0.414113
0.506250 0.506250 0.506250
0.556754 0.556754 0.556754
0.257366 0.257366 0.257366
0.263689 0.263689 0.263689
0.279183 0.279183 0.279183
0.304596 0.304596 0.304596
0.338671 0.338671 0.338671
0.379569 0.379569 0.379569
0.425553 0.425553 0.425553
0.517896 0.517896 0.517896
0.567188 0.567188 0.567188
0.304840 0.304840 0.304840
0.310035 0.310035 0.310035
0.322934 0.322934 0.322934
0.344560 0.344560 0.344560
0.374321 0.374321 0.374321
0.410959 0.410959 0.410959
0.453065 0.453065 0.453065
0.546231 0.546231 0.546231
0.592767 0.592767 0.592767
0.372496 0.372496 0.372496
0.376580 0.376580 0.376580
0.386840 0.386840 0.386840
0.404389 0.404389 0.404389
0.429169 0.429169 0.429169
0.500610 0.500610 0.500610
0.544013 0.544013 0.544013
0.592843 0.592843 0.592843
0.635359 0.635359 0.635359
0.452352 0.452352 0.452352
0.455565 0.455565 0.455565
0.504344 0.504344 0.504344
0.520911 0.520911 0.520911
0.544764 0.544764 0.544764
0.575625 0.575625 0.575625
0.612862 0.612862 0.612862
0.655671 0.655671 0.655671
0.693607 0.693607 0.693607
0.593022 0.593022 0.593022
0.596044 0.596044 0.596044
0.603733 0.603733 0.603733
0.617195 0.617195 0.617195
0.636834 0.636834 0.636834
0.662657 0.662657 0.662657
0.694373 0.694373 0.694373
0.731494 0.731494 0.731494
0.764903 0.764903 0.764903
0.699900 0.699900 0.699900
0.702374 0.702374 0.702374
0.708688 0.708688 0.708688
0.719809 0.719809 0.719809
0.736177 0.736177 0.736177
0.757942 0.757942 0.757942
0.785021 0.785021 0.785021
0.817157 0.817157 0.817157
0.846444 0.846444 0.846444
0.809790 0.809790 0.809790
0.811857 0.811857 0.811857
0.817143 0.817143 0.817143
0.826489 0.826489 0.826489
0.840328 0.840328 0.840328
0.858873 0.858873 0.858873
0.882163 0.882163 0.882163
0.910088 0.910088 0.910088
0.935786 0.935786 0.935786
0.921630 0.921630 0.921630
0.923387 0.923387 0.923387
0.927889 0.927889 0.927889
0.935869 0.935869 0.935869
0.947733 0.947733 0.947733
0.963721 0.963721 0.963721
0.983934 0.983934 0.983934
1.000000 1.000000 1.000000
1.000000 1.000000 1.000000
0.274061 0.274061 0.274061
0.279944 0.279944 0.279944
0.294436 0.294436 0.294436
0.318413 0.318413 0.318413
0.350888 0.350888 0.350888
0.390240 0.390240 0.390240
0.434844 0.434844 0.434844
0.527414 0.527414 0.527414
0.575751 0.575751 0.575751
0.292548 0.292548 0.292548
0.298000 0.298000 0.298000
0.311499 0.311499 0.311499
0.334021 0.334021 0.334021
0.364831 0.364831 0.364831
0.402530 0.402530 0.402530
0.445625 0.445625 0.445625
0.538524 0.538524 0.538524
0.585784 0.585784 0.585784
0.334240 0.334240 0.334240
0.338896 0.338896 0.338896
0.350524 0.350524 0.350524
0.370215 0.370215 0.370215
0.397656 0.397656 0.397656
0.431879 0.431879 0.431879
0.513717 0.513717 0.513717
0.565649 0.565649 0.565649
0.610437 0.610437 0.610437
0.395963 0.395963 0.395963
0.399753 0.399753 0.399753
0.409299 0.409299 0.409299
0.425710 0.425710 0.425710
0.449039 0.449039 0.449039
0.522042 0.522042 0.522042
0.563521 0.563521 0.563521
0.610511 0.610511 0.610511
0.651650 0.651650 0.651650
0.512921 0.512921 0.512921
0.516507 0.516507 0.516507
0.525597 0.525597 0.525597
0.541405 0.541405 0.541405
0.564241 0.564241 0.564241
0.593907 0.593907 0.593907
0.629857 0.629857 0.629857
0.671367 0.671367 0.671367
0.708285 0.708285 0.708285
0.610683 0.610683 0.610683
0.613601 0.613601 0.613601
0.621030 0.621030 0.621030
0.634051 0.634051 0.634051
0.653080 0.653080 0.653080
0.678157 0.678157 0.678157
0.709031 0.709031 0.709031
0.745262 0.745262 0.745262
0.777945 0.777945 0.777945
0.714420 0.714420 0.714420
0.716832 0.716832 0.716832
0.722992 0.722992 0.722992
0.733847 0.733847 0.733847
0.749839 0.749839 0.749839
0.771130 0.771130 0.771130
0.797657 0.797657 0.797657
0.829187 0.829187 0.829187
0.857963 0.857963 0.857963
0.821954 0.821954 0.821954
0.823983 0.823983 0.823983
0.829173 0.829173 0.829173
0.838352 0.838352 0.838352
0.851950 0.851950 0.851950
0.870186 0.870186 0.870186
0.893107 0.893107 0.893107
0.920616 0.920616 0.920616
0.945954 0.945954 0.945954
0.931993 0.931993 0.931993
0.933727 0.933727 0.933727
0.938165 0.938165 0.938165
0.946036 0.946036 0.946036
0.957741 0.957741 0.957741
0.973521 0.973521 0.973521
0.993481 0.993481 0.993481
1.000000 1.000000 1.000000
1.000000 1.000000 1.000000
