docs/luts/fuji_recipes/AcrosR_HH_Fuji_Acros.cube
TITLE "Fujifilm Recipe: HH Fuji Acros (AcrosR)"
# FilmSim=AcrosR HL=0 SH=3 Col=0 WB=Auto WBR=0 WBB=0
LUT_3D_SIZE 5
DOMAIN_MIN 0.0 0.0 0.0
DOMAIN_MAX 1.0 1.0 1.0
0.000000 0.000000 0.000000
0.100842 0.100842 0.100842
0.223172 0.223172 0.223172
0.345501 0.345501 0.345501
0.531626 0.531626 0.531626
0.171856 0.171856 0.171856
0.204470 0.204470 0.204470
0.282343 0.282343 0.282343
0.383564 0.383564 0.383564
0.562154 0.562154 0.562154
0.352393 0.352393 0.352393
0.367585 0.367585 0.367585
0.411741 0.411741 0.411741
0.547753 0.547753 0.547753
0.648153 0.648153 0.648153
0.605603 0.605603 0.605603
0.616018 0.616018 0.616018
0.647986 0.647986 0.647986
0.703422 0.703422 0.703422
0.779472 0.779472 0.779472
0.810759 0.810759 0.810759
0.817929 0.817929 0.817929
0.840385 0.840385 0.840385
0.880812 0.880812 0.880812
0.938957 0.938957 0.938957
0.036317 0.036317 0.036317
0.115761 0.115761 0.115761
0.229963 0.229963 0.229963
0.349577 0.349577 0.349577
0.534809 0.534809 0.534809
0.180861 0.180861 0.180861
0.211951 0.211951 0.211951
0.287530 0.287530 0.287530
0.387151 0.387151 0.387151
0.565120 0.565120 0.565120
0.356372 0.356372 0.356372
0.371365 0.371365 0.371365
0.415027 0.415027 0.415027
0.550818 0.550818 0.550818
0.650626 0.650626 0.650626
0.608301 0.608301 0.608301
0.618658 0.618658 0.618658
0.650460 0.650460 0.650460
0.705647 0.705647 0.705647
0.781419 0.781419 0.781419
0.812609 0.812609 0.812609
0.819757 0.819757 0.819757
0.842150 0.842150 0.842150
0.882472 0.882472 0.882472
0.940482 0.940482 0.940482
0.105758 0.105758 0.105758
0.154132 0.154132 0.154132
0.250319 0.250319 0.250319
0.362271 0.362271 0.362271
0.544858 0.544858 0.544858
0.206858 0.206858 0.206858
0.234124 0.234124 0.234124
0.303453 0.303453 0.303453
0.398386 0.398386 0.398386
0.574501 0.574501 0.574501
0.368780 0.368780 0.368780
0.383177 0.383177 0.383177
0.425353 0.425353 0.425353
0.560504 0.560504 0.560504
0.658477 0.658477 0.658477
0.616851 0.616851 0.616851
0.627027 0.627027 0.627027
0.658313 0.658313 0.658313
0.712723 0.712723 0.712723
0.787623 0.787623 0.787623
0.818505 0.818505 0.818505
0.825587 0.825587 0.825587
0.847778 0.847778 0.847778
0.887766 0.887766 0.887766
0.945352 0.945352 0.945352
0.175198 0.175198 0.175198
0.207233 0.207233 0.207233
0.284247 0.284247 0.284247
0.384877 0.384877 0.384877
0.563238 0.563238 0.563238
0.247849 0.247849 0.247849
0.270443 0.270443 0.270443
0.331075 0.331075 0.331075
0.418610 0.418610 0.418610
0.591720 0.591720 0.591720
0.390923 0.390923 0.390923
0.404350 0.404350 0.404350
0.504611 0.504611 0.504611
0.578256 0.578256 0.578256
0.672998 0.672998 0.672998
0.632612 0.632612 0.632612
0.642469 0.642469 0.642469
0.672839 0.672839 0.672839
0.725858 0.725858 0.725858
0.799179 0.799179 0.799179
0.829502 0.829502 0.829502
0.836462 0.836462 0.836462
0.858286 0.858286 0.858286
0.897664 0.897664 0.897664
0.954470 0.954470 0.954470
0.244639 0.244639 0.244639
0.267551 0.267551 0.267551
0.328813 0.328813 0.328813
0.416922 0.416922 0.416922
0.590267 0.590267 0.590267
0.298956 0.298956 0.298956
0.317328 0.317328 0.317328
0.368987 0.368987 0.368987
0.508742 0.508742 0.508742
0.617173 0.617173 0.617173
0.422401 0.422401 0.422401
0.434628 0.434628 0.434628
0.535444 0.535444 0.535444
0.604434 0.604434 0.604434
0.694705 0.694705 0.694705
0.656056 0.656056 0.656056
0.665469 0.665469 0.665469
0.694553 0.694553 0.694553
0.745598 0.745598 0.745598
0.816647 0.816647 0.816647
0.846157 0.846157 0.846157
0.852939 0.852939 0.852939
0.874226 0.874226 0.874226
0.912706 0.912706 0.912706
0.968360 0.968360 0.968360
