docs/luts/fuji_recipes/Acros_RR_Split-Tones_B_W_1_2.cube
TITLE "Fujifilm Recipe: RR Split-Tones B&W 1/2 (Acros)"
# FilmSim=Acros HL=4 SH=4 Col=0 WB=Auto WBR=6 WBB=0
LUT_3D_SIZE 9
DOMAIN_MIN 0.0 0.0 0.0
DOMAIN_MAX 1.0 1.0 1.0
0.000000 0.000000 0.000000
0.060854 0.060854 0.060854
0.137721 0.137721 0.137721
0.214589 0.214589 0.214589
0.291456 0.291456 0.291456
0.368324 0.368324 0.368324
0.418690 0.418690 0.418690
0.418690 0.418690 0.418690
0.418690 0.418690 0.418690
0.113364 0.113364 0.113364
0.136485 0.136485 0.136485
0.183854 0.183854 0.183854
0.245419 0.245419 0.245419
0.313701 0.313701 0.313701
0.385303 0.385303 0.385303
0.518293 0.518293 0.518293
0.518293 0.518293 0.518293
0.518293 0.518293 0.518293
0.224172 0.224172 0.224172
0.236000 0.236000 0.236000
0.264553 0.264553 0.264553
0.308388 0.308388 0.308388
0.363067 0.363067 0.363067
0.506600 0.506600 0.506600
0.565956 0.565956 0.565956
0.565956 0.565956 0.565956
0.565956 0.565956 0.565956
0.334980 0.334980 0.334980
0.342416 0.342416 0.342416
0.361321 0.361321 0.361321
0.392627 0.392627 0.392627
0.520431 0.520431 0.520431
0.590481 0.590481 0.590481
0.641318 0.641318 0.641318
0.641318 0.641318 0.641318
0.641318 0.641318 0.641318
0.535612 0.535612 0.535612
0.542841 0.542841 0.542841
0.561603 0.561603 0.561603
0.593791 0.593791 0.593791
0.639068 0.639068 0.639068
0.695964 0.695964 0.695964
0.738625 0.738625 0.738625
0.738625 0.738625 0.738625
0.738625 0.738625 0.738625
0.688633 0.688633 0.688633
0.694088 0.694088 0.694088
0.708387 0.708387 0.708387
0.733370 0.733370 0.733370
0.769390 0.769390 0.769390
0.815937 0.815937 0.815937
0.851655 0.851655 0.851655
0.851655 0.851655 0.851655
0.851655 0.851655 0.851655
0.841654 0.841654 0.841654
0.845967 0.845967 0.845967
0.857336 0.857336 0.857336
0.877404 0.877404 0.877404
0.906766 0.906766 0.906766
0.945396 0.945396 0.945396
0.975513 0.975513 0.975513
0.975513 0.975513 0.975513
0.975513 0.975513 0.975513
0.920478 0.920478 0.920478
0.924353 0.924353 0.924353
0.934586 0.934586 0.934586
0.952710 0.952710 0.952710
0.979370 0.979370 0.979370
1.000000 1.000000 1.000000
1.000000 1.000000 1.000000
1.000000 1.000000 1.000000
1.000000 1.000000 1.000000
0.920478 0.920478 0.920478
0.924353 0.924353 0.924353
0.934586 0.934586 0.934586
0.952710 0.952710 0.952710
0.979370 0.979370 0.979370
1.000000 1.000000 1.000000
1.000000 1.000000 1.000000
1.000000 1.000000 1.000000
1.000000 1.000000 1.000000
0.017890 0.017890 0.017890
0.071796 0.071796 0.071796
0.143111 0.143111 0.143111
0.217933 0.217933 0.217933
0.293795 0.293795 0.293795
0.370082 0.370082 0.370082
0.500260 0.500260 0.500260
0.500260 0.500260 0.500260
0.500260 0.500260 0.500260
0.119888 0.119888 0.119888
0.141925 0.141925 0.141925
0.187827 0.187827 0.187827
0.248285 0.248285 0.248285
0.315841 0.315841 0.315841
0.386966 0.386966 0.386966
0.520276 0.520276 0.520276
0.520276 0.520276 0.520276
0.520276 0.520276 0.520276
0.227353 0.227353 0.227353
0.238999 0.238999 0.238999
0.267177 0.267177 0.267177
0.310573 0.310573 0.310573
0.364857 0.364857 0.364857
0.508632 0.508632 0.508632
0.567755 0.567755 0.567755
0.567755 0.567755 0.567755
0.567755 0.567755 0.567755
0.336956 0.336956 0.336956
0.344340 0.344340 0.344340
0.363121 0.363121 0.363121
0.394251 0.394251 0.394251
0.522404 0.522404 0.522404
0.592197 0.592197 0.592197
0.642881 0.642881 0.642881
0.642881 0.642881 0.642881
0.642881 0.642881 0.642881
0.537524 0.537524 0.537524
0.544725 0.544725 0.544725
0.563417 0.563417 0.563417
0.595496 0.595496 0.595496
0.640637 0.640637 0.640637
0.697387 0.697387 0.697387
0.739953 0.739953 0.739953
0.739953 0.739953 0.739953
0.739953 0.739953 0.739953
0.690073 0.690073 0.690073
0.695515 0.695515 0.695515
0.709781 0.709781 0.709781
0.734709 0.734709 0.734709
0.770655 0.770655 0.770655
0.817117 0.817117 0.817117
0.852777 0.852777 0.852777
0.852777 0.852777 0.852777
0.852777 0.852777 0.852777
0.842791 0.842791 0.842791
0.847098 0.847098 0.847098
0.858449 0.858449 0.858449
0.878486 0.878486 0.878486
0.907806 0.907806 0.907806
0.946384 0.946384 0.946384
0.976465 0.976465 0.976465
0.976465 0.976465 0.976465
0.976465 0.976465 0.976465
0.921500 0.921500 0.921500
0.925370 0.925370 0.925370
0.935588 0.935588 0.935588
0.953690 0.953690 0.953690
0.980318 0.980318 0.980318
1.000000 1.000000 1.000000
1.000000 1.000000 1.000000
1.000000 1.000000 1.000000
1.000000 1.000000 1.000000
0.921500 0.921500 0.921500
0.925370 0.925370 0.925370
0.935588 0.935588 0.935588
0.953690 0.953690 0.953690
0.980318 0.980318 0.980318
1.000000 1.000000 1.000000
1.000000 1.000000 1.000000
1.000000 1.000000 1.000000
1.000000 1.000000 1.000000
0.057794 0.057794 0.057794
0.094678 0.094678 0.094678
0.155945 0.155945 0.155945
0.226187 0.226187 0.226187
0.299649 0.299649 0.299649
0.374511 0.374511 0.374511
0.505486 0.505486 0.505486
0.505486 0.505486 0.505486
0.505486 0.505486 0.505486
0.135058 0.135058 0.135058
0.154863 0.154863 0.154863
0.197537 0.197537 0.197537
0.255408 0.255408 0.255408
0.321211 0.321211 0.321211
0.391158 0.391158 0.391158
0.525285 0.525285 0.525285
0.525285 0.525285 0.525285
0.525285 0.525285 0.525285
0.235226 0.235226 0.235226
0.246439 0.246439 0.246439
0.273721 0.273721 0.273721
0.316052 0.316052 0.316052
0.369364 0.369364 0.369364
0.513766 0.513766 0.513766
0.572306 0.572306 0.572306
0.572306 0.572306 0.572306
0.572306 0.572306 0.572306
0.341922 0.341922 0.341922
0.349177 0.349177 0.349177
0.367655 0.367655 0.367655
0.398348 0.398348 0.398348
0.527391 0.527391 0.527391
0.596539 0.596539 0.596539
0.646839 0.646839 0.646839
0.646839 0.646839 0.646839
0.646839 0.646839 0.646839
0.542358 0.542358 0.542358
0.549488 0.549488 0.549488
0.568007 0.568007 0.568007
0.599811 0.599811 0.599811
0.644610 0.644610 0.644610
0.700992 0.700992 0.700992
0.743318 0.743318 0.743318
0.743318 0.743318 0.743318
0.743318 0.743318 0.743318
0.693723 0.693723 0.693723
0.699131 0.699131 0.699131
0.713314 0.713314 0.713314
0.738103 0.738103 0.738103
0.773865 0.773865 0.773865
0.820113 0.820113 0.820113
0.855623 0.855623 0.855623
0.855623 0.855623 0.855623
0.855623 0.855623 0.855623
0.845678 0.845678 0.845678
0.849967 0.849967 0.849967
0.861273 0.861273 0.861273
0.881233 0.881233 0.881233
0.910447 0.910447 0.910447
0.948896 0.948896 0.948896
0.978883 0.978883 0.978883
0.978883 0.978883 0.978883
0.978883 0.978883 0.978883
0.924094 0.924094 0.924094
0.927950 0.927950 0.927950
0.938135 0.938135 0.938135
0.956178 0.956178 0.956178
0.982724 0.982724 0.982724
1.000000 1.000000 1.000000
1.000000 1.000000 1.000000
1.000000 1.000000 1.000000
1.000000 1.000000 1.000000
0.924094 0.924094 0.924094
0.927950 0.927950 0.927950
0.938135 0.938135 0.938135
0.956178 0.956178 0.956178
0.982724 0.982724 0.982724
1.000000 1.000000 1.000000
1.000000 1.000000 1.000000
1.000000 1.000000 1.000000
1.000000 1.000000 1.000000
0.100414 0.100414 0.100414
0.125950 0.125950 0.125950
0.176361 0.176361 0.176361
0.240097 0.240097 0.240097
0.309757 0.309757 0.309757
0.382252 0.382252 0.382252
0.514662 0.514662 0.514662
0.514662 0.514662 0.514662
0.514662 0.514662 0.514662
0.158405 0.158405 0.158405
0.175416 0.175416 0.175416
0.213624 0.213624 0.213624
0.267559 0.267559 0.267559
0.330523 0.330523 0.330523
0.398498 0.398498 0.398498
0.534089 0.534089 0.534089
0.534089 0.534089 0.534089
0.534089 0.534089 0.534089
0.248549 0.248549 0.248549
0.259088 0.259088 0.259088
0.284949 0.284949 0.284949
0.325545 0.325545 0.325545
0.377237 0.377237 0.377237
0.522783 0.522783 0.522783
0.580323 0.580323 0.580323
0.580323 0.580323 0.580323
0.580323 0.580323 0.580323
0.350565 0.350565 0.350565
0.357604 0.357604 0.357604
0.375572 0.375572 0.375572
0.405525 0.405525 0.405525
0.536157 0.536157 0.536157
0.604195 0.604195 0.604195
0.653830 0.653830 0.653830
0.653830 0.653830 0.653830
0.653830 0.653830 0.653830
0.550862 0.550862 0.550862
0.557872 0.557872 0.557872
0.576091 0.576091 0.576091
0.607421 0.607421 0.607421
0.651628 0.651628 0.651628
0.707370 0.707370 0.707370
0.749277 0.749277 0.749277
0.749277 0.749277 0.749277
0.749277 0.749277 0.749277
0.700177 0.700177 0.700177
0.705528 0.705528 0.705528
0.719564 0.719564 0.719564
0.744111 0.744111 0.744111
0.779550 0.779550 0.779550
0.825422 0.825422 0.825422
0.860672 0.860672 0.860672
0.860672 0.860672 0.860672
0.860672 0.860672 0.860672
0.850798 0.850798 0.850798
0.855056 0.855056 0.855056
0.866283 0.866283 0.866283
0.886107 0.886107 0.886107
0.915134 0.915134 0.915134
0.953355 0.953355 0.953355
0.983177 0.983177 0.983177
0.983177 0.983177 0.983177
0.983177 0.983177 0.983177
0.928697 0.928697 0.928697
0.932531 0.932531 0.932531
0.942656 0.942656 0.942656
0.960596 0.960596 0.960596
0.986997 0.986997 0.986997
1.000000 1.000000 1.000000
1.000000 1.000000 1.000000
1.000000 1.000000 1.000000
1.000000 1.000000 1.000000
0.928697 0.928697 0.928697
0.932531 0.932531 0.932531
0.942656 0.942656 0.942656
0.960596 0.960596 0.960596
0.986997 0.986997 0.986997
1.000000 1.000000 1.000000
1.000000 1.000000 1.000000
1.000000 1.000000 1.000000
1.000000 1.000000 1.000000
0.143034 0.143034 0.143034
0.161806 0.161806 0.161806
0.202887 0.202887 0.202887
0.259403 0.259403 0.259403
0.324251 0.324251 0.324251
0.393545 0.393545 0.393545
0.528143 0.528143 0.528143
0.528143 0.528143 0.528143
0.528143 0.528143 0.528143
0.187770 0.187770 0.187770
0.202080 0.202080 0.202080
0.235489 0.235489 0.235489
0.284690 0.284690 0.284690
0.343958 0.343958 0.343958
0.409234 0.409234 0.409234
0.547044 0.547044 0.547044
0.547044 0.547044 0.547044
0.547044 0.547044 0.547044
0.267139 0.267139 0.267139
0.276845 0.276845 0.276845
0.300904 0.300904 0.300904
0.339222 0.339222 0.339222
0.388711 0.388711 0.388711
0.536040 0.536040 0.536040
0.592158 0.592158 0.592158
0.592158 0.592158 0.592158
0.592158 0.592158 0.592158
0.363095 0.363095 0.363095
0.369840 0.369840 0.369840
0.387108 0.387108 0.387108
0.416034 0.416034 0.416034
0.549058 0.549058 0.549058
0.615515 0.615515 0.615515
0.664190 0.664190 0.664190
0.664190 0.664190 0.664190
0.664190 0.664190 0.664190
0.563391 0.563391 0.563391
0.570230 0.570230 0.570230
0.588021 0.588021 0.588021
0.618674 0.618674 0.618674
0.662029 0.662029 0.662029
0.716842 0.716842 0.716842
0.758141 0.758141 0.758141
0.758141 0.758141 0.758141
0.758141 0.758141 0.758141
0.709761 0.709761 0.709761
0.715029 0.715029 0.715029
0.728852 0.728852 0.728852
0.753045 0.753045 0.753045
0.788014 0.788014 0.788014
0.833336 0.833336 0.833336
0.868204 0.868204 0.868204
0.868204 0.868204 0.868204
0.868204 0.868204 0.868204
0.858433 0.858433 0.858433
0.862646 0.862646 0.862646
0.873756 0.873756 0.873756
0.893382 0.893382 0.893382
0.922133 0.922133 0.922133
0.960017 0.960017 0.960017
0.989595 0.989595 0.989595
0.989595 0.989595 0.989595
0.989595 0.989595 0.989595
0.935574 0.935574 0.935574
0.939373 0.939373 0.939373
0.949410 0.949410 0.949410
0.967198 0.967198 0.967198
0.993386 0.993386 0.993386
1.000000 1.000000 1.000000
1.000000 1.000000 1.000000
1.000000 1.000000 1.000000
1.000000 1.000000 1.000000
0.935574 0.935574 0.935574
0.939373 0.939373 0.939373
0.949410 0.949410 0.949410
0.967198 0.967198 0.967198
0.993386 0.993386 0.993386
1.000000 1.000000 1.000000
1.000000 1.000000 1.000000
1.000000 1.000000 1.000000
1.000000 1.000000 1.000000
0.185655 0.185655 0.185655
0.200136 0.200136 0.200136
0.233862 0.233862 0.233862
0.283393 0.283393 0.283393
0.342929 0.342929 0.342929
0.408405 0.408405 0.408405
0.546042 0.546042 0.546042
0.546042 0.546042 0.546042
0.546042 0.546042 0.546042
0.221173 0.221173 0.221173
0.233178 0.233178 0.233178
0.262090 0.262090 0.262090
0.306344 0.306344 0.306344
0.361397 0.361397 0.361397
0.504707 0.504707 0.504707
0.564282 0.564282 0.564282
0.564282 0.564282 0.564282
0.564282 0.564282 0.564282
0.290372 0.290372 0.290372
0.299183 0.299183 0.299183
0.321250 0.321250 0.321250
0.356946 0.356946 0.356946
0.403794 0.403794 0.403794
0.553657 0.553657 0.553657
0.607972 0.607972 0.607972
0.607972 0.607972 0.607972
0.607972 0.607972 0.607972
0.379456 0.379456 0.379456
0.385848 0.385848 0.385848
0.402266 0.402266 0.402266
0.513711 0.513711 0.513711
0.566228 0.566228 0.566228
0.630668 0.630668 0.630668
0.678108 0.678108 0.678108
0.678108 0.678108 0.678108
0.678108 0.678108 0.678108
0.580088 0.580088 0.580088
0.586710 0.586710 0.586710
0.603958 0.603958 0.603958
0.633741 0.633741 0.633741
0.675997 0.675997 0.675997
0.729603 0.729603 0.729603
0.770105 0.770105 0.770105
0.770105 0.770105 0.770105
0.770105 0.770105 0.770105
0.722668 0.722668 0.722668
0.727827 0.727827 0.727827
0.741373 0.741373 0.741373
0.765103 0.765103 0.765103
0.799452 0.799452 0.799452
0.844048 0.844048 0.844048
0.878409 0.878409 0.878409
0.878409 0.878409 0.878409
0.878409 0.878409 0.878409
0.868776 0.868776 0.868776
0.872930 0.872930 0.872930
0.883884 0.883884 0.883884
0.903246 0.903246 0.903246
0.931631 0.931631 0.931631
0.969066 0.969066 0.969066
0.998319 0.998319 0.998319
0.998319 0.998319 0.998319
0.998319 0.998319 0.998319
0.944908 0.944908 0.944908
0.948662 0.948662 0.948662
0.958581 0.958581 0.958581
0.976166 0.976166 0.976166
1.000000 1.000000 1.000000
1.000000 1.000000 1.000000
1.000000 1.000000 1.000000
1.000000 1.000000 1.000000
1.000000 1.000000 1.000000
0.944908 0.944908 0.944908
0.948662 0.948662 0.948662
0.958581 0.958581 0.958581
0.976166 0.976166 0.976166
1.000000 1.000000 1.000000
1.000000 1.000000 1.000000
1.000000 1.000000 1.000000
1.000000 1.000000 1.000000
1.000000 1.000000 1.000000
0.228275 0.228275 0.228275
0.239869 0.239869 0.239869
0.267940 0.267940 0.267940
0.311209 0.311209 0.311209
0.365379 0.365379 0.365379
0.509226 0.509226 0.509226
0.568281 0.568281 0.568281
0.568281 0.568281 0.568281
0.568281 0.568281 0.568281
0.257221 0.257221 0.257221
0.267357 0.267357 0.267357
0.292353 0.292353 0.292353
0.331865 0.331865 0.331865
0.382521 0.382521 0.382521
0.528872 0.528872 0.528872
0.585751 0.585751 0.585751
0.585751 0.585751 0.585751
0.585751 0.585751 0.585751
0.317456 0.317456 0.317456
0.325386 0.325386 0.325386
0.345441 0.345441 0.345441
0.378377 0.378377 0.378377
0.503204 0.503204 0.503204
0.575570 0.575570 0.575570
0.627770 0.627770 0.627770
0.627770 0.627770 0.627770
0.627770 0.627770 0.627770
0.399403 0.399403 0.399403
0.405404 0.405404 0.405404
0.501209 0.501209 0.501209
0.537433 0.537433 0.537433
0.587618 0.587618 0.587618
0.649682 0.649682 0.649682
0.695642 0.695642 0.695642
0.695642 0.695642 0.695642
0.695642 0.695642 0.695642
0.600927 0.600927 0.600927
0.607293 0.607293 0.607293
0.623900 0.623900 0.623900
0.652653 0.652653 0.652653
0.693594 0.693594 0.693594
0.745740 0.745740 0.745740
0.785269 0.785269 0.785269
0.785269 0.785269 0.785269
0.785269 0.785269 0.785269
0.738981 0.738981 0.738981
0.744009 0.744009 0.744009
0.757216 0.757216 0.757216
0.780382 0.780382 0.780382
0.813972 0.813972 0.813972
0.857674 0.857674 0.857674
0.891407 0.891407 0.891407
0.891407 0.891407 0.891407
0.891407 0.891407 0.891407
0.881945 0.881945 0.881945
0.886025 0.886025 0.886025
0.896787 0.896787 0.896787
0.915821 0.915821 0.915821
0.943750 0.943750 0.943750
0.980626 0.980626 0.980626
1.000000 1.000000 1.000000
1.000000 1.000000 1.000000
1.000000 1.000000 1.000000
0.956823 0.956823 0.956823
0.960521 0.960521 0.960521
0.970292 0.970292 0.970292
0.987624 0.987624 0.987624
1.000000 1.000000 1.000000
1.000000 1.000000 1.000000
1.000000 1.000000 1.000000
1.000000 1.000000 1.000000
1.000000 1.000000 1.000000
0.956823 0.956823 0.956823
0.960521 0.960521 0.960521
0.970292 0.970292 0.970292
0.987624 0.987624 0.987624
1.000000 1.000000 1.000000
1.000000 1.000000 1.000000
1.000000 1.000000 1.000000
1.000000 1.000000 1.000000
1.000000 1.000000 1.000000
0.250230 0.250230 0.250230
0.260689 0.260689 0.260689
0.286379 0.286379 0.286379
0.326762 0.326762 0.326762
0.378251 0.378251 0.378251
0.523950 0.523950 0.523950
0.581363 0.581363 0.581363
0.581363 0.581363 0.581363
0.581363 0.581363 0.581363
0.276514 0.276514 0.276514
0.285841 0.285841 0.285841
0.309064 0.309064 0.309064
0.346294 0.346294 0.346294
0.394702 0.394702 0.394702
0.543013 0.543013 0.543013
0.598405 0.598405 0.598405
0.598405 0.598405 0.598405
0.598405 0.598405 0.598405
0.332654 0.332654 0.332654
0.340153 0.340153 0.340153
0.359204 0.359204 0.359204
0.390720 0.390720 0.390720
0.518115 0.518115 0.518115
0.588470 0.588470 0.588470
0.639488 0.639488 0.639488
0.639488 0.639488 0.639488
0.639488 0.639488 0.639488
0.410964 0.410964 0.410964
0.416756 0.416756 0.416756
0.516184 0.516184 0.516184
0.551332 0.551332 0.551332
0.600228 0.600228 0.600228
0.660957 0.660957 0.660957
0.706075 0.706075 0.706075
0.706075 0.706075 0.706075
0.706075 0.706075 0.706075
0.613228 0.613228 0.613228
0.619451 0.619451 0.619451
0.635699 0.635699 0.635699
0.663870 0.663870 0.663870
0.704062 0.704062 0.704062
0.755370 0.755370 0.755370
0.794337 0.794337 0.794337
0.794337 0.794337 0.794337
0.794337 0.794337 0.794337
0.748714 0.748714 0.748714
0.753665 0.753665 0.753665
0.766677 0.766677 0.766677
0.789517 0.789517 0.789517
0.822666 0.822666 0.822666
0.865847 0.865847 0.865847
0.899213 0.899213 0.899213
0.899213 0.899213 0.899213
0.899213 0.899213 0.899213
0.889851 0.889851 0.889851
0.893887 0.893887 0.893887
0.904538 0.904538 0.904538
0.923379 0.923379 0.923379
0.951039 0.951039 0.951039
0.987585 0.987585 0.987585
1.000000 1.000000 1.000000
1.000000 1.000000 1.000000
1.000000 1.000000 1.000000
0.963993 0.963993 0.963993
0.967657 0.967657 0.967657
0.977341 0.977341 0.977341
0.994524 0.994524 0.994524
1.000000 1.000000 1.000000
1.000000 1.000000 1.000000
1.000000 1.000000 1.000000
1.000000 1.000000 1.000000
1.000000 1.000000 1.000000
0.963993 0.963993 0.963993
0.967657 0.967657 0.967657
0.977341 0.977341 0.977341
0.994524 0.994524 0.994524
1.000000 1.000000 1.000000
1.000000 1.000000 1.000000
1.000000 1.000000 1.000000
1.000000 1.000000 1.000000
1.000000 1.000000 1.000000
0.250230 0.250230 0.250230
0.260689 0.260689 0.260689
0.286379 0.286379 0.286379
0.326762 0.326762 0.326762
0.378251 0.378251 0.378251
0.523950 0.523950 0.523950
0.581363 0.581363 0.581363
0.581363 0.581363 0.581363
0.581363 0.581363 0.581363
0.276514 0.276514 0.276514
0.285841 0.285841 0.285841
0.309064 0.309064 0.309064
0.346294 0.346294 0.346294
0.394702 0.394702 0.394702
0.543013 0.543013 0.543013
0.598405 0.598405 0.598405
0.598405 0.598405 0.598405
0.598405 0.598405 0.598405
0.332654 0.332654 0.332654
0.340153 0.340153 0.340153
0.359204 0.359204 0.359204
0.390720 0.390720 0.390720
0.518115 0.518115 0.518115
0.588470 0.588470 0.588470
0.639488 0.639488 0.639488
0.639488 0.639488 0.639488
0.639488 0.639488 0.639488
0.410964 0.410964 0.410964
0.416756 0.416756 0.416756
0.516184 0.516184 0.516184
0.551332 0.551332 0.551332
0.600228 0.600228 0.600228
0.660957 0.660957 0.660957
0.706075 0.706075 0.706075
0.706075 0.706075 0.706075
0.706075 0.706075 0.706075
0.613228 0.613228 0.613228
0.619451 0.619451 0.619451
0.635699 0.635699 0.635699
0.663870 0.663870 0.663870
0.704062 0.704062 0.704062
0.755370 0.755370 0.755370
0.794337 0.794337 0.794337
0.794337 0.794337 0.794337
0.794337 0.794337 0.794337
0.748714 0.748714 0.748714
0.753665 0.753665 0.753665
0.766677 0.766677 0.766677
0.789517 0.789517 0.789517
0.822666 0.822666 0.822666
0.865847 0.865847 0.865847
0.899213 0.899213 0.899213
0.899213 0.899213 0.899213
0.899213 0.899213 0.899213
0.889851 0.889851 0.889851
0.893887 0.893887 0.893887
0.904538 0.904538 0.904538
0.923379 0.923379 0.923379
0.951039 0.951039 0.951039
0.987585 0.987585 0.987585
1.000000 1.000000 1.000000
1.000000 1.000000 1.000000
1.000000 1.000000 1.000000
0.963993 0.963993 0.963993
0.967657 0.967657 0.967657
0.977341 0.977341 0.977341
0.994524 0.994524 0.994524
1.000000 1.000000 1.000000
1.000000 1.000000 1.000000
1.000000 1.000000 1.000000
1.000000 1.000000 1.000000
1.000000 1.000000 1.000000
0.963993 0.963993 0.963993
0.967657 0.967657 0.967657
0.977341 0.977341 0.977341
0.994524 0.994524 0.994524
1.000000 1.000000 1.000000
1.000000 1.000000 1.000000
1.000000 1.000000 1.000000
1.000000 1.000000 1.000000
1.000000 1.000000 1.000000
