docs/luts/fuji_recipes/Acros_RR_Cyanotype.cube
TITLE "Fujifilm Recipe: RR Cyanotype (Acros)"
# FilmSim=Acros HL=3 SH=3 Col=0 WB=Auto WBR=-9 WBB=0
LUT_3D_SIZE 33
DOMAIN_MIN 0.0 0.0 0.0
DOMAIN_MAX 1.0 1.0 1.0
0.000000 0.000000 0.000000
0.005696 0.005696 0.005696
0.011238 0.011238 0.011238
0.018712 0.018712 0.018712
0.028488 0.028488 0.028488
0.040449 0.040449 0.040449
0.052747 0.052747 0.052747
0.065046 0.065046 0.065046
0.077344 0.077344 0.077344
0.089642 0.089642 0.089642
0.101940 0.101940 0.101940
0.114239 0.114239 0.114239
0.126537 0.126537 0.126537
0.138835 0.138835 0.138835
0.151134 0.151134 0.151134
0.163432 0.163432 0.163432
0.175730 0.175730 0.175730
0.188028 0.188028 0.188028
0.200327 0.200327 0.200327
0.212625 0.212625 0.212625
0.224923 0.224923 0.224923
0.237221 0.237221 0.237221
0.249520 0.249520 0.249520
0.261818 0.261818 0.261818
0.274116 0.274116 0.274116
0.286414 0.286414 0.286414
0.298713 0.298713 0.298713
0.311011 0.311011 0.311011
0.323309 0.323309 0.323309
0.334759 0.334759 0.334759
0.334759 0.334759 0.334759
0.334759 0.334759 0.334759
0.334759 0.334759 0.334759
0.024723 0.024723 0.024723
0.030419 0.030419 0.030419
0.035953 0.035953 0.035953
0.042859 0.042859 0.042859
0.050913 0.050913 0.050913
0.059865 0.059865 0.059865
0.069503 0.069503 0.069503
0.079664 0.079664 0.079664
0.090225 0.090225 0.090225
0.101095 0.101095 0.101095
0.112205 0.112205 0.112205
0.123505 0.123505 0.123505
0.134955 0.134955 0.134955
0.146526 0.146526 0.146526
0.158197 0.158197 0.158197
0.169949 0.169949 0.169949
0.181768 0.181768 0.181768
0.193643 0.193643 0.193643
0.205566 0.205566 0.205566
0.217530 0.217530 0.217530
0.229528 0.229528 0.229528
0.241557 0.241557 0.241557
0.253610 0.253610 0.253610
0.265687 0.265687 0.265687
0.277783 0.277783 0.277783
0.289896 0.289896 0.289896
0.302025 0.302025 0.302025
0.314168 0.314168 0.314168
0.326322 0.326322 0.326322
0.337647 0.337647 0.337647
0.337647 0.337647 0.337647
0.337647 0.337647 0.337647
0.337647 0.337647 0.337647
0.050514 0.050514 0.050514
0.054835 0.054835 0.054835
0.058810 0.058810 0.058810
0.063864 0.063864 0.063864
0.070029 0.070029 0.070029
0.077168 0.077168 0.077168
0.085136 0.085136 0.085136
0.093796 0.093796 0.093796
0.103027 0.103027 0.103027
0.112727 0.112727 0.112727
0.122811 0.122811 0.122811
0.133210 0.133210 0.133210
0.143870 0.143870 0.143870
0.154746 0.154746 0.154746
0.165802 0.165802 0.165802
0.177009 0.177009 0.177009
0.188343 0.188343 0.188343
0.199785 0.199785 0.199785
0.211319 0.211319 0.211319
0.222932 0.222932 0.222932
0.234614 0.234614 0.234614
0.246355 0.246355 0.246355
0.258148 0.258148 0.258148
0.269986 0.269986 0.269986
0.281864 0.281864 0.281864
0.293777 0.293777 0.293777
0.305721 0.305721 0.305721
0.317694 0.317694 0.317694
0.329691 0.329691 0.329691
0.340880 0.340880 0.340880
0.340880 0.340880 0.340880
0.340880 0.340880 0.340880
0.340880 0.340880 0.340880
0.076821 0.076821 0.076821
0.079967 0.079967 0.079967
0.082928 0.082928 0.082928
0.086780 0.086780 0.086780
0.091596 0.091596 0.091596
0.097320 0.097320 0.097320
0.103872 0.103872 0.103872
0.111162 0.111162 0.111162
0.119099 0.119099 0.119099
0.127598 0.127598 0.127598
0.136580 0.136580 0.136580
0.145976 0.145976 0.145976
0.155726 0.155726 0.155726
0.165778 0.165778 0.165778
0.176089 0.176089 0.176089
0.186622 0.186622 0.186622
0.197347 0.197347 0.197347
0.208236 0.208236 0.208236
0.219268 0.219268 0.219268
0.230425 0.230425 0.230425
0.241690 0.241690 0.241690
0.253050 0.253050 0.253050
0.264494 0.264494 0.264494
0.276012 0.276012 0.276012
0.287595 0.287595 0.287595
0.299236 0.299236 0.299236
0.310929 0.310929 0.310929
0.322668 0.322668 0.322668
0.334449 0.334449 0.334449
0.345451 0.345451 0.345451
0.345451 0.345451 0.345451
0.345451 0.345451 0.345451
0.345451 0.345451 0.345451
0.103128 0.103128 0.103128
0.105552 0.105552 0.105552
0.107861 0.107861 0.107861
0.110901 0.110901 0.110901
0.114759 0.114759 0.114759
0.119418 0.119418 0.119418
0.124841 0.124841 0.124841
0.130979 0.130979 0.130979
0.137772 0.137772 0.137772
0.145158 0.145158 0.145158
0.153075 0.153075 0.153075
0.161464 0.161464 0.161464
0.170271 0.170271 0.170271
0.179446 0.179446 0.179446
0.188943 0.188943 0.188943
0.198725 0.198725 0.198725
0.208756 0.208756 0.208756
0.219006 0.219006 0.219006
0.229450 0.229450 0.229450
0.240064 0.240064 0.240064
0.250828 0.250828 0.250828
0.261726 0.261726 0.261726
0.272743 0.272743 0.272743
0.283865 0.283865 0.283865
0.295082 0.295082 0.295082
0.306383 0.306383 0.306383
0.317760 0.317760 0.317760
0.329205 0.329205 0.329205
0.340711 0.340711 0.340711
0.351474 0.351474 0.351474
0.351474 0.351474 0.351474
0.351474 0.351474 0.351474
0.351474 0.351474 0.351474
0.129434 0.129434 0.129434
0.131379 0.131379 0.131379
0.133243 0.133243 0.133243
0.135716 0.135716 0.135716
0.138881 0.138881 0.138881
0.142743 0.142743 0.142743
0.147290 0.147290 0.147290
0.152497 0.152497 0.152497
0.158329 0.158329 0.158329
0.164746 0.164746 0.164746
0.171703 0.171703 0.171703
0.179155 0.179155 0.179155
0.187058 0.187058 0.187058
0.195368 0.195368 0.195368
0.204045 0.204045 0.204045
0.213051 0.213051 0.213051
0.222354 0.222354 0.222354
0.231920 0.231920 0.231920
0.241724 0.241724 0.241724
0.251740 0.251740 0.251740
0.261946 0.261946 0.261946
0.272323 0.272323 0.272323
0.282853 0.282853 0.282853
0.293521 0.293521 0.293521
0.304313 0.304313 0.304313
0.315217 0.315217 0.315217
0.326222 0.326222 0.326222
0.337319 0.337319 0.337319
0.348500 0.348500 0.348500
0.358977 0.358977 0.358977
0.358977 0.358977 0.358977
0.358977 0.358977 0.358977
0.358977 0.358977 0.358977
0.155741 0.155741 0.155741
0.157348 0.157348 0.157348
0.158894 0.158894 0.158894
0.160954 0.160954 0.160954
0.163607 0.163607 0.163607
0.166866 0.166866 0.166866
0.170731 0.170731 0.170731
0.175195 0.175195 0.175195
0.180237 0.180237 0.180237
0.185835 0.185835 0.185835
0.191959 0.191959 0.191959
0.198576 0.198576 0.198576
0.205652 0.205652 0.205652
0.213153 0.213153 0.213153
0.221045 0.221045 0.221045
0.229295 0.229295 0.229295
0.237872 0.237872 0.237872
0.246747 0.246747 0.246747
0.255894 0.255894 0.255894
0.265287 0.265287 0.265287
0.274903 0.274903 0.274903
0.284723 0.284723 0.284723
0.294728 0.294728 0.294728
0.304900 0.304900 0.304900
0.315225 0.315225 0.315225
0.325690 0.325690 0.325690
0.336280 0.336280 0.336280
0.346987 0.346987 0.346987
0.357799 0.357799 0.357799
0.367951 0.367951 0.367951
0.367951 0.367951 0.367951
0.367951 0.367951 0.367951
0.367951 0.367951 0.367951
0.182048 0.182048 0.182048
0.183406 0.183406 0.183406
0.184716 0.184716 0.184716
0.186467 0.186467 0.186467
0.188730 0.188730 0.188730
0.191523 0.191523 0.191523
0.194853 0.194853 0.194853
0.198721 0.198721 0.198721
0.203120 0.203120 0.203120
0.208035 0.208035 0.208035
0.213448 0.213448 0.213448
0.219338 0.219338 0.219338
0.225680 0.225680 0.225680
0.232448 0.232448 0.232448
0.239614 0.239614 0.239614
0.247152 0.247152 0.247152
0.255036 0.255036 0.255036
0.263238 0.263238 0.263238
0.271736 0.271736 0.271736
0.280506 0.280506 0.280506
0.289526 0.289526 0.289526
0.298775 0.298775 0.298775
0.308236 0.308236 0.308236
0.317890 0.317890 0.317890
0.327722 0.327722 0.327722
0.337718 0.337718 0.337718
0.347864 0.347864 0.347864
0.358148 0.358148 0.358148
0.368559 0.368559 0.368559
0.378357 0.378357 0.378357
0.378357 0.378357 0.378357
0.378357 0.378357 0.378357
0.378357 0.378357 0.378357
0.208355 0.208355 0.208355
0.209523 0.209523 0.209523
0.210652 0.210652 0.210652
0.212165 0.212165 0.212165
0.214125 0.214125 0.214125
0.216551 0.216551 0.216551
0.219455 0.219455 0.219455
0.222843 0.222843 0.222843
0.226713 0.226713 0.226713
0.231060 0.231060 0.231060
0.235872 0.235872 0.235872
0.241136 0.241136 0.241136
0.246836 0.246836 0.246836
0.252951 0.252951 0.252951
0.259462 0.259462 0.259462
0.266347 0.266347 0.266347
0.273584 0.273584 0.273584
0.281151 0.281151 0.281151
0.289028 0.289028 0.289028
0.297193 0.297193 0.297193
0.305627 0.305627 0.305627
0.314310 0.314310 0.314310
0.323224 0.323224 0.323224
0.332354 0.332354 0.332354
0.341682 0.341682 0.341682
0.351195 0.351195 0.351195
0.360879 0.360879 0.360879
0.370721 0.370721 0.370721
0.380710 0.380710 0.380710
0.390132 0.390132 0.390132
0.390132 0.390132 0.390132
0.390132 0.390132 0.390132
0.390132 0.390132 0.390132
0.234662 0.234662 0.234662
0.235681 0.235681 0.235681
0.236669 0.236669 0.236669
0.237992 0.237992 0.237992
0.239711 0.239711 0.239711
0.241844 0.241844 0.241844
0.244404 0.244404 0.244404
0.247400 0.247400 0.247400
0.250834 0.250834 0.250834
0.254706 0.254706 0.254706
0.259010 0.259010 0.259010
0.263738 0.263738 0.263738
0.268880 0.268880 0.268880
0.274421 0.274421 0.274421
0.280348 0.280348 0.280348
0.286642 0.286642 0.286642
0.293287 0.293287 0.293287
0.300266 0.300266 0.300266
0.307560 0.307560 0.307560
0.315151 0.315151 0.315151
0.323022 0.323022 0.323022
0.331156 0.331156 0.331156
0.339536 0.339536 0.339536
0.348147 0.348147 0.348147
0.356973 0.356973 0.356973
0.366001 0.366001 0.366001
0.375217 0.375217 0.375217
0.384608 0.384608 0.384608
0.394163 0.394163 0.394163
0.403196 0.403196 0.403196
0.403196 0.403196 0.403196
0.403196 0.403196 0.403196
0.403196 0.403196 0.403196
0.260969 0.260969 0.260969
0.261869 0.261869 0.261869
0.262742 0.262742 0.262742
0.263914 0.263914 0.263914
0.265438 0.265438 0.265438
0.267332 0.267332 0.267332
0.269610 0.269610 0.269610
0.272282 0.272282 0.272282
0.275353 0.275353 0.275353
0.278826 0.278826 0.278826
0.282699 0.282699 0.282699
0.286968 0.286968 0.286968
0.291627 0.291627 0.291627
0.296665 0.296665 0.296665
0.302074 0.302074 0.302074
0.307840 0.307840 0.307840
0.313949 0.313949 0.313949
0.320389 0.320389 0.320389
0.327144 0.327144 0.327144
0.334199 0.334199 0.334199
0.341540 0.341540 0.341540
0.349151 0.349151 0.349151
0.357017 0.357017 0.357017
0.365125 0.365125 0.365125
0.373460 0.373460 0.373460
0.382010 0.382010 0.382010
0.390761 0.390761 0.390761
0.399701 0.399701 0.399701
0.408820 0.408820 0.408820
0.417459 0.417459 0.417459
0.417459 0.417459 0.417459
0.417459 0.417459 0.417459
0.417459 0.417459 0.417459
0.287276 0.287276 0.287276
0.288079 0.288079 0.288079
0.288859 0.288859 0.288859
0.289906 0.289906 0.289906
0.291269 0.291269 0.291269
0.292966 0.292966 0.292966
0.295010 0.295010 0.295010
0.297412 0.297412 0.297412
0.300178 0.300178 0.300178
0.303314 0.303314 0.303314
0.306819 0.306819 0.306819
0.310693 0.310693 0.310693
0.314933 0.314933 0.314933
0.319532 0.319532 0.319532
0.324483 0.324483 0.324483
0.329778 0.329778 0.329778
0.335406 0.335406 0.335406
0.341357 0.341357 0.341357
0.347619 0.347619 0.347619
0.354179 0.354179 0.354179
0.361025 0.361025 0.361025
0.368144 0.368144 0.368144
0.375523 0.375523 0.375523
0.383151 0.383151 0.383151
0.391013 0.391013 0.391013
0.399099 0.399099 0.399099
0.407396 0.407396 0.407396
0.415893 0.415893 0.415893
0.424579 0.424579 0.424579
0.432827 0.432827 0.432827
0.432827 0.432827 0.432827
0.432827 0.432827 0.432827
0.432827 0.432827 0.432827
0.313582 0.313582 0.313582
0.314306 0.314306 0.314306
0.315008 0.315008 0.315008
0.315952 0.315952 0.315952
0.317181 0.317181 0.317181
0.318712 0.318712 0.318712
0.320560 0.320560 0.320560
0.322734 0.322734 0.322734
0.325242 0.325242 0.325242
0.328089 0.328089 0.328089
0.331280 0.331280 0.331280
0.334813 0.334813 0.334813
0.338688 0.338688 0.338688
0.342902 0.342902 0.342902
0.347450 0.347450 0.347450
0.352326 0.352326 0.352326
0.357523 0.357523 0.357523
0.363032 0.363032 0.363032
0.368845 0.368845 0.368845
0.374951 0.374951 0.374951
0.381340 0.381340 0.381340
0.388001 0.388001 0.388001
0.394924 0.394924 0.394924
0.402097 0.402097 0.402097
0.409509 0.409509 0.409509
0.417151 0.417151 0.417151
0.425010 0.425010 0.425010
0.433077 0.433077 0.433077
0.501706 0.501706 0.501706
0.511713 0.511713 0.511713
0.511713 0.511713 0.511713
0.511713 0.511713 0.511713
0.511713 0.511713 0.511713
0.339889 0.339889 0.339889
0.340545 0.340545 0.340545
0.341182 0.341182 0.341182
0.342038 0.342038 0.342038
0.343154 0.343154 0.343154
0.344546 0.344546 0.344546
0.346227 0.346227 0.346227
0.348207 0.348207 0.348207
0.350494 0.350494 0.350494
0.353094 0.353094 0.353094
0.356012 0.356012 0.356012
0.359250 0.359250 0.359250
0.362807 0.362807 0.362807
0.366683 0.366683 0.366683
0.370875 0.370875 0.370875
0.375379 0.375379 0.375379
0.380190 0.380190 0.380190
0.385301 0.385301 0.385301
0.390707 0.390707 0.390707
0.396398 0.396398 0.396398
0.402367 0.402367 0.402367
0.408604 0.408604 0.408604
0.415101 0.415101 0.415101
0.421849 0.421849 0.421849
0.428837 0.428837 0.428837
0.436056 0.436056 0.436056
0.504451 0.504451 0.504451
0.514192 0.514192 0.514192
0.524191 0.524191 0.524191
0.533722 0.533722 0.533722
0.533722 0.533722 0.533722
0.533722 0.533722 0.533722
0.533722 0.533722 0.533722
0.366196 0.366196 0.366196
0.366795 0.366795 0.366795
0.367376 0.367376 0.367376
0.368158 0.368158 0.368158
0.369178 0.369178 0.369178
0.370450 0.370450 0.370450
0.371987 0.371987 0.371987
0.373800 0.373800 0.373800
0.375897 0.375897 0.375897
0.378284 0.378284 0.378284
0.380965 0.380965 0.380965
0.383944 0.383944 0.383944
0.387223 0.387223 0.387223
0.390802 0.390802 0.390802
0.394678 0.394678 0.394678
0.398851 0.398851 0.398851
0.403317 0.403317 0.403317
0.408070 0.408070 0.408070
0.413107 0.413107 0.413107
0.418420 0.418420 0.418420
0.424004 0.424004 0.424004
0.429851 0.429851 0.429851
0.435954 0.435954 0.435954
0.502934 0.502934 0.502934
0.511321 0.511321 0.511321
0.520003 0.520003 0.520003
0.528970 0.528970 0.528970
0.538209 0.538209 0.538209
0.547711 0.547711 0.547711
0.556784 0.556784 0.556784
0.556784 0.556784 0.556784
0.556784 0.556784 0.556784
0.556784 0.556784 0.556784
0.392503 0.392503 0.392503
0.393052 0.393052 0.393052
0.393586 0.393586 0.393586
0.394304 0.394304 0.394304
0.395240 0.395240 0.395240
0.396410 0.396410 0.396410
0.397823 0.397823 0.397823
0.399492 0.399492 0.399492
0.401423 0.401423 0.401423
0.403623 0.403623 0.403623
0.406098 0.406098 0.406098
0.408851 0.408851 0.408851
0.411885 0.411885 0.411885
0.415200 0.415200 0.415200
0.418797 0.418797 0.418797
0.422674 0.422674 0.422674
0.426830 0.426830 0.426830
0.431261 0.431261 0.431261
0.435964 0.435964 0.435964
0.501189 0.501189 0.501189
0.507848 0.507848 0.507848
0.514834 0.514834 0.514834
0.522138 0.522138 0.522138
0.529752 0.529752 0.529752
0.537667 0.537667 0.537667
0.545874 0.545874 0.545874
0.554365 0.554365 0.554365
0.563130 0.563130 0.563130
0.572159 0.572159 0.572159
0.580794 0.580794 0.580794
0.580794 0.580794 0.580794
0.580794 0.580794 0.580794
0.580794 0.580794 0.580794
0.418810 0.418810 0.418810
0.419316 0.419316 0.419316
0.419808 0.419808 0.419808
0.420471 0.420471 0.420471
0.421335 0.421335 0.421335
0.422415 0.422415 0.422415
0.423721 0.423721 0.423721
0.425263 0.425263 0.425263
0.427049 0.427049 0.427049
0.429086 0.429086 0.429086
0.431380 0.431380 0.431380
0.433933 0.433933 0.433933
0.436749 0.436749 0.436749
0.439831 0.439831 0.439831
0.504045 0.504045 0.504045
0.508644 0.508644 0.508644
0.513580 0.513580 0.513580
0.518850 0.518850 0.518850
0.524451 0.524451 0.524451
0.530379 0.530379 0.530379
0.536630 0.536630 0.536630
0.543197 0.543197 0.543197
0.550073 0.550073 0.550073
0.557253 0.557253 0.557253
0.564729 0.564729 0.564729
0.572494 0.572494 0.572494
0.580538 0.580538 0.580538
0.588855 0.588855 0.588855
0.597437 0.597437 0.597437
0.605656 0.605656 0.605656
0.605656 0.605656 0.605656
0.605656 0.605656 0.605656
0.605656 0.605656 0.605656
0.506512 0.506512 0.506512
0.507109 0.507109 0.507109
0.507689 0.507689 0.507689
0.508471 0.508471 0.508471
0.509490 0.509490 0.509490
0.510764 0.510764 0.510764
0.512306 0.512306 0.512306
0.514128 0.514128 0.514128
0.516239 0.516239 0.516239
0.518648 0.518648 0.518648
0.521362 0.521362 0.521362
0.524387 0.524387 0.524387
0.527726 0.527726 0.527726
0.531383 0.531383 0.531383
0.535360 0.535360 0.535360
0.539657 0.539657 0.539657
0.544275 0.544275 0.544275
0.549211 0.549211 0.549211
0.554464 0.554464 0.554464
0.560031 0.560031 0.560031
0.565908 0.565908 0.565908
0.572091 0.572091 0.572091
0.578574 0.578574 0.578574
0.585353 0.585353 0.585353
0.592421 0.592421 0.592421
0.599773 0.599773 0.599773
0.607400 0.607400 0.607400
0.615297 0.615297 0.615297
0.623456 0.623456 0.623456
0.631281 0.631281 0.631281
0.631281 0.631281 0.631281
0.631281 0.631281 0.631281
0.631281 0.631281 0.631281
0.539994 0.539994 0.539994
0.540549 0.540549 0.540549
0.541089 0.541089 0.541089
0.541815 0.541815 0.541815
0.542764 0.542764 0.542764
0.543950 0.543950 0.543950
0.545386 0.545386 0.545386
0.547082 0.547082 0.547082
0.549050 0.549050 0.549050
0.551296 0.551296 0.551296
0.553829 0.553829 0.553829
0.556653 0.556653 0.556653
0.559773 0.559773 0.559773
0.563193 0.563193 0.563193
0.566915 0.566915 0.566915
0.570941 0.570941 0.570941
0.575271 0.575271 0.575271
0.579906 0.579906 0.579906
0.584842 0.584842 0.584842
0.590080 0.590080 0.590080
0.595616 0.595616 0.595616
0.601447 0.601447 0.601447
0.607568 0.607568 0.607568
0.613977 0.613977 0.613977
0.620667 0.620667 0.620667
0.627634 0.627634 0.627634
0.634872 0.634872 0.634872
0.642375 0.642375 0.642375
0.650137 0.650137 0.650137
0.657591 0.657591 0.657591
0.657591 0.657591 0.657591
0.657591 0.657591 0.657591
0.657591 0.657591 0.657591
0.573475 0.573475 0.573475
0.573993 0.573993 0.573993
0.574497 0.574497 0.574497
0.575175 0.575175 0.575175
0.576061 0.576061 0.576061
0.577169 0.577169 0.577169
0.578510 0.578510 0.578510
0.580096 0.580096 0.580096
0.581936 0.581936 0.581936
0.584037 0.584037 0.584037
0.586407 0.586407 0.586407
0.589052 0.589052 0.589052
0.591976 0.591976 0.591976
0.595183 0.595183 0.595183
0.598676 0.598676 0.598676
0.602457 0.602457 0.602457
0.606527 0.606527 0.606527
0.610887 0.610887 0.610887
0.615537 0.615537 0.615537
0.620474 0.620474 0.620474
0.625698 0.625698 0.625698
0.631205 0.631205 0.631205
0.636994 0.636994 0.636994
0.643061 0.643061 0.643061
0.649401 0.649401 0.649401
0.656011 0.656011 0.656011
0.662886 0.662886 0.662886
0.670021 0.670021 0.670021
0.677410 0.677410 0.677410
0.684514 0.684514 0.684514
0.684514 0.684514 0.684514
0.684514 0.684514 0.684514
0.684514 0.684514 0.684514
0.606957 0.606957 0.606957
0.607442 0.607442 0.607442
0.607913 0.607913 0.607913
0.608549 0.608549 0.608549
0.609379 0.609379 0.609379
0.610416 0.610416 0.610416
0.611673 0.611673 0.611673
0.613160 0.613160 0.613160
0.614885 0.614885 0.614885
0.616856 0.616856 0.616856
0.619081 0.619081 0.619081
0.621564 0.621564 0.621564
0.624311 0.624311 0.624311
0.627326 0.627326 0.627326
0.630613 0.630613 0.630613
0.634172 0.634172 0.634172
0.638007 0.638007 0.638007
0.642118 0.642118 0.642118
0.646505 0.646505 0.646505
0.651168 0.651168 0.651168
0.656106 0.656106 0.656106
0.661317 0.661317 0.661317
0.666799 0.666799 0.666799
0.672550 0.672550 0.672550
0.678566 0.678566 0.678566
0.684844 0.684844 0.684844
0.691381 0.691381 0.691381
0.698172 0.698172 0.698172
0.705212 0.705212 0.705212
0.711986 0.711986 0.711986
0.711986 0.711986 0.711986
0.711986 0.711986 0.711986
0.711986 0.711986 0.711986
0.640438 0.640438 0.640438
0.640894 0.640894 0.640894
0.641337 0.641337 0.641337
0.641933 0.641933 0.641933
0.642713 0.642713 0.642713
0.643688 0.643688 0.643688
0.644869 0.644869 0.644869
0.646267 0.646267 0.646267
0.647889 0.647889 0.647889
0.649743 0.649743 0.649743
0.651836 0.651836 0.651836
0.654174 0.654174 0.654174
0.656762 0.656762 0.656762
0.659603 0.659603 0.659603
0.662702 0.662702 0.662702
0.666060 0.666060 0.666060
0.669681 0.669681 0.669681
0.673564 0.673564 0.673564
0.677712 0.677712 0.677712
0.682124 0.682124 0.682124
0.686799 0.686799 0.686799
0.691738 0.691738 0.691738
0.696937 0.696937 0.696937
0.702396 0.702396 0.702396
0.708112 0.708112 0.708112
0.714082 0.714082 0.714082
0.720304 0.720304 0.720304
0.726773 0.726773 0.726773
0.733487 0.733487 0.733487
0.739952 0.739952 0.739952
0.739952 0.739952 0.739952
0.739952 0.739952 0.739952
0.739952 0.739952 0.739952
0.673920 0.673920 0.673920
0.674349 0.674349 0.674349
0.674766 0.674766 0.674766
0.675328 0.675328 0.675328
0.676062 0.676062 0.676062
0.676980 0.676980 0.676980
0.678094 0.678094 0.678094
0.679410 0.679410 0.679410
0.680940 0.680940 0.680940
0.682688 0.682688 0.682688
0.684663 0.684663 0.684663
0.686869 0.686869 0.686869
0.689312 0.689312 0.689312
0.691995 0.691995 0.691995
0.694924 0.694924 0.694924
0.698099 0.698099 0.698099
0.701524 0.701524 0.701524
0.705200 0.705200 0.705200
0.709128 0.709128 0.709128
0.713310 0.713310 0.713310
0.717744 0.717744 0.717744
0.722431 0.722431 0.722431
0.727370 0.727370 0.727370
0.732559 0.732559 0.732559
0.737996 0.737996 0.737996
0.743680 0.743680 0.743680
0.749608 0.749608 0.749608
0.755778 0.755778 0.755778
0.762185 0.762185 0.762185
0.768361 0.768361 0.768361
0.768361 0.768361 0.768361
0.768361 0.768361 0.768361
0.768361 0.768361 0.768361
0.707401 0.707401 0.707401
0.707806 0.707806 0.707806
0.708200 0.708200 0.708200
0.708730 0.708730 0.708730
0.709424 0.709424 0.709424
0.710291 0.710291 0.710291
0.711342 0.711342 0.711342
0.712586 0.712586 0.712586
0.714031 0.714031 0.714031
0.715684 0.715684 0.715684
0.717551 0.717551 0.717551
0.719637 0.719637 0.719637
0.721948 0.721948 0.721948
0.724488 0.724488 0.724488
0.727261 0.727261 0.727261
0.730269 0.730269 0.730269
0.733515 0.733515 0.733515
0.737001 0.737001 0.737001
0.740728 0.740728 0.740728
0.744698 0.744698 0.744698
0.748910 0.748910 0.748910
0.753365 0.753365 0.753365
0.758063 0.758063 0.758063
0.763002 0.763002 0.763002
0.768181 0.768181 0.768181
0.773599 0.773599 0.773599
0.779254 0.779254 0.779254
0.785143 0.785143 0.785143
0.791264 0.791264 0.791264
0.797169 0.797169 0.797169
0.797169 0.797169 0.797169
0.797169 0.797169 0.797169
0.797169 0.797169 0.797169
0.740883 0.740883 0.740883
0.741266 0.741266 0.741266
0.741638 0.741638 0.741638
0.742140 0.742140 0.742140
0.742796 0.742796 0.742796
0.743617 0.743617 0.743617
0.744612 0.744612 0.744612
0.745790 0.745790 0.745790
0.747158 0.747158 0.747158
0.748724 0.748724 0.748724
0.750492 0.750492 0.750492
0.752469 0.752469 0.752469
0.754660 0.754660 0.754660
0.757069 0.757069 0.757069
0.759699 0.759699 0.759699
0.762554 0.762554 0.762554
0.765636 0.765636 0.765636
0.768947 0.768947 0.768947
0.772490 0.772490 0.772490
0.776264 0.776264 0.776264
0.780272 0.780272 0.780272
0.784513 0.784513 0.784513
0.788987 0.788987 0.788987
0.793695 0.793695 0.793695
0.798634 0.798634 0.798634
0.803804 0.803804 0.803804
0.809204 0.809204 0.809204
0.814831 0.814831 0.814831
0.820685 0.820685 0.820685
0.826335 0.826335 0.826335
0.826335 0.826335 0.826335
0.826335 0.826335 0.826335
0.826335 0.826335 0.826335
0.774364 0.774364 0.774364
0.774727 0.774727 0.774727
0.775080 0.775080 0.775080
0.775557 0.775557 0.775557
0.776179 0.776179 0.776179
0.776957 0.776957 0.776957
0.777901 0.777901 0.777901
0.779018 0.779018 0.779018
0.780317 0.780317 0.780317
0.781802 0.781802 0.781802
0.783481 0.783481 0.783481
0.785358 0.785358 0.785358
0.787439 0.787439 0.787439
0.789727 0.789727 0.789727
0.792227 0.792227 0.792227
0.794941 0.794941 0.794941
0.797872 0.797872 0.797872
0.801023 0.801023 0.801023
0.804395 0.804395 0.804395
0.807989 0.807989 0.807989
0.811808 0.811808 0.811808
0.815851 0.815851 0.815851
0.820118 0.820118 0.820118
0.824610 0.824610 0.824610
0.829326 0.829326 0.829326
0.834266 0.834266 0.834266
0.839428 0.839428 0.839428
0.844811 0.844811 0.844811
0.850414 0.850414 0.850414
0.855825 0.855825 0.855825
0.855825 0.855825 0.855825
0.855825 0.855825 0.855825
0.855825 0.855825 0.855825
0.807845 0.807845 0.807845
0.808191 0.808191 0.808191
0.808526 0.808526 0.808526
0.808978 0.808978 0.808978
0.809570 0.809570 0.809570
0.810309 0.810309 0.810309
0.811206 0.811206 0.811206
0.812268 0.812268 0.812268
0.813502 0.813502 0.813502
0.814915 0.814915 0.814915
0.816511 0.816511 0.816511
0.818297 0.818297 0.818297
0.820276 0.820276 0.820276
0.822454 0.822454 0.822454
0.824834 0.824834 0.824834
0.827418 0.827418 0.827418
0.830210 0.830210 0.830210
0.833213 0.833213 0.833213
0.836427 0.836427 0.836427
0.839855 0.839855 0.839855
0.843499 0.843499 0.843499
0.847358 0.847358 0.847358
0.851433 0.851433 0.851433
0.855725 0.855725 0.855725
