docs/luts/fuji_recipes/AcrosR_JC_Acros_1R.cube
TITLE "Fujifilm Recipe: JC Acros 1R (AcrosR)"
# FilmSim=AcrosR HL=-1 SH=3 Col=0 WB=Auto WBR=1 WBB=0
LUT_3D_SIZE 5
DOMAIN_MIN 0.0 0.0 0.0
DOMAIN_MAX 1.0 1.0 1.0
0.000000 0.000000 0.000000
0.103900 0.103900 0.103900
0.229288 0.229288 0.229288
0.354676 0.354676 0.354676
0.529728 0.529728 0.529728
0.171856 0.171856 0.171856
0.205947 0.205947 0.205947
0.287012 0.287012 0.287012
0.391653 0.391653 0.391653
0.558425 0.558425 0.558425
0.352393 0.352393 0.352393
0.368323 0.368323 0.368323
0.414697 0.414697 0.414697
0.551402 0.551402 0.551402
0.639264 0.639264 0.639264
0.599267 0.599267 0.599267
0.609540 0.609540 0.609540
0.641199 0.641199 0.641199
0.695955 0.695955 0.695955
0.762703 0.762703 0.762703
0.792113 0.792113 0.792113
0.799187 0.799187 0.799187
0.821454 0.821454 0.821454
0.861501 0.861501 0.861501
0.912619 0.912619 0.912619
0.036317 0.036317 0.036317
0.118445 0.118445 0.118445
0.235876 0.235876 0.235876
0.358624 0.358624 0.358624
0.532720 0.532720 0.532720
0.180861 0.180861 0.180861
0.213369 0.213369 0.213369
0.292099 0.292099 0.292099
0.395149 0.395149 0.395149
0.561213 0.561213 0.561213
0.356372 0.356372 0.356372
0.372093 0.372093 0.372093
0.417954 0.417954 0.417954
0.554238 0.554238 0.554238
0.641589 0.641589 0.641589
0.601802 0.601802 0.601802
0.612019 0.612019 0.612019
0.643514 0.643514 0.643514
0.698028 0.698028 0.698028
0.764534 0.764534 0.764534
0.793852 0.793852 0.793852
0.800905 0.800905 0.800905
0.823109 0.823109 0.823109
0.863052 0.863052 0.863052
0.914053 0.914053 0.914053
0.105758 0.105758 0.105758
0.156142 0.156142 0.156142
0.255688 0.255688 0.255688
0.370939 0.370939 0.370939
0.542166 0.542166 0.542166
0.206858 0.206858 0.206858
0.235390 0.235390 0.235390
0.307740 0.307740 0.307740
0.406110 0.406110 0.406110
0.570031 0.570031 0.570031
0.368780 0.368780 0.368780
0.383877 0.383877 0.383877
0.428192 0.428192 0.428192
0.563203 0.563203 0.563203
0.648968 0.648968 0.648968
0.609840 0.609840 0.609840
0.619878 0.619878 0.619878
0.650864 0.650864 0.650864
0.704619 0.704619 0.704619
0.770365 0.770365 0.770365
0.799395 0.799395 0.799395
0.806382 0.806382 0.806382
0.828386 0.828386 0.828386
0.868001 0.868001 0.868001
0.918631 0.918631 0.918631
0.175198 0.175198 0.175198
0.208688 0.208688 0.208688
0.288879 0.288879 0.288879
0.392932 0.392932 0.392932
0.559444 0.559444 0.559444
0.247849 0.247849 0.247849
0.271512 0.271512 0.271512
0.334937 0.334937 0.334937
0.425878 0.425878 0.425878
0.586217 0.586217 0.586217
0.390923 0.390923 0.390923
0.405006 0.405006 0.405006
0.507208 0.507208 0.507208
0.579645 0.579645 0.579645
0.662618 0.662618 0.662618
0.624656 0.624656 0.624656
0.634379 0.634379 0.634379
0.664461 0.664461 0.664461
0.716857 0.716857 0.716857
0.781228 0.781228 0.781228
0.809732 0.809732 0.809732
0.816599 0.816599 0.816599
0.838240 0.838240 0.838240
0.877254 0.877254 0.877254
0.927202 0.927202 0.927202
0.244639 0.244639 0.244639
0.268634 0.268634 0.268634
0.332707 0.332707 0.332707
0.424226 0.424226 0.424226
0.584851 0.584851 0.584851
0.298956 0.298956 0.298956
0.318211 0.318211 0.318211
0.372372 0.372372 0.372372
0.515361 0.515361 0.515361
0.610143 0.610143 0.610143
0.422401 0.422401 0.422401
0.435227 0.435227 0.435227
0.535984 0.535984 0.535984
0.603921 0.603921 0.603921
0.683023 0.683023 0.683023
0.646693 0.646693 0.646693
0.655978 0.655978 0.655978
0.684792 0.684792 0.684792
0.735258 0.735258 0.735258
0.797649 0.797649 0.797649
0.825387 0.825387 0.825387
0.832079 0.832079 0.832079
0.853189 0.853189 0.853189
0.891319 0.891319 0.891319
0.940259 0.940259 0.940259
