docs/luts/fuji_recipes/Acros_RR_Acros_Agfa_APX_400.cube
TITLE "Fujifilm Recipe: RR Acros Agfa APX 400 (Acros)"
# FilmSim=Acros HL=-2 SH=4 Col=0 WB=Auto WBR=1 WBB=0
LUT_3D_SIZE 9
DOMAIN_MIN 0.0 0.0 0.0
DOMAIN_MAX 1.0 1.0 1.0
0.000000 0.000000 0.000000
0.051852 0.051852 0.051852
0.120364 0.120364 0.120364
0.188877 0.188877 0.188877
0.257389 0.257389 0.257389
0.325901 0.325901 0.325901
0.394413 0.394413 0.394413
0.418690 0.418690 0.418690
0.418690 0.418690 0.418690
0.113364 0.113364 0.113364
0.132410 0.132410 0.132410
0.171534 0.171534 0.171534
0.223819 0.223819 0.223819
0.282889 0.282889 0.282889
0.345493 0.345493 0.345493
0.410061 0.410061 0.410061
0.513878 0.513878 0.513878
0.513878 0.513878 0.513878
0.224172 0.224172 0.224172
0.233805 0.233805 0.233805
0.256626 0.256626 0.256626
0.292295 0.292295 0.292295
0.337769 0.337769 0.337769
0.390031 0.390031 0.390031
0.528118 0.528118 0.528118
0.550036 0.550036 0.550036
0.550036 0.550036 0.550036
0.334980 0.334980 0.334980
0.341018 0.341018 0.341018
0.355944 0.355944 0.355944
0.380843 0.380843 0.380843
0.414909 0.414909 0.414909
0.538349 0.538349 0.538349
0.588298 0.588298 0.588298
0.607207 0.607207 0.607207
0.607207 0.607207 0.607207
0.527016 0.527016 0.527016
0.531464 0.531464 0.531464
0.542644 0.542644 0.542644
0.561843 0.561843 0.561843
0.589110 0.589110 0.589110
0.623835 0.623835 0.623835
0.665060 0.665060 0.665060
0.681026 0.681026 0.681026
0.681026 0.681026 0.681026
0.643101 0.643101 0.643101
0.646455 0.646455 0.646455
0.654955 0.654955 0.654955
0.669765 0.669765 0.669765
0.691234 0.691234 0.691234
0.719242 0.719242 0.719242
0.753343 0.753343 0.753343
0.766773 0.766773 0.766773
0.766773 0.766773 0.766773
0.759186 0.759186 0.759186
0.761837 0.761837 0.761837
0.768586 0.768586 0.768586
0.780441 0.780441 0.780441
0.797831 0.797831 0.797831
0.820859 0.820859 0.820859
0.849373 0.849373 0.849373
0.860734 0.860734 0.860734
0.860734 0.860734 0.860734
0.818984 0.818984 0.818984
0.821366 0.821366 0.821366
0.827436 0.827436 0.827436
0.838130 0.838130 0.838130
0.853884 0.853884 0.853884
0.874859 0.874859 0.874859
0.900997 0.900997 0.900997
0.911459 0.911459 0.911459
0.911459 0.911459 0.911459
0.818984 0.818984 0.818984
0.821366 0.821366 0.821366
0.827436 0.827436 0.827436
0.838130 0.838130 0.838130
0.853884 0.853884 0.853884
0.874859 0.874859 0.874859
0.900997 0.900997 0.900997
0.911459 0.911459 0.911459
0.911459 0.911459 0.911459
0.017890 0.017890 0.017890
0.064044 0.064044 0.064044
0.126524 0.126524 0.126524
0.192734 0.192734 0.192734
0.260099 0.260099 0.260099
0.327945 0.327945 0.327945
0.396028 0.396028 0.396028
0.500197 0.500197 0.500197
0.500197 0.500197 0.500197
0.119888 0.119888 0.119888
0.138017 0.138017 0.138017
0.175819 0.175819 0.175819
0.227006 0.227006 0.227006
0.285313 0.285313 0.285313
0.347396 0.347396 0.347396
0.411599 0.411599 0.411599
0.515382 0.515382 0.515382
0.515382 0.515382 0.515382
0.227353 0.227353 0.227353
0.236837 0.236837 0.236837
0.259346 0.259346 0.259346
0.294626 0.294626 0.294626
0.339725 0.339725 0.339725
0.391668 0.391668 0.391668
0.529564 0.529564 0.529564
0.551401 0.551401 0.551401
0.551401 0.551401 0.551401
0.336956 0.336956 0.336956
0.342951 0.342951 0.342951
0.357778 0.357778 0.357778
0.382529 0.382529 0.382529
0.416425 0.416425 0.416425
0.539756 0.539756 0.539756
0.589538 0.589538 0.589538
0.608392 0.608392 0.608392
0.608392 0.608392 0.608392
0.528467 0.528467 0.528467
0.532897 0.532897 0.532897
0.544035 0.544035 0.544035
0.563167 0.563167 0.563167
0.590347 0.590347 0.590347
0.624976 0.624976 0.624976
0.666101 0.666101 0.666101
0.682033 0.682033 0.682033
0.682033 0.682033 0.682033
0.644193 0.644193 0.644193
0.647540 0.647540 0.647540
0.656019 0.656019 0.656019
0.670797 0.670797 0.670797
0.692220 0.692220 0.692220
0.720173 0.720173 0.720173
0.754216 0.754216 0.754216
0.767624 0.767624 0.767624
0.767624 0.767624 0.767624
0.760048 0.760048 0.760048
0.762696 0.762696 0.762696
0.769434 0.769434 0.769434
0.781270 0.781270 0.781270
0.798635 0.798635 0.798635
0.821631 0.821631 0.821631
0.850109 0.850109 0.850109
0.861456 0.861456 0.861456
0.861456 0.861456 0.861456
0.819758 0.819758 0.819758
0.822137 0.822137 0.822137
0.828200 0.828200 0.828200
0.838880 0.838880 0.838880
0.854614 0.854614 0.854614
0.875565 0.875565 0.875565
0.901674 0.901674 0.901674
0.912125 0.912125 0.912125
0.912125 0.912125 0.912125
0.819758 0.819758 0.819758
0.822137 0.822137 0.822137
0.828200 0.828200 0.828200
0.838880 0.838880 0.838880
0.854614 0.854614 0.854614
0.875565 0.875565 0.875565
0.901674 0.901674 0.901674
0.912125 0.912125 0.912125
0.912125 0.912125 0.912125
0.057794 0.057794 0.057794
0.088731 0.088731 0.088731
0.140960 0.140960 0.140960
0.202179 0.202179 0.202179
0.266851 0.266851 0.266851
0.333077 0.333077 0.333077
0.400102 0.400102 0.400102
0.504162 0.504162 0.504162
0.504162 0.504162 0.504162
0.135058 0.135058 0.135058
0.151311 0.151311 0.151311
0.186233 0.186233 0.186233
0.234893 0.234893 0.234893
0.291373 0.291373 0.291373
0.352181 0.352181 0.352181
0.415482 0.415482 0.415482
0.519181 0.519181 0.519181
0.519181 0.519181 0.519181
0.235226 0.235226 0.235226
0.244354 0.244354 0.244354
0.266120 0.266120 0.266120
0.300460 0.300460 0.300460
0.344643 0.344643 0.344643
0.395798 0.395798 0.395798
0.533220 0.533220 0.533220
0.554853 0.554853 0.554853
0.554853 0.554853 0.554853
0.341922 0.341922 0.341922
0.347813 0.347813 0.347813
0.362395 0.362395 0.362395
0.386782 0.386782 0.386782
0.500264 0.500264 0.500264
0.543315 0.543315 0.543315
0.592678 0.592678 0.592678
0.611395 0.611395 0.611395
0.611395 0.611395 0.611395
0.532134 0.532134 0.532134
0.536521 0.536521 0.536521
0.547554 0.547554 0.547554
0.566517 0.566517 0.566517
0.593481 0.593481 0.593481
0.627866 0.627866 0.627866
0.668742 0.668742 0.668742
0.684586 0.684586 0.684586
0.684586 0.684586 0.684586
0.646962 0.646962 0.646962
0.650288 0.650288 0.650288
0.658717 0.658717 0.658717
0.673411 0.673411 0.673411
0.694720 0.694720 0.694720
0.722537 0.722537 0.722537
0.756430 0.756430 0.756430
0.769783 0.769783 0.769783
0.769783 0.769783 0.769783
0.762239 0.762239 0.762239
0.764875 0.764875 0.764875
0.771586 0.771586 0.771586
0.783377 0.783377 0.783377
0.800677 0.800677 0.800677
0.823593 0.823593 0.823593
0.851978 0.851978 0.851978
0.863290 0.863290 0.863290
0.863290 0.863290 0.863290
0.821726 0.821726 0.821726
0.824097 0.824097 0.824097
0.830139 0.830139 0.830139
0.840785 0.840785 0.840785
0.856469 0.856469 0.856469
0.877357 0.877357 0.877357
0.903394 0.903394 0.903394
0.913816 0.913816 0.913816
0.913816 0.913816 0.913816
0.821726 0.821726 0.821726
0.824097 0.824097 0.824097
0.830139 0.830139 0.830139
0.840785 0.840785 0.840785
0.856469 0.856469 0.856469
0.877357 0.877357 0.877357
0.903394 0.903394 0.903394
0.913816 0.913816 0.913816
0.913816 0.913816 0.913816
0.100414 0.100414 0.100414
0.121511 0.121511 0.121511
0.163414 0.163414 0.163414
0.217876 0.217876 0.217876
0.278411 0.278411 0.278411
0.341995 0.341995 0.341995
0.407241 0.407241 0.407241
0.511123 0.511123 0.511123
0.511123 0.511123 0.511123
0.158405 0.158405 0.158405
0.172324 0.172324 0.172324
0.203337 0.203337 0.203337
0.248236 0.248236 0.248236
0.301817 0.301817 0.301817
0.360522 0.360522 0.360522
0.502405 0.502405 0.502405
0.525861 0.525861 0.525861
0.525861 0.525861 0.525861
0.248549 0.248549 0.248549
0.257124 0.257124 0.257124
0.277716 0.277716 0.277716
0.310536 0.310536 0.310536
0.353203 0.353203 0.353203
0.403032 0.403032 0.403032
0.539653 0.539653 0.539653
0.560935 0.560935 0.560935
0.560935 0.560935 0.560935
0.350565 0.350565 0.350565
0.356279 0.356279 0.356279
0.370452 0.370452 0.370452
0.394224 0.394224 0.394224
0.507302 0.507302 0.507302
0.549580 0.549580 0.549580
0.598219 0.598219 0.598219
0.616698 0.616698 0.616698
0.616698 0.616698 0.616698
0.538585 0.538585 0.538585
0.542898 0.542898 0.542898
0.553751 0.553751 0.553751
0.572423 0.572423 0.572423
0.599012 0.599012 0.599012
0.632974 0.632974 0.632974
0.673414 0.673414 0.673414
0.689107 0.689107 0.689107
0.689107 0.689107 0.689107
0.651858 0.651858 0.651858
0.655149 0.655149 0.655149
0.663491 0.663491 0.663491
0.678038 0.678038 0.678038
0.699148 0.699148 0.699148
0.726726 0.726726 0.726726
0.760356 0.760356 0.760356
0.773613 0.773613 0.773613
0.773613 0.773613 0.773613
0.766122 0.766122 0.766122
0.768740 0.768740 0.768740
0.775403 0.775403 0.775403
0.787113 0.787113 0.787113
0.804300 0.804300 0.804300
0.827074 0.827074 0.827074
0.855297 0.855297 0.855297
0.866548 0.866548 0.866548
0.866548 0.866548 0.866548
0.825219 0.825219 0.825219
0.827575 0.827575 0.827575
0.833582 0.833582 0.833582
0.844166 0.844166 0.844166
0.859764 0.859764 0.859764
0.880541 0.880541 0.880541
0.906449 0.906449 0.906449
0.916822 0.916822 0.916822
0.916822 0.916822 0.916822
0.825219 0.825219 0.825219
0.827575 0.827575 0.827575
0.833582 0.833582 0.833582
0.844166 0.844166 0.844166
0.859764 0.859764 0.859764
0.880541 0.880541 0.880541
0.906449 0.906449 0.906449
0.916822 0.916822 0.916822
0.916822 0.916822 0.916822
0.143034 0.143034 0.143034
0.158423 0.158423 0.158423
0.191941 0.191941 0.191941
0.239294 0.239294 0.239294
0.294792 0.294792 0.294792
0.354899 0.354899 0.354899
0.417696 0.417696 0.417696
0.521350 0.521350 0.521350
0.521350 0.521350 0.521350
0.187770 0.187770 0.187770
0.199450 0.199450 0.199450
0.226349 0.226349 0.226349
0.266852 0.266852 0.266852
0.316754 0.316754 0.316754
0.372639 0.372639 0.372639
0.512881 0.512881 0.512881
0.535689 0.535689 0.535689
0.535689 0.535689 0.535689
0.267139 0.267139 0.267139
0.275032 0.275032 0.275032
0.294144 0.294144 0.294144
0.324988 0.324988 0.324988
0.365622 0.365622 0.365622
0.413621 0.413621 0.413621
0.549132 0.549132 0.549132
0.569913 0.569913 0.569913
0.569913 0.569913 0.569913
0.363095 0.363095 0.363095
0.368570 0.368570 0.368570
0.382180 0.382180 0.382180
0.405101 0.405101 0.405101
0.517637 0.517637 0.517637
0.558819 0.558819 0.558819
0.606422 0.606422 0.606422
0.624558 0.624558 0.624558
0.624558 0.624558 0.624558
0.548090 0.548090 0.548090
0.552297 0.552297 0.552297
0.562893 0.562893 0.562893
0.581150 0.581150 0.581150
0.607200 0.607200 0.607200
0.640552 0.640552 0.640552
0.680360 0.680360 0.680360
0.695831 0.695831 0.695831
0.695831 0.695831 0.695831
0.659129 0.659129 0.659129
0.662368 0.662368 0.662368
0.670583 0.670583 0.670583
0.684917 0.684917 0.684917
0.705736 0.705736 0.705736
0.732965 0.732965 0.732965
0.766210 0.766210 0.766210
0.779327 0.779327 0.779327
0.779327 0.779327 0.779327
0.771915 0.771915 0.771915
0.774505 0.774505 0.774505
0.781098 0.781098 0.781098
0.792689 0.792689 0.792689
0.809708 0.809708 0.809708
0.832274 0.832274 0.832274
0.860257 0.860257 0.860257
0.871417 0.871417 0.871417
0.871417 0.871417 0.871417
0.830435 0.830435 0.830435
0.832771 0.832771 0.832771
0.838725 0.838725 0.838725
0.849218 0.849218 0.849218
0.864687 0.864687 0.864687
0.885302 0.885302 0.885302
0.911019 0.911019 0.911019
0.921320 0.921320 0.921320
0.921320 0.921320 0.921320
0.830435 0.830435 0.830435
0.832771 0.832771 0.832771
0.838725 0.838725 0.838725
0.849218 0.849218 0.849218
0.864687 0.864687 0.864687
0.885302 0.885302 0.885302
0.911019 0.911019 0.911019
0.921320 0.921320 0.921320
0.921320 0.921320 0.921320
0.185655 0.185655 0.185655
0.197476 0.197476 0.197476
0.224645 0.224645 0.224645
0.265450 0.265450 0.265450
0.315615 0.315615 0.315615
0.371708 0.371708 0.371708
0.512071 0.512071 0.512071
0.534928 0.534928 0.534928
0.534928 0.534928 0.534928
0.221173 0.221173 0.221173
0.230952 0.230952 0.230952
0.254072 0.254072 0.254072
0.290113 0.290113 0.290113
0.335942 0.335942 0.335942
0.388504 0.388504 0.388504
0.526771 0.526771 0.526771
0.548765 0.548765 0.548765
0.548765 0.548765 0.548765
0.290372 0.290372 0.290372
0.297532 0.297532 0.297532
0.315019 0.315019 0.315019
0.343617 0.343617 0.343617
0.381849 0.381849 0.381849
0.507976 0.507976 0.507976
0.561765 0.561765 0.561765
0.581910 0.581910 0.581910
0.581910 0.581910 0.581910
0.379456 0.379456 0.379456
0.384643 0.384643 0.384643
0.397573 0.397573 0.397573
0.419452 0.419452 0.419452
0.531351 0.531351 0.531351
0.571149 0.571149 0.571149
0.617424 0.617424 0.617424
0.635116 0.635116 0.635116
0.635116 0.635116 0.635116
0.560757 0.560757 0.560757
0.564830 0.564830 0.564830
0.575098 0.575098 0.575098
0.592825 0.592825 0.592825
0.618182 0.618182 0.618182
0.650743 0.650743 0.650743
0.689726 0.689726 0.689726
0.704907 0.704907 0.704907
0.704907 0.704907 0.704907
0.668921 0.668921 0.668921
0.672093 0.672093 0.672093
0.680141 0.680141 0.680141
0.694196 0.694196 0.694196
0.714634 0.714634 0.714634
0.741403 0.741403 0.741403
0.774139 0.774139 0.774139
0.787069 0.787069 0.787069
0.787069 0.787069 0.787069
0.779761 0.779761 0.779761
0.782315 0.782315 0.782315
0.788816 0.788816 0.788816
0.800248 0.800248 0.800248
0.817046 0.817046 0.817046
0.839333 0.839333 0.839333
0.866995 0.866995 0.866995
0.878035 0.878035 0.878035
0.878035 0.878035 0.878035
0.837516 0.837516 0.837516
0.839824 0.839824 0.839824
0.845708 0.845708 0.845708
0.856080 0.856080 0.856080
0.871377 0.871377 0.871377
0.891774 0.891774 0.891774
0.917235 0.917235 0.917235
0.927439 0.927439 0.927439
0.927439 0.927439 0.927439
0.837516 0.837516 0.837516
0.839824 0.839824 0.839824
0.845708 0.845708 0.845708
0.856080 0.856080 0.856080
0.871377 0.871377 0.871377
0.891774 0.891774 0.891774
0.917235 0.917235 0.917235
0.927439 0.927439 0.927439
0.927439 0.927439 0.927439
0.228275 0.228275 0.228275
0.237716 0.237716 0.237716
0.260136 0.260136 0.260136
0.295304 0.295304 0.295304
0.340296 0.340296 0.340296
0.392146 0.392146 0.392146
0.529987 0.529987 0.529987
0.551799 0.551799 0.551799
0.551799 0.551799 0.551799
0.257221 0.257221 0.257221
0.265466 0.265466 0.265466
0.285346 0.285346 0.285346
0.317223 0.317223 0.317223
0.358930 0.358930 0.358930
0.407902 0.407902 0.407902
0.544003 0.544003 0.544003
0.565053 0.565053 0.565053
0.565053 0.565053 0.565053
0.317456 0.317456 0.317456
0.323897 0.323897 0.323897
0.339752 0.339752 0.339752
0.366015 0.366015 0.366015
0.401649 0.401649 0.401649
0.526090 0.526090 0.526090
0.577534 0.577534 0.577534
0.596929 0.596929 0.596929
0.596929 0.596929 0.596929
0.399403 0.399403 0.399403
0.404272 0.404272 0.404272
0.416446 0.416446 0.416446
0.517966 0.517966 0.517966
0.548378 0.548378 0.548378
0.586561 0.586561 0.586561
0.631258 0.631258 0.631258
0.648418 0.648418 0.648418
0.648418 0.648418 0.648418
0.576565 0.576565 0.576565
0.580481 0.580481 0.580481
0.590364 0.590364 0.590364
0.607462 0.607462 0.607462
0.631993 0.631993 0.631993
0.663603 0.663603 0.663603
0.701585 0.701585 0.701585
0.716411 0.716411 0.716411
0.716411 0.716411 0.716411
0.681296 0.681296 0.681296
0.684388 0.684388 0.684388
0.692233 0.692233 0.692233
0.705948 0.705948 0.705948
0.725920 0.725920 0.725920
0.752124 0.752124 0.752124
0.784231 0.784231 0.784231
0.796930 0.796930 0.796930
0.796930 0.796930 0.796930
0.789752 0.789752 0.789752
0.792259 0.792259 0.792259
0.798646 0.798646 0.798646
0.809883 0.809883 0.809883
0.826404 0.826404 0.826404
0.848345 0.848345 0.848345
0.875607 0.875607 0.875607
0.886495 0.886495 0.886495
0.886495 0.886495 0.886495
0.846556 0.846556 0.846556
0.848829 0.848829 0.848829
0.854624 0.854624 0.854624
0.864846 0.864846 0.864846
0.879928 0.879928 0.879928
0.900052 0.900052 0.900052
0.925193 0.925193 0.925193
0.935273 0.935273 0.935273
0.935273 0.935273 0.935273
0.846556 0.846556 0.846556
0.848829 0.848829 0.848829
0.854624 0.854624 0.854624
0.864846 0.864846 0.864846
0.879928 0.879928 0.879928
0.900052 0.900052 0.900052
0.925193 0.925193 0.925193
0.935273 0.935273 0.935273
0.935273 0.935273 0.935273
0.250230 0.250230 0.250230
0.258740 0.258740 0.258740
0.279191 0.279191 0.279191
0.311825 0.311825 0.311825
0.354304 0.354304 0.354304
0.403967 0.403967 0.403967
0.540487 0.540487 0.540487
0.561723 0.561723 0.561723
0.561723 0.561723 0.561723
0.276514 0.276514 0.276514
0.284097 0.284097 0.284097
0.302525 0.302525 0.302525
0.332434 0.332434 0.332434
0.372080 0.372080 0.372080
0.419169 0.419169 0.419169
0.554127 0.554127 0.554127
0.574652 0.574652 0.574652
0.574652 0.574652 0.574652
0.332654 0.332654 0.332654
0.338743 0.338743 0.338743
0.353787 0.353787 0.353787
0.378861 0.378861 0.378861
0.413130 0.413130 0.413130
0.536699 0.536699 0.536699
0.586845 0.586845 0.586845
0.605818 0.605818 0.605818
0.605818 0.605818 0.605818
0.410964 0.410964 0.410964
0.415663 0.415663 0.415663
0.507785 0.507785 0.507785
0.528808 0.528808 0.528808
0.558389 0.558389 0.558389
0.595671 0.595671 0.595671
0.639477 0.639477 0.639477
0.656333 0.656333 0.656333
0.656333 0.656333 0.656333
0.585897 0.585897 0.585897
0.589725 0.589725 0.589725
0.599392 0.599392 0.599392
0.616136 0.616136 0.616136
0.640198 0.640198 0.640198
0.671264 0.671264 0.671264
0.708670 0.708670 0.708670
0.723290 0.723290 0.723290
0.723290 0.723290 0.723290
0.688680 0.688680 0.688680
0.691724 0.691724 0.691724
0.699453 0.699453 0.699453
0.712971 0.712971 0.712971
0.732673 0.732673 0.732673
0.758548 0.758548 0.758548
0.790288 0.790288 0.790288
0.802852 0.802852 0.802852
0.802852 0.802852 0.802852
0.795749 0.795749 0.795749
0.798231 0.798231 0.798231
0.804550 0.804550 0.804550
0.815672 0.815672 0.815672
0.832030 0.832030 0.832030
0.853768 0.853768 0.853768
0.880793 0.880793 0.880793
0.891592 0.891592 0.891592
0.891592 0.891592 0.891592
0.851995 0.851995 0.851995
0.854247 0.854247 0.854247
0.859991 0.859991 0.859991
0.870124 0.870124 0.870124
0.885079 0.885079 0.885079
0.905041 0.905041 0.905041
0.929992 0.929992 0.929992
0.940000 0.940000 0.940000
0.940000 0.940000 0.940000
0.851995 0.851995 0.851995
0.854247 0.854247 0.854247
0.859991 0.859991 0.859991
0.870124 0.870124 0.870124
0.885079 0.885079 0.885079
0.905041 0.905041 0.905041
0.929992 0.929992 0.929992
0.940000 0.940000 0.940000
0.940000 0.940000 0.940000
0.250230 0.250230 0.250230
0.258740 0.258740 0.258740
0.279191 0.279191 0.279191
0.311825 0.311825 0.311825
0.354304 0.354304 0.354304
0.403967 0.403967 0.403967
0.540487 0.540487 0.540487
0.561723 0.561723 0.561723
0.561723 0.561723 0.561723
0.276514 0.276514 0.276514
0.284097 0.284097 0.284097
0.302525 0.302525 0.302525
0.332434 0.332434 0.332434
0.372080 0.372080 0.372080
0.419169 0.419169 0.419169
0.554127 0.554127 0.554127
0.574652 0.574652 0.574652
0.574652 0.574652 0.574652
0.332654 0.332654 0.332654
0.338743 0.338743 0.338743
0.353787 0.353787 0.353787
0.378861 0.378861 0.378861
0.413130 0.413130 0.413130
0.536699 0.536699 0.536699
0.586845 0.586845 0.586845
0.605818 0.605818 0.605818
0.605818 0.605818 0.605818
0.410964 0.410964 0.410964
0.415663 0.415663 0.415663
0.507785 0.507785 0.507785
0.528808 0.528808 0.528808
0.558389 0.558389 0.558389
0.595671 0.595671 0.595671
0.639477 0.639477 0.639477
0.656333 0.656333 0.656333
0.656333 0.656333 0.656333
0.585897 0.585897 0.585897
0.589725 0.589725 0.589725
0.599392 0.599392 0.599392
0.616136 0.616136 0.616136
0.640198 0.640198 0.640198
0.671264 0.671264 0.671264
0.708670 0.708670 0.708670
0.723290 0.723290 0.723290
0.723290 0.723290 0.723290
0.688680 0.688680 0.688680
0.691724 0.691724 0.691724
0.699453 0.699453 0.699453
0.712971 0.712971 0.712971
0.732673 0.732673 0.732673
0.758548 0.758548 0.758548
0.790288 0.790288 0.790288
0.802852 0.802852 0.802852
0.802852 0.802852 0.802852
0.795749 0.795749 0.795749
0.798231 0.798231 0.798231
0.804550 0.804550 0.804550
0.815672 0.815672 0.815672
0.832030 0.832030 0.832030
0.853768 0.853768 0.853768
0.880793 0.880793 0.880793
0.891592 0.891592 0.891592
0.891592 0.891592 0.891592
0.851995 0.851995 0.851995
0.854247 0.854247 0.854247
0.859991 0.859991 0.859991
0.870124 0.870124 0.870124
0.885079 0.885079 0.885079
0.905041 0.905041 0.905041
0.929992 0.929992 0.929992
0.940000 0.940000 0.940000
0.940000 0.940000 0.940000
0.851995 0.851995 0.851995
0.854247 0.854247 0.854247
0.859991 0.859991 0.859991
0.870124 0.870124 0.870124
0.885079 0.885079 0.885079
0.905041 0.905041 0.905041
0.929992 0.929992 0.929992
0.940000 0.940000 0.940000
0.940000 0.940000 0.940000
