docs/luts/fuji_recipes/Acros_RR_Acros.cube
TITLE "Fujifilm Recipe: RR Acros (Acros)"
# FilmSim=Acros HL=2 SH=2 Col=0 WB=Auto WBR=0 WBB=0
LUT_3D_SIZE 5
DOMAIN_MIN 0.0 0.0 0.0
DOMAIN_MAX 1.0 1.0 1.0
0.000000 0.000000 0.000000
0.145887 0.145887 0.145887
0.306943 0.306943 0.306943
0.458565 0.458565 0.458565
0.458565 0.458565 0.458565
0.275133 0.275133 0.275133
0.312441 0.312441 0.312441
0.406123 0.406123 0.406123
0.576317 0.576317 0.576317
0.576317 0.576317 0.576317
0.596410 0.596410 0.596410
0.616488 0.616488 0.616488
0.676106 0.676106 0.676106
0.767390 0.767390 0.767390
0.767390 0.767390 0.767390
0.891480 0.891480 0.891480
0.903859 0.903859 0.903859
0.942189 0.942189 0.942189
1.000000 1.000000 1.000000
1.000000 1.000000 1.000000
0.891480 0.891480 0.891480
0.903859 0.903859 0.903859
0.942189 0.942189 0.942189
1.000000 1.000000 1.000000
1.000000 1.000000 1.000000
0.074687 0.074687 0.074687
0.171343 0.171343 0.171343
0.318697 0.318697 0.318697
0.506836 0.506836 0.506836
0.506836 0.506836 0.506836
0.288451 0.288451 0.288451
0.323956 0.323956 0.323956
0.414550 0.414550 0.414550
0.583512 0.583512 0.583512
0.583512 0.583512 0.583512
0.603319 0.603319 0.603319
0.623130 0.623130 0.623130
0.682051 0.682051 0.682051
0.772483 0.772483 0.772483
0.772483 0.772483 0.772483
0.895708 0.895708 0.895708
0.908015 0.908015 0.908015
0.946133 0.946133 0.946133
1.000000 1.000000 1.000000
1.000000 1.000000 1.000000
0.895708 0.895708 0.895708
0.908015 0.908015 0.908015
0.946133 0.946133 0.946133
1.000000 1.000000 1.000000
1.000000 1.000000 1.000000
0.177382 0.177382 0.177382
0.233788 0.233788 0.233788
0.353264 0.353264 0.353264
0.533094 0.533094 0.533094
0.533094 0.533094 0.533094
0.326898 0.326898 0.326898
0.357913 0.357913 0.357913
0.440234 0.440234 0.440234
0.605899 0.605899 0.605899
0.605899 0.605899 0.605899
0.624859 0.624859 0.624859
0.643876 0.643876 0.643876
0.700703 0.700703 0.700703
0.788545 0.788545 0.788545
0.788545 0.788545 0.788545
0.909102 0.909102 0.909102
0.921184 0.921184 0.921184
0.958645 0.958645 0.958645
1.000000 1.000000 1.000000
1.000000 1.000000 1.000000
0.909102 0.909102 0.909102
0.921184 0.921184 0.921184
0.958645 0.958645 0.958645
1.000000 1.000000 1.000000
1.000000 1.000000 1.000000
0.274061 0.274061 0.274061
0.311521 0.311521 0.311521
0.405456 0.405456 0.405456
0.575751 0.575751 0.575751
0.575751 0.575751 0.575751
0.383487 0.383487 0.383487
0.409386 0.409386 0.409386
0.524876 0.524876 0.524876
0.642898 0.642898 0.642898
0.642898 0.642898 0.642898
0.660586 0.660586 0.660586
0.678397 0.678397 0.678397
0.731999 0.731999 0.731999
0.815752 0.815752 0.815752
0.815752 0.815752 0.815752
0.931993 0.931993 0.931993
0.943707 0.943707 0.943707
0.980085 0.980085 0.980085
1.000000 1.000000 1.000000
1.000000 1.000000 1.000000
0.931993 0.931993 0.931993
0.943707 0.943707 0.943707
0.980085 0.980085 0.980085
1.000000 1.000000 1.000000
1.000000 1.000000 1.000000
0.274061 0.274061 0.274061
0.311521 0.311521 0.311521
0.405456 0.405456 0.405456
0.575751 0.575751 0.575751
0.575751 0.575751 0.575751
0.383487 0.383487 0.383487
0.409386 0.409386 0.409386
0.524876 0.524876 0.524876
0.642898 0.642898 0.642898
0.642898 0.642898 0.642898
0.660586 0.660586 0.660586
0.678397 0.678397 0.678397
0.731999 0.731999 0.731999
0.815752 0.815752 0.815752
0.815752 0.815752 0.815752
0.931993 0.931993 0.931993
0.943707 0.943707 0.943707
0.980085 0.980085 0.980085
1.000000 1.000000 1.000000
1.000000 1.000000 1.000000
0.931993 0.931993 0.931993
0.943707 0.943707 0.943707
0.980085 0.980085 0.980085
1.000000 1.000000 1.000000
1.000000 1.000000 1.000000
