docs/luts/fuji_recipes/Acros_VM_Across.cube
TITLE "Fujifilm Recipe: VM Across (Acros)"
# FilmSim=Acros HL=0 SH=1 Col=0 WB=Auto WBR=0 WBB=0
LUT_3D_SIZE 5
DOMAIN_MIN 0.0 0.0 0.0
DOMAIN_MAX 1.0 1.0 1.0
0.000000 0.000000 0.000000
0.100799 0.100799 0.100799
0.226700 0.226700 0.226700
0.352601 0.352601 0.352601
0.478502 0.478502 0.478502
0.201834 0.201834 0.201834
0.230999 0.230999 0.230999
0.304232 0.304232 0.304232
0.403401 0.403401 0.403401
0.536097 0.536097 0.536097
0.410550 0.410550 0.410550
0.423920 0.423920 0.423920
0.463621 0.463621 0.463621
0.550858 0.550858 0.550858
0.638765 0.638765 0.638765
0.645069 0.645069 0.645069
0.653441 0.653441 0.653441
0.679401 0.679401 0.679401
0.725253 0.725253 0.725253
0.789575 0.789575 0.789575
0.862481 0.862481 0.862481
0.868238 0.868238 0.868238
0.886368 0.886368 0.886368
0.919370 0.919370 0.919370
0.967567 0.967567 0.967567
0.045140 0.045140 0.045140
0.120699 0.120699 0.120699
0.235889 0.235889 0.235889
0.358134 0.358134 0.358134
0.502404 0.502404 0.502404
0.212245 0.212245 0.212245
0.240000 0.240000 0.240000
0.310819 0.310819 0.310819
0.408101 0.408101 0.408101
0.539715 0.539715 0.539715
0.415150 0.415150 0.415150
0.428343 0.428343 0.428343
0.467579 0.467579 0.467579
0.554354 0.554354 0.554354
0.641660 0.641660 0.641660
0.647928 0.647928 0.647928
0.656253 0.656253 0.656253
0.682076 0.682076 0.682076
0.727710 0.727710 0.727710
0.791775 0.791775 0.791775
0.864442 0.864442 0.864442
0.870181 0.870181 0.870181
0.888259 0.888259 0.888259
0.921172 0.921172 0.921172
0.969252 0.969252 0.969252
0.125419 0.125419 0.125419
0.169513 0.169513 0.169513
0.262911 0.262911 0.262911
0.375211 0.375211 0.375211
0.514860 0.514860 0.514860
0.242300 0.242300 0.242300
0.266545 0.266545 0.266545
0.330897 0.330897 0.330897
0.422742 0.422742 0.422742
0.551116 0.551116 0.551116
0.429494 0.429494 0.429494
0.442158 0.442158 0.442158
0.480000 0.480000 0.480000
0.565381 0.565381 0.565381
0.650834 0.650834 0.650834
0.656989 0.656989 0.656989
0.665168 0.665168 0.665168
0.690563 0.690563 0.690563
0.735521 0.735521 0.735521
0.798780 0.798780 0.798780
0.870690 0.870690 0.870690
0.876375 0.876375 0.876375
0.894289 0.894289 0.894289
0.926922 0.926922 0.926922
0.974630 0.974630 0.974630
0.205698 0.205698 0.205698
0.234327 0.234327 0.234327
0.306654 0.306654 0.306654
0.405123 0.405123 0.405123
0.537420 0.537420 0.537420
0.289688 0.289688 0.289688
0.309691 0.309691 0.309691
0.365292 0.365292 0.365292
0.448820 0.448820 0.448820
0.571886 0.571886 0.571886
0.455093 0.455093 0.455093
0.466897 0.466897 0.466897
0.523370 0.523370 0.523370
0.585511 0.585511 0.585511
0.667736 0.667736 0.667736
0.673692 0.673692 0.673692
0.681614 0.681614 0.681614
0.706249 0.706249 0.706249
0.750000 0.750000 0.750000
0.811807 0.811807 0.811807
0.882345 0.882345 0.882345
0.887932 0.887932 0.887932
0.905546 0.905546 0.905546
0.937665 0.937665 0.937665
0.984691 0.984691 0.984691
0.285977 0.285977 0.285977
0.306267 0.306267 0.306267
0.362493 0.362493 0.362493
0.446655 0.446655 0.446655
0.570140 0.570140 0.570140
0.348772 0.348772 0.348772
0.364979 0.364979 0.364979
0.411821 0.411821 0.411821
0.506040 0.506040 0.506040
0.602256 0.602256 0.602256
0.511964 0.511964 0.511964
0.523151 0.523151 0.523151
0.557136 0.557136 0.557136
0.615028 0.615028 0.615028
0.692856 0.692856 0.692856
0.698537 0.698537 0.698537
0.706099 0.706099 0.706099
0.729672 0.729672 0.729672
0.771718 0.771718 0.771718
0.831447 0.831447 0.831447
0.899994 0.899994 0.899994
0.905438 0.905438 0.905438
0.922614 0.922614 0.922614
0.953980 0.953980 0.953980
1.000000 1.000000 1.000000
