docs/luts/fuji_recipes/AcrosR_GB_Oh_Sh_t.cube
TITLE "Fujifilm Recipe: GB Oh Sh*t (AcrosR)"
# FilmSim=AcrosR HL=-2 SH=-1 Col=0 WB=Daylight WBR=-2 WBB=1
LUT_3D_SIZE 5
DOMAIN_MIN 0.0 0.0 0.0
DOMAIN_MAX 1.0 1.0 1.0
0.040000 0.040000 0.040000
0.143337 0.143337 0.143337
0.270115 0.270115 0.270115
0.396893 0.396893 0.396893
0.503365 0.503365 0.503365
0.227479 0.227479 0.227479
0.259935 0.259935 0.259935
0.338008 0.338008 0.338008
0.440959 0.440959 0.440959
0.531998 0.531998 0.531998
0.424429 0.424429 0.424429
0.439455 0.439455 0.439455
0.482939 0.482939 0.482939
0.530131 0.530131 0.530131
0.611620 0.611620 0.611620
0.592930 0.592930 0.592930
0.601229 0.601229 0.601229
0.626470 0.626470 0.626470
0.670448 0.670448 0.670448
0.731285 0.731285 0.731285
0.773468 0.773468 0.773468
0.779177 0.779177 0.779177
0.796865 0.796865 0.796865
0.828757 0.828757 0.828757
0.874869 0.874869 0.874869
0.081513 0.081513 0.081513
0.161275 0.161275 0.161275
0.278387 0.278387 0.278387
0.401877 0.401877 0.401877
0.506510 0.506510 0.506510
0.237779 0.237779 0.237779
0.268627 0.268627 0.268627
0.344178 0.344178 0.344178
0.445288 0.445288 0.445288
0.534906 0.534906 0.534906
0.428985 0.428985 0.428985
0.443803 0.443803 0.443803
0.486768 0.486768 0.486768
0.533053 0.533053 0.533053
0.614005 0.614005 0.614005
0.595423 0.595423 0.595423
0.603672 0.603672 0.603672
0.628775 0.628775 0.628775
0.672541 0.672541 0.672541
0.733136 0.733136 0.733136
0.775177 0.775177 0.775177
0.780869 0.780869 0.780869
0.798503 0.798503 0.798503
0.830307 0.830307 0.830307
0.876305 0.876305 0.876305
0.159160 0.159160 0.159160
0.206535 0.206535 0.206535
0.303072 0.303072 0.303072
0.417419 0.417419 0.417419
0.516475 0.516475 0.516475
0.267554 0.267554 0.267554
0.294401 0.294401 0.294401
0.363142 0.363142 0.363142
0.458880 0.458880 0.458880
0.544138 0.544138 0.544138
0.443259 0.443259 0.443259
0.457455 0.457455 0.457455
0.498853 0.498853 0.498853
0.542330 0.542330 0.542330
0.621612 0.621612 0.621612
0.603365 0.603365 0.603365
0.611463 0.611463 0.611463
0.636132 0.636132 0.636132
0.679234 0.679234 0.679234
0.739063 0.739063 0.739063
0.780656 0.780656 0.780656
0.786292 0.786292 0.786292
0.803758 0.803758 0.803758
0.835281 0.835281 0.835281
0.880914 0.880914 0.880914
0.236807 0.236807 0.236807
0.267801 0.267801 0.267801
0.343587 0.343587 0.343587
0.444871 0.444871 0.444871
0.534625 0.534625 0.534625
0.314243 0.314243 0.314243
0.336300 0.336300 0.336300
0.395785 0.395785 0.395785
0.483216 0.483216 0.483216
0.561031 0.561031 0.561031
0.468697 0.468697 0.468697
0.481888 0.481888 0.481888
0.500644 0.500644 0.500644
0.559301 0.559301 0.559301
0.635664 0.635664 0.635664
0.618010 0.618010 0.618010
0.625840 0.625840 0.625840
0.649740 0.649740 0.649740
0.691656 0.691656 0.691656
0.750105 0.750105 0.750105
0.790884 0.790884 0.790884
0.796418 0.796418 0.796418
0.813578 0.813578 0.813578
0.844585 0.844585 0.844585
0.889550 0.889550 0.889550
0.306879 0.306879 0.306879
0.329595 0.329595 0.329595
0.390429 0.390429 0.390429
0.479147 0.479147 0.479147
0.558175 0.558175 0.558175
0.366134 0.366134 0.366134
0.384321 0.384321 0.384321
0.435371 0.435371 0.435371
0.514105 0.514105 0.514105
0.583086 0.583086 0.583086
0.500801 0.500801 0.500801
0.512885 0.512885 0.512885
0.526382 0.526382 0.526382
0.581449 0.581449 0.581449
0.654249 0.654249 0.654249
0.637330 0.637330 0.637330
0.644828 0.644828 0.644828
0.667773 0.667773 0.667773
0.708197 0.708197 0.708197
0.764887 0.764887 0.764887
0.804618 0.804618 0.804618
0.810018 0.810018 0.810018
0.826781 0.826781 0.826781
0.857118 0.857118 0.857118
0.901208 0.901208 0.901208
