docs/luts/fuji_recipes/Acros_MT_Acros.cube
TITLE "Fujifilm Recipe: MT Acros (Acros)"
# FilmSim=Acros HL=-2 SH=0 Col=0 WB=Auto WBR=0 WBB=0
LUT_3D_SIZE 33
DOMAIN_MIN 0.0 0.0 0.0
DOMAIN_MAX 1.0 1.0 1.0
0.000000 0.000000 0.000000
0.006644 0.006644 0.006644
0.014162 0.014162 0.014162
0.024941 0.024941 0.024941
0.039416 0.039416 0.039416
0.055819 0.055819 0.055819
0.072212 0.072212 0.072212
0.088606 0.088606 0.088606
0.104999 0.104999 0.104999
0.121393 0.121393 0.121393
0.137786 0.137786 0.137786
0.154179 0.154179 0.154179
0.170573 0.170573 0.170573
0.186966 0.186966 0.186966
0.203359 0.203359 0.203359
0.219753 0.219753 0.219753
0.236146 0.236146 0.236146
0.252539 0.252539 0.252539
0.268933 0.268933 0.268933
0.285326 0.285326 0.285326
0.301720 0.301720 0.301720
0.318113 0.318113 0.318113
0.334506 0.334506 0.334506
0.350900 0.350900 0.350900
0.367293 0.367293 0.367293
0.383686 0.383686 0.383686
0.400080 0.400080 0.400080
0.416473 0.416473 0.416473
0.432866 0.432866 0.432866
0.449260 0.449260 0.449260
0.465653 0.465653 0.465653
0.482047 0.482047 0.482047
0.498440 0.498440 0.498440
0.022350 0.022350 0.022350
0.028994 0.028994 0.028994
0.036512 0.036512 0.036512
0.046871 0.046871 0.046871
0.058860 0.058860 0.058860
0.071970 0.071970 0.071970
0.085870 0.085870 0.085870
0.100333 0.100333 0.100333
0.115202 0.115202 0.115202
0.130372 0.130372 0.130372
0.145766 0.145766 0.145766
0.161334 0.161334 0.161334
0.177034 0.177034 0.177034
0.192841 0.192841 0.192841
0.208732 0.208732 0.208732
0.224692 0.224692 0.224692
0.240708 0.240708 0.240708
0.256770 0.256770 0.256770
0.272871 0.272871 0.272871
0.289005 0.289005 0.289005
0.305166 0.305166 0.305166
0.321352 0.321352 0.321352
0.337558 0.337558 0.337558
0.353781 0.353781 0.353781
0.370021 0.370021 0.370021
0.386273 0.386273 0.386273
0.402538 0.402538 0.402538
0.418813 0.418813 0.418813
0.435098 0.435098 0.435098
0.451391 0.451391 0.451391
0.467691 0.467691 0.467691
0.483999 0.483999 0.483999
0.500274 0.500274 0.500274
0.047184 0.047184 0.047184
0.052896 0.052896 0.052896
0.058888 0.058888 0.058888
0.066778 0.066778 0.066778
0.076364 0.076364 0.076364
0.087326 0.087326 0.087326
0.099372 0.099372 0.099372
0.112260 0.112260 0.112260
0.125801 0.125801 0.125801
0.139848 0.139848 0.139848
0.154292 0.154292 0.154292
0.169049 0.169049 0.169049
0.184055 0.184055 0.184055
0.199262 0.199262 0.199262
0.214633 0.214633 0.214633
0.230137 0.230137 0.230137
0.245753 0.245753 0.245753
0.261462 0.261462 0.261462
0.277249 0.277249 0.277249
0.293102 0.293102 0.293102
0.309012 0.309012 0.309012
0.324970 0.324970 0.324970
0.340971 0.340971 0.340971
0.357009 0.357009 0.357009
0.373078 0.373078 0.373078
0.389175 0.389175 0.389175
0.405298 0.405298 0.405298
0.421442 0.421442 0.421442
0.437606 0.437606 0.437606
0.453787 0.453787 0.453787
0.469984 0.469984 0.469984
0.486196 0.486196 0.486196
0.502129 0.502129 0.502129
0.074361 0.074361 0.074361
0.078534 0.078534 0.078534
0.083046 0.083046 0.083046
0.089177 0.089177 0.089177
0.096876 0.096876 0.096876
0.105967 0.105967 0.105967
0.116250 0.116250 0.116250
0.127530 0.127530 0.127530
0.139632 0.139632 0.139632
0.152406 0.152406 0.152406
0.165729 0.165729 0.165729
0.179503 0.179503 0.179503
0.193645 0.193645 0.193645
0.208092 0.208092 0.208092
0.222791 0.222791 0.222791
0.237701 0.237701 0.237701
0.252788 0.252788 0.252788
0.268024 0.268024 0.268024
0.283389 0.283389 0.283389
0.298862 0.298862 0.298862
0.314428 0.314428 0.314428
0.330076 0.330076 0.330076
0.345795 0.345795 0.345795
0.361575 0.361575 0.361575
0.377409 0.377409 0.377409
0.393291 0.393291 0.393291
0.409215 0.409215 0.409215
0.425176 0.425176 0.425176
0.441171 0.441171 0.441171
0.457196 0.457196 0.457196
0.473248 0.473248 0.473248
0.489324 0.489324 0.489324
0.504771 0.504771 0.504771
0.101537 0.101537 0.101537
0.104759 0.104759 0.104759
0.108297 0.108297 0.108297
0.113192 0.113192 0.113192
0.119466 0.119466 0.119466
0.127038 0.127038 0.127038
0.135788 0.135788 0.135788
0.145581 0.145581 0.145581
0.156280 0.156280 0.156280
0.167756 0.167756 0.167756
0.179893 0.179893 0.179893
0.192590 0.192590 0.192590
0.205761 0.205761 0.205761
0.219332 0.219332 0.219332
0.233244 0.233244 0.233244
0.247445 0.247445 0.247445
0.261894 0.261894 0.261894
0.276554 0.276554 0.276554
0.291396 0.291396 0.291396
0.306395 0.306395 0.306395
0.321532 0.321532 0.321532
0.336787 0.336787 0.336787
0.352147 0.352147 0.352147
0.367599 0.367599 0.367599
0.383131 0.383131 0.383131
0.398735 0.398735 0.398735
0.414403 0.414403 0.414403
0.430128 0.430128 0.430128
0.445903 0.445903 0.445903
0.461724 0.461724 0.461724
0.477587 0.477587 0.477587
0.493486 0.493486 0.493486
0.508289 0.508289 0.508289
0.128714 0.128714 0.128714
0.131300 0.131300 0.131300
0.134167 0.134167 0.134167
0.138175 0.138175 0.138175
0.143381 0.143381 0.143381
0.149756 0.149756 0.149756
0.157237 0.157237 0.157237
0.165738 0.165738 0.165738
0.175163 0.175163 0.175163
0.185412 0.185412 0.185412
0.196385 0.196385 0.196385
0.207994 0.207994 0.207994
0.220155 0.220155 0.220155
0.232796 0.232796 0.232796
0.245853 0.245853 0.245853
0.259271 0.259271 0.259271
0.273003 0.273003 0.273003
0.287006 0.287006 0.287006
0.301248 0.301248 0.301248
0.315697 0.315697 0.315697
0.330329 0.330329 0.330329
0.345121 0.345121 0.345121
0.360054 0.360054 0.360054
0.375112 0.375112 0.375112
0.390282 0.390282 0.390282
0.405550 0.405550 0.405550
0.420907 0.420907 0.420907
0.436343 0.436343 0.436343
0.451850 0.451850 0.451850
0.467421 0.467421 0.467421
0.483050 0.483050 0.483050
0.498732 0.498732 0.498732
0.512725 0.512725 0.512725
0.155890 0.155890 0.155890
0.158028 0.158028 0.158028
0.160412 0.160412 0.160412
0.163766 0.163766 0.163766
0.168161 0.168161 0.168161
0.173596 0.173596 0.173596
0.180045 0.180045 0.180045
0.187458 0.187458 0.187458
0.195771 0.195771 0.195771
0.204910 0.204910 0.204910
0.214800 0.214800 0.214800
0.225366 0.225366 0.225366
0.236535 0.236535 0.236535
0.248239 0.248239 0.248239
0.260418 0.260418 0.260418
0.273017 0.273017 0.273017
0.285987 0.285987 0.285987
0.299283 0.299283 0.299283
0.312870 0.312870 0.312870
0.326712 0.326712 0.326712
0.340781 0.340781 0.340781
0.355052 0.355052 0.355052
0.369502 0.369502 0.369502
0.384112 0.384112 0.384112
0.398865 0.398865 0.398865
0.413746 0.413746 0.413746
0.428742 0.428742 0.428742
0.443842 0.443842 0.443842
0.459035 0.459035 0.459035
0.474313 0.474313 0.474313
0.489668 0.489668 0.489668
0.504481 0.504481 0.504481
0.518110 0.518110 0.518110
0.183067 0.183067 0.183067
0.184874 0.184874 0.184874
0.186897 0.186897 0.186897
0.189756 0.189756 0.189756
0.193524 0.193524 0.193524
0.198217 0.198217 0.198217
0.203828 0.203828 0.203828
0.210334 0.210334 0.210334
0.217694 0.217694 0.217694
0.225859 0.225859 0.225859
0.234771 0.234771 0.234771
0.244371 0.244371 0.244371
0.254599 0.254599 0.254599
0.265398 0.265398 0.265398
0.276712 0.276712 0.276712
0.288489 0.288489 0.288489
0.300682 0.300682 0.300682
0.313248 0.313248 0.313248
0.326147 0.326147 0.326147
0.339347 0.339347 0.339347
0.352814 0.352814 0.352814
0.366522 0.366522 0.366522
0.380445 0.380445 0.380445
0.394563 0.394563 0.394563
0.408856 0.408856 0.408856
0.423307 0.423307 0.423307
0.437900 0.437900 0.437900
0.452622 0.452622 0.452622
0.467461 0.467461 0.467461
0.482407 0.482407 0.482407
0.497449 0.497449 0.497449
0.511070 0.511070 0.511070
0.524456 0.524456 0.524456
0.210243 0.210243 0.210243
0.211799 0.211799 0.211799
0.213544 0.213544 0.213544
0.216019 0.216019 0.216019
0.219293 0.219293 0.219293
0.223391 0.223391 0.223391
0.228321 0.228321 0.228321
0.234073 0.234073 0.234073
0.240624 0.240624 0.240624
0.247942 0.247942 0.247942
0.255986 0.255986 0.255986
0.264713 0.264713 0.264713
0.274074 0.274074 0.274074
0.284020 0.284020 0.284020
0.294505 0.294505 0.294505
0.305482 0.305482 0.305482
0.316908 0.316908 0.316908
0.328742 0.328742 0.328742
0.340946 0.340946 0.340946
0.353485 0.353485 0.353485
0.366328 0.366328 0.366328
0.379447 0.379447 0.379447
0.392815 0.392815 0.392815
0.406409 0.406409 0.406409
0.420209 0.420209 0.420209
0.434195 0.434195 0.434195
0.448351 0.448351 0.448351
0.462661 0.462661 0.462661
0.477112 0.477112 0.477112
0.491692 0.491692 0.491692
0.505622 0.505622 0.505622
0.518651 0.518651 0.518651
0.531766 0.531766 0.531766
0.237420 0.237420 0.237420
0.238778 0.238778 0.238778
0.240304 0.240304 0.240304
0.242474 0.242474 0.242474
0.245352 0.245352 0.245352
0.248969 0.248969 0.248969
0.253338 0.253338 0.253338
0.258460 0.258460 0.258460
0.264325 0.264325 0.264325
0.270913 0.270913 0.270913
0.278196 0.278196 0.278196
0.286143 0.286143 0.286143
0.294715 0.294715 0.294715
0.303875 0.303875 0.303875
0.313583 0.313583 0.313583
0.323799 0.323799 0.323799
0.334485 0.334485 0.334485
0.345603 0.345603 0.345603
0.357118 0.357118 0.357118
0.368997 0.368997 0.368997
0.381210 0.381210 0.381210
0.393727 0.393727 0.393727
0.406523 0.406523 0.406523
0.419575 0.419575 0.419575
0.432859 0.432859 0.432859
0.446357 0.446357 0.446357
0.460049 0.460049 0.460049
0.473921 0.473921 0.473921
0.487957 0.487957 0.487957
0.501886 0.501886 0.501886
0.514491 0.514491 0.514491
0.527208 0.527208 0.527208
0.540028 0.540028 0.540028
0.264597 0.264597 0.264597
0.265797 0.265797 0.265797
0.267147 0.267147 0.267147
0.269069 0.269069 0.269069
0.271626 0.271626 0.271626
0.274847 0.274847 0.274847
0.278751 0.278751 0.278751
0.283344 0.283344 0.283344
0.288626 0.288626 0.288626
0.294584 0.294584 0.294584
0.301202 0.301202 0.301202
0.308457 0.308457 0.308457
0.316321 0.316321 0.316321
0.324764 0.324764 0.324764
0.333753 0.333753 0.333753
0.343257 0.343257 0.343257
0.353240 0.353240 0.353240
0.363671 0.363671 0.363671
0.374518 0.374518 0.374518
0.385750 0.385750 0.385750
0.397337 0.397337 0.397337
0.409254 0.409254 0.409254
0.421474 0.421474 0.421474
0.433973 0.433973 0.433973
0.446730 0.446730 0.446730
0.459724 0.459724 0.459724
0.472936 0.472936 0.472936
0.486350 0.486350 0.486350
0.499950 0.499950 0.499950
0.512075 0.512075 0.512075
0.524333 0.524333 0.524333
0.536719 0.536719 0.536719
0.549225 0.549225 0.549225
0.291773 0.291773 0.291773
0.292844 0.292844 0.292844
0.294050 0.294050 0.294050
0.295770 0.295770 0.295770
0.298060 0.298060 0.298060
0.300952 0.300952 0.300952
0.304466 0.304466 0.304466
0.308613 0.308613 0.308613
0.313396 0.313396 0.313396
0.318811 0.318811 0.318811
0.324848 0.324848 0.324848
0.331492 0.331492 0.331492
0.338722 0.338722 0.338722
0.346516 0.346516 0.346516
0.354848 0.354848 0.354848
0.363691 0.363691 0.363691
0.373018 0.373018 0.373018
0.382798 0.382798 0.382798
0.393006 0.393006 0.393006
0.403612 0.403612 0.403612
0.414591 0.414591 0.414591
0.425916 0.425916 0.425916
0.437564 0.437564 0.437564
0.449512 0.449512 0.449512
0.461738 0.461738 0.461738
0.474222 0.474222 0.474222
0.486945 0.486945 0.486945
0.499889 0.499889 0.499889
0.511475 0.511475 0.511475
0.523215 0.523215 0.523215
0.535111 0.535111 0.535111
0.547152 0.547152 0.547152
0.559327 0.559327 0.559327
0.318950 0.318950 0.318950
0.319914 0.319914 0.319914
0.321000 0.321000 0.321000
0.322550 0.322550 0.322550
0.324618 0.324618 0.324618
0.327233 0.327233 0.327233
0.330417 0.330417 0.330417
0.334183 0.334183 0.334183
0.338538 0.338538 0.338538
0.343482 0.343482 0.343482
0.349011 0.349011 0.349011
0.355115 0.355115 0.355115
0.361781 0.361781 0.361781
0.368990 0.368990 0.368990
0.376724 0.376724 0.376724
0.384961 0.384961 0.384961
0.393677 0.393677 0.393677
0.402848 0.402848 0.402848
0.412451 0.412451 0.412451
0.422461 0.422461 0.422461
0.432853 0.432853 0.432853
0.443605 0.443605 0.443605
0.454694 0.454694 0.454694
0.466098 0.466098 0.466098
0.477797 0.477797 0.477797
0.489771 0.489771 0.489771
0.501762 0.501762 0.501762
0.512736 0.512736 0.512736
0.523907 0.523907 0.523907
0.535260 0.535260 0.535260
0.546785 0.546785 0.546785
0.558469 0.558469 0.558469
0.570302 0.570302 0.570302
0.346126 0.346126 0.346126
0.347000 0.347000 0.347000
0.347986 0.347986 0.347986
0.349394 0.349394 0.349394
0.351273 0.351273 0.351273
0.353653 0.353653 0.353653
0.356554 0.356554 0.356554
0.359993 0.359993 0.359993
0.363978 0.363978 0.363978
0.368513 0.368513 0.368513
0.373596 0.373596 0.373596
0.379224 0.379224 0.379224
0.385386 0.385386 0.385386
0.392070 0.392070 0.392070
0.399262 0.399262 0.399262
0.406943 0.406943 0.406943
0.415097 0.415097 0.415097
0.423701 0.423701 0.423701
0.432737 0.432737 0.432737
0.442182 0.442182 0.442182
0.452015 0.452015 0.452015
0.462216 0.462216 0.462216
0.472764 0.472764 0.472764
0.483638 0.483638 0.483638
0.494821 0.494821 0.494821
0.505537 0.505537 0.505537
0.515870 0.515870 0.515870
0.526427 0.526427 0.526427
0.537195 0.537195 0.537195
0.548158 0.548158 0.548158
0.559307 0.559307 0.559307
0.570627 0.570627 0.570627
0.582110 0.582110 0.582110
0.373303 0.373303 0.373303
0.374100 0.374100 0.374100
0.375000 0.375000 0.375000
0.376286 0.376286 0.376286
0.378004 0.378004 0.378004
0.380182 0.380182 0.380182
0.382841 0.382841 0.382841
0.385997 0.385997 0.385997
0.389660 0.389660 0.389660
0.393837 0.393837 0.393837
0.398528 0.398528 0.398528
0.403733 0.403733 0.403733
0.409446 0.409446 0.409446
0.415659 0.415659 0.415659
0.422359 0.422359 0.422359
0.429535 0.429535 0.429535
0.437171 0.437171 0.437171
0.445251 0.445251 0.445251
0.453757 0.453757 0.453757
0.462672 0.462672 0.462672
0.471976 0.471976 0.471976
0.481652 0.481652 0.481652
0.491681 0.491681 0.491681
0.501799 0.501799 0.501799
0.511198 0.511198 0.511198
0.520860 0.520860 0.520860
0.530770 0.530770 0.530770
0.540916 0.540916 0.540916
0.551282 0.551282 0.551282
0.561857 0.561857 0.561857
0.572627 0.572627 0.572627
0.583582 0.583582 0.583582
0.594711 0.594711 0.594711
0.400479 0.400479 0.400479
0.401211 0.401211 0.401211
0.402037 0.402037 0.402037
0.403218 0.403218 0.403218
0.404797 0.404797 0.404797
0.406801 0.406801 0.406801
0.409249 0.409249 0.409249
0.412158 0.412158 0.412158
0.415540 0.415540 0.415540
0.419402 0.419402 0.419402
0.423747 0.423747 0.423747
0.428577 0.428577 0.428577
0.433889 0.433889 0.433889
0.439677 0.439677 0.439677
0.445934 0.445934 0.445934
0.452649 0.452649 0.452649
0.459811 0.459811 0.459811
0.467406 0.467406 0.467406
0.475421 0.475421 0.475421
0.483840 0.483840 0.483840
0.492647 0.492647 0.492647
0.501606 0.501606 0.501606
0.509996 0.509996 0.509996
0.518685 0.518685 0.518685
0.527657 0.527657 0.527657
0.536900 0.536900 0.536900
0.546398 0.546398 0.546398
0.556140 0.556140 0.556140
0.566112 0.566112 0.566112
0.576301 0.576301 0.576301
0.586697 0.586697 0.586697
0.597286 0.597286 0.597286
0.608060 0.608060 0.608060
0.427656 0.427656 0.427656
0.428331 0.428331 0.428331
0.429093 0.429093 0.429093
0.430183 0.430183 0.430183
0.431641 0.431641 0.431641
0.433492 0.433492 0.433492
0.435756 0.435756 0.435756
0.438449 0.438449 0.438449
0.441583 0.441583 0.441583
0.445167 0.445167 0.445167
0.449205 0.449205 0.449205
0.453701 0.453701 0.453701
0.458654 0.458654 0.458654
0.464060 0.464060 0.464060
0.469914 0.469914 0.469914
0.476210 0.476210 0.476210
0.482938 0.482938 0.482938
0.490088 0.490088 0.490088
0.497647 0.497647 0.497647
0.504931 0.504931 0.504931
0.512271 0.512271 0.512271
0.519936 0.519936 0.519936
0.527913 0.527913 0.527913
0.536191 0.536191 0.536191
0.544755 0.544755 0.544755
0.553593 0.553593 0.553593
0.562693 0.562693 0.562693
0.572042 0.572042 0.572042
0.581628 0.581628 0.581628
0.591439 0.591439 0.591439
0.601464 0.601464 0.601464
0.611693 0.611693 0.611693
0.622113 0.622113 0.622113
0.454833 0.454833 0.454833
0.455458 0.455458 0.455458
0.456164 0.456164 0.456164
0.457174 0.457174 0.457174
0.458526 0.458526 0.458526
0.460243 0.460243 0.460243
0.462345 0.462345 0.462345
0.464848 0.464848 0.464848
0.467763 0.467763 0.467763
0.471100 0.471100 0.471100
0.474865 0.474865 0.474865
0.479062 0.479062 0.479062
0.483691 0.483691 0.483691
0.488753 0.488753 0.488753
0.494243 0.494243 0.494243
0.500138 0.500138 0.500138
0.505709 0.505709 0.505709
0.511640 0.511640 0.511640
0.517922 0.517922 0.517922
0.524546 0.524546 0.524546
0.531502 0.531502 0.531502
0.538780 0.538780 0.538780
0.546368 0.546368 0.546368
0.554255 0.554255 0.554255
0.562430 0.562430 0.562430
0.570881 0.570881 0.570881
0.579597 0.579597 0.579597
0.588566 0.588566 0.588566
0.597777 0.597777 0.597777
0.607219 0.607219 0.607219
0.616881 0.616881 0.616881
0.626754 0.626754 0.626754
0.636826 0.636826 0.636826
0.482009 0.482009 0.482009
0.482591 0.482591 0.482591
0.483247 0.483247 0.483247
0.484187 0.484187 0.484187
0.485446 0.485446 0.485446
0.487045 0.487045 0.487045
0.489003 0.489003 0.489003
0.491337 0.491337 0.491337
0.494057 0.494057 0.494057
0.497174 0.497174 0.497174
0.500611 0.500611 0.500611
0.504068 0.504068 0.504068
0.507887 0.507887 0.507887
0.512067 0.512067 0.512067
0.516607 0.516607 0.516607
0.521505 0.521505 0.521505
0.526756 0.526756 0.526756
0.532355 0.532355 0.532355
0.538295 0.538295 0.538295
0.544568 0.544568 0.544568
0.551166 0.551166 0.551166
0.558081 0.558081 0.558081
0.565302 0.565302 0.565302
0.572821 0.572821 0.572821
0.580626 0.580626 0.580626
0.588708 0.588708 0.588708
0.597055 0.597055 0.597055
0.605659 0.605659 0.605659
0.614507 0.614507 0.614507
0.623591 0.623591 0.623591
0.632900 0.632900 0.632900
0.642425 0.642425 0.642425
0.652155 0.652155 0.652155
0.508084 0.508084 0.508084
0.508561 0.508561 0.508561
0.509100 0.509100 0.509100
0.509873 0.509873 0.509873
0.510907 0.510907 0.510907
0.512222 0.512222 0.512222
0.513833 0.513833 0.513833
0.515754 0.515754 0.515754
0.517995 0.517995 0.517995
0.520564 0.520564 0.520564
0.523469 0.523469 0.523469
0.526713 0.526713 0.526713
0.530301 0.530301 0.530301
0.534233 0.534233 0.534233
0.538509 0.538509 0.538509
0.543127 0.543127 0.543127
0.548085 0.548085 0.548085
0.553378 0.553378 0.553378
0.559001 0.559001 0.559001
0.564949 0.564949 0.564949
0.571215 0.571215 0.571215
0.577790 0.577790 0.577790
0.584667 0.584667 0.584667
0.591837 0.591837 0.591837
0.599292 0.599292 0.599292
0.607022 0.607022 0.607022
0.615019 0.615019 0.615019
0.623271 0.623271 0.623271
0.631772 0.631772 0.631772
0.640509 0.640509 0.640509
0.649476 0.649476 0.649476
0.658661 0.658661 0.658661
0.668057 0.668057 0.668057
0.531999 0.531999 0.531999
0.532446 0.532446 0.532446
0.532951 0.532951 0.532951
0.533674 0.533674 0.533674
0.534643 0.534643 0.534643
0.535876 0.535876 0.535876
0.537387 0.537387 0.537387
0.539188 0.539188 0.539188
0.541292 0.541292 0.541292
0.543705 0.543705 0.543705
0.546436 0.546436 0.546436
0.549488 0.549488 0.549488
0.552867 0.552867 0.552867
0.556573 0.556573 0.556573
0.560608 0.560608 0.560608
0.564970 0.564970 0.564970
0.569659 0.569659 0.569659
0.574671 0.574671 0.574671
0.580003 0.580003 0.580003
0.585649 0.585649 0.585649
0.591604 0.591604 0.591604
0.597862 0.597862 0.597862
0.604416 0.604416 0.604416
0.611259 0.611259 0.611259
0.618383 0.618383 0.618383
0.625780 0.625780 0.625780
0.633441 0.633441 0.633441
0.641359 0.641359 0.641359
0.649525 0.649525 0.649525
0.657929 0.657929 0.657929
0.666564 0.666564 0.666564
0.675422 0.675422 0.675422
0.684492 0.684492 0.684492
0.555914 0.555914 0.555914
0.556334 0.556334 0.556334
0.556809 0.556809 0.556809
0.557488 0.557488 0.557488
0.558399 0.558399 0.558399
0.559557 0.559557 0.559557
0.560977 0.560977 0.560977
0.562672 0.562672 0.562672
0.564652 0.564652 0.564652
0.566924 0.566924 0.566924
0.569497 0.569497 0.569497
0.572376 0.572376 0.572376
0.575564 0.575564 0.575564
0.579065 0.579065 0.579065
0.582879 0.582879 0.582879
0.587007 0.587007 0.587007
0.591449 0.591449 0.591449
0.596202 0.596202 0.596202
0.601264 0.601264 0.601264
0.606630 0.606630 0.606630
0.612297 0.612297 0.612297
0.618258 0.618258 0.618258
0.624510 0.624510 0.624510
0.631045 0.631045 0.631045
0.637856 0.637856 0.637856
0.644938 0.644938 0.644938
0.652281 0.652281 0.652281
0.659880 0.659880 0.659880
0.667725 0.667725 0.667725
0.675810 0.675810 0.675810
0.684126 0.684126 0.684126
0.692666 0.692666 0.692666
0.701422 0.701422 0.701422
0.579830 0.579830 0.579830
0.580225 0.580225 0.580225
0.580672 0.580672 0.580672
0.581312 0.581312 0.581312
0.582170 0.582170 0.582170
0.583261 0.583261 0.583261
0.584600 0.584600 0.584600
0.586198 0.586198 0.586198
0.588065 0.588065 0.588065
0.590211 0.590211 0.590211
0.592640 0.592640 0.592640
0.595361 0.595361 0.595361
0.598376 0.598376 0.598376
0.601688 0.601688 0.601688
0.605301 0.605301 0.605301
0.609215 0.609215 0.609215
0.613429 0.613429 0.613429
0.617943 0.617943 0.617943
0.622755 0.622755 0.622755
0.627861 0.627861 0.627861
0.633259 0.633259 0.633259
0.638945 0.638945 0.638945
0.644913 0.644913 0.644913
0.651159 0.651159 0.651159
0.657676 0.657676 0.657676
0.664459 0.664459 0.664459
0.671501 0.671501 0.671501
0.678795 0.678795 0.678795
0.686335 0.686335 0.686335
0.694114 0.694114 0.694114
0.702124 0.702124 0.702124
0.710358 0.710358 0.710358
0.718810 0.718810 0.718810
0.603745 0.603745 0.603745
0.604118 0.604118 0.604118
0.604540 0.604540 0.604540
0.605144 0.605144 0.605144
0.605954 0.605954 0.605954
0.606985 0.606985 0.606985
0.608250 0.608250 0.608250
0.609761 0.609761 0.609761
0.611526 0.611526 0.611526
0.613555 0.613555 0.613555
0.615855 0.615855 0.615855
0.618431 0.618431 0.618431
0.621287 0.621287 0.621287
0.624428 0.624428 0.624428
0.627856 0.627856 0.627856
0.631572 0.631572 0.631572
0.635577 0.635577 0.635577
0.639870 0.639870 0.639870
0.644450 0.644450 0.644450
0.649316 0.649316 0.649316
0.654464 0.654464 0.654464
0.659891 0.659891 0.659891
0.665594 0.665594 0.665594
0.671568 0.671568 0.671568
0.677808 0.677808 0.677808
0.684309 0.684309 0.684309
0.691065 0.691065 0.691065
0.698071 0.698071 0.698071
0.705320 0.705320 0.705320
0.712806 0.712806 0.712806
0.720523 0.720523 0.720523
0.728463 0.728463 0.728463
0.736622 0.736622 0.736622
0.627660 0.627660 0.627660
0.628014 0.628014 0.628014
0.628413 0.628413 0.628413
0.628984 0.628984 0.628984
0.629751 0.629751 0.629751
0.630727 0.630727 0.630727
0.631925 0.631925 0.631925
0.633355 0.633355 0.633355
0.635028 0.635028 0.635028
0.636951 0.636951 0.636951
0.639132 0.639132 0.639132
0.641576 0.641576 0.641576
0.644287 0.644287 0.644287
0.647270 0.647270 0.647270
0.650528 0.650528 0.650528
0.654062 0.654062 0.654062
0.657873 0.657873 0.657873
0.661962 0.661962 0.661962
0.666328 0.666328 0.666328
0.670969 0.670969 0.670969
0.675884 0.675884 0.675884
0.681070 0.681070 0.681070
0.686525 0.686525 0.686525
0.692243 0.692243 0.692243
0.698222 0.698222 0.698222
0.704457 0.704457 0.704457
0.710943 0.710943 0.710943
0.717675 0.717675 0.717675
0.724647 0.724647 0.724647
0.731854 0.731854 0.731854
0.739290 0.739290 0.739290
0.746949 0.746949 0.746949
0.754826 0.754826 0.754826
0.651576 0.651576 0.651576
0.651911 0.651911 0.651911
0.652289 0.652289 0.652289
0.652831 0.652831 0.652831
0.653558 0.653558 0.653558
0.654484 0.654484 0.654484
0.655620 0.655620 0.655620
0.656978 0.656978 0.656978
0.658566 0.658566 0.658566
0.660392 0.660392 0.660392
0.662464 0.662464 0.662464
0.664786 0.664786 0.664786
0.667365 0.667365 0.667365
0.670203 0.670203 0.670203
0.673303 0.673303 0.673303
0.676669 0.676669 0.676669
0.680302 0.680302 0.680302
0.684201 0.684201 0.684201
0.688367 0.688367 0.688367
0.692800 0.692800 0.692800
0.697498 0.697498 0.697498
0.702459 0.702459 0.702459
0.707680 0.707680 0.707680
0.713160 0.713160 0.713160
0.718893 0.718893 0.718893
0.724877 0.724877 0.724877
0.731107 0.731107 0.731107
0.737579 0.737579 0.737579
0.744288 0.744288 0.744288
0.751229 0.751229 0.751229
0.758397 0.758397 0.758397
0.765787 0.765787 0.765787
0.773392 0.773392 0.773392
0.675491 0.675491 0.675491
0.675809 0.675809 0.675809
0.676169 0.676169 0.676169
0.676684 0.676684 0.676684
0.677375 0.677375 0.677375
0.678255 0.678255 0.678255
0.679335 0.679335 0.679335
0.680626 0.680626 0.680626
0.682136 0.682136 0.682136
0.683873 0.683873 0.683873
0.685844 0.685844 0.685844
0.688055 0.688055 0.688055
0.690511 0.690511 0.690511
0.693215 0.693215 0.693215
0.696171 0.696171 0.696171
0.699381 0.699381 0.699381
0.702848 0.702848 0.702848
0.706571 0.706571 0.706571
0.710553 0.710553 0.710553
0.714791 0.714791 0.714791
0.719286 0.719286 0.719286
0.724036 0.724036 0.724036
0.729040 0.729040 0.729040
0.734294 0.734294 0.734294
0.739796 0.739796 0.739796
