docs/luts/fuji_recipes/Acros_MT_Acros.cube
TITLE "Fujifilm Recipe: MT Acros (Acros)"
# FilmSim=Acros HL=-2 SH=0 Col=0 WB=Auto WBR=0 WBB=0
LUT_3D_SIZE 5
DOMAIN_MIN 0.0 0.0 0.0
DOMAIN_MAX 1.0 1.0 1.0
0.000000 0.000000 0.000000
0.104999 0.104999 0.104999
0.236146 0.236146 0.236146
0.367293 0.367293 0.367293
0.498440 0.498440 0.498440
0.210243 0.210243 0.210243
0.240624 0.240624 0.240624
0.316908 0.316908 0.316908
0.420209 0.420209 0.420209
0.531766 0.531766 0.531766
0.427656 0.427656 0.427656
0.441583 0.441583 0.441583
0.482938 0.482938 0.482938
0.544755 0.544755 0.544755
0.622113 0.622113 0.622113
0.627660 0.627660 0.627660
0.635028 0.635028 0.635028
0.657873 0.657873 0.657873
0.698222 0.698222 0.698222
0.754826 0.754826 0.754826
0.818984 0.818984 0.818984
0.824049 0.824049 0.824049
0.840004 0.840004 0.840004
0.869046 0.869046 0.869046
0.911459 0.911459 0.911459
0.047021 0.047021 0.047021
0.125728 0.125728 0.125728
0.245717 0.245717 0.245717
0.373056 0.373056 0.373056
0.502116 0.502116 0.502116
0.221088 0.221088 0.221088
0.250000 0.250000 0.250000
0.323770 0.323770 0.323770
0.425106 0.425106 0.425106
0.534950 0.534950 0.534950
0.432448 0.432448 0.432448
0.446190 0.446190 0.446190
0.487062 0.487062 0.487062
0.547831 0.547831 0.547831
0.624661 0.624661 0.624661
0.630176 0.630176 0.630176
0.637503 0.637503 0.637503
0.660227 0.660227 0.660227
0.700385 0.700385 0.700385
0.756762 0.756762 0.756762
0.820709 0.820709 0.820709
0.825759 0.825759 0.825759
0.841668 0.841668 0.841668
0.870632 0.870632 0.870632
0.912942 0.912942 0.912942
0.130645 0.130645 0.130645
0.176576 0.176576 0.176576
0.273865 0.273865 0.273865
0.390844 0.390844 0.390844
0.513077 0.513077 0.513077
0.252395 0.252395 0.252395
0.277651 0.277651 0.277651
0.344685 0.344685 0.344685
0.440356 0.440356 0.440356
0.544982 0.544982 0.544982
0.447390 0.447390 0.447390
0.460581 0.460581 0.460581
0.500000 0.500000 0.500000
0.557535 0.557535 0.557535
0.632734 0.632734 0.632734
0.638150 0.638150 0.638150
0.645348 0.645348 0.645348
0.667695 0.667695 0.667695
0.707259 0.707259 0.707259
0.762926 0.762926 0.762926
0.826207 0.826207 0.826207
0.831210 0.831210 0.831210
0.846975 0.846975 0.846975
0.875691 0.875691 0.875691
0.917674 0.917674 0.917674
0.214269 0.214269 0.214269
0.244091 0.244091 0.244091
0.319431 0.319431 0.319431
0.422003 0.422003 0.422003
0.532930 0.532930 0.532930
0.301758 0.301758 0.301758
0.322594 0.322594 0.322594
0.380513 0.380513 0.380513
0.467521 0.467521 0.467521
0.563260 0.563260 0.563260
0.474056 0.474056 0.474056
0.486351 0.486351 0.486351
0.520566 0.520566 0.520566
0.575250 0.575250 0.575250
0.647607 0.647607 0.647607
0.652849 0.652849 0.652849
0.659820 0.659820 0.659820
0.681499 0.681499 0.681499
0.720000 0.720000 0.720000
0.774390 0.774390 0.774390
0.836463 0.836463 0.836463
0.841380 0.841380 0.841380
0.856880 0.856880 0.856880
0.885145 0.885145 0.885145
0.926528 0.926528 0.926528
0.297893 0.297893 0.297893
0.319028 0.319028 0.319028
0.377597 0.377597 0.377597
0.465266 0.465266 0.465266
0.561723 0.561723 0.561723
0.363304 0.363304 0.363304
0.380186 0.380186 0.380186
0.428980 0.428980 0.428980
0.505316 0.505316 0.505316
0.589985 0.589985 0.589985
0.510528 0.510528 0.510528
0.520373 0.520373 0.520373
0.550279 0.550279 0.550279
0.601225 0.601225 0.601225
0.669713 0.669713 0.669713
0.674712 0.674712 0.674712
0.681368 0.681368 0.681368
0.702112 0.702112 0.702112
0.739112 0.739112 0.739112
0.791673 0.791673 0.791673
0.851995 0.851995 0.851995
0.856785 0.856785 0.856785
0.871900 0.871900 0.871900
0.899502 0.899502 0.899502
0.940000 0.940000 0.940000
