docs/luts/fuji_recipes/AcrosY_KM_Night.cube
TITLE "Fujifilm Recipe: KM Night (AcrosY)"
# FilmSim=AcrosY HL=0 SH=1 Col=0 WB=Auto WBR=0 WBB=0
LUT_3D_SIZE 5
DOMAIN_MIN 0.0 0.0 0.0
DOMAIN_MAX 1.0 1.0 1.0
0.000000 0.000000 0.000000
0.105805 0.105805 0.105805
0.235808 0.235808 0.235808
0.365812 0.365812 0.365812
0.516475 0.516475 0.516475
0.206029 0.206029 0.206029
0.236731 0.236731 0.236731
0.313326 0.313326 0.313326
0.416468 0.416468 0.416468
0.553981 0.553981 0.553981
0.418184 0.418184 0.418184
0.432287 0.432287 0.432287
0.474052 0.474052 0.474052
0.564971 0.564971 0.564971
0.656724 0.656724 0.656724
0.656603 0.656603 0.656603
0.665438 0.665438 0.665438
0.692798 0.692798 0.692798
0.741013 0.741013 0.741013
0.808459 0.808459 0.808459
0.877598 0.877598 0.877598
0.883673 0.883673 0.883673
0.902795 0.902795 0.902795
0.937555 0.937555 0.937555
0.988222 0.988222 0.988222
0.039619 0.039619 0.039619
0.122618 0.122618 0.122618
0.243484 0.243484 0.243484
0.370422 0.370422 0.370422
0.519776 0.519776 0.519776
0.214922 0.214922 0.214922
0.244374 0.244374 0.244374
0.318872 0.318872 0.318872
0.420405 0.420405 0.420405
0.557002 0.557002 0.557002
0.422100 0.422100 0.422100
0.436046 0.436046 0.436046
0.477404 0.477404 0.477404
0.567918 0.567918 0.567918
0.659155 0.659155 0.659155
0.659035 0.659035 0.659035
0.667829 0.667829 0.667829
0.695068 0.695068 0.695068
0.743093 0.743093 0.743093
0.810315 0.810315 0.810315
0.879265 0.879265 0.879265
0.885325 0.885325 0.885325
0.904401 0.904401 0.904401
0.939083 0.939083 0.939083
0.989648 0.989648 0.989648
0.115372 0.115372 0.115372
0.165428 0.165428 0.165428
0.266404 0.266404 0.266404
0.384755 0.384755 0.384755
0.530187 0.530187 0.530187
0.240983 0.240983 0.240983
0.267206 0.267206 0.267206
0.335921 0.335921 0.335921
0.432730 0.432730 0.432730
0.566554 0.566554 0.566554
0.434366 0.434366 0.434366
0.447838 0.447838 0.447838
0.508291 0.508291 0.508291
0.577241 0.577241 0.577241
0.666876 0.666876 0.666876
0.666758 0.666758 0.666758
0.675422 0.675422 0.675422
0.702283 0.702283 0.702283
0.749714 0.749714 0.749714
0.816233 0.816233 0.816233
0.884585 0.884585 0.884585
0.890598 0.890598 0.890598
0.909528 0.909528 0.909528
0.943963 0.943963 0.943963
0.994202 0.994202 0.994202
0.191126 0.191126 0.191126
0.224119 0.224119 0.224119
0.304369 0.304369 0.304369
0.410190 0.410190 0.410190
0.549191 0.549191 0.549191
0.282955 0.282955 0.282955
0.305054 0.305054 0.305054
0.365571 0.365571 0.365571
0.454905 0.454905 0.454905
0.584073 0.584073 0.584073
0.456443 0.456443 0.456443
0.469129 0.469129 0.469129
0.528296 0.528296 0.528296
0.594359 0.594359 0.594359
0.681167 0.681167 0.681167
0.681052 0.681052 0.681052
0.689484 0.689484 0.689484
0.715666 0.715666 0.715666
0.762026 0.762026 0.762026
0.827270 0.827270 0.827270
0.894529 0.894529 0.894529
0.900454 0.900454 0.900454
0.919118 0.919118 0.919118
0.953098 0.953098 0.953098
1.000000 1.000000 1.000000
0.266879 0.266879 0.266879
0.290424 0.290424 0.290424
0.353923 0.353923 0.353923
0.446088 0.446088 0.446088
0.577058 0.577058 0.577058
0.336281 0.336281 0.336281
0.354495 0.354495 0.354495
0.406386 0.406386 0.406386
0.507057 0.507057 0.507057
0.609933 0.609933 0.609933
0.508528 0.508528 0.508528
0.520698 0.520698 0.520698
0.557491 0.557491 0.557491
0.619674 0.619674 0.619674
0.702549 0.702549 0.702549
0.702439 0.702439 0.702439
0.710544 0.710544 0.710544
0.735762 0.735762 0.735762
0.780587 0.780587 0.780587
0.843982 0.843982 0.843982
0.909639 0.909639 0.909639
0.915436 0.915436 0.915436
0.933706 0.933706 0.933706
0.967014 0.967014 0.967014
1.000000 1.000000 1.000000
