docs/luts/fuji_recipes/AcrosY_PE_Acros_Ellen_Mark.cube
TITLE "Fujifilm Recipe: PE Acros Ellen Mark (AcrosY)"
# FilmSim=AcrosY HL=2 SH=0 Col=0 WB=Auto WBR=0 WBB=0
LUT_3D_SIZE 5
DOMAIN_MIN 0.0 0.0 0.0
DOMAIN_MAX 1.0 1.0 1.0
0.000000 0.000000 0.000000
0.110213 0.110213 0.110213
0.245634 0.245634 0.245634
0.381054 0.381054 0.381054
0.517793 0.517793 0.517793
0.214614 0.214614 0.214614
0.246595 0.246595 0.246595
0.326382 0.326382 0.326382
0.433821 0.433821 0.433821
0.558299 0.558299 0.558299
0.435608 0.435608 0.435608
0.450298 0.450298 0.450298
0.493804 0.493804 0.493804
0.570169 0.570169 0.570169
0.669261 0.669261 0.669261
0.669131 0.669131 0.669131
0.678673 0.678673 0.678673
0.708222 0.708222 0.708222
0.760294 0.760294 0.760294
0.833135 0.833135 0.833135
0.907806 0.907806 0.907806
0.914367 0.914367 0.914367
0.935018 0.935018 0.935018
0.972559 0.972559 0.972559
1.000000 1.000000 1.000000
0.041270 0.041270 0.041270
0.127728 0.127728 0.127728
0.253630 0.253630 0.253630
0.385857 0.385857 0.385857
0.521358 0.521358 0.521358
0.223877 0.223877 0.223877
0.254556 0.254556 0.254556
0.332158 0.332158 0.332158
0.437921 0.437921 0.437921
0.561562 0.561562 0.561562
0.439688 0.439688 0.439688
0.454214 0.454214 0.454214
0.497296 0.497296 0.497296
0.573352 0.573352 0.573352
0.671888 0.671888 0.671888
0.671758 0.671758 0.671758
0.681255 0.681255 0.681255
0.710673 0.710673 0.710673
0.762541 0.762541 0.762541
0.835141 0.835141 0.835141
0.909607 0.909607 0.909607
0.916151 0.916151 0.916151
0.936753 0.936753 0.936753
0.974210 0.974210 0.974210
1.000000 1.000000 1.000000
0.120179 0.120179 0.120179
0.172321 0.172321 0.172321
0.277504 0.277504 0.277504
0.400786 0.400786 0.400786
0.532602 0.532602 0.532602
0.251024 0.251024 0.251024
0.278340 0.278340 0.278340
0.349917 0.349917 0.349917
0.450760 0.450760 0.450760
0.571879 0.571879 0.571879
0.452464 0.452464 0.452464
0.466498 0.466498 0.466498
0.508955 0.508955 0.508955
0.583420 0.583420 0.583420
0.680227 0.680227 0.680227
0.680099 0.680099 0.680099
0.689456 0.689456 0.689456
0.718465 0.718465 0.718465
0.769691 0.769691 0.769691
0.841532 0.841532 0.841532
0.915352 0.915352 0.915352
0.921845 0.921845 0.921845
0.942290 0.942290 0.942290
0.979480 0.979480 0.979480
1.000000 1.000000 1.000000
0.199089 0.199089 0.199089
0.233458 0.233458 0.233458
0.317051 0.317051 0.317051
0.427281 0.427281 0.427281
0.553127 0.553127 0.553127
0.294745 0.294745 0.294745
0.317765 0.317765 0.317765
0.380803 0.380803 0.380803
0.473860 0.473860 0.473860
0.590798 0.590798 0.590798
0.475461 0.475461 0.475461
0.488676 0.488676 0.488676
0.530560 0.530560 0.530560
0.601908 0.601908 0.601908
0.695660 0.695660 0.695660
0.695536 0.695536 0.695536
0.704643 0.704643 0.704643
0.732919 0.732919 0.732919
0.782988 0.782988 0.782988
0.853452 0.853452 0.853452
0.926091 0.926091 0.926091
0.932490 0.932490 0.932490
0.952647 0.952647 0.952647
0.989346 0.989346 0.989346
1.000000 1.000000 1.000000
0.277999 0.277999 0.277999
0.302525 0.302525 0.302525
0.368670 0.368670 0.368670
0.464675 0.464675 0.464675
0.583222 0.583222 0.583222
0.350293 0.350293 0.350293
0.369266 0.369266 0.369266
0.423319 0.423319 0.423319
0.507622 0.507622 0.507622
0.618728 0.618728 0.618728
0.509210 0.509210 0.509210
0.522353 0.522353 0.522353
0.562090 0.562090 0.562090
0.629248 0.629248 0.629248
0.718753 0.718753 0.718753
0.718634 0.718634 0.718634
0.727388 0.727388 0.727388
0.754623 0.754623 0.754623
0.803034 0.803034 0.803034
0.871501 0.871501 0.871501
0.942411 0.942411 0.942411
0.948671 0.948671 0.948671
0.968403 0.968403 0.968403
1.000000 1.000000 1.000000
1.000000 1.000000 1.000000
