docs/luts/fuji_recipes/AcrosG_BLP_Ilford_Delta_3200.cube
TITLE "Fujifilm Recipe: BLP Ilford Delta 3200 (AcrosG)"
# FilmSim=AcrosG HL=-2 SH=4 Col=0 WB=Auto WBR=0 WBB=0
LUT_3D_SIZE 9
DOMAIN_MIN 0.0 0.0 0.0
DOMAIN_MAX 1.0 1.0 1.0
0.000000 0.000000 0.000000
0.022916 0.022916 0.022916
0.069094 0.069094 0.069094
0.116345 0.116345 0.116345
0.163597 0.163597 0.163597
0.210848 0.210848 0.210848
0.258100 0.258100 0.258100
0.305351 0.305351 0.305351
0.352602 0.352602 0.352602
0.080506 0.080506 0.080506
0.091680 0.091680 0.091680
0.115566 0.115566 0.115566
0.148910 0.148910 0.148910
0.187691 0.187691 0.187691
0.229501 0.229501 0.229501
0.273065 0.273065 0.273065
0.317697 0.317697 0.317697
0.363015 0.363015 0.363015
0.168496 0.168496 0.168496
0.174068 0.174068 0.174068
0.187430 0.187430 0.187430
0.208914 0.208914 0.208914
0.237141 0.237141 0.237141
0.270420 0.270420 0.270420
0.307308 0.307308 0.307308
0.346739 0.346739 0.346739
0.387973 0.387973 0.387973
0.256486 0.256486 0.256486
0.259966 0.259966 0.259966
0.268583 0.268583 0.268583
0.283180 0.283180 0.283180
0.303579 0.303579 0.303579
0.329110 0.329110 0.329110
0.358916 0.358916 0.358916
0.392151 0.392151 0.392151
0.508467 0.508467 0.508467
0.344476 0.344476 0.344476
0.346919 0.346919 0.346919
0.353045 0.353045 0.353045
0.363654 0.363654 0.363654
0.378931 0.378931 0.378931
0.398714 0.398714 0.398714
0.502741 0.502741 0.502741
0.531574 0.531574 0.531574
0.563645 0.563645 0.563645
0.513059 0.513059 0.513059
0.514989 0.514989 0.514989
0.519854 0.519854 0.519854
0.528372 0.528372 0.528372
0.540832 0.540832 0.540832
0.557285 0.557285 0.557285
0.577595 0.577595 0.577595
0.601503 0.601503 0.601503
0.628670 0.628670 0.628670
0.605239 0.605239 0.605239
0.606764 0.606764 0.606764
0.610621 0.610621 0.610621
0.617414 0.617414 0.617414
0.627441 0.627441 0.627441
0.640834 0.640834 0.640834
0.657594 0.657594 0.657594
0.677617 0.677617 0.677617
0.700719 0.700719 0.700719
0.697419 0.697419 0.697419
0.698666 0.698666 0.698666
0.701824 0.701824 0.701824
0.707408 0.707408 0.707408
0.715694 0.715694 0.715694
0.726843 0.726843 0.726843
0.740919 0.740919 0.740919
0.757904 0.757904 0.757904
0.777714 0.777714 0.777714
0.789599 0.789599 0.789599
0.790644 0.790644 0.790644
0.793296 0.793296 0.793296
0.797993 0.797993 0.797993
0.804989 0.804989 0.804989
0.814447 0.814447 0.814447
0.826460 0.826460 0.826460
0.841057 0.841057 0.841057
0.858214 0.858214 0.858214
0.007782 0.007782 0.007782
0.030698 0.030698 0.030698
0.073573 0.073573 0.073573
0.119156 0.119156 0.119156
0.165574 0.165574 0.165574
0.212340 0.212340 0.212340
0.259279 0.259279 0.259279
0.306315 0.306315 0.306315
0.353411 0.353411 0.353411
0.084451 0.084451 0.084451
0.095199 0.095199 0.095199
0.118396 0.118396 0.118396
0.151096 0.151096 0.151096
0.189391 0.189391 0.189391
0.230855 0.230855 0.230855
0.274168 0.274168 0.274168
0.318616 0.318616 0.318616
0.363795 0.363795 0.363795
0.170411 0.170411 0.170411
0.175916 0.175916 0.175916
0.189134 0.189134 0.189134
0.210421 0.210421 0.210421
0.238443 0.238443 0.238443
0.271536 0.271536 0.271536
0.308265 0.308265 0.308265
0.347565 0.347565 0.347565
0.388692 0.388692 0.388692
0.257674 0.257674 0.257674
0.261135 0.261135 0.261135
0.269708 0.269708 0.269708
0.284236 0.284236 0.284236
0.304550 0.304550 0.304550
0.329990 0.329990 0.329990
0.359707 0.359707 0.359707
0.392859 0.392859 0.392859
0.509132 0.509132 0.509132
0.345308 0.345308 0.345308
0.347744 0.347744 0.347744
0.353852 0.353852 0.353852
0.364432 0.364432 0.364432
0.379670 0.379670 0.379670
0.399408 0.399408 0.399408
0.503417 0.503417 0.503417
0.532198 0.532198 0.532198
0.564219 0.564219 0.564219
0.513716 0.513716 0.513716
0.515642 0.515642 0.515642
0.520498 0.520498 0.520498
0.529002 0.529002 0.529002
0.541441 0.541441 0.541441
0.557868 0.557868 0.557868
0.578150 0.578150 0.578150
0.602026 0.602026 0.602026
0.629161 0.629161 0.629161
0.605758 0.605758 0.605758
0.607281 0.607281 0.607281
0.611133 0.611133 0.611133
0.617918 0.617918 0.617918
0.627933 0.627933 0.627933
0.641312 0.641312 0.641312
0.658055 0.658055 0.658055
0.678058 0.678058 0.678058
0.701140 0.701140 0.701140
0.697843 0.697843 0.697843
0.699088 0.699088 0.699088
0.702244 0.702244 0.702244
0.707823 0.707823 0.707823
0.716102 0.716102 0.716102
0.727242 0.727242 0.727242
0.741307 0.741307 0.741307
0.758280 0.758280 0.758280
0.778077 0.778077 0.778077
0.789954 0.789954 0.789954
0.790999 0.790999 0.790999
0.793648 0.793648 0.793648
0.798343 0.798343 0.798343
0.805334 0.805334 0.805334
0.814787 0.814787 0.814787
0.826793 0.826793 0.826793
0.841382 0.841382 0.841382
0.858529 0.858529 0.858529
0.027591 0.027591 0.027591
0.048377 0.048377 0.048377
0.084030 0.084030 0.084030
0.126025 0.126025 0.126025
0.170493 0.170493 0.170493
0.216083 0.216083 0.216083
0.262252 0.262252 0.262252
0.308753 0.308753 0.308753
0.355459 0.355459 0.355459
0.093809 0.093809 0.093809
0.103645 0.103645 0.103645
0.125307 0.125307 0.125307
0.156513 0.156513 0.156513
0.193644 0.193644 0.193644
0.234258 0.234258 0.234258
0.276952 0.276952 0.276952
0.320940 0.320940 0.320940
0.365771 0.365771 0.365771
0.175181 0.175181 0.175181
0.180526 0.180526 0.180526
0.193393 0.193393 0.193393
0.214203 0.214203 0.214203
0.241722 0.241722 0.241722
0.274352 0.274352 0.274352
0.310684 0.310684 0.310684
0.349655 0.349655 0.349655
0.390512 0.390512 0.390512
0.260669 0.260669 0.260669
0.264083 0.264083 0.264083
0.272546 0.272546 0.272546
0.286903 0.286903 0.286903
0.307005 0.307005 0.307005
0.332218 0.332218 0.332218
0.361711 0.361711 0.361711
0.394656 0.394656 0.394656
0.510819 0.510819 0.510819
0.347415 0.347415 0.347415
0.349833 0.349833 0.349833
0.355897 0.355897 0.355897
0.366404 0.366404 0.366404
0.381545 0.381545 0.381545
0.401167 0.401167 0.401167
0.505131 0.505131 0.505131
0.533782 0.533782 0.533782
0.565676 0.565676 0.565676
0.515381 0.515381 0.515381
0.517298 0.517298 0.517298
0.522133 0.522133 0.522133
0.530599 0.530599 0.530599
0.542986 0.542986 0.542986
0.559349 0.559349 0.559349
0.579557 0.579557 0.579557
0.603355 0.603355 0.603355
0.630409 0.630409 0.630409
0.607074 0.607074 0.607074
0.608593 0.608593 0.608593
0.612433 0.612433 0.612433
0.619198 0.619198 0.619198
0.629184 0.629184 0.629184
0.642526 0.642526 0.642526
0.659225 0.659225 0.659225
0.679180 0.679180 0.679180
0.702209 0.702209 0.702209
0.698920 0.698920 0.698920
0.700162 0.700162 0.700162
0.703311 0.703311 0.703311
0.708878 0.708878 0.708878
0.717140 0.717140 0.717140
0.728258 0.728258 0.728258
0.742296 0.742296 0.742296
0.759237 0.759237 0.759237
0.779000 0.779000 0.779000
0.790857 0.790857 0.790857
0.791900 0.791900 0.791900
0.794545 0.794545 0.794545
0.799232 0.799232 0.799232
0.806213 0.806213 0.806213
0.815651 0.815651 0.815651
0.827640 0.827640 0.827640
0.842208 0.842208 0.842208
0.859331 0.859331 0.859331
0.057445 0.057445 0.057445
0.071763 0.071763 0.071763
0.100213 0.100213 0.100213
0.137403 0.137403 0.137403
0.178899 0.178899 0.178899
0.222579 0.222579 0.222579
0.267458 0.267458 0.267458
0.313044 0.313044 0.313044
0.359076 0.359076 0.359076
0.108613 0.108613 0.108613
0.117243 0.117243 0.117243
0.136747 0.136747 0.136747
0.165699 0.165699 0.165699
0.200978 0.200978 0.200978
0.240187 0.240187 0.240187
0.281834 0.281834 0.281834
0.325036 0.325036 0.325036
0.369263 0.369263 0.369263
0.183349 0.183349 0.183349
0.188437 0.188437 0.188437
0.200737 0.200737 0.200737
0.220763 0.220763 0.220763
0.247442 0.247442 0.247442
0.279289 0.279289 0.279289
0.314943 0.314943 0.314943
0.353346 0.353346 0.353346
0.393733 0.393733 0.393733
0.265911 0.265911 0.265911
0.269247 0.269247 0.269247
0.277522 0.277522 0.277522
0.291587 0.291587 0.291587
0.311325 0.311325 0.311325
0.336145 0.336145 0.336145
0.365251 0.365251 0.365251
0.397834 0.397834 0.397834
0.513807 0.513807 0.513807
0.351134 0.351134 0.351134
0.353521 0.353521 0.353521
0.359508 0.359508 0.359508
0.369889 0.369889 0.369889
0.384859 0.384859 0.384859
0.404282 0.404282 0.404282
0.508168 0.508168 0.508168
0.536589 0.536589 0.536589
0.568262 0.568262 0.568262
0.518332 0.518332 0.518332
0.520234 0.520234 0.520234
0.525030 0.525030 0.525030
0.533430 0.533430 0.533430
0.545726 0.545726 0.545726
0.561975 0.561975 0.561975
0.582055 0.582055 0.582055
0.605714 0.605714 0.605714
0.632625 0.632625 0.632625
0.609413 0.609413 0.609413
0.610923 0.610923 0.610923
0.614743 0.614743 0.614743
0.621472 0.621472 0.621472
0.631407 0.631407 0.631407
0.644683 0.644683 0.644683
0.661305 0.661305 0.661305
0.681174 0.681174 0.681174
0.704111 0.704111 0.704111
0.700834 0.700834 0.700834
0.702072 0.702072 0.702072
0.705209 0.705209 0.705209
0.710755 0.710755 0.710755
0.718986 0.718986 0.718986
0.730064 0.730064 0.730064
0.744053 0.744053 0.744053
0.760940 0.760940 0.760940
0.780641 0.780641 0.780641
0.792464 0.792464 0.792464
0.793504 0.793504 0.793504
0.796142 0.796142 0.796142
0.800815 0.800815 0.800815
0.807777 0.807777 0.807777
0.817189 0.817189 0.817189
0.829146 0.829146 0.829146
0.843677 0.843677 0.843677
0.860760 0.860760 0.860760
0.087574 0.087574 0.087574
0.098002 0.098002 0.098002
0.120671 0.120671 0.120671
0.152868 0.152868 0.152868
0.190777 0.190777 0.190777
0.231960 0.231960 0.231960
0.275070 0.275070 0.275070
0.319369 0.319369 0.319369
0.364434 0.364434 0.364434
0.127739 0.127739 0.127739
0.135136 0.135136 0.135136
0.152282 0.152282 0.152282
0.178556 0.178556 0.178556
0.211471 0.211471 0.211471
0.248799 0.248799 0.248799
0.288996 0.288996 0.288996
0.331082 0.331082 0.331082
0.374441 0.374441 0.374441
0.194924 0.194924 0.194924
0.199681 0.199681 0.199681
0.211244 0.211244 0.211244
0.230230 0.230230 0.230230
0.255768 0.255768 0.255768
0.286528 0.286528 0.286528
0.321222 0.321222 0.321222
0.358810 0.358810 0.358810
0.398517 0.398517 0.398517
0.273575 0.273575 0.273575
0.276801 0.276801 0.276801
0.284814 0.284814 0.284814
0.298468 0.298468 0.298468
0.317691 0.317691 0.317691
0.341951 0.341951 0.341951
0.370499 0.370499 0.370499
0.402558 0.402558 0.402558
0.518259 0.518259 0.518259
0.356641 0.356641 0.356641
0.358983 0.358983 0.358983
0.364859 0.364859 0.364859
0.375056 0.375056 0.375056
0.389781 0.389781 0.389781
0.408913 0.408913 0.408913
0.512690 0.512690 0.512690
0.540775 0.540775 0.540775
0.572121 0.572121 0.572121
0.522729 0.522729 0.522729
0.524607 0.524607 0.524607
0.529347 0.529347 0.529347
0.537651 0.537651 0.537651
0.549813 0.549813 0.549813
0.565896 0.565896 0.565896
0.585785 0.585785 0.585785
0.609239 0.609239 0.609239
0.635940 0.635940 0.635940
0.612908 0.612908 0.612908
0.614406 0.614406 0.614406
0.618195 0.618195 0.618195
0.624871 0.624871 0.624871
0.634731 0.634731 0.634731
0.647910 0.647910 0.647910
0.664418 0.664418 0.664418
0.684159 0.684159 0.684159
0.706959 0.706959 0.706959
0.703701 0.703701 0.703701
0.704932 0.704932 0.704932
0.708051 0.708051 0.708051
0.713565 0.713565 0.713565
0.721751 0.721751 0.721751
0.732769 0.732769 0.732769
0.746687 0.746687 0.746687
0.763491 0.763491 0.763491
0.783102 0.783102 0.783102
0.794873 0.794873 0.794873
0.795908 0.795908 0.795908
0.798535 0.798535 0.798535
0.803189 0.803189 0.803189
0.810121 0.810121 0.810121
0.819496 0.819496 0.819496
0.831406 0.831406 0.831406
0.845882 0.845882 0.845882
0.862903 0.862903 0.862903
0.117703 0.117703 0.117703
0.125708 0.125708 0.125708
0.144036 0.144036 0.144036
0.171681 0.171681 0.171681
0.205828 0.205828 0.205828
0.244150 0.244150 0.244150
0.285120 0.285120 0.285120
0.327803 0.327803 0.327803
0.371630 0.371630 0.371630
0.149964 0.149964 0.149964
0.156260 0.156260 0.156260
0.171165 0.171165 0.171165
0.194675 0.194675 0.194675
0.224960 0.224960 0.224960
0.260069 0.260069 0.260069
0.298486 0.298486 0.298486
0.339161 0.339161 0.339161
0.381403 0.381403 0.381403
0.209639 0.209639 0.209639
0.214025 0.214025 0.214025
0.224748 0.224748 0.224748
0.242521 0.242521 0.242521
0.266691 0.266691 0.266691
0.296112 0.296112 0.296112
0.329599 0.329599 0.329599
0.366143 0.366143 0.366143
0.404966 0.404966 0.404966
0.283688 0.283688 0.283688
0.286778 0.286778 0.286778
0.294466 0.294466 0.294466
0.307605 0.307605 0.307605
0.326179 0.326179 0.326179
0.349723 0.349723 0.349723
0.377551 0.377551 0.377551
0.408928 0.408928 0.408928
0.524277 0.524277 0.524277
0.364028 0.364028 0.364028
0.366311 0.366311 0.366311
0.372044 0.372044 0.372044
0.382004 0.382004 0.382004
0.396408 0.396408 0.396408
0.415160 0.415160 0.415160
0.518801 0.518801 0.518801
0.546443 0.546443 0.546443
0.577355 0.577355 0.577355
0.528674 0.528674 0.528674
0.530523 0.530523 0.530523
0.535188 0.535188 0.535188
0.543366 0.543366 0.543366
0.555350 0.555350 0.555350
0.571211 0.571211 0.571211
0.590847 0.590847 0.590847
0.614028 0.614028 0.614028
0.640447 0.640447 0.640447
0.617656 0.617656 0.617656
0.619138 0.619138 0.619138
0.622886 0.622886 0.622886
0.629492 0.629492 0.629492
0.639250 0.639250 0.639250
0.652300 0.652300 0.652300
0.668655 0.668655 0.668655
0.688223 0.688223 0.688223
0.710840 0.710840 0.710840
0.707607 0.707607 0.707607
0.708828 0.708828 0.708828
0.711923 0.711923 0.711923
0.717395 0.717395 0.717395
0.725519 0.725519 0.725519
0.736458 0.736458 0.736458
0.750279 0.750279 0.750279
0.766972 0.766972 0.766972
0.786460 0.786460 0.786460
0.798161 0.798161 0.798161
0.799190 0.799190 0.799190
0.801802 0.801802 0.801802
0.806429 0.806429 0.806429
0.813322 0.813322 0.813322
0.822645 0.822645 0.822645
0.834492 0.834492 0.834492
0.848893 0.848893 0.848893
0.865831 0.865831 0.865831
0.147832 0.147832 0.147832
0.154222 0.154222 0.154222
0.169321 0.169321 0.169321
0.193081 0.193081 0.193081
0.223611 0.223611 0.223611
0.258933 0.258933 0.258933
0.297523 0.297523 0.297523
0.338338 0.338338 0.338338
0.380691 0.380691 0.380691
0.174327 0.174327 0.174327
0.179700 0.179700 0.179700
0.192628 0.192628 0.192628
0.213523 0.213523 0.213523
0.241131 0.241131 0.241131
0.273844 0.273844 0.273844
0.310247 0.310247 0.310247
0.349277 0.349277 0.349277
0.390183 0.390183 0.390183
0.227080 0.227080 0.227080
0.231087 0.231087 0.231087
0.240936 0.240936 0.240936
0.257414 0.257414 0.257414
0.280079 0.280079 0.280079
0.307984 0.307984 0.307984
0.340066 0.340066 0.340066
0.375369 0.375369 0.375369
0.413125 0.413125 0.413125
0.296163 0.296163 0.296163
0.299098 0.299098 0.299098
0.306415 0.306415 0.306415
0.318961 0.318961 0.318961
0.336776 0.336776 0.336776
0.359474 0.359474 0.359474
0.386440 0.386440 0.386440
0.416989 0.416989 0.416989
0.531922 0.531922 0.531922
0.373319 0.373319 0.373319
0.375532 0.375532 0.375532
0.381093 0.381093 0.381093
0.390767 0.390767 0.390767
0.404783 0.404783 0.404783
0.503218 0.503218 0.503218
0.526559 0.526559 0.526559
0.553655 0.553655 0.553655
0.584029 0.584029 0.584029
0.536230 0.536230 0.536230
0.538041 0.538041 0.538041
0.542614 0.542614 0.542614
0.550635 0.550635 0.550635
0.562399 0.562399 0.562399
0.577987 0.577987 0.577987
0.597307 0.597307 0.597307
0.620147 0.620147 0.620147
0.646213 0.646213 0.646213
0.623725 0.623725 0.623725
0.625186 0.625186 0.625186
0.628883 0.628883 0.628883
0.635400 0.635400 0.635400
0.645032 0.645032 0.645032
0.657919 0.657919 0.657919
0.674081 0.674081 0.674081
0.693433 0.693433 0.693433
0.715817 0.715817 0.715817
0.712617 0.712617 0.712617
0.713826 0.713826 0.713826
0.716890 0.716890 0.716890
0.722308 0.722308 0.722308
0.730355 0.730355 0.730355
0.741193 0.741193 0.741193
0.754892 0.754892 0.754892
0.771443 0.771443 0.771443
0.790776 0.790776 0.790776
0.802388 0.802388 0.802388
0.803409 0.803409 0.803409
0.806001 0.806001 0.806001
0.810595 0.810595 0.810595
0.817438 0.817438 0.817438
0.826695 0.826695 0.826695
0.838461 0.838461 0.838461
0.852768 0.852768 0.852768
0.869599 0.869599 0.869599
0.177961 0.177961 0.177961
0.183216 0.183216 0.183216
0.195886 0.195886 0.195886
0.216424 0.216424 0.216424
0.243654 0.243654 0.243654
0.276016 0.276016 0.276016
0.312118 0.312118 0.312118
0.350896 0.350896 0.350896
0.391594 0.391594 0.391594
0.200156 0.200156 0.200156
0.204775 0.204775 0.204775
0.216027 0.216027 0.216027
0.234568 0.234568 0.234568
0.259610 0.259610 0.259610
0.289888 0.289888 0.289888
0.324151 0.324151 0.324151
0.361369 0.361369 0.361369
0.400764 0.400764 0.400764
0.246797 0.246797 0.246797
0.250437 0.250437 0.250437
0.259431 0.259431 0.259431
0.274610 0.274610 0.274610
0.295719 0.295719 0.295719
0.322006 0.322006 0.322006
0.352548 0.352548 0.352548
0.386459 0.386459 0.386459
0.503135 0.503135 0.503135
0.310835 0.310835 0.310835
0.313604 0.313604 0.313604
0.320521 0.320521 0.320521
0.332422 0.332422 0.332422
0.349403 0.349403 0.349403
0.371157 0.371157 0.371157
0.397146 0.397146 0.397146
0.507066 0.507066 0.507066
0.541211 0.541211 0.541211
0.384482 0.384482 0.384482
0.386616 0.386616 0.386616
0.391982 0.391982 0.391982
0.401329 0.401329 0.401329
0.414901 0.414901 0.414901
0.513258 0.513258 0.513258
0.535981 0.535981 0.535981
0.562437 0.562437 0.562437
0.592177 0.592177 0.592177
0.545415 0.545415 0.545415
0.547183 0.547183 0.547183
0.551648 0.551648 0.551648
0.559485 0.559485 0.559485
0.570990 0.570990 0.570990
0.586255 0.586255 0.586255
0.605202 0.605202 0.605202
0.627636 0.627636 0.627636
0.653281 0.653281 0.653281
0.631154 0.631154 0.631154
0.632590 0.632590 0.632590
0.636226 0.636226 0.636226
0.642638 0.642638 0.642638
0.652118 0.652118 0.652118
0.664811 0.664811 0.664811
0.680741 0.680741 0.680741
0.699833 0.699833 0.699833
0.721937 0.721937 0.721937
0.718775 0.718775 0.718775
0.719970 0.719970 0.719970
0.722997 0.722997 0.722997
0.728351 0.728351 0.728351
0.736304 0.736304 0.736304
0.747020 0.747020 0.747020
0.760570 0.760570 0.760570
0.776951 0.776951 0.776951
0.796095 0.796095 0.796095
0.807598 0.807598 0.807598
0.808611 0.808611 0.808611
0.811179 0.811179 0.811179
0.815731 0.815731 0.815731
0.822514 0.822514 0.822514
0.831691 0.831691 0.831691
0.843358 0.843358 0.843358
0.857550 0.857550 0.857550
0.874251 0.874251 0.874251
0.208091 0.208091 0.208091
0.212514 0.212514 0.212514
0.223320 0.223320 0.223320
0.241215 0.241215 0.241215
0.265525 0.265525 0.265525
0.295085 0.295085 0.295085
0.328697 0.328697 0.328697
0.365352 0.365352 0.365352
0.404269 0.404269 0.404269
0.227005 0.227005 0.227005
0.231013 0.231013 0.231013
0.240865 0.240865 0.240865
0.257348 0.257348 0.257348
0.280020 0.280020 0.280020
0.307931 0.307931 0.307931
0.340019 0.340019 0.340019
0.375328 0.375328 0.375328
0.413088 0.413088 0.413088
0.268367 0.268367 0.268367
0.271667 0.271667 0.271667
0.279856 0.279856 0.279856
0.293787 0.293787 0.293787
0.313358 0.313358 0.313358
0.337997 0.337997 0.337997
0.366923 0.366923 0.366923
0.399338 0.399338 0.399338
0.515223 0.515223 0.515223
0.327494 0.327494 0.327494
0.330093 0.330093 0.330093
0.336598 0.336598 0.336598
0.347829 0.347829 0.347829
0.363932 0.363932 0.363932
0.384677 0.384677 0.384677
0.409607 0.409607 0.409607
0.519023 0.519023 0.519023
0.552130 0.552130 0.552130
0.397441 0.397441 0.397441
0.399489 0.399489 0.399489
0.404642 0.404642 0.404642
0.413632 0.413632 0.413632
0.507035 0.507035 0.507035
0.525015 0.525015 0.525015
0.547049 0.547049 0.547049
0.572785 0.572785 0.572785
0.601805 0.601805 0.601805
0.556216 0.556216 0.556216
0.557936 0.557936 0.557936
0.562280 0.562280 0.562280
0.569909 0.569909 0.569909
0.581122 0.581122 0.581122
0.596019 0.596019 0.596019
0.614541 0.614541 0.614541
0.636511 0.636511 0.636511
0.661671 0.661671 0.661671
0.639959 0.639959 0.639959
0.641368 0.641368 0.641368
0.644933 0.644933 0.644933
0.651223 0.651223 0.651223
0.660528 0.660528 0.660528
0.672997 0.672997 0.672997
0.688660 0.688660 0.688660
0.707450 0.707450 0.707450
0.729228 0.729228 0.729228
0.726112 0.726112 0.726112
0.727289 0.727289 0.727289
0.730273 0.730273 0.730273
0.735552 0.735552 0.735552
0.743397 0.743397 0.743397
0.753969 0.753969 0.753969
0.767346 0.767346 0.767346
0.783527 0.783527 0.783527
0.802449 0.802449 0.802449
0.813826 0.813826 0.813826
0.814827 0.814827 0.814827
0.817368 0.817368 0.817368
0.821871 0.821871 0.821871
0.828583 0.828583 0.828583
0.837667 0.837667 0.837667
0.849217 0.849217 0.849217
0.863273 0.863273 0.863273
0.879821 0.879821 0.879821
