docs/luts/fuji_recipes/Acros_RR_Acros.cube
TITLE "Fujifilm Recipe: RR Acros (Acros)"
# FilmSim=Acros HL=2 SH=2 Col=0 WB=Auto WBR=0 WBB=0
LUT_3D_SIZE 33
DOMAIN_MIN 0.0 0.0 0.0
DOMAIN_MAX 1.0 1.0 1.0
0.000000 0.000000 0.000000
0.012225 0.012225 0.012225
0.026057 0.026057 0.026057
0.045228 0.045228 0.045228
0.065360 0.065360 0.065360
0.085492 0.085492 0.085492
0.105624 0.105624 0.105624
0.125756 0.125756 0.125756
0.145887 0.145887 0.145887
0.166019 0.166019 0.166019
0.186151 0.186151 0.186151
0.206283 0.206283 0.206283
0.226415 0.226415 0.226415
0.246547 0.246547 0.246547
0.266679 0.266679 0.266679
0.286811 0.286811 0.286811
0.306943 0.306943 0.306943
0.327075 0.327075 0.327075
0.347207 0.347207 0.347207
0.367339 0.367339 0.367339
0.387470 0.387470 0.387470
0.407602 0.407602 0.407602
0.427734 0.427734 0.427734
0.447866 0.447866 0.447866
0.458565 0.458565 0.458565
0.458565 0.458565 0.458565
0.458565 0.458565 0.458565
0.458565 0.458565 0.458565
0.458565 0.458565 0.458565
0.458565 0.458565 0.458565
0.458565 0.458565 0.458565
0.458565 0.458565 0.458565
0.458565 0.458565 0.458565
0.040947 0.040947 0.040947
0.051432 0.051432 0.051432
0.061720 0.061720 0.061720
0.074503 0.074503 0.074503
0.089226 0.089226 0.089226
0.105326 0.105326 0.105326
0.122396 0.122396 0.122396
0.140157 0.140157 0.140157
0.158417 0.158417 0.158417
0.177046 0.177046 0.177046
0.195952 0.195952 0.195952
0.215069 0.215069 0.215069
0.234351 0.234351 0.234351
0.253762 0.253762 0.253762
0.273277 0.273277 0.273277
0.292876 0.292876 0.292876
0.312545 0.312545 0.312545
0.332270 0.332270 0.332270
0.352043 0.352043 0.352043
0.371856 0.371856 0.371856
0.391703 0.391703 0.391703
0.411580 0.411580 0.411580
0.431482 0.431482 0.431482
0.451405 0.451405 0.451405
0.502349 0.502349 0.502349
0.502349 0.502349 0.502349
0.502349 0.502349 0.502349
0.502349 0.502349 0.502349
0.502349 0.502349 0.502349
0.502349 0.502349 0.502349
0.502349 0.502349 0.502349
0.502349 0.502349 0.502349
0.502349 0.502349 0.502349
0.074887 0.074887 0.074887
0.081902 0.081902 0.081902
0.089260 0.089260 0.089260
0.098950 0.098950 0.098950
0.110722 0.110722 0.110722
0.124184 0.124184 0.124184
0.138977 0.138977 0.138977
0.154804 0.154804 0.154804
0.171433 0.171433 0.171433
0.188684 0.188684 0.188684
0.206422 0.206422 0.206422
0.224544 0.224544 0.224544
0.242972 0.242972 0.242972
0.261647 0.261647 0.261647
0.280523 0.280523 0.280523
0.299564 0.299564 0.299564
0.318741 0.318741 0.318741
0.338032 0.338032 0.338032
0.357419 0.357419 0.357419
0.376888 0.376888 0.376888
0.396426 0.396426 0.396426
0.416024 0.416024 0.416024
0.435673 0.435673 0.435673
0.455368 0.455368 0.455368
0.506868 0.506868 0.506868
0.506868 0.506868 0.506868
0.506868 0.506868 0.506868
0.506868 0.506868 0.506868
0.506868 0.506868 0.506868
0.506868 0.506868 0.506868
0.506868 0.506868 0.506868
0.506868 0.506868 0.506868
0.506868 0.506868 0.506868
0.108262 0.108262 0.108262
0.113387 0.113387 0.113387
0.118928 0.118928 0.118928
0.126457 0.126457 0.126457
0.135912 0.135912 0.135912
0.147076 0.147076 0.147076
0.159704 0.159704 0.159704
0.173557 0.173557 0.173557
0.188418 0.188418 0.188418
0.204105 0.204105 0.204105
0.220467 0.220467 0.220467
0.237382 0.237382 0.237382
0.254749 0.254749 0.254749
0.272490 0.272490 0.272490
0.290542 0.290542 0.290542
0.308852 0.308852 0.308852
0.327379 0.327379 0.327379
0.346091 0.346091 0.346091
0.364959 0.364959 0.364959
0.383961 0.383961 0.383961
0.403078 0.403078 0.403078
0.422294 0.422294 0.422294
0.441597 0.441597 0.441597
0.501146 0.501146 0.501146
0.513267 0.513267 0.513267
0.513267 0.513267 0.513267
0.513267 0.513267 0.513267
0.513267 0.513267 0.513267
0.513267 0.513267 0.513267
0.513267 0.513267 0.513267
0.513267 0.513267 0.513267
0.513267 0.513267 0.513267
0.513267 0.513267 0.513267
0.141636 0.141636 0.141636
0.145592 0.145592 0.145592
0.149938 0.149938 0.149938
0.155949 0.155949 0.155949
0.163654 0.163654 0.163654
0.172952 0.172952 0.172952
0.183698 0.183698 0.183698
0.195725 0.195725 0.195725
0.208863 0.208863 0.208863
0.222956 0.222956 0.222956
0.237861 0.237861 0.237861
0.253453 0.253453 0.253453
0.269628 0.269628 0.269628
0.286294 0.286294 0.286294
0.303379 0.303379 0.303379
0.320819 0.320819 0.320819
0.338562 0.338562 0.338562
0.356565 0.356565 0.356565
0.374792 0.374792 0.374792
0.393212 0.393212 0.393212
0.411801 0.411801 0.411801
0.430535 0.430535 0.430535
0.449398 0.449398 0.449398
0.509829 0.509829 0.509829
0.521716 0.521716 0.521716
0.521716 0.521716 0.521716
0.521716 0.521716 0.521716
0.521716 0.521716 0.521716
0.521716 0.521716 0.521716
0.521716 0.521716 0.521716
0.521716 0.521716 0.521716
0.521716 0.521716 0.521716
0.521716 0.521716 0.521716
0.175010 0.175010 0.175010
0.178186 0.178186 0.178186
0.181707 0.181707 0.181707
0.186629 0.186629 0.186629
0.193022 0.193022 0.193022
0.200851 0.200851 0.200851
0.210038 0.210038 0.210038
0.220478 0.220478 0.220478
0.232053 0.232053 0.232053
0.244638 0.244638 0.244638
0.258115 0.258115 0.258115
0.272371 0.272371 0.272371
0.287305 0.287305 0.287305
0.302829 0.302829 0.302829
0.318864 0.318864 0.318864
0.335342 0.335342 0.335342
0.352204 0.352204 0.352204
0.369402 0.369402 0.369402
0.386891 0.386891 0.386891
0.404636 0.404636 0.404636
0.422604 0.422604 0.422604
0.440769 0.440769 0.440769
0.459108 0.459108 0.459108
0.520661 0.520661 0.520661
0.532264 0.532264 0.532264
0.532264 0.532264 0.532264
0.532264 0.532264 0.532264
0.532264 0.532264 0.532264
0.532264 0.532264 0.532264
0.532264 0.532264 0.532264
0.532264 0.532264 0.532264
0.532264 0.532264 0.532264
0.532264 0.532264 0.532264
0.208384 0.208384 0.208384
0.211010 0.211010 0.211010
0.213937 0.213937 0.213937
0.218057 0.218057 0.218057
0.223453 0.223453 0.223453
0.230128 0.230128 0.230128
0.238048 0.238048 0.238048
0.247151 0.247151 0.247151
0.257360 0.257360 0.257360
0.268583 0.268583 0.268583
0.280729 0.280729 0.280729
0.293704 0.293704 0.293704
0.307420 0.307420 0.307420
0.321794 0.321794 0.321794
0.336750 0.336750 0.336750
0.352222 0.352222 0.352222
0.368150 0.368150 0.368150
0.384479 0.384479 0.384479
0.401163 0.401163 0.401163
0.418162 0.418162 0.418162
0.435440 0.435440 0.435440
0.452965 0.452965 0.452965
0.512573 0.512573 0.512573
0.533635 0.533635 0.533635
0.544914 0.544914 0.544914
0.544914 0.544914 0.544914
0.544914 0.544914 0.544914
0.544914 0.544914 0.544914
0.544914 0.544914 0.544914
0.544914 0.544914 0.544914
0.544914 0.544914 0.544914
0.544914 0.544914 0.544914
0.544914 0.544914 0.544914
0.241759 0.241759 0.241759
0.243978 0.243978 0.243978
0.246462 0.246462 0.246462
0.249973 0.249973 0.249973
0.254600 0.254600 0.254600
0.260363 0.260363 0.260363
0.267255 0.267255 0.267255
0.275245 0.275245 0.275245
0.284283 0.284283 0.284283
0.294309 0.294309 0.294309
0.305254 0.305254 0.305254
0.317043 0.317043 0.317043
0.329604 0.329604 0.329604
0.342866 0.342866 0.342866
0.356760 0.356760 0.356760
0.371223 0.371223 0.371223
0.386196 0.386196 0.386196
0.401628 0.401628 0.401628
0.417469 0.417469 0.417469
0.433678 0.433678 0.433678
0.450217 0.450217 0.450217
0.508277 0.508277 0.508277
0.528350 0.528350 0.528350
0.548703 0.548703 0.548703
0.559623 0.559623 0.559623
0.559623 0.559623 0.559623
0.559623 0.559623 0.559623
0.559623 0.559623 0.559623
0.559623 0.559623 0.559623
0.559623 0.559623 0.559623
0.559623 0.559623 0.559623
0.559623 0.559623 0.559623
0.559623 0.559623 0.559623
0.275133 0.275133 0.275133
0.277043 0.277043 0.277043
0.279186 0.279186 0.279186
0.282225 0.282225 0.282225
0.286246 0.286246 0.286246
0.291279 0.291279 0.291279
0.297333 0.297333 0.297333
0.304396 0.304396 0.304396
0.312441 0.312441 0.312441
0.321428 0.321428 0.321428
0.331307 0.331307 0.331307
0.342024 0.342024 0.342024
0.353520 0.353520 0.353520
0.365735 0.365735 0.365735
0.378611 0.378611 0.378611
0.392091 0.392091 0.392091
0.406123 0.406123 0.406123
0.420655 0.420655 0.420655
0.435642 0.435642 0.435642
0.451041 0.451041 0.451041
0.507998 0.507998 0.507998
0.526910 0.526910 0.526910
0.546182 0.546182 0.546182
0.565780 0.565780 0.565780
0.576317 0.576317 0.576317
0.576317 0.576317 0.576317
0.576317 0.576317 0.576317
0.576317 0.576317 0.576317
0.576317 0.576317 0.576317
0.576317 0.576317 0.576317
0.576317 0.576317 0.576317
0.576317 0.576317 0.576317
0.576317 0.576317 0.576317
0.308507 0.308507 0.308507
0.310175 0.310175 0.310175
0.312049 0.312049 0.312049
0.314713 0.314713 0.314713
0.318248 0.318248 0.318248
0.322690 0.322690 0.322690
0.328056 0.328056 0.328056
0.334346 0.334346 0.334346
0.341548 0.341548 0.341548
0.349638 0.349638 0.349638
0.358583 0.358583 0.358583
0.368341 0.368341 0.368341
0.378869 0.378869 0.378869
0.390118 0.390118 0.390118
0.402040 0.402040 0.402040
0.414586 0.414586 0.414586
0.427708 0.427708 0.427708
0.441361 0.441361 0.441361
0.455503 0.455503 0.455503
0.511846 0.511846 0.511846
0.529451 0.529451 0.529451
0.547497 0.547497 0.547497
0.565944 0.565944 0.565944
0.584759 0.584759 0.584759
0.594897 0.594897 0.594897
0.594897 0.594897 0.594897
0.594897 0.594897 0.594897
0.594897 0.594897 0.594897
0.594897 0.594897 0.594897
0.594897 0.594897 0.594897
0.594897 0.594897 0.594897
0.594897 0.594897 0.594897
0.594897 0.594897 0.594897
0.341881 0.341881 0.341881
0.343355 0.343355 0.343355
0.345013 0.345013 0.345013
0.347374 0.347374 0.347374
0.350514 0.350514 0.350514
0.354469 0.354469 0.354469
0.359263 0.359263 0.359263
0.364905 0.364905 0.364905
0.371390 0.371390 0.371390
0.378708 0.378708 0.378708
0.386835 0.386835 0.386835
0.395744 0.395744 0.395744
0.405402 0.405402 0.405402
0.415770 0.415770 0.415770
0.426810 0.426810 0.426810
0.438480 0.438480 0.438480
0.450741 0.450741 0.450741
0.504168 0.504168 0.504168
0.519805 0.519805 0.519805
0.535997 0.535997 0.535997
0.552702 0.552702 0.552702
0.569881 0.569881 0.569881
0.587497 0.587497 0.587497
0.605516 0.605516 0.605516
0.615245 0.615245 0.615245
0.615245 0.615245 0.615245
0.615245 0.615245 0.615245
0.615245 0.615245 0.615245
0.615245 0.615245 0.615245
0.615245 0.615245 0.615245
0.615245 0.615245 0.615245
0.615245 0.615245 0.615245
0.615245 0.615245 0.615245
0.375256 0.375256 0.375256
0.376571 0.376571 0.376571
0.378052 0.378052 0.378052
0.380164 0.380164 0.380164
0.382977 0.382977 0.382977
0.386528 0.386528 0.386528
0.390843 0.390843 0.390843
0.395936 0.395936 0.395936
0.401809 0.401809 0.401809
0.408459 0.408459 0.408459
0.415873 0.415873 0.415873
0.424032 0.424032 0.424032
0.432911 0.432911 0.432911
0.442483 0.442483 0.442483
0.452715 0.452715 0.452715
0.504197 0.504197 0.504197
0.517642 0.517642 0.517642
0.531742 0.531742 0.531742
0.546457 0.546457 0.546457
0.561748 0.561748 0.561748
0.577575 0.577575 0.577575
0.593902 0.593902 0.593902
0.610694 0.610694 0.610694
0.627918 0.627918 0.627918
0.637237 0.637237 0.637237
0.637237 0.637237 0.637237
0.637237 0.637237 0.637237
0.637237 0.637237 0.637237
0.637237 0.637237 0.637237
0.637237 0.637237 0.637237
0.637237 0.637237 0.637237
0.637237 0.637237 0.637237
0.637237 0.637237 0.637237
0.408630 0.408630 0.408630
0.409814 0.409814 0.409814
0.411148 0.411148 0.411148
0.413052 0.413052 0.413052
0.415591 0.415591 0.415591
0.418803 0.418803 0.418803
0.422712 0.422712 0.422712
0.427337 0.427337 0.427337
0.432685 0.432685 0.432685
0.438757 0.438757 0.438757
0.445547 0.445547 0.445547
0.453043 0.453043 0.453043
0.501443 0.501443 0.501443
0.511836 0.511836 0.511836
0.522986 0.522986 0.522986
0.534860 0.534860 0.534860
0.547425 0.547425 0.547425
0.560647 0.560647 0.560647
0.574490 0.574490 0.574490
0.588920 0.588920 0.588920
0.603902 0.603902 0.603902
0.619402 0.619402 0.619402
0.635388 0.635388 0.635388
0.651829 0.651829 0.651829
0.660741 0.660741 0.660741
0.660741 0.660741 0.660741
0.660741 0.660741 0.660741
0.660741 0.660741 0.660741
0.660741 0.660741 0.660741
0.660741 0.660741 0.660741
0.660741 0.660741 0.660741
0.660741 0.660741 0.660741
0.660741 0.660741 0.660741
0.442004 0.442004 0.442004
0.443078 0.443078 0.443078
0.444288 0.444288 0.444288
0.446017 0.446017 0.446017
0.448325 0.448325 0.448325
0.451247 0.451247 0.451247
0.454811 0.454811 0.454811
0.459033 0.459033 0.459033
0.504610 0.504610 0.504610
0.511147 0.511147 0.511147
0.518476 0.518476 0.518476
0.526589 0.526589 0.526589
0.535472 0.535472 0.535472
0.545108 0.545108 0.545108
0.555476 0.555476 0.555476
0.566550 0.566550 0.566550
0.578304 0.578304 0.578304
0.590709 0.590709 0.590709
0.603734 0.603734 0.603734
0.617350 0.617350 0.617350
0.631527 0.631527 0.631527
0.646232 0.646232 0.646232
0.661438 0.661438 0.661438
0.677116 0.677116 0.677116
0.685629 0.685629 0.685629
0.685629 0.685629 0.685629
0.685629 0.685629 0.685629
0.685629 0.685629 0.685629
0.685629 0.685629 0.685629
0.685629 0.685629 0.685629
0.685629 0.685629 0.685629
0.685629 0.685629 0.685629
0.685629 0.685629 0.685629
0.518053 0.518053 0.518053
0.519203 0.519203 0.519203
0.520500 0.520500 0.520500
0.522354 0.522354 0.522354
0.524831 0.524831 0.524831
0.527971 0.527971 0.527971
0.531804 0.531804 0.531804
0.536353 0.536353 0.536353
0.541634 0.541634 0.541634
0.547655 0.547655 0.547655
0.554419 0.554419 0.554419
0.561923 0.561923 0.561923
0.570159 0.570159 0.570159
0.579114 0.579114 0.579114
0.588774 0.588774 0.588774
0.599119 0.599119 0.599119
0.610127 0.610127 0.610127
0.621775 0.621775 0.621775
0.634038 0.634038 0.634038
0.646890 0.646890 0.646890
0.660303 0.660303 0.660303
0.674252 0.674252 0.674252
0.688710 0.688710 0.688710
0.703650 0.703650 0.703650
0.711777 0.711777 0.711777
0.711777 0.711777 0.711777
0.711777 0.711777 0.711777
0.711777 0.711777 0.711777
0.711777 0.711777 0.711777
0.711777 0.711777 0.711777
0.711777 0.711777 0.711777
0.711777 0.711777 0.711777
0.711777 0.711777 0.711777
0.557232 0.557232 0.557232
0.558287 0.558287 0.558287
0.559478 0.559478 0.559478
0.561180 0.561180 0.561180
0.563456 0.563456 0.563456
0.566344 0.566344 0.566344
0.569874 0.569874 0.569874
0.574068 0.574068 0.574068
0.578943 0.578943 0.578943
0.584510 0.584510 0.584510
0.590775 0.590775 0.590775
0.597738 0.597738 0.597738
0.605396 0.605396 0.605396
0.613740 0.613740 0.613740
0.622760 0.622760 0.622760
0.632440 0.632440 0.632440
0.642765 0.642765 0.642765
0.653715 0.653715 0.653715
0.665269 0.665269 0.665269
0.677406 0.677406 0.677406
0.690102 0.690102 0.690102
0.703334 0.703334 0.703334
0.717079 0.717079 0.717079
0.731313 0.731313 0.731313
0.739067 0.739067 0.739067
0.739067 0.739067 0.739067
0.739067 0.739067 0.739067
0.739067 0.739067 0.739067
0.739067 0.739067 0.739067
0.739067 0.739067 0.739067
0.739067 0.739067 0.739067
0.739067 0.739067 0.739067
0.739067 0.739067 0.739067
0.596410 0.596410 0.596410
0.597383 0.597383 0.597383
0.598482 0.598482 0.598482
0.600053 0.600053 0.600053
0.602155 0.602155 0.602155
0.604823 0.604823 0.604823
0.608087 0.608087 0.608087
0.611970 0.611970 0.611970
0.616488 0.616488 0.616488
0.621654 0.621654 0.621654
0.627476 0.627476 0.627476
0.633957 0.633957 0.633957
0.641097 0.641097 0.641097
0.648891 0.648891 0.648891
0.657331 0.657331 0.657331
0.666407 0.666407 0.666407
0.676106 0.676106 0.676106
0.686413 0.686413 0.686413
0.697311 0.697311 0.697311
0.708782 0.708782 0.708782
0.720805 0.720805 0.720805
0.733362 0.733362 0.733362
0.746431 0.746431 0.746431
0.759991 0.759991 0.759991
0.767390 0.767390 0.767390
0.767390 0.767390 0.767390
0.767390 0.767390 0.767390
0.767390 0.767390 0.767390
0.767390 0.767390 0.767390
0.767390 0.767390 0.767390
0.767390 0.767390 0.767390
0.767390 0.767390 0.767390
0.767390 0.767390 0.767390
0.635589 0.635589 0.635589
0.636490 0.636490 0.636490
0.637508 0.637508 0.637508
0.638964 0.638964 0.638964
0.640913 0.640913 0.640913
0.643389 0.643389 0.643389
0.646419 0.646419 0.646419
0.650027 0.650027 0.650027
0.654229 0.654229 0.654229
0.659040 0.659040 0.659040
0.664467 0.664467 0.664467
0.670518 0.670518 0.670518
0.677192 0.677192 0.677192
0.684489 0.684489 0.684489
0.692404 0.692404 0.692404
0.700930 0.700930 0.700930
0.710056 0.710056 0.710056
0.719772 0.719772 0.719772
0.730063 0.730063 0.730063
0.740915 0.740915 0.740915
0.752310 0.752310 0.752310
0.764232 0.764232 0.764232
0.776663 0.776663 0.776663
0.789584 0.789584 0.789584
0.796644 0.796644 0.796644
0.796644 0.796644 0.796644
0.796644 0.796644 0.796644
0.796644 0.796644 0.796644
0.796644 0.796644 0.796644
0.796644 0.796644 0.796644
0.796644 0.796644 0.796644
0.796644 0.796644 0.796644
0.796644 0.796644 0.796644
0.674767 0.674767 0.674767
0.675605 0.675605 0.675605
0.676552 0.676552 0.676552
0.677907 0.677907 0.677907
0.679721 0.679721 0.679721
0.682026 0.682026 0.682026
0.684850 0.684850 0.684850
0.688214 0.688214 0.688214
0.692136 0.692136 0.692136
0.696629 0.696629 0.696629
0.701704 0.701704 0.701704
0.707368 0.707368 0.707368
0.713623 0.713623 0.713623
0.720471 0.720471 0.720471
0.727910 0.727910 0.727910
0.735933 0.735933 0.735933
0.744536 0.744536 0.744536
0.753707 0.753707 0.753707
0.763438 0.763438 0.763438
0.773715 0.773715 0.773715
0.784524 0.784524 0.784524
0.795852 0.795852 0.795852
0.807682 0.807682 0.807682
0.819999 0.819999 0.819999
0.826736 0.826736 0.826736
0.826736 0.826736 0.826736
0.826736 0.826736 0.826736
0.826736 0.826736 0.826736
0.826736 0.826736 0.826736
0.826736 0.826736 0.826736
0.826736 0.826736 0.826736
0.826736 0.826736 0.826736
0.826736 0.826736 0.826736
0.713946 0.713946 0.713946
0.714728 0.714728 0.714728
0.715612 0.715612 0.715612
0.716877 0.716877 0.716877
0.718571 0.718571 0.718571
0.720725 0.720725 0.720725
0.723365 0.723365 0.723365
0.726511 0.726511 0.726511
0.730182 0.730182 0.730182
0.734391 0.734391 0.734391
0.739150 0.739150 0.739150
0.744465 0.744465 0.744465
0.750342 0.750342 0.750342
0.756784 0.756784 0.756784
0.763788 0.763788 0.763788
0.771354 0.771354 0.771354
0.779476 0.779476 0.779476
0.788147 0.788147 0.788147
0.797360 0.797360 0.797360
0.807104 0.807104 0.807104
0.817368 0.817368 0.817368
0.828139 0.828139 0.828139
0.839405 0.839405 0.839405
0.851152 0.851152 0.851152
0.857585 0.857585 0.857585
0.857585 0.857585 0.857585
0.857585 0.857585 0.857585
0.857585 0.857585 0.857585
0.857585 0.857585 0.857585
0.857585 0.857585 0.857585
0.857585 0.857585 0.857585
0.857585 0.857585 0.857585
0.857585 0.857585 0.857585
0.753124 0.753124 0.753124
0.753856 0.753856 0.753856
0.754684 0.754684 0.754684
0.755869 0.755869 0.755869
0.757456 0.757456 0.757456
0.759475 0.759475 0.759475
0.761950 0.761950 0.761950
0.764902 0.764902 0.764902
0.768348 0.768348 0.768348
0.772302 0.772302 0.772302
0.776775 0.776775 0.776775
0.781776 0.781776 0.781776
0.787310 0.787310 0.787310
0.793382 0.793382 0.793382
0.799991 0.799991 0.799991
0.807138 0.807138 0.807138
0.814819 0.814819 0.814819
0.823030 0.823030 0.823030
0.831764 0.831764 0.831764
0.841014 0.841014 0.841014
0.850770 0.850770 0.850770
0.861022 0.861022 0.861022
0.871759 0.871759 0.871759
0.882969 0.882969 0.882969
0.889114 0.889114 0.889114
0.889114 0.889114 0.889114
0.889114 0.889114 0.889114
0.889114 0.889114 0.889114
0.889114 0.889114 0.889114
0.889114 0.889114 0.889114
0.889114 0.889114 0.889114
0.889114 0.889114 0.889114
0.889114 0.889114 0.889114
0.792303 0.792303 0.792303
0.792990 0.792990 0.792990
0.793768 0.793768 0.793768
0.794881 0.794881 0.794881
0.796372 0.796372 0.796372
0.798270 0.798270 0.798270
0.800597 0.800597 0.800597
0.803373 0.803373 0.803373
0.806616 0.806616 0.806616
0.810339 0.810339 0.810339
0.814554 0.814554 0.814554
0.819270 0.819270 0.819270
0.824493 0.824493 0.824493
0.830228 0.830228 0.830228
0.836476 0.836476 0.836476
0.843240 0.843240 0.843240
0.850516 0.850516 0.850516
0.858302 0.858302 0.858302
0.866594 0.866594 0.866594
0.875385 0.875385 0.875385
0.884669 0.884669 0.884669
0.894436 0.894436 0.894436
0.904677 0.904677 0.904677
0.915382 0.915382 0.915382
0.921257 0.921257 0.921257
0.921257 0.921257 0.921257
0.921257 0.921257 0.921257
0.921257 0.921257 0.921257
0.921257 0.921257 0.921257
0.921257 0.921257 0.921257
0.921257 0.921257 0.921257
0.921257 0.921257 0.921257
0.921257 0.921257 0.921257
0.831481 0.831481 0.831481
0.832129 0.832129 0.832129
0.832861 0.832861 0.832861
0.833909 0.833909 0.833909
0.835314 0.835314 0.835314
0.837102 0.837102 0.837102
0.839296 0.839296 0.839296
0.841914 0.841914 0.841914
0.844973 0.844973 0.844973
0.848487 0.848487 0.848487
0.852468 0.852468 0.852468
0.856924 0.856924 0.856924
0.861863 0.861863 0.861863
0.867290 0.867290 0.867290
0.873209 0.873209 0.873209
0.879620 0.879620 0.879620
0.886524 0.886524 0.886524
0.893919 0.893919 0.893919
0.901801 0.901801 0.901801
0.910167 0.910167 0.910167
0.919010 0.919010 0.919010
0.928324 0.928324 0.928324
0.938101 0.938101 0.938101
0.948333 0.948333 0.948333
0.953952 0.953952 0.953952
0.953952 0.953952 0.953952
0.953952 0.953952 0.953952
0.953952 0.953952 0.953952
0.953952 0.953952 0.953952
0.953952 0.953952 0.953952
0.953952 0.953952 0.953952
0.953952 0.953952 0.953952
0.953952 0.953952 0.953952
0.870660 0.870660 0.870660
0.871271 0.871271 0.871271
0.871962 0.871962 0.871962
0.872952 0.872952 0.872952
0.874279 0.874279 0.874279
0.875968 0.875968 0.875968
0.878040 0.878040 0.878040
0.880514 0.880514 0.880514
0.883407 0.883407 0.883407
0.886731 0.886731 0.886731
0.890498 0.890498 0.890498
0.894718 0.894718 0.894718
0.899398 0.899398 0.899398
0.904543 0.904543 0.904543
0.910158 0.910158 0.910158
0.916246 0.916246 0.916246
0.922807 0.922807 0.922807
0.929840 0.929840 0.929840
0.937343 0.937343 0.937343
0.945314 0.945314 0.945314
0.953747 0.953747 0.953747
0.962639 0.962639 0.962639
0.971981 0.971981 0.971981
0.981767 0.981767 0.981767
0.987146 0.987146 0.987146
0.987146 0.987146 0.987146
0.987146 0.987146 0.987146
0.987146 0.987146 0.987146
0.987146 0.987146 0.987146
0.987146 0.987146 0.987146
0.987146 0.987146 0.987146
0.987146 0.987146 0.987146
0.987146 0.987146 0.987146
0.891480 0.891480 0.891480
0.892073 0.892073 0.892073
0.892744 0.892744 0.892744
0.893705 0.893705 0.893705
0.894993 0.894993 0.894993
0.896633 0.896633 0.896633
0.898646 0.898646 0.898646
0.901049 0.901049 0.901049
0.903859 0.903859 0.903859
0.907089 0.907089 0.907089
0.910751 0.910751 0.910751
0.914853 0.914853 0.914853
0.919404 0.919404 0.919404
0.924409 0.924409 0.924409
0.929874 0.929874 0.929874
0.935800 0.935800 0.935800
0.942189 0.942189 0.942189
0.949041 0.949041 0.949041
0.956354 0.956354 0.956354
0.964126 0.964126 0.964126
0.972354 0.972354 0.972354
0.981032 0.981032 0.981032
0.990155 0.990155 0.990155
0.999716 0.999716 0.999716
1.000000 1.000000 1.000000
1.000000 1.000000 1.000000
1.000000 1.000000 1.000000
1.000000 1.000000 1.000000
1.000000 1.000000 1.000000
1.000000 1.000000 1.000000
1.000000 1.000000 1.000000
1.000000 1.000000 1.000000
1.000000 1.000000 1.000000
0.891480 0.891480 0.891480
0.892073 0.892073 0.892073
0.892744 0.892744 0.892744
0.893705 0.893705 0.893705
0.894993 0.894993 0.894993
0.896633 0.896633 0.896633
0.898646 0.898646 0.898646
0.901049 0.901049 0.901049
0.903859 0.903859 0.903859
0.907089 0.907089 0.907089
0.910751 0.910751 0.910751
0.914853 0.914853 0.914853
0.919404 0.919404 0.919404
0.924409 0.924409 0.924409
0.929874 0.929874 0.929874
0.935800 0.935800 0.935800
0.942189 0.942189 0.942189
0.949041 0.949041 0.949041
0.956354 0.956354 0.956354
0.964126 0.964126 0.964126
0.972354 0.972354 0.972354
0.981032 0.981032 0.981032
0.990155 0.990155 0.990155
0.999716 0.999716 0.999716
1.000000 1.000000 1.000000
1.000000 1.000000 1.000000
1.000000 1.000000 1.000000
1.000000 1.000000 1.000000
1.000000 1.000000 1.000000
1.000000 1.000000 1.000000
1.000000 1.000000 1.000000
1.000000 1.000000 1.000000
1.000000 1.000000 1.000000
0.891480 0.891480 0.891480
0.892073 0.892073 0.892073
0.892744 0.892744 0.892744
0.893705 0.893705 0.893705
0.894993 0.894993 0.894993
0.896633 0.896633 0.896633
0.898646 0.898646 0.898646
0.901049 0.901049 0.901049
0.903859 0.903859 0.903859
0.907089 0.907089 0.907089
0.910751 0.910751 0.910751
0.914853 0.914853 0.914853
0.919404 0.919404 0.919404
0.924409 0.924409 0.924409
0.929874 0.929874 0.929874
0.935800 0.935800 0.935800
0.942189 0.942189 0.942189
0.949041 0.949041 0.949041
0.956354 0.956354 0.956354
0.964126 0.964126 0.964126
0.972354 0.972354 0.972354
0.981032 0.981032 0.981032
0.990155 0.990155 0.990155
0.999716 0.999716 0.999716
1.000000 1.000000 1.000000
