docs/luts/fuji_recipes/Acros_RR_Faded_Color_Vintage_2_2.cube
TITLE "Fujifilm Recipe: RR Faded Color Vintage 2/2 (Acros)"
# FilmSim=Acros HL=4 SH=4 Col=4 WB=Auto WBR=-5 WBB=5
LUT_3D_SIZE 33
DOMAIN_MIN 0.0 0.0 0.0
DOMAIN_MAX 1.0 1.0 1.0
0.000000 0.000000 0.000000
0.002442 0.002442 0.002442
0.005204 0.005204 0.005204
0.008954 0.008954 0.008954
0.013765 0.013765 0.013765
0.019820 0.019820 0.019820
0.027197 0.027197 0.027197
0.035903 0.035903 0.035903
0.044930 0.044930 0.044930
0.053956 0.053956 0.053956
0.062983 0.062983 0.062983
0.072009 0.072009 0.072009
0.081036 0.081036 0.081036
0.090063 0.090063 0.090063
0.099089 0.099089 0.099089
0.108116 0.108116 0.108116
0.117143 0.117143 0.117143
0.126169 0.126169 0.126169
0.135196 0.135196 0.135196
0.144223 0.144223 0.144223
0.153249 0.153249 0.153249
0.162276 0.162276 0.162276
0.171303 0.171303 0.171303
0.180329 0.180329 0.180329
0.189356 0.189356 0.189356
0.198382 0.198382 0.198382
0.207409 0.207409 0.207409
0.216436 0.216436 0.216436
0.225462 0.225462 0.225462
0.234489 0.234489 0.234489
0.243516 0.243516 0.243516
0.252542 0.252542 0.252542
0.261569 0.261569 0.261569
0.009387 0.009387 0.009387
0.011829 0.011829 0.011829
0.014591 0.014591 0.014591
0.018341 0.018341 0.018341
0.023152 0.023152 0.023152
0.029207 0.029207 0.029207
0.036486 0.036486 0.036486
0.044231 0.044231 0.044231
0.052231 0.052231 0.052231
0.060421 0.060421 0.060421
0.068758 0.068758 0.068758
0.077208 0.077208 0.077208
0.085748 0.085748 0.085748
0.094360 0.094360 0.094360
0.103030 0.103030 0.103030
0.111746 0.111746 0.111746
0.120502 0.120502 0.120502
0.129291 0.129291 0.129291
0.138106 0.138106 0.138106
0.146945 0.146945 0.146945
0.155803 0.155803 0.155803
0.164678 0.164678 0.164678
0.173568 0.173568 0.173568
0.182471 0.182471 0.182471
0.191385 0.191385 0.191385
0.200308 0.200308 0.200308
0.209241 0.209241 0.209241
0.218180 0.218180 0.218180
0.227127 0.227127 0.227127
0.236080 0.236080 0.236080
0.245038 0.245038 0.245038
0.254001 0.254001 0.254001
0.262968 0.262968 0.262968
0.020009 0.020009 0.020009
0.022451 0.022451 0.022451
0.025213 0.025213 0.025213
0.028963 0.028963 0.028963
0.033774 0.033774 0.033774
0.039465 0.039465 0.039465
0.045751 0.045751 0.045751
0.052518 0.052518 0.052518
0.059670 0.059670 0.059670
0.067130 0.067130 0.067130
0.074837 0.074837 0.074837
0.082743 0.082743 0.082743
0.090811 0.090811 0.090811
0.099011 0.099011 0.099011
0.107320 0.107320 0.107320
0.115718 0.115718 0.115718
0.124193 0.124193 0.124193
0.132731 0.132731 0.132731
0.141323 0.141323 0.141323
0.149962 0.149962 0.149962
0.158640 0.158640 0.158640
0.167352 0.167352 0.167352
0.176094 0.176094 0.176094
0.184861 0.184861 0.184861
0.193652 0.193652 0.193652
0.202463 0.202463 0.202463
0.211291 0.211291 0.211291
0.220136 0.220136 0.220136
0.228994 0.228994 0.228994
0.237865 0.237865 0.237865
0.246747 0.246747 0.246747
0.255640 0.255640 0.255640
0.264541 0.264541 0.264541
0.035205 0.035205 0.035205
0.037509 0.037509 0.037509
0.040014 0.040014 0.040014
0.043258 0.043258 0.043258
0.047194 0.047194 0.047194
0.051840 0.051840 0.051840
0.057113 0.057113 0.057113
0.062930 0.062930 0.062930
0.069209 0.069209 0.069209
0.075878 0.075878 0.075878
0.082874 0.082874 0.082874
0.090144 0.090144 0.090144
0.097644 0.097644 0.097644
0.105337 0.105337 0.105337
0.113193 0.113193 0.113193
0.121187 0.121187 0.121187
0.129298 0.129298 0.129298
0.137509 0.137509 0.137509
0.145806 0.145806 0.145806
0.154177 0.154177 0.154177
0.162613 0.162613 0.162613
0.171105 0.171105 0.171105
0.179646 0.179646 0.179646
0.188230 0.188230 0.188230
0.196852 0.196852 0.196852
0.205507 0.205507 0.205507
0.214192 0.214192 0.214192
0.222904 0.222904 0.222904
0.231640 0.231640 0.231640
0.240397 0.240397 0.240397
0.249174 0.249174 0.249174
0.257968 0.257968 0.257968
0.266777 0.266777 0.266777
0.052307 0.052307 0.052307
0.054084 0.054084 0.054084
0.056043 0.056043 0.056043
0.058620 0.058620 0.058620
0.061803 0.061803 0.061803
0.065631 0.065631 0.065631
0.070060 0.070060 0.070060
0.075036 0.075036 0.075036
0.080501 0.080501 0.080501
0.086398 0.086398 0.086398
0.092672 0.092672 0.092672
0.099274 0.099274 0.099274
0.106160 0.106160 0.106160
0.113290 0.113290 0.113290
0.120632 0.120632 0.120632
0.128158 0.128158 0.128158
0.135841 0.135841 0.135841
0.143663 0.143663 0.143663
0.151604 0.151604 0.151604
0.159650 0.159650 0.159650
0.167788 0.167788 0.167788
0.176007 0.176007 0.176007
0.184296 0.184296 0.184296
0.192649 0.192649 0.192649
0.201057 0.201057 0.201057
0.209515 0.209515 0.209515
0.218018 0.218018 0.218018
0.226561 0.226561 0.226561
0.235139 0.235139 0.235139
0.243750 0.243750 0.243750
0.252389 0.252389 0.252389
0.261055 0.261055 0.261055
0.269745 0.269745 0.269745
0.069409 0.069409 0.069409
0.070835 0.070835 0.070835
0.072419 0.072419 0.072419
0.074524 0.074524 0.074524
0.077151 0.077151 0.077151
0.080350 0.080350 0.080350
0.084100 0.084100 0.084100
0.088372 0.088372 0.088372
0.093126 0.093126 0.093126
0.098322 0.098322 0.098322
0.103916 0.103916 0.103916
0.109869 0.109869 0.109869
0.116139 0.116139 0.116139
0.122693 0.122693 0.122693
0.129496 0.129496 0.129496
0.136520 0.136520 0.136520
0.143738 0.143738 0.143738
0.151129 0.151129 0.151129
0.158672 0.158672 0.158672
0.166349 0.166349 0.166349
0.174145 0.174145 0.174145
0.182047 0.182047 0.182047
0.190044 0.190044 0.190044
0.198125 0.198125 0.198125
0.206281 0.206281 0.206281
0.214504 0.214504 0.214504
0.222789 0.222789 0.222789
0.231127 0.231127 0.231127
0.239516 0.239516 0.239516
0.247948 0.247948 0.247948
0.256422 0.256422 0.256422
0.264932 0.264932 0.264932
0.273476 0.273476 0.273476
0.086511 0.086511 0.086511
0.087689 0.087689 0.087689
0.089005 0.089005 0.089005
0.090763 0.090763 0.090763
0.092973 0.092973 0.092973
0.095687 0.095687 0.095687
0.098898 0.098898 0.098898
0.102591 0.102591 0.102591
0.106743 0.106743 0.106743
0.111326 0.111326 0.111326
0.116309 0.116309 0.116309
0.121660 0.121660 0.121660
0.127348 0.127348 0.127348
0.133340 0.133340 0.133340
0.139609 0.139609 0.139609
0.146125 0.146125 0.146125
0.152865 0.152865 0.152865
0.159805 0.159805 0.159805
0.166924 0.166924 0.166924
0.174205 0.174205 0.174205
0.181630 0.181630 0.181630
0.189186 0.189186 0.189186
0.196858 0.196858 0.196858
0.204635 0.204635 0.204635
0.212507 0.212507 0.212507
0.220465 0.220465 0.220465
0.228500 0.228500 0.228500
0.236606 0.236606 0.236606
0.244775 0.244775 0.244775
0.253002 0.253002 0.253002
0.261282 0.261282 0.261282
0.269611 0.269611 0.269611
0.277983 0.277983 0.277983
0.103613 0.103613 0.103613
0.104609 0.104609 0.104609
0.105725 0.105725 0.105725
0.107221 0.107221 0.107221
0.109111 0.109111 0.109111
0.111446 0.111446 0.111446
0.114227 0.114227 0.114227
0.117447 0.117447 0.117447
0.121095 0.121095 0.121095
0.125153 0.125153 0.125153
0.129600 0.129600 0.129600
0.134412 0.134412 0.134412
0.139565 0.139565 0.139565
0.145032 0.145032 0.145032
0.150789 0.150789 0.150789
0.156813 0.156813 0.156813
0.163079 0.163079 0.163079
0.169567 0.169567 0.169567
0.176256 0.176256 0.176256
0.183128 0.183128 0.183128
0.190167 0.190167 0.190167
0.197356 0.197356 0.197356
0.204683 0.204683 0.204683
0.212135 0.212135 0.212135
0.219700 0.219700 0.219700
0.227368 0.227368 0.227368
0.235130 0.235130 0.235130
0.242978 0.242978 0.242978
0.250905 0.250905 0.250905
0.258903 0.258903 0.258903
0.266967 0.266967 0.266967
0.275091 0.275091 0.275091
0.283270 0.283270 0.283270
0.120715 0.120715 0.120715
0.121572 0.121572 0.121572
0.122534 0.122534 0.122534
0.123828 0.123828 0.123828
0.125468 0.125468 0.125468
0.127502 0.127502 0.127502
0.129935 0.129935 0.129935
0.132769 0.132769 0.132769
0.135997 0.135997 0.135997
0.139609 0.139609 0.139609
0.143592 0.143592 0.143592
0.147928 0.147928 0.147928
0.152600 0.152600 0.152600
0.157587 0.157587 0.157587
0.162869 0.162869 0.162869
0.168426 0.168426 0.168426
0.174238 0.174238 0.174238
0.180286 0.180286 0.180286
0.186551 0.186551 0.186551
0.193015 0.193015 0.193015
0.199663 0.199663 0.199663
0.206480 0.206480 0.206480
0.213451 0.213451 0.213451
0.220564 0.220564 0.220564
0.227807 0.227807 0.227807
0.235170 0.235170 0.235170
0.242642 0.242642 0.242642
0.250214 0.250214 0.250214
0.257879 0.257879 0.257879
0.265629 0.265629 0.265629
0.273458 0.273458 0.273458
0.281358 0.281358 0.281358
0.289326 0.289326 0.289326
0.137817 0.137817 0.137817
0.138565 0.138565 0.138565
0.139406 0.139406 0.139406
0.140540 0.140540 0.140540
0.141980 0.141980 0.141980
0.143771 0.143771 0.143771
0.145922 0.145922 0.145922
0.148437 0.148437 0.148437
0.151313 0.151313 0.151313
0.154547 0.154547 0.154547
0.158130 0.158130 0.158130
0.162051 0.162051 0.162051
0.166296 0.166296 0.166296
0.170850 0.170850 0.170850
0.175698 0.175698 0.175698
0.180823 0.180823 0.180823
0.186208 0.186208 0.186208
0.191837 0.191837 0.191837
0.197692 0.197692 0.197692
0.203759 0.203759 0.203759
0.210023 0.210023 0.210023
0.216468 0.216468 0.216468
0.223082 0.223082 0.223082
0.229852 0.229852 0.229852
0.236766 0.236766 0.236766
0.243814 0.243814 0.243814
0.250985 0.250985 0.250985
0.258270 0.258270 0.258270
0.265661 0.265661 0.265661
0.273150 0.273150 0.273150
0.280728 0.280728 0.280728
0.288391 0.288391 0.288391
0.296131 0.296131 0.296131
0.154919 0.154919 0.154919
0.155580 0.155580 0.155580
0.156324 0.156324 0.156324
0.157328 0.157328 0.157328
0.158606 0.158606 0.158606
0.160199 0.160199 0.160199
0.162117 0.162117 0.162117
0.164365 0.164365 0.164365
0.166946 0.166946 0.166946
0.169859 0.169859 0.169859
0.173098 0.173098 0.173098
0.176656 0.176656 0.176656
0.180525 0.180525 0.180525
0.184693 0.184693 0.184693
0.189149 0.189149 0.189149
0.193878 0.193878 0.193878
0.198868 0.198868 0.198868
0.204104 0.204104 0.204104
0.209572 0.209572 0.209572
0.215259 0.215259 0.215259
0.221150 0.221150 0.221150
0.227233 0.227233 0.227233
0.233495 0.233495 0.233495
0.239925 0.239925 0.239925
0.246510 0.246510 0.246510
0.253240 0.253240 0.253240
0.260106 0.260106 0.260106
0.267098 0.267098 0.267098
0.274206 0.274206 0.274206
0.281424 0.281424 0.281424
0.288743 0.288743 0.288743
0.296157 0.296157 0.296157
0.303659 0.303659 0.303659
0.172021 0.172021 0.172021
0.172610 0.172610 0.172610
0.173275 0.173275 0.173275
0.174173 0.174173 0.174173
0.175317 0.175317 0.175317
0.176746 0.176746 0.176746
0.178469 0.178469 0.178469
0.180495 0.180495 0.180495
0.182826 0.182826 0.182826
0.185463 0.185463 0.185463
0.188405 0.188405 0.188405
0.191649 0.191649 0.191649
0.195187 0.195187 0.195187
0.199011 0.199011 0.199011
0.203114 0.203114 0.203114
0.207485 0.207485 0.207485
0.212112 0.212112 0.212112
0.216985 0.216985 0.216985
0.222091 0.222091 0.222091
0.227418 0.227418 0.227418
0.232955 0.232955 0.232955
0.238690 0.238690 0.238690
0.244611 0.244611 0.244611
0.250707 0.250707 0.250707
0.256969 0.256969 0.256969
0.263384 0.263384 0.263384
0.269945 0.269945 0.269945
0.276641 0.276641 0.276641
0.283465 0.283465 0.283465
0.290408 0.290408 0.290408
0.297462 0.297462 0.297462
0.304620 0.304620 0.304620
0.311876 0.311876 0.311876
0.189122 0.189122 0.189122
0.189653 0.189653 0.189653
0.190252 0.190252 0.190252
0.191061 0.191061 0.191061
0.192094 0.192094 0.192094
0.193384 0.193384 0.193384
0.194944 0.194944 0.194944
0.196780 0.196780 0.196780
0.198898 0.198898 0.198898
0.201299 0.201299 0.201299
0.203985 0.203985 0.203985
0.206953 0.206953 0.206953
0.210200 0.210200 0.210200
0.213720 0.213720 0.213720
0.217507 0.217507 0.217507
0.221554 0.221554 0.221554
0.225851 0.225851 0.225851
0.230389 0.230389 0.230389
0.235159 0.235159 0.235159
0.240151 0.240151 0.240151
0.245353 0.245353 0.245353
0.250757 0.250757 0.250757
0.256352 0.256352 0.256352
0.262127 0.262127 0.262127
0.268074 0.268074 0.268074
0.274182 0.274182 0.274182
0.280442 0.280442 0.280442
0.286846 0.286846 0.286846
0.293386 0.293386 0.293386
0.300052 0.300052 0.300052
0.306839 0.306839 0.306839
0.313739 0.313739 0.313739
0.320745 0.320745 0.320745
0.206224 0.206224 0.206224
0.206706 0.206706 0.206706
0.207249 0.207249 0.207249
0.207983 0.207983 0.207983
0.208921 0.208921 0.208921
0.210095 0.210095 0.210095
0.211515 0.211515 0.211515
0.213189 0.213189 0.213189
0.215124 0.215124 0.215124
0.217321 0.217321 0.217321
0.219784 0.219784 0.219784
0.222511 0.222511 0.222511
0.225501 0.225501 0.225501
0.228751 0.228751 0.228751
0.232256 0.232256 0.232256
0.236010 0.236010 0.236010
0.240008 0.240008 0.240008
0.244240 0.244240 0.244240
0.248701 0.248701 0.248701
0.253381 0.253381 0.253381
0.258271 0.258271 0.258271
0.263363 0.263363 0.263363
0.268648 0.268648 0.268648
0.274116 0.274116 0.274116
0.279760 0.279760 0.279760
0.285570 0.285570 0.285570
0.291538 0.291538 0.291538
0.297656 0.297656 0.297656
0.303916 0.303916 0.303916
0.310310 0.310310 0.310310
0.316831 0.316831 0.316831
0.323472 0.323472 0.323472
0.330226 0.330226 0.330226
0.223326 0.223326 0.223326
0.223765 0.223765 0.223765
0.224261 0.224261 0.224261
0.224932 0.224932 0.224932
0.225789 0.225789 0.225789
0.226863 0.226863 0.226863
0.228163 0.228163 0.228163
0.229698 0.229698 0.229698
0.231473 0.231473 0.231473
0.233493 0.233493 0.233493
0.235761 0.235761 0.235761
0.238277 0.238277 0.238277
0.241040 0.241040 0.241040
0.244050 0.244050 0.244050
0.247302 0.247302 0.247302
0.250794 0.250794 0.250794
0.254520 0.254520 0.254520
0.258474 0.258474 0.258474
0.262650 0.262650 0.262650
0.267042 0.267042 0.267042
0.271641 0.271641 0.271641
0.276441 0.276441 0.276441
0.281434 0.281434 0.281434
0.286612 0.286612 0.286612
0.291967 0.291967 0.291967
0.297491 0.297491 0.297491
0.303177 0.303177 0.303177
0.309017 0.309017 0.309017
0.315004 0.315004 0.315004
0.321130 0.321130 0.321130
0.327390 0.327390 0.327390
0.333775 0.333775 0.333775
0.340279 0.340279 0.340279
0.240428 0.240428 0.240428
0.240831 0.240831 0.240831
0.241286 0.241286 0.241286
0.241902 0.241902 0.241902
0.242690 0.242690 0.242690
0.243677 0.243677 0.243677
0.244874 0.244874 0.244874
0.246287 0.246287 0.246287
0.247924 0.247924 0.247924
0.249789 0.249789 0.249789
0.251885 0.251885 0.251885
0.254214 0.254214 0.254214
0.256777 0.256777 0.256777
0.259572 0.259572 0.259572
0.262599 0.262599 0.262599
0.265854 0.265854 0.265854
0.269334 0.269334 0.269334
0.273034 0.273034 0.273034
0.276950 0.276950 0.276950
0.281076 0.281076 0.281076
0.285406 0.285406 0.285406
0.289934 0.289934 0.289934
0.294653 0.294653 0.294653
0.299557 0.299557 0.299557
0.304638 0.304638 0.304638
0.309890 0.309890 0.309890
0.315306 0.315306 0.315306
0.320879 0.320879 0.320879
0.326602 0.326602 0.326602
0.332468 0.332468 0.332468
0.338471 0.338471 0.338471
0.344605 0.344605 0.344605
0.350864 0.350864 0.350864
0.257530 0.257530 0.257530
0.257902 0.257902 0.257902
0.258322 0.258322 0.258322
0.258890 0.258890 0.258890
0.259617 0.259617 0.259617
0.260529 0.260529 0.260529
0.261635 0.261635 0.261635
0.262942 0.262942 0.262942
0.264458 0.264458 0.264458
0.266186 0.266186 0.266186
0.268131 0.268131 0.268131
0.270295 0.270295 0.270295
0.272679 0.272679 0.272679
0.275283 0.275283 0.275283
0.278107 0.278107 0.278107
0.281148 0.281148 0.281148
0.284405 0.284405 0.284405
0.287875 0.287875 0.287875
0.291552 0.291552 0.291552
0.295434 0.295434 0.295434
0.299516 0.299516 0.299516
0.303791 0.303791 0.303791
0.308255 0.308255 0.308255
0.312901 0.312901 0.312901
0.317724 0.317724 0.317724
0.322718 0.322718 0.322718
0.327876 0.327876 0.327876
0.333193 0.333193 0.333193
0.338662 0.338662 0.338662
0.344277 0.344277 0.344277
0.350032 0.350032 0.350032
0.355921 0.355921 0.355921
0.361939 0.361939 0.361939
0.274632 0.274632 0.274632
0.274976 0.274976 0.274976
0.275365 0.275365 0.275365
0.275892 0.275892 0.275892
0.276566 0.276566 0.276566
0.277412 0.277412 0.277412
0.278438 0.278438 0.278438
0.279652 0.279652 0.279652
0.281061 0.281061 0.281061
0.282668 0.282668 0.282668
0.284479 0.284479 0.284479
0.286496 0.286496 0.286496
0.288720 0.288720 0.288720
0.291153 0.291153 0.291153
0.293794 0.293794 0.293794
0.296643 0.296643 0.296643
0.299698 0.299698 0.299698
0.302957 0.302957 0.302957
0.306417 0.306417 0.306417
0.310075 0.310075 0.310075
0.313926 0.313926 0.313926
0.317967 0.317967 0.317967
0.322193 0.322193 0.322193
0.326598 0.326598 0.326598
0.331179 0.331179 0.331179
0.335929 0.335929 0.335929
0.340843 0.340843 0.340843
0.345916 0.345916 0.345916
0.351142 0.351142 0.351142
0.356516 0.356516 0.356516
0.362032 0.362032 0.362032
0.367684 0.367684 0.367684
0.373468 0.373468 0.373468
0.291734 0.291734 0.291734
0.292054 0.292054 0.292054
0.292416 0.292416 0.292416
0.292906 0.292906 0.292906
0.293533 0.293533 0.293533
0.294321 0.294321 0.294321
0.295276 0.295276 0.295276
0.296408 0.296408 0.296408
0.297721 0.297721 0.297721
0.299222 0.299222 0.299222
0.300913 0.300913 0.300913
0.302798 0.302798 0.302798
0.304879 0.304879 0.304879
0.307158 0.307158 0.307158
0.309634 0.309634 0.309634
0.312309 0.312309 0.312309
0.315181 0.315181 0.315181
0.318248 0.318248 0.318248
0.321509 0.321509 0.321509
0.324960 0.324960 0.324960
0.328600 0.328600 0.328600
0.332424 0.332424 0.332424
0.336428 0.336428 0.336428
0.340609 0.340609 0.340609
0.344962 0.344962 0.344962
0.349483 0.349483 0.349483
0.354166 0.354166 0.354166
0.359008 0.359008 0.359008
0.364003 0.364003 0.364003
0.369145 0.369145 0.369145
0.374431 0.374431 0.374431
0.379855 0.379855 0.379855
0.385413 0.385413 0.385413
0.308836 0.308836 0.308836
0.309135 0.309135 0.309135
0.309472 0.309472 0.309472
0.309930 0.309930 0.309930
0.310516 0.310516 0.310516
0.311251 0.311251 0.311251
0.312145 0.312145 0.312145
0.313202 0.313202 0.313202
0.314431 0.314431 0.314431
0.315835 0.315835 0.315835
0.317419 0.317419 0.317419
0.319187 0.319187 0.319187
0.321139 0.321139 0.321139
0.323279 0.323279 0.323279
0.325607 0.325607 0.325607
0.328123 0.328123 0.328123
0.330828 0.330828 0.330828
0.333720 0.333720 0.333720
0.336798 0.336798 0.336798
0.340060 0.340060 0.340060
0.343504 0.343504 0.343504
0.347127 0.347127 0.347127
0.350926 0.350926 0.350926
0.354898 0.354898 0.354898
0.359038 0.359038 0.359038
0.363343 0.363343 0.363343
0.367809 0.367809 0.367809
0.372432 0.372432 0.372432
0.377207 0.377207 0.377207
0.382130 0.382130 0.382130
0.387196 0.387196 0.387196
0.392401 0.392401 0.392401
0.397740 0.397740 0.397740
0.325938 0.325938 0.325938
0.326218 0.326218 0.326218
0.326534 0.326534 0.326534
0.326962 0.326962 0.326962
0.327511 0.327511 0.327511
0.328200 0.328200 0.328200
0.329038 0.329038 0.329038
0.330030 0.330030 0.330030
0.331182 0.331182 0.331182
0.332501 0.332501 0.332501
0.333988 0.333988 0.333988
0.335649 0.335649 0.335649
0.337486 0.337486 0.337486
0.339500 0.339500 0.339500
0.341693 0.341693 0.341693
0.344065 0.344065 0.344065
0.346618 0.346618 0.346618
0.349350 0.349350 0.349350
0.352261 0.352261 0.352261
0.355349 0.355349 0.355349
0.358612 0.358612 0.358612
0.362049 0.362049 0.362049
0.365657 0.365657 0.365657
0.369433 0.369433 0.369433
0.373375 0.373375 0.373375
0.377478 0.377478 0.377478
0.381739 0.381739 0.381739
0.386155 0.386155 0.386155
0.390722 0.390722 0.390722
0.395436 0.395436 0.395436
0.400292 0.400292 0.400292
0.405287 0.405287 0.405287
0.410417 0.410417 0.410417
0.343040 0.343040 0.343040
0.343302 0.343302 0.343302
0.343599 0.343599 0.343599
0.344002 0.344002 0.344002
0.344518 0.344518 0.344518
0.345165 0.345165 0.345165
0.345952 0.345952 0.345952
0.346885 0.346885 0.346885
0.347970 0.347970 0.347970
0.349210 0.349210 0.349210
0.350611 0.350611 0.350611
0.352176 0.352176 0.352176
0.353907 0.353907 0.353907
0.355807 0.355807 0.355807
0.357877 0.357877 0.357877
0.360119 0.360119 0.360119
0.362532 0.362532 0.362532
0.365117 0.365117 0.365117
0.367874 0.367874 0.367874
0.370802 0.370802 0.370802
0.373899 0.373899 0.373899
0.377164 0.377164 0.377164
0.380595 0.380595 0.380595
0.384189 0.384189 0.384189
0.387944 0.387944 0.387944
0.391858 0.391858 0.391858
0.395927 0.395927 0.395927
0.400148 0.400148 0.400148
0.404518 0.404518 0.404518
0.409034 0.409034 0.409034
0.413691 0.413691 0.413691
0.418486 0.418486 0.418486
0.504717 0.504717 0.504717
0.360142 0.360142 0.360142
0.360389 0.360389 0.360389
0.360669 0.360669 0.360669
0.361048 0.361048 0.361048
0.361534 0.361534 0.361534
0.362144 0.362144 0.362144
0.362885 0.362885 0.362885
0.363765 0.363765 0.363765
0.364787 0.364787 0.364787
0.365958 0.365958 0.365958
0.367280 0.367280 0.367280
0.368757 0.368757 0.368757
0.370393 0.370393 0.370393
0.372189 0.372189 0.372189
0.374147 0.374147 0.374147
0.376269 0.376269 0.376269
0.378555 0.378555 0.378555
0.381006 0.381006 0.381006
0.383622 0.383622 0.383622
0.386401 0.386401 0.386401
0.389345 0.389345 0.389345
0.392450 0.392450 0.392450
0.395716 0.395716 0.395716
0.399141 0.399141 0.399141
0.402723 0.402723 0.402723
0.406459 0.406459 0.406459
0.410347 0.410347 0.410347
0.414385 0.414385 0.414385
0.418569 0.418569 0.418569
0.504000 0.504000 0.504000
0.510170 0.510170 0.510170
0.516529 0.516529 0.516529
0.523073 0.523073 0.523073
0.377244 0.377244 0.377244
0.377477 0.377477 0.377477
0.377741 0.377741 0.377741
0.378099 0.378099 0.378099
0.378558 0.378558 0.378558
0.379134 0.379134 0.379134
0.379835 0.379835 0.379835
0.380666 0.380666 0.380666
0.381632 0.381632 0.381632
0.382739 0.382739 0.382739
0.383989 0.383989 0.383989
0.385387 0.385387 0.385387
0.386936 0.386936 0.386936
0.388637 0.388637 0.388637
0.390493 0.390493 0.390493
0.392505 0.392505 0.392505
0.394674 0.394674 0.394674
0.397001 0.397001 0.397001
0.399487 0.399487 0.399487
0.402130 0.402130 0.402130
0.404930 0.404930 0.404930
0.407888 0.407888 0.407888
0.411001 0.411001 0.411001
0.414268 0.414268 0.414268
0.417687 0.417687 0.417687
0.501737 0.501737 0.501737
0.506872 0.506872 0.506872
0.512210 0.512210 0.512210
0.517745 0.517745 0.517745
0.523476 0.523476 0.523476
0.529398 0.529398 0.529398
0.535507 0.535507 0.535507
0.541799 0.541799 0.541799
0.394346 0.394346 0.394346
0.394566 0.394566 0.394566
0.394816 0.394816 0.394816
0.395155 0.395155 0.395155
0.395589 0.395589 0.395589
0.396135 0.396135 0.396135
0.396798 0.396798 0.396798
0.397585 0.397585 0.397585
0.398500 0.398500 0.398500
0.399548 0.399548 0.399548
0.400734 0.400734 0.400734
0.402059 0.402059 0.402059
0.403528 0.403528 0.403528
0.405142 0.405142 0.405142
0.406904 0.406904 0.406904
0.408816 0.408816 0.408816
0.410877 0.410877 0.410877
0.413091 0.413091 0.413091
0.415456 0.415456 0.415456
0.417973 0.417973 0.417973
0.500886 0.500886 0.500886
0.504780 0.504780 0.504780
0.508882 0.508882 0.508882
0.513190 0.513190 0.513190
0.517703 0.517703 0.517703
0.522419 0.522419 0.522419
0.527335 0.527335 0.527335
0.532448 0.532448 0.532448
0.537755 0.537755 0.537755
0.543254 0.543254 0.543254
0.548941 0.548941 0.548941
0.554813 0.554813 0.554813
0.560865 0.560865 0.560865
0.411447 0.411447 0.411447
0.411657 0.411657 0.411657
0.411894 0.411894 0.411894
0.412215 0.412215 0.412215
0.412627 0.412627 0.412627
0.413144 0.413144 0.413144
0.413773 0.413773 0.413773
0.414520 0.414520 0.414520
0.415389 0.415389 0.415389
0.416384 0.416384 0.416384
0.417509 0.417509 0.417509
0.418768 0.418768 0.418768
0.500226 0.500226 0.500226
0.502346 0.502346 0.502346
0.504660 0.504660 0.504660
0.507171 0.507171 0.507171
0.509882 0.509882 0.509882
0.512793 0.512793 0.512793
0.515905 0.515905 0.515905
0.519219 0.519219 0.519219
0.522735 0.522735 0.522735
0.526453 0.526453 0.526453
0.530372 0.530372 0.530372
0.534491 0.534491 0.534491
0.538808 0.538808 0.538808
0.543323 0.543323 0.543323
0.548032 0.548032 0.548032
0.552934 0.552934 0.552934
0.558026 0.558026 0.558026
0.563306 0.563306 0.563306
0.568771 0.568771 0.568771
0.574417 0.574417 0.574417
0.580242 0.580242 0.580242
0.511806 0.511806 0.511806
0.512081 0.512081 0.512081
0.512392 0.512392 0.512392
0.512813 0.512813 0.512813
0.513353 0.513353 0.513353
0.514032 0.514032 0.514032
0.514858 0.514858 0.514858
0.515838 0.515838 0.515838
0.516979 0.516979 0.516979
0.518286 0.518286 0.518286
0.519764 0.519764 0.519764
0.521419 0.521419 0.521419
0.523253 0.523253 0.523253
0.525271 0.525271 0.525271
0.527476 0.527476 0.527476
0.529869 0.529869 0.529869
0.532453 0.532453 0.532453
0.535229 0.535229 0.535229
0.538199 0.538199 0.538199
0.541364 0.541364 0.541364
0.544723 0.544723 0.544723
0.548277 0.548277 0.548277
0.552025 0.552025 0.552025
0.555967 0.555967 0.555967
