docs/luts/fuji_recipes/Acros_MT_Acros.cube
TITLE "Fujifilm Recipe: MT Acros (Acros)"
# FilmSim=Acros HL=-2 SH=0 Col=0 WB=Auto WBR=0 WBB=0
LUT_3D_SIZE 9
DOMAIN_MIN 0.0 0.0 0.0
DOMAIN_MAX 1.0 1.0 1.0
0.000000 0.000000 0.000000
0.039416 0.039416 0.039416
0.104999 0.104999 0.104999
0.170573 0.170573 0.170573
0.236146 0.236146 0.236146
0.301720 0.301720 0.301720
0.367293 0.367293 0.367293
0.432866 0.432866 0.432866
0.498440 0.498440 0.498440
0.101537 0.101537 0.101537
0.119466 0.119466 0.119466
0.156280 0.156280 0.156280
0.205761 0.205761 0.205761
0.261894 0.261894 0.261894
0.321532 0.321532 0.321532
0.383131 0.383131 0.383131
0.445903 0.445903 0.445903
0.508289 0.508289 0.508289
0.210243 0.210243 0.210243
0.219293 0.219293 0.219293
0.240624 0.240624 0.240624
0.274074 0.274074 0.274074
0.316908 0.316908 0.316908
0.366328 0.366328 0.366328
0.420209 0.420209 0.420209
0.477112 0.477112 0.477112
0.531766 0.531766 0.531766
0.318950 0.318950 0.318950
0.324618 0.324618 0.324618
0.338538 0.338538 0.338538
0.361781 0.361781 0.361781
0.393677 0.393677 0.393677
0.432853 0.432853 0.432853
0.477797 0.477797 0.477797
0.523907 0.523907 0.523907
0.570302 0.570302 0.570302
0.427656 0.427656 0.427656
0.431641 0.431641 0.431641
0.441583 0.441583 0.441583
0.458654 0.458654 0.458654
0.482938 0.482938 0.482938
0.512271 0.512271 0.512271
0.544755 0.544755 0.544755
0.581628 0.581628 0.581628
0.622113 0.622113 0.622113
0.531999 0.531999 0.531999
0.534643 0.534643 0.534643
0.541292 0.541292 0.541292
0.552867 0.552867 0.552867
0.569659 0.569659 0.569659
0.591604 0.591604 0.591604
0.618383 0.618383 0.618383
0.649525 0.649525 0.649525
0.684492 0.684492 0.684492
0.627660 0.627660 0.627660
0.629751 0.629751 0.629751
0.635028 0.635028 0.635028
0.644287 0.644287 0.644287
0.657873 0.657873 0.657873
0.675884 0.675884 0.675884
0.698222 0.698222 0.698222
0.724647 0.724647 0.724647
0.754826 0.754826 0.754826
0.723322 0.723322 0.723322
0.725031 0.725031 0.725031
0.729356 0.729356 0.729356
0.736980 0.736980 0.736980
0.748246 0.748246 0.748246
0.763318 0.763318 0.763318
0.782216 0.782216 0.782216
0.804841 0.804841 0.804841
0.831004 0.831004 0.831004
0.818984 0.818984 0.818984
0.820417 0.820417 0.820417
0.824049 0.824049 0.824049
0.830471 0.830471 0.830471
0.840004 0.840004 0.840004
0.852836 0.852836 0.852836
0.869046 0.869046 0.869046
0.888617 0.888617 0.888617
0.911459 0.911459 0.911459
0.013386 0.013386 0.013386
0.051659 0.051659 0.051659
0.111215 0.111215 0.111215
0.174473 0.174473 0.174473
0.238890 0.238890 0.238890
0.303790 0.303790 0.303790
0.368930 0.368930 0.368930
0.434205 0.434205 0.434205
0.499562 0.499562 0.499562
0.107937 0.107937 0.107937
0.125000 0.125000 0.125000
0.160547 0.160547 0.160547
0.208956 0.208956 0.208956
0.264333 0.264333 0.264333
0.323452 0.323452 0.323452
0.384686 0.384686 0.384686
0.447193 0.447193 0.447193
0.509250 0.509250 0.509250
0.213365 0.213365 0.213365
0.222272 0.222272 0.222272
0.243310 0.243310 0.243310
0.276389 0.276389 0.276389
0.318862 0.318862 0.318862
0.367970 0.367970 0.367970
0.421597 0.421597 0.421597
0.478298 0.478298 0.478298
0.532667 0.532667 0.532667
0.320888 0.320888 0.320888
0.326517 0.326517 0.326517
0.340343 0.340343 0.340343
0.363448 0.363448 0.363448
0.395181 0.395181 0.395181
0.434191 0.434191 0.434191
0.478980 0.478980 0.478980
0.524827 0.524827 0.524827
0.571117 0.571117 0.571117
0.429014 0.429014 0.429014
0.432984 0.432984 0.432984
0.442889 0.442889 0.442889
0.459899 0.459899 0.459899
0.484106 0.484106 0.484106
0.513221 0.513221 0.513221
0.545625 0.545625 0.545625
0.582421 0.582421 0.582421
0.622833 0.622833 0.622833
0.532899 0.532899 0.532899
0.535537 0.535537 0.535537
0.542170 0.542170 0.542170
0.553719 0.553719 0.553719
0.570475 0.570475 0.570475
0.592378 0.592378 0.592378
0.619109 0.619109 0.619109
0.650202 0.650202 0.650202
0.685121 0.685121 0.685121
0.628372 0.628372 0.628372
0.630459 0.630459 0.630459
0.635728 0.635728 0.635728
0.644972 0.644972 0.644972
0.658538 0.658538 0.658538
0.676524 0.676524 0.676524
0.698833 0.698833 0.698833
0.725227 0.725227 0.725227
0.755373 0.755373 0.755373
0.723903 0.723903 0.723903
0.725610 0.725610 0.725610
0.729931 0.729931 0.729931
0.737546 0.737546 0.737546
0.748800 0.748800 0.748800
0.763857 0.763857 0.763857
0.782736 0.782736 0.782736
0.805340 0.805340 0.805340
0.831481 0.831481 0.831481
0.819471 0.819471 0.819471
0.820903 0.820903 0.820903
0.824532 0.824532 0.824532
0.830948 0.830948 0.830948
0.840473 0.840473 0.840473
0.853296 0.853296 0.853296
0.869493 0.869493 0.869493
0.889051 0.889051 0.889051
0.911878 0.911878 0.911878
0.047021 0.047021 0.047021
0.076250 0.076250 0.076250
0.125728 0.125728 0.125728
0.184006 0.184006 0.184006
0.245717 0.245717 0.245717
0.308984 0.308984 0.308984
0.373056 0.373056 0.373056
0.437588 0.437588 0.437588
0.502116 0.502116 0.502116
0.122820 0.122820 0.122820
0.138109 0.138109 0.138109
0.170906 0.170906 0.170906
0.216855 0.216855 0.216855
0.270429 0.270429 0.270429
0.328278 0.328278 0.328278
0.388609 0.388609 0.388609
0.450456 0.450456 0.450456
0.511684 0.511684 0.511684
0.221088 0.221088 0.221088
0.229662 0.229662 0.229662
0.250000 0.250000 0.250000
0.282183 0.282183 0.282183
0.323770 0.323770 0.323770
0.372109 0.372109 0.372109
0.425106 0.425106 0.425106
0.481299 0.481299 0.481299
0.534950 0.534950 0.534950
0.325760 0.325760 0.325760
0.331290 0.331290 0.331290
0.344888 0.344888 0.344888
0.367649 0.367649 0.367649
0.398978 0.398978 0.398978
0.437575 0.437575 0.437575
0.481976 0.481976 0.481976
0.527158 0.527158 0.527158
0.573184 0.573184 0.573184
0.432448 0.432448 0.432448
0.436379 0.436379 0.436379
0.446190 0.446190 0.446190
0.463050 0.463050 0.463050
0.487062 0.487062 0.487062
0.515628 0.515628 0.515628
0.547831 0.547831 0.547831
0.584431 0.584431 0.584431
0.624661 0.624661 0.624661
0.535181 0.535181 0.535181
0.537803 0.537803 0.537803
0.544396 0.544396 0.544396
0.555879 0.555879 0.555879
0.572546 0.572546 0.572546
0.594340 0.594340 0.594340
0.620952 0.620952 0.620952
0.651921 0.651921 0.651921
0.686717 0.686717 0.686717
0.630176 0.630176 0.630176
0.632255 0.632255 0.632255
0.637503 0.637503 0.637503
0.646711 0.646711 0.646711
0.660227 0.660227 0.660227
0.678149 0.678149 0.678149
0.700385 0.700385 0.700385
0.726699 0.726699 0.726699
0.756762 0.756762 0.756762
0.725379 0.725379 0.725379
0.727082 0.727082 0.727082
0.731389 0.731389 0.731389
0.738984 0.738984 0.738984
0.750207 0.750207 0.750207
0.765224 0.765224 0.765224
0.784057 0.784057 0.784057
0.806609 0.806609 0.806609
0.832694 0.832694 0.832694
0.820709 0.820709 0.820709
0.822138 0.822138 0.822138
0.825759 0.825759 0.825759
0.832162 0.832162 0.832162
0.841668 0.841668 0.841668
0.854465 0.854465 0.854465
0.870632 0.870632 0.870632
0.890154 0.890154 0.890154
0.912942 0.912942 0.912942
0.088833 0.088833 0.088833
0.108704 0.108704 0.108704
0.148185 0.148185 0.148185
0.199796 0.199796 0.199796
0.257382 0.257382 0.257382
0.318000 0.318000 0.318000
0.380280 0.380280 0.380280
0.443542 0.443542 0.443542
0.506532 0.506532 0.506532
0.145724 0.145724 0.145724
0.158810 0.158810 0.158810
0.187888 0.187888 0.187888
0.230194 0.230194 0.230194
0.280920 0.280920 0.280920
0.336681 0.336681 0.336681
0.395487 0.395487 0.395487
0.456202 0.456202 0.456202
0.515984 0.515984 0.515984
0.234158 0.234158 0.234158
0.242212 0.242212 0.242212
0.261446 0.261446 0.261446
0.292183 0.292183 0.292183
0.332310 0.332310 0.332310
0.379355 0.379355 0.379355
0.431274 0.431274 0.431274
0.486593 0.486593 0.486593
0.538987 0.538987 0.538987
0.334239 0.334239 0.334239
0.339604 0.339604 0.339604
0.352818 0.352818 0.352818
0.375000 0.375000 0.375000
0.405641 0.405641 0.405641
0.443529 0.443529 0.443529
0.487261 0.487261 0.487261
0.531281 0.531281 0.531281
0.576845 0.576845 0.576845
0.438490 0.438490 0.438490
0.442354 0.442354 0.442354
0.452004 0.452004 0.452004
0.468604 0.468604 0.468604
0.492279 0.492279 0.492279
0.519882 0.519882 0.519882
0.551735 0.551735 0.551735
0.587993 0.587993 0.587993
0.627902 0.627902 0.627902
0.539216 0.539216 0.539216
0.541810 0.541810 0.541810
0.548335 0.548335 0.548335
0.559703 0.559703 0.559703
0.576213 0.576213 0.576213
0.597818 0.597818 0.597818
0.624221 0.624221 0.624221
0.654971 0.654971 0.654971
0.689551 0.689551 0.689551
0.633377 0.633377 0.633377
0.635441 0.635441 0.635441
0.640651 0.640651 0.640651
0.649797 0.649797 0.649797
0.663223 0.663223 0.663223
0.681033 0.681033 0.681033
0.703141 0.703141 0.703141
0.729314 0.729314 0.729314
0.759232 0.759232 0.759232
0.728001 0.728001 0.728001
0.729695 0.729695 0.729695
0.733981 0.733981 0.733981
0.741537 0.741537 0.741537
0.752707 0.752707 0.752707
0.767655 0.767655 0.767655
0.786406 0.786406 0.786406
0.808865 0.808865 0.808865
0.834851 0.834851 0.834851
0.822910 0.822910 0.822910
0.824334 0.824334 0.824334
0.827942 0.827942 0.827942
0.834321 0.834321 0.834321
0.843792 0.843792 0.843792
0.856544 0.856544 0.856544
0.872657 0.872657 0.872657
0.892117 0.892117 0.892117
0.914835 0.914835 0.914835
0.130645 0.130645 0.130645
0.145118 0.145118 0.145118
0.176576 0.176576 0.176576
0.221258 0.221258 0.221258
0.273865 0.273865 0.273865
0.331018 0.331018 0.331018
0.390844 0.390844 0.390844
0.452320 0.452320 0.452320
0.513077 0.513077 0.513077
0.174532 0.174532 0.174532
0.185508 0.185508 0.185508
0.210688 0.210688 0.210688
0.248762 0.248762 0.248762
0.295893 0.295893 0.295893
0.348870 0.348870 0.348870
0.405569 0.405569 0.405569
0.464682 0.464682 0.464682
0.522359 0.522359 0.522359
0.252395 0.252395 0.252395
0.259807 0.259807 0.259807
0.277651 0.277651 0.277651
0.306513 0.306513 0.306513
0.344685 0.344685 0.344685
0.389950 0.389950 0.389950
0.440356 0.440356 0.440356
0.494427 0.494427 0.494427
0.544982 0.544982 0.544982
0.346531 0.346531 0.346531
0.351671 0.351671 0.351671
0.364359 0.364359 0.364359
0.385741 0.385741 0.385741
0.415421 0.415421 0.415421
0.452307 0.452307 0.452307
0.495081 0.495081 0.495081
0.537399 0.537399 0.537399
0.582292 0.582292 0.582292
0.447390 0.447390 0.447390
0.451159 0.451159 0.451159
0.460581 0.460581 0.460581
0.476810 0.476810 0.476810
0.500000 0.500000 0.500000
0.526190 0.526190 0.526190
0.557535 0.557535 0.557535
0.593294 0.593294 0.593294
0.632734 0.632734 0.632734
0.545207 0.545207 0.545207
0.547761 0.547761 0.547761
0.554186 0.554186 0.554186
0.565387 0.565387 0.565387
0.581668 0.581668 0.581668
0.602997 0.602997 0.602997
0.629093 0.629093 0.629093
0.659524 0.659524 0.659524
0.693784 0.693784 0.693784
0.638150 0.638150 0.638150
0.640192 0.640192 0.640192
0.645348 0.645348 0.645348
0.654400 0.654400 0.654400
0.667695 0.667695 0.667695
0.685342 0.685342 0.685342
0.707259 0.707259 0.707259
0.733225 0.733225 0.733225
0.762926 0.762926 0.762926
0.731922 0.731922 0.731922
0.733603 0.733603 0.733603
0.737856 0.737856 0.737856
0.745357 0.745357 0.745357
0.756446 0.756446 0.756446
0.771293 0.771293 0.771293
0.789921 0.789921 0.789921
0.812243 0.812243 0.812243
0.838081 0.838081 0.838081
0.826207 0.826207 0.826207
0.827623 0.827623 0.827623
0.831210 0.831210 0.831210
0.837554 0.837554 0.837554
0.846975 0.846975 0.846975
0.859660 0.859660 0.859660
0.875691 0.875691 0.875691
0.895058 0.895058 0.895058
0.917674 0.917674 0.917674
0.172457 0.172457 0.172457
0.183566 0.183566 0.183566
0.209000 0.209000 0.209000
0.247365 0.247365 0.247365
0.294753 0.294753 0.294753
0.347934 0.347934 0.347934
0.404791 0.404791 0.404791
0.464025 0.464025 0.464025
0.521864 0.521864 0.521864
0.207301 0.207301 0.207301
0.216487 0.216487 0.216487
0.238101 0.238101 0.238101
0.271905 0.271905 0.271905
0.315083 0.315083 0.315083
0.364797 0.364797 0.364797
0.418916 0.418916 0.418916
0.476009 0.476009 0.476009
0.530928 0.530928 0.530928
0.275188 0.275188 0.275188
0.281911 0.281911 0.281911
0.298229 0.298229 0.298229
0.324965 0.324965 0.324965
0.360835 0.360835 0.360835
0.403934 0.403934 0.403934
0.452448 0.452448 0.452448
0.504333 0.504333 0.504333
0.553056 0.553056 0.553056
0.362582 0.362582 0.362582
0.367451 0.367451 0.367451
0.379503 0.379503 0.379503
0.399906 0.399906 0.399906
0.428391 0.428391 0.428391
0.464013 0.464013 0.464013
0.504894 0.504894 0.504894
0.545633 0.545633 0.545633
0.589648 0.589648 0.589648
0.459252 0.459252 0.459252
0.462901 0.462901 0.462901
0.472031 0.472031 0.472031
0.487786 0.487786 0.487786
0.509111 0.509111 0.509111
0.534672 0.534672 0.534672
0.565355 0.565355 0.565355
0.600459 0.600459 0.600459
0.639278 0.639278 0.639278
0.553276 0.553276 0.553276
0.555777 0.555777 0.555777
0.562072 0.562072 0.562072
0.573054 0.573054 0.573054
0.589036 0.589036 0.589036
0.610000 0.610000 0.610000
0.635691 0.635691 0.635691
0.665697 0.665697 0.665697
0.699531 0.699531 0.699531
0.644616 0.644616 0.644616
0.646629 0.646629 0.646629
0.651713 0.651713 0.651713
0.660641 0.660641 0.660641
0.673762 0.673762 0.673762
0.691189 0.691189 0.691189
0.712853 0.712853 0.712853
0.738541 0.738541 0.738541
0.767953 0.767953 0.767953
0.737252 0.737252 0.737252
0.738915 0.738915 0.738915
0.743126 0.743126 0.743126
0.750552 0.750552 0.750552
0.761534 0.761534 0.761534
0.776243 0.776243 0.776243
0.794708 0.794708 0.794708
0.816845 0.816845 0.816845
0.842484 0.842484 0.842484
0.830700 0.830700 0.830700
0.832105 0.832105 0.832105
0.835665 0.835665 0.835665
0.841962 0.841962 0.841962
0.851313 0.851313 0.851313
0.863908 0.863908 0.863908
0.879830 0.879830 0.879830
0.899071 0.899071 0.899071
0.921548 0.921548 0.921548
0.214269 0.214269 0.214269
0.223137 0.223137 0.223137
0.244091 0.244091 0.244091
0.277063 0.277063 0.277063
0.319431 0.319431 0.319431
0.368449 0.368449 0.368449
0.422003 0.422003 0.422003
0.478644 0.478644 0.478644
0.532930 0.532930 0.532930
0.242665 0.242665 0.242665
0.250409 0.250409 0.250409
0.268973 0.268973 0.268973
0.298816 0.298816 0.298816
0.338018 0.338018 0.338018
0.384229 0.384229 0.384229
0.435444 0.435444 0.435444
0.490184 0.490184 0.490184
0.541731 0.541731 0.541731
0.301758 0.301758 0.301758
0.307806 0.307806 0.307806
0.322594 0.322594 0.322594
0.347124 0.347124 0.347124
0.380513 0.380513 0.380513
0.421189 0.421189 0.421189
0.467521 0.467521 0.467521
0.515940 0.515940 0.515940
0.563260 0.563260 0.563260
0.382151 0.382151 0.382151
0.386722 0.386722 0.386722
0.398066 0.398066 0.398066
0.417366 0.417366 0.417366
0.444484 0.444484 0.444484
0.478633 0.478633 0.478633
0.516483 0.516483 0.516483
0.556032 0.556032 0.556032
0.598977 0.598977 0.598977
0.474056 0.474056 0.474056
0.477564 0.477564 0.477564
0.486351 0.486351 0.486351
0.501359 0.501359 0.501359
0.520566 0.520566 0.520566
0.545369 0.545369 0.545369
0.575250 0.575250 0.575250
0.609554 0.609554 0.609554
0.647607 0.647607 0.647607
0.563474 0.563474 0.563474
0.565911 0.565911 0.565911
0.572048 0.572048 0.572048
0.582764 0.582764 0.582764
0.598378 0.598378 0.598378
0.618896 0.618896 0.618896
0.644086 0.644086 0.644086
0.673566 0.673566 0.673566
0.706871 0.706871 0.706871
0.652849 0.652849 0.652849
0.654826 0.654826 0.654826
0.659820 0.659820 0.659820
0.668595 0.668595 0.668595
0.681499 0.681499 0.681499
0.698654 0.698654 0.698654
0.720000 0.720000 0.720000
0.745342 0.745342 0.745342
0.774390 0.774390 0.774390
0.744069 0.744069 0.744069
0.745711 0.745711 0.745711
0.749868 0.749868 0.749868
0.757200 0.757200 0.757200
0.768048 0.768048 0.768048
0.782583 0.782583 0.782583
0.800842 0.800842 0.800842
0.822747 0.822747 0.822747
0.848134 0.848134 0.848134
0.836463 0.836463 0.836463
0.837854 0.837854 0.837854
0.841380 0.841380 0.841380
0.847616 0.847616 0.847616
0.856880 0.856880 0.856880
0.869362 0.869362 0.869362
0.885145 0.885145 0.885145
0.904227 0.904227 0.904227
0.926528 0.926528 0.926528
0.256081 0.256081 0.256081
0.263374 0.263374 0.263374
0.280955 0.280955 0.280955
0.309458 0.309458 0.309458
0.347246 0.347246 0.347246
0.392157 0.392157 0.392157
0.442257 0.442257 0.442257
0.496071 0.496071 0.496071
0.546244 0.546244 0.546244
0.279745 0.279745 0.279745
0.286344 0.286344 0.286344
0.302382 0.302382 0.302382
0.328719 0.328719 0.328719
0.364148 0.364148 0.364148
0.406824 0.406824 0.406824
0.454961 0.454961 0.454961
0.506261 0.506261 0.506261
0.554746 0.554746 0.554746
0.331348 0.331348 0.331348
0.336768 0.336768 0.336768
0.350111 0.350111 0.350111
0.372488 0.372488 0.372488
0.403361 0.403361 0.403361
0.441490 0.441490 0.441490
0.485449 0.485449 0.485449
0.529866 0.529866 0.529866
0.575588 0.575588 0.575588
0.404887 0.404887 0.404887
0.409148 0.409148 0.409148
0.419754 0.419754 0.419754
0.437885 0.437885 0.437885
0.463530 0.463530 0.463530
0.496060 0.496060 0.496060
0.530389 0.530389 0.530389
0.568583 0.568583 0.568583
0.610293 0.610293 0.610293
0.491686 0.491686 0.491686
0.495039 0.495039 0.495039
0.503031 0.503031 0.503031
0.515849 0.515849 0.515849
0.534321 0.534321 0.534321
0.558264 0.558264 0.558264
0.587221 0.587221 0.587221
0.620596 0.620596 0.620596
0.657754 0.657754 0.657754
0.575796 0.575796 0.575796
0.578159 0.578159 0.578159
0.584113 0.584113 0.584113
0.594521 0.594521 0.594521
0.609709 0.609709 0.609709
0.629706 0.629706 0.629706
0.654310 0.654310 0.654310
0.683169 0.683169 0.683169
0.715847 0.715847 0.715847
0.662882 0.662882 0.662882
0.664816 0.664816 0.664816
0.669705 0.669705 0.669705
0.678299 0.678299 0.678299
0.690946 0.690946 0.690946
0.707777 0.707777 0.707777
0.728747 0.728747 0.728747
0.753675 0.753675 0.753675
0.782288 0.782288 0.782288
0.752422 0.752422 0.752422
0.754038 0.754038 0.754038
0.758130 0.758130 0.758130
0.765350 0.765350 0.765350
0.776037 0.776037 0.776037
0.790365 0.790365 0.790365
0.808375 0.808375 0.808375
0.830000 0.830000 0.830000
0.855085 0.855085 0.855085
0.843550 0.843550 0.843550
0.844924 0.844924 0.844924
0.848409 0.848409 0.848409
0.854573 0.854573 0.854573
0.863731 0.863731 0.863731
0.876075 0.876075 0.876075
0.891691 0.891691 0.891691
0.910579 0.910579 0.910579
0.932666 0.932666 0.932666
0.297893 0.297893 0.297893
0.304031 0.304031 0.304031
0.319028 0.319028 0.319028
0.343861 0.343861 0.343861
0.377597 0.377597 0.377597
0.418619 0.418619 0.418619
0.465266 0.465266 0.465266
0.514197 0.514197 0.514197
0.561723 0.561723 0.561723
0.317987 0.317987 0.317987
0.323676 0.323676 0.323676
0.337642 0.337642 0.337642
0.360954 0.360954 0.360954
0.392932 0.392932 0.392932
0.432190 0.432190 0.432190
0.477211 0.477211 0.477211
0.523451 0.523451 0.523451
0.569898 0.569898 0.569898
0.363304 0.363304 0.363304
0.368162 0.368162 0.368162
0.380186 0.380186 0.380186
0.400546 0.400546 0.400546
0.428980 0.428980 0.428980
0.464545 0.464545 0.464545
0.505316 0.505316 0.505316
0.546010 0.546010 0.546010
0.589985 0.589985 0.589985
0.430394 0.430394 0.430394
0.434348 0.434348 0.434348
0.444215 0.444215 0.444215
0.461165 0.461165 0.461165
0.485293 0.485293 0.485293
0.514187 0.514187 0.514187
0.546511 0.546511 0.546511
0.583227 0.583227 0.583227
0.623566 0.623566 0.623566
0.510528 0.510528 0.510528
0.513332 0.513332 0.513332
0.520373 0.520373 0.520373
0.532601 0.532601 0.532601
0.550279 0.550279 0.550279
0.573284 0.573284 0.573284
0.601225 0.601225 0.601225
0.633565 0.633565 0.633565
0.669713 0.669713 0.669713
0.590186 0.590186 0.590186
0.592468 0.592468 0.592468
0.598220 0.598220 0.598220
0.608286 0.608286 0.608286
0.623001 0.623001 0.623001
0.642414 0.642414 0.642414
0.666358 0.666358 0.666358
0.694512 0.694512 0.694512
0.726473 0.726473 0.726473
0.674712 0.674712 0.674712
0.676599 0.676599 0.676599
0.681368 0.681368 0.681368
0.689756 0.689756 0.689756
0.702112 0.702112 0.702112
0.718574 0.718574 0.718574
0.739112 0.739112 0.739112
0.763563 0.763563 0.763563
0.791673 0.791673 0.791673
0.762333 0.762333 0.762333
0.763920 0.763920 0.763920
0.767937 0.767937 0.767937
0.775028 0.775028 0.775028
0.785529 0.785529 0.785529
0.799616 0.799616 0.799616
0.817340 0.817340 0.817340
0.838638 0.838638 0.838638
0.863370 0.863370 0.863370
0.851995 0.851995 0.851995
0.853350 0.853350 0.853350
0.856785 0.856785 0.856785
0.862865 0.862865 0.862865
0.871900 0.871900 0.871900
0.884083 0.884083 0.884083
0.899502 0.899502 0.899502
0.918164 0.918164 0.918164
0.940000 0.940000 0.940000
