docs/luts/fuji_recipes/AcrosY_BLP_Kodak_Panatomic.cube
TITLE "Fujifilm Recipe: BLP Kodak Panatomic (AcrosY)"
# FilmSim=AcrosY HL=3 SH=3 Col=0 WB=Auto WBR=0 WBB=0
LUT_3D_SIZE 33
DOMAIN_MIN 0.0 0.0 0.0
DOMAIN_MAX 1.0 1.0 1.0
0.000000 0.000000 0.000000
0.005023 0.005023 0.005023
0.010707 0.010707 0.010707
0.018857 0.018857 0.018857
0.029802 0.029802 0.029802
0.043145 0.043145 0.043145
0.056687 0.056687 0.056687
0.070229 0.070229 0.070229
0.083771 0.083771 0.083771
0.097313 0.097313 0.097313
0.110855 0.110855 0.110855
0.124397 0.124397 0.124397
0.137939 0.137939 0.137939
0.151481 0.151481 0.151481
0.165023 0.165023 0.165023
0.178565 0.178565 0.178565
0.192107 0.192107 0.192107
0.205650 0.205650 0.205650
0.219192 0.219192 0.219192
0.232734 0.232734 0.232734
0.246276 0.246276 0.246276
0.259818 0.259818 0.259818
0.273360 0.273360 0.273360
0.286902 0.286902 0.286902
0.300444 0.300444 0.300444
0.313986 0.313986 0.313986
0.327528 0.327528 0.327528
0.341070 0.341070 0.341070
0.354613 0.354613 0.354613
0.368155 0.368155 0.368155
0.381697 0.381697 0.381697
0.395239 0.395239 0.395239
0.408781 0.408781 0.408781
0.016272 0.016272 0.016272
0.021296 0.021296 0.021296
0.026980 0.026980 0.026980
0.035130 0.035130 0.035130
0.045129 0.045129 0.045129
0.056034 0.056034 0.056034
0.067578 0.067578 0.067578
0.079575 0.079575 0.079575
0.091899 0.091899 0.091899
0.104464 0.104464 0.104464
0.117210 0.117210 0.117210
0.130093 0.130093 0.130093
0.143083 0.143083 0.143083
0.156158 0.156158 0.156158
0.169300 0.169300 0.169300
0.182496 0.182496 0.182496
0.195738 0.195738 0.195738
0.209016 0.209016 0.209016
0.222325 0.222325 0.222325
0.235661 0.235661 0.235661
0.249018 0.249018 0.249018
0.262395 0.262395 0.262395
0.275788 0.275788 0.275788
0.289195 0.289195 0.289195
0.302614 0.302614 0.302614
0.316045 0.316045 0.316045
0.329484 0.329484 0.329484
0.342932 0.342932 0.342932
0.356388 0.356388 0.356388
0.369850 0.369850 0.369850
0.383318 0.383318 0.383318
0.396792 0.396792 0.396792
0.410270 0.410270 0.410270
0.034686 0.034686 0.034686
0.039511 0.039511 0.039511
0.044551 0.044551 0.044551
0.051171 0.051171 0.051171
0.059194 0.059194 0.059194
0.068348 0.068348 0.068348
0.078388 0.078388 0.078388
0.089113 0.089113 0.089113
0.100367 0.100367 0.100367
0.112030 0.112030 0.112030
0.124012 0.124012 0.124012
0.136246 0.136246 0.136246
0.148680 0.148680 0.148680
0.161275 0.161275 0.161275
0.174001 0.174001 0.174001
0.186834 0.186834 0.186834
0.199756 0.199756 0.199756
0.212752 0.212752 0.212752
0.225811 0.225811 0.225811
0.238923 0.238923 0.238923
0.252080 0.252080 0.252080
0.265275 0.265275 0.265275
0.278505 0.278505 0.278505
0.291763 0.291763 0.291763
0.305048 0.305048 0.305048
0.318354 0.318354 0.318354
0.331680 0.331680 0.331680
0.345024 0.345024 0.345024
0.358384 0.358384 0.358384
0.371757 0.371757 0.371757
0.385143 0.385143 0.385143
0.398540 0.398540 0.398540
0.411947 0.411947 0.411947
0.056794 0.056794 0.056794
0.060315 0.060315 0.060315
0.064116 0.064116 0.064116
0.069272 0.069272 0.069272
0.075734 0.075734 0.075734
0.083348 0.083348 0.083348
0.091945 0.091945 0.091945
0.101360 0.101360 0.101360
0.111445 0.111445 0.111445
0.122077 0.122077 0.122077
0.133155 0.133155 0.133155
0.144597 0.144597 0.144597
0.156336 0.156336 0.156336
0.168321 0.168321 0.168321
0.180508 0.180508 0.180508
0.192865 0.192865 0.192865
0.205364 0.205364 0.205364
0.217983 0.217983 0.217983
0.230704 0.230704 0.230704
0.243512 0.243512 0.243512
0.256394 0.256394 0.256394
0.269342 0.269342 0.269342
0.282346 0.282346 0.282346
0.295400 0.295400 0.295400
0.308496 0.308496 0.308496
0.321631 0.321631 0.321631
0.334799 0.334799 0.334799
0.347997 0.347997 0.347997
0.361222 0.361222 0.361222
0.374470 0.374470 0.374470
0.387741 0.387741 0.387741
0.401030 0.401030 0.401030
0.414337 0.414337 0.414337
0.078893 0.078893 0.078893
0.081612 0.081612 0.081612
0.084596 0.084596 0.084596
0.088717 0.088717 0.088717
0.093993 0.093993 0.093993
0.100349 0.100349 0.100349
0.107682 0.107682 0.107682
0.115876 0.115876 0.115876
0.124814 0.124814 0.124814
0.134389 0.134389 0.134389
0.144503 0.144503 0.144503
0.155073 0.155073 0.155073
0.166027 0.166027 0.166027
0.177306 0.177306 0.177306
0.188859 0.188859 0.188859
0.200646 0.200646 0.200646
0.212632 0.212632 0.212632
0.224788 0.224788 0.224788
0.237090 0.237090 0.237090
0.249519 0.249519 0.249519
0.262057 0.262057 0.262057
0.274691 0.274691 0.274691
0.287408 0.287408 0.287408
0.300199 0.300199 0.300199
0.313055 0.313055 0.313055
0.325968 0.325968 0.325968
0.338931 0.338931 0.338931
0.351940 0.351940 0.351940
0.364990 0.364990 0.364990
0.378076 0.378076 0.378076
0.391195 0.391195 0.391195
0.404344 0.404344 0.404344
0.417519 0.417519 0.417519
0.100993 0.100993 0.100993
0.103176 0.103176 0.103176
0.105595 0.105595 0.105595
0.108972 0.108972 0.108972
0.113354 0.113354 0.113354
0.118714 0.118714 0.118714
0.124994 0.124994 0.124994
0.132122 0.132122 0.132122
0.140012 0.140012 0.140012
0.148581 0.148581 0.148581
0.157745 0.157745 0.157745
0.167428 0.167428 0.167428
0.177562 0.177562 0.177562
0.188086 0.188086 0.188086
0.198949 0.198949 0.198949
0.210103 0.210103 0.210103
0.221510 0.221510 0.221510
0.233138 0.233138 0.233138
0.244957 0.244957 0.244957
0.256944 0.256944 0.256944
0.269077 0.269077 0.269077
0.281339 0.281339 0.281339
0.293715 0.293715 0.293715
0.306191 0.306191 0.306191
0.318755 0.318755 0.318755
0.331400 0.331400 0.331400
0.344115 0.344115 0.344115
0.356893 0.356893 0.356893
0.369728 0.369728 0.369728
0.382615 0.382615 0.382615
0.395547 0.395547 0.395547
0.408522 0.408522 0.408522
0.421534 0.421534 0.421534
0.123092 0.123092 0.123092
0.124897 0.124897 0.124897
0.126908 0.126908 0.126908
0.129737 0.129737 0.129737
0.133439 0.133439 0.133439
0.138013 0.138013 0.138013
0.143435 0.143435 0.143435
0.149659 0.149659 0.149659
0.156630 0.156630 0.156630
0.164285 0.164285 0.164285
0.172559 0.172559 0.172559
0.181388 0.181388 0.181388
0.190711 0.190711 0.190711
0.200473 0.200473 0.200473
0.210622 0.210622 0.210622
0.221112 0.221112 0.221112
0.231903 0.231903 0.231903
0.242959 0.242959 0.242959
0.254249 0.254249 0.254249
0.265747 0.265747 0.265747
0.277427 0.277427 0.277427
0.289270 0.289270 0.289270
0.301257 0.301257 0.301257
0.313373 0.313373 0.313373
0.325604 0.325604 0.325604
0.337937 0.337937 0.337937
0.350363 0.350363 0.350363
0.362873 0.362873 0.362873
0.375457 0.375457 0.375457
0.388108 0.388108 0.388108
0.400821 0.400821 0.400821
0.413590 0.413590 0.413590
0.426410 0.426410 0.426410
0.145192 0.145192 0.145192
0.146718 0.146718 0.146718
0.148425 0.148425 0.148425
0.150837 0.150837 0.150837
0.154012 0.154012 0.154012
0.157965 0.157965 0.157965
0.162687 0.162687 0.162687
0.168156 0.168156 0.168156
0.174336 0.174336 0.174336
0.181184 0.181184 0.181184
0.188651 0.188651 0.188651
0.196686 0.196686 0.196686
0.205238 0.205238 0.205238
0.214259 0.214259 0.214259
0.223701 0.223701 0.223701
0.233522 0.233522 0.233522
0.243682 0.243682 0.243682
0.254145 0.254145 0.254145
0.264879 0.264879 0.264879
0.275856 0.275856 0.275856
0.287051 0.287051 0.287051
0.298439 0.298439 0.298439
0.310002 0.310002 0.310002
0.321722 0.321722 0.321722
0.333583 0.333583 0.333583
0.345571 0.345571 0.345571
0.357673 0.357673 0.357673
0.369879 0.369879 0.369879
0.382179 0.382179 0.382179
0.394564 0.394564 0.394564
0.407027 0.407027 0.407027
0.419561 0.419561 0.419561
0.432160 0.432160 0.432160
0.167291 0.167291 0.167291
0.168605 0.168605 0.168605
0.170078 0.170078 0.170078
0.172165 0.172165 0.172165
0.174926 0.174926 0.174926
0.178380 0.178380 0.178380
0.182531 0.182531 0.182531
0.187370 0.187370 0.187370
0.192877 0.192877 0.192877
0.199022 0.199022 0.199022
0.205770 0.205770 0.205770
0.213084 0.213084 0.213084
0.220922 0.220922 0.220922
0.229242 0.229242 0.229242
0.238005 0.238005 0.238005
0.247172 0.247172 0.247172
0.256706 0.256706 0.256706
0.266573 0.266573 0.266573
0.276742 0.276742 0.276742
0.287183 0.287183 0.287183
0.297872 0.297872 0.297872
0.308784 0.308784 0.308784
0.319898 0.319898 0.319898
0.331195 0.331195 0.331195
0.342658 0.342658 0.342658
0.354271 0.354271 0.354271
0.366022 0.366022 0.366022
0.377896 0.377896 0.377896
0.389885 0.389885 0.389885
0.401976 0.401976 0.401976
0.414162 0.414162 0.414162
0.426434 0.426434 0.426434
0.438786 0.438786 0.438786
0.189391 0.189391 0.189391
0.190538 0.190538 0.190538
0.191826 0.191826 0.191826
0.193657 0.193657 0.193657
0.196085 0.196085 0.196085
0.199134 0.199134 0.199134
0.202815 0.202815 0.202815
0.207127 0.207127 0.207127
0.212061 0.212061 0.212061
0.217598 0.217598 0.217598
0.223714 0.223714 0.223714
0.230381 0.230381 0.230381
0.237567 0.237567 0.237567
0.245239 0.245239 0.245239
0.253363 0.253363 0.253363
0.261905 0.261905 0.261905
0.270833 0.270833 0.270833
0.280115 0.280115 0.280115
0.289722 0.289722 0.289722
0.299626 0.299626 0.299626
0.309802 0.309802 0.309802
0.320226 0.320226 0.320226
0.330876 0.330876 0.330876
0.341734 0.341734 0.341734
0.352780 0.352780 0.352780
0.363999 0.363999 0.363999
0.375375 0.375375 0.375375
0.386896 0.386896 0.386896
0.398550 0.398550 0.398550
0.410324 0.410324 0.410324
0.422210 0.422210 0.422210
0.434199 0.434199 0.434199
0.507994 0.507994 0.507994
0.211491 0.211491 0.211491
0.212504 0.212504 0.212504
0.213644 0.213644 0.213644
0.215266 0.215266 0.215266
0.217423 0.217423 0.217423
0.220139 0.220139 0.220139
0.223429 0.223429 0.223429
0.227299 0.227299 0.227299
0.231744 0.231744 0.231744
0.236756 0.236756 0.236756
0.242319 0.242319 0.242319
0.248411 0.248411 0.248411
0.255010 0.255010 0.255010
0.262089 0.262089 0.262089
0.269620 0.269620 0.269620
0.277575 0.277575 0.277575
0.285926 0.285926 0.285926
0.294645 0.294645 0.294645
0.303705 0.303705 0.303705
0.313080 0.313080 0.313080
0.322746 0.322746 0.322746
0.332681 0.332681 0.332681
0.342862 0.342862 0.342862
0.353271 0.353271 0.353271
0.363890 0.363890 0.363890
0.374701 0.374701 0.374701
0.385689 0.385689 0.385689
0.396840 0.396840 0.396840
0.408141 0.408141 0.408141
0.419581 0.419581 0.419581
0.431149 0.431149 0.431149
0.503608 0.503608 0.503608
0.518619 0.518619 0.518619
0.233590 0.233590 0.233590
0.234494 0.234494 0.234494
0.235513 0.235513 0.235513
0.236964 0.236964 0.236964
0.238897 0.238897 0.238897
0.241336 0.241336 0.241336
0.244298 0.244298 0.244298
0.247793 0.247793 0.247793
0.251821 0.251821 0.251821
0.256378 0.256378 0.256378
0.261456 0.261456 0.261456
0.267040 0.267040 0.267040
0.273112 0.273112 0.273112
0.279653 0.279653 0.279653
0.286640 0.286640 0.286640
0.294050 0.294050 0.294050
0.301859 0.301859 0.301859
0.310043 0.310043 0.310043
0.318578 0.318578 0.318578
0.327441 0.327441 0.327441
0.336609 0.336609 0.336609
0.346061 0.346061 0.346061
0.355776 0.355776 0.355776
0.365736 0.365736 0.365736
0.375923 0.375923 0.375923
0.386319 0.386319 0.386319
0.396910 0.396910 0.396910
0.407681 0.407681 0.407681
0.418619 0.418619 0.418619
0.429711 0.429711 0.429711
0.501205 0.501205 0.501205
0.515674 0.515674 0.515674
0.530299 0.530299 0.530299
0.255690 0.255690 0.255690
0.256503 0.256503 0.256503
0.257421 0.257421 0.257421
0.258729 0.258729 0.258729
0.260475 0.260475 0.260475
0.262681 0.262681 0.262681
0.265366 0.265366 0.265366
0.268540 0.268540 0.268540
0.272209 0.272209 0.272209
0.276372 0.276372 0.276372
0.281025 0.281025 0.281025
0.286159 0.286159 0.286159
0.291760 0.291760 0.291760
0.297815 0.297815 0.297815
0.304306 0.304306 0.304306
0.311214 0.311214 0.311214
0.318519 0.318519 0.318519
0.326201 0.326201 0.326201
0.334238 0.334238 0.334238
0.342610 0.342610 0.342610
0.351297 0.351297 0.351297
0.360279 0.360279 0.360279
0.369537 0.369537 0.369537
0.379054 0.379054 0.379054
0.388811 0.388811 0.388811
0.398792 0.398792 0.398792
0.408983 0.408983 0.408983
0.419369 0.419369 0.419369
0.429936 0.429936 0.429936
0.500856 0.500856 0.500856
0.514721 0.514721 0.514721
0.528772 0.528772 0.528772
0.542998 0.542998 0.542998
0.277789 0.277789 0.277789
0.278527 0.278527 0.278527
0.279359 0.279359 0.279359
0.280548 0.280548 0.280548
0.282134 0.282134 0.282134
0.284142 0.284142 0.284142
0.286589 0.286589 0.286589
0.289489 0.289489 0.289489
0.292847 0.292847 0.292847
0.296667 0.296667 0.296667
0.300947 0.300947 0.300947
0.305682 0.305682 0.305682
0.310864 0.310864 0.310864
0.316481 0.316481 0.316481
0.322521 0.322521 0.322521
0.328969 0.328969 0.328969
0.335808 0.335808 0.335808
0.343020 0.343020 0.343020
0.350589 0.350589 0.350589
0.358497 0.358497 0.358497
0.366724 0.366724 0.366724
0.375254 0.375254 0.375254
0.384068 0.384068 0.384068
0.393151 0.393151 0.393151
0.402486 0.402486 0.402486
0.412057 0.412057 0.412057
0.421849 0.421849 0.421849
0.431849 0.431849 0.431849
0.502601 0.502601 0.502601
0.515807 0.515807 0.515807
0.529230 0.529230 0.529230
0.542856 0.542856 0.542856
0.556672 0.556672 0.556672
0.299889 0.299889 0.299889
0.300562 0.300562 0.300562
0.301322 0.301322 0.301322
0.302407 0.302407 0.302407
0.303858 0.303858 0.303858
0.305695 0.305695 0.305695
0.307939 0.307939 0.307939
0.310600 0.310600 0.310600
0.313688 0.313688 0.313688
0.317207 0.317207 0.317207
0.321159 0.321159 0.321159
0.325541 0.325541 0.325541
0.330347 0.330347 0.330347
0.335571 0.335571 0.335571
0.341202 0.341202 0.341202
0.347229 0.347229 0.347229
0.353639 0.353639 0.353639
0.360417 0.360417 0.360417
0.367548 0.367548 0.367548
0.375017 0.375017 0.375017
0.382809 0.382809 0.382809
0.390906 0.390906 0.390906
0.399294 0.399294 0.399294
0.407957 0.407957 0.407957
0.416881 0.416881 0.416881
0.426049 0.426049 0.426049
0.435449 0.435449 0.435449
0.506449 0.506449 0.506449
0.518952 0.518952 0.518952
0.531700 0.531700 0.531700
0.544678 0.544678 0.544678
0.557874 0.557874 0.557874
0.571274 0.571274 0.571274
0.321988 0.321988 0.321988
0.322606 0.322606 0.322606
0.323304 0.323304 0.323304
0.324301 0.324301 0.324301
0.325634 0.325634 0.325634
0.327324 0.327324 0.327324
0.329390 0.329390 0.329390
0.331844 0.331844 0.331844
0.334695 0.334695 0.334695
0.337950 0.337950 0.337950
0.341611 0.341611 0.341611
0.345679 0.345679 0.345679
0.350150 0.350150 0.350150
0.355019 0.355019 0.355019
0.360280 0.360280 0.360280
0.365923 0.365923 0.365923
0.371939 0.371939 0.371939
0.378315 0.378315 0.378315
0.385039 0.385039 0.385039
0.392097 0.392097 0.392097
0.399478 0.399478 0.399478
0.407165 0.407165 0.407165
0.415146 0.415146 0.415146
0.423406 0.423406 0.423406
0.431931 0.431931 0.431931
0.500902 0.500902 0.500902
0.512378 0.512378 0.512378
0.524142 0.524142 0.524142
0.536178 0.536178 0.536178
0.548471 0.548471 0.548471
0.561007 0.561007 0.561007
0.573773 0.573773 0.573773
0.586756 0.586756 0.586756
0.344088 0.344088 0.344088
0.344658 0.344658 0.344658
0.345301 0.345301 0.345301
0.346221 0.346221 0.346221
0.347452 0.347452 0.347452
0.349014 0.349014 0.349014
0.350925 0.350925 0.350925
0.353197 0.353197 0.353197
0.355840 0.355840 0.355840
0.358861 0.358861 0.358861
0.362264 0.362264 0.362264
0.366052 0.366052 0.366052
0.370222 0.370222 0.370222
0.374772 0.374772 0.374772
0.379697 0.379697 0.379697
0.384990 0.384990 0.384990
0.390644 0.390644 0.390644
0.396649 0.396649 0.396649
0.402995 0.402995 0.402995
0.409671 0.409671 0.409671
0.416665 0.416665 0.416665
0.423965 0.423965 0.423965
0.431559 0.431559 0.431559
0.439434 0.439434 0.439434
0.509645 0.509645 0.509645
0.520336 0.520336 0.520336
0.531338 0.531338 0.531338
0.542636 0.542636 0.542636
0.554215 0.554215 0.554215
0.566061 0.566061 0.566061
0.578160 0.578160 0.578160
0.590499 0.590499 0.590499
0.603066 0.603066 0.603066
0.366187 0.366187 0.366187
0.366715 0.366715 0.366715
0.367311 0.367311 0.367311
0.368164 0.368164 0.368164
0.369305 0.369305 0.369305
0.370755 0.370755 0.370755
0.372529 0.372529 0.372529
0.374640 0.374640 0.374640
0.377099 0.377099 0.377099
0.379913 0.379913 0.379913
0.383086 0.383086 0.383086
0.386623 0.386623 0.386623
0.390522 0.390522 0.390522
0.394784 0.394784 0.394784
0.399405 0.399405 0.399405
0.404379 0.404379 0.404379
0.409702 0.409702 0.409702
0.415365 0.415365 0.415365
0.421361 0.421361 0.421361
0.427680 0.427680 0.427680
0.434313 0.434313 0.434313
0.501589 0.501589 0.501589
0.510788 0.510788 0.510788
0.520345 0.520345 0.520345
0.530246 0.530246 0.530246
0.540476 0.540476 0.540476
0.551021 0.551021 0.551021
0.561868 0.561868 0.561868
0.573002 0.573002 0.573002
0.584411 0.584411 0.584411
0.596081 0.596081 0.596081
0.607999 0.607999 0.607999
0.620154 0.620154 0.620154
0.388287 0.388287 0.388287
0.388778 0.388778 0.388778
0.389332 0.389332 0.389332
0.390126 0.390126 0.390126
0.391188 0.391188 0.391188
0.392538 0.392538 0.392538
0.394191 0.394191 0.394191
0.396160 0.396160 0.396160
0.398455 0.398455 0.398455
0.401083 0.401083 0.401083
0.404051 0.404051 0.404051
0.407363 0.407363 0.407363
0.411018 0.411018 0.411018
0.415019 0.415019 0.415019
0.419363 0.419363 0.419363
0.424046 0.424046 0.424046
0.429065 0.429065 0.429065
0.434414 0.434414 0.434414
0.500110 0.500110 0.500110
0.507730 0.507730 0.507730
0.515742 0.515742 0.515742
0.524134 0.524134 0.524134
0.532894 0.532894 0.532894
0.542009 0.542009 0.542009
0.551468 0.551468 0.551468
0.561257 0.561257 0.561257
0.571364 0.571364 0.571364
0.581776 0.581776 0.581776
0.592479 0.592479 0.592479
0.603463 0.603463 0.603463
0.614713 0.614713 0.614713
0.626220 0.626220 0.626220
0.637969 0.637969 0.637969
0.410386 0.410386 0.410386
0.410844 0.410844 0.410844
0.411362 0.411362 0.411362
0.412103 0.412103 0.412103
0.413095 0.413095 0.413095
0.414357 0.414357 0.414357
0.415902 0.415902 0.415902
0.417744 0.417744 0.417744
0.419892 0.419892 0.419892
0.422355 0.422355 0.422355
0.425138 0.425138 0.425138
0.428246 0.428246 0.428246
0.431682 0.431682 0.431682
0.435446 0.435446 0.435446
0.439538 0.439538 0.439538
0.505034 0.505034 0.505034
0.511068 0.511068 0.511068
0.517506 0.517506 0.517506
0.524344 0.524344 0.524344
0.531573 0.531573 0.531573
0.539184 0.539184 0.539184
0.547168 0.547168 0.547168
0.555515 0.555515 0.555515
0.564213 0.564213 0.564213
0.573253 0.573253 0.573253
0.582622 0.582622 0.582622
0.592309 0.592309 0.592309
0.602303 0.602303 0.602303
0.612591 0.612591 0.612591
0.623163 0.623163 0.623163
0.634006 0.634006 0.634006
0.645110 0.645110 0.645110
0.656464 0.656464 0.656464
0.432486 0.432486 0.432486
0.432915 0.432915 0.432915
0.433400 0.433400 0.433400
0.434094 0.434094 0.434094
0.435023 0.435023 0.435023
0.436205 0.436205 0.436205
0.437655 0.437655 0.437655
0.439382 0.439382 0.439382
0.501781 0.501781 0.501781
0.504725 0.504725 0.504725
0.508056 0.508056 0.508056
0.511778 0.511778 0.511778
0.515897 0.515897 0.515897
0.520413 0.520413 0.520413
0.525329 0.525329 0.525329
0.530641 0.530641 0.530641
0.536349 0.536349 0.536349
0.542448 0.542448 0.542448
0.548933 0.548933 0.548933
0.555798 0.555798 0.555798
0.563036 0.563036 0.563036
0.570638 0.570638 0.570638
0.578597 0.578597 0.578597
0.586903 0.586903 0.586903
0.595545 0.595545 0.595545
0.604515 0.604515 0.604515
0.613802 0.613802 0.613802
0.623396 0.623396 0.623396
0.633285 0.633285 0.633285
0.643460 0.643460 0.643460
0.653909 0.653909 0.653909
0.664623 0.664623 0.664623
0.675591 0.675591 0.675591
0.518563 0.518563 0.518563
0.519076 0.519076 0.519076
0.519655 0.519655 0.519655
0.520485 0.520485 0.520485
0.521597 0.521597 0.521597
0.523011 0.523011 0.523011
0.524745 0.524745 0.524745
0.526814 0.526814 0.526814
0.529230 0.529230 0.529230
0.532003 0.532003 0.532003
0.535142 0.535142 0.535142
0.538652 0.538652 0.538652
0.542539 0.542539 0.542539
0.546806 0.546806 0.546806
0.551454 0.551454 0.551454
0.556483 0.556483 0.556483
0.561892 0.561892 0.561892
0.567678 0.567678 0.567678
0.573836 0.573836 0.573836
0.580363 0.580363 0.580363
0.587253 0.587253 0.587253
0.594499 0.594499 0.594499
0.602094 0.602094 0.602094
0.610029 0.610029 0.610029
0.618297 0.618297 0.618297
0.626889 0.626889 0.626889
0.635795 0.635795 0.635795
0.645006 0.645006 0.645006
0.654513 0.654513 0.654513
0.664306 0.664306 0.664306
0.674376 0.674376 0.674376
0.684712 0.684712 0.684712
0.695305 0.695305 0.695305
0.546690 0.546690 0.546690
0.547173 0.547173 0.547173
0.547718 0.547718 0.547718
0.548500 0.548500 0.548500
0.549547 0.549547 0.549547
0.550880 0.550880 0.550880
0.552515 0.552515 0.552515
0.554465 0.554465 0.554465
0.556745 0.556745 0.556745
0.559362 0.559362 0.559362
0.562327 0.562327 0.562327
0.565645 0.565645 0.565645
0.569321 0.569321 0.569321
0.573360 0.573360 0.573360
0.577763 0.577763 0.577763
0.582532 0.582532 0.582532
0.587665 0.587665 0.587665
0.593161 0.593161 0.593161
0.599017 0.599017 0.599017
0.605231 0.605231 0.605231
0.611796 0.611796 0.611796
0.618709 0.618709 0.618709
0.625962 0.625962 0.625962
0.633549 0.633549 0.633549
0.641464 0.641464 0.641464
0.649697 0.649697 0.649697
0.658242 0.658242 0.658242
0.667089 0.667089 0.667089
0.676231 0.676231 0.676231
0.685658 0.685658 0.685658
0.695362 0.695362 0.695362
0.705333 0.705333 0.705333
0.715564 0.715564 0.715564
0.574817 0.574817 0.574817
0.575272 0.575272 0.575272
0.575788 0.575788 0.575788
0.576525 0.576525 0.576525
0.577514 0.577514 0.577514
0.578773 0.578773 0.578773
0.580318 0.580318 0.580318
0.582162 0.582162 0.582162
0.584317 0.584317 0.584317
0.586793 0.586793 0.586793
0.589599 0.589599 0.589599
0.592741 0.592741 0.592741
0.596225 0.596225 0.596225
0.600055 0.600055 0.600055
0.604233 0.604233 0.604233
0.608762 0.608762 0.608762
0.613641 0.613641 0.613641
0.618869 0.618869 0.618869
0.624446 0.624446 0.624446
0.630367 0.630367 0.630367
0.636631 0.636631 0.636631
0.643232 0.643232 0.643232
0.650165 0.650165 0.650165
0.657425 0.657425 0.657425
0.665006 0.665006 0.665006
0.672900 0.672900 0.672900
0.681102 0.681102 0.681102
0.689603 0.689603 0.689603
0.698396 0.698396 0.698396
0.707473 0.707473 0.707473
0.716826 0.716826 0.716826
0.726447 0.726447 0.726447
0.736328 0.736328 0.736328
0.602943 0.602943 0.602943
0.603374 0.603374 0.603374
0.603862 0.603862 0.603862
0.604560 0.604560 0.604560
0.605496 0.605496 0.605496
0.606688 0.606688 0.606688
0.608150 0.608150 0.608150
0.609897 0.609897 0.609897
0.611939 0.611939 0.611939
0.614286 0.614286 0.614286
0.616947 0.616947 0.616947
0.619928 0.619928 0.619928
0.623235 0.623235 0.623235
0.626873 0.626873 0.626873
0.630845 0.630845 0.630845
0.635153 0.635153 0.635153
0.639797 0.639797 0.639797
0.644777 0.644777 0.644777
0.650094 0.650094 0.650094
0.655744 0.655744 0.655744
0.661726 0.661726 0.661726
0.668036 0.668036 0.668036
0.674669 0.674669 0.674669
0.681622 0.681622 0.681622
0.688888 0.688888 0.688888
0.696463 0.696463 0.696463
0.704339 0.704339 0.704339
0.712511 0.712511 0.712511
0.720972 0.720972 0.720972
0.729715 0.729715 0.729715
0.738732 0.738732 0.738732
0.748016 0.748016 0.748016
0.757560 0.757560 0.757560
0.631070 0.631070 0.631070
0.631479 0.631479 0.631479
0.631941 0.631941 0.631941
0.632603 0.632603 0.632603
0.633491 0.633491 0.633491
0.634621 0.634621 0.634621
0.636009 0.636009 0.636009
0.637666 0.637666 0.637666
0.639605 0.639605 0.639605
0.641834 0.641834 0.641834
0.644362 0.644362 0.644362
0.647195 0.647195 0.647195
0.650341 0.650341 0.650341
0.653802 0.653802 0.653802
0.657583 0.657583 0.657583
0.661686 0.661686 0.661686
0.666113 0.666113 0.666113
0.670864 0.670864 0.670864
0.675939 0.675939 0.675939
0.681337 0.681337 0.681337
0.687056 0.687056 0.687056
0.693093 0.693093 0.693093
0.699445 0.699445 0.699445
0.706109 0.706109 0.706109
0.713079 0.713079 0.713079
0.720351 0.720351 0.720351
0.727920 0.727920 0.727920
0.735780 0.735780 0.735780
0.743925 0.743925 0.743925
0.752348 0.752348 0.752348
0.761044 0.761044 0.761044
0.770005 0.770005 0.770005
0.779225 0.779225 0.779225
0.659197 0.659197 0.659197
0.659585 0.659585 0.659585
0.660024 0.660024 0.660024
0.660653 0.660653 0.660653
0.661497 0.661497 0.661497
0.662571 0.662571 0.662571
0.663890 0.663890 0.663890
0.665466 0.665466 0.665466
0.667309 0.667309 0.667309
0.669430 0.669430 0.669430
0.671836 0.671836 0.671836
0.674534 0.674534 0.674534
0.677529 0.677529 0.677529
0.680828 0.680828 0.680828
0.684433 0.684433 0.684433
0.688347 0.688347 0.688347
0.692573 0.692573 0.692573
0.697110 0.697110 0.697110
0.701961 0.701961 0.701961
0.707123 0.707123 0.707123
0.712596 0.712596 0.712596
0.718378 0.718378 0.718378
0.724467 0.724467 0.724467
0.730859 0.730859 0.730859
