docs/luts/fuji_recipes/AcrosR_PLR_Acros.cube
TITLE "Fujifilm Recipe: PLR Acros (AcrosR)"
# FilmSim=AcrosR HL=-1 SH=3 Col=0 WB=Auto WBR=0 WBB=0
LUT_3D_SIZE 33
DOMAIN_MIN 0.0 0.0 0.0
DOMAIN_MAX 1.0 1.0 1.0
0.000000 0.000000 0.000000
0.006723 0.006723 0.006723
0.014331 0.014331 0.014331
0.025240 0.025240 0.025240
0.039677 0.039677 0.039677
0.054968 0.054968 0.054968
0.070260 0.070260 0.070260
0.085551 0.085551 0.085551
0.100842 0.100842 0.100842
0.116133 0.116133 0.116133
0.131424 0.131424 0.131424
0.146716 0.146716 0.146716
0.162007 0.162007 0.162007
0.177298 0.177298 0.177298
0.192589 0.192589 0.192589
0.207880 0.207880 0.207880
0.223172 0.223172 0.223172
0.238463 0.238463 0.238463
0.253754 0.253754 0.253754
0.269045 0.269045 0.269045
0.284336 0.284336 0.284336
0.299628 0.299628 0.299628
0.314919 0.314919 0.314919
0.330210 0.330210 0.330210
0.345501 0.345501 0.345501
0.360792 0.360792 0.360792
0.376084 0.376084 0.376084
0.391375 0.391375 0.391375
0.406666 0.406666 0.406666
0.421957 0.421957 0.421957
0.437248 0.437248 0.437248
0.513395 0.513395 0.513395
0.529728 0.529728 0.529728
0.017111 0.017111 0.017111
0.023835 0.023835 0.023835
0.031443 0.031443 0.031443
0.041903 0.041903 0.041903
0.053801 0.053801 0.053801
0.066618 0.066618 0.066618
0.080059 0.080059 0.080059
0.093934 0.093934 0.093934
0.108116 0.108116 0.108116
0.122522 0.122522 0.122522
0.137094 0.137094 0.137094
0.151793 0.151793 0.151793
0.166588 0.166588 0.166588
0.181461 0.181461 0.181461
0.196394 0.196394 0.196394
0.211376 0.211376 0.211376
0.226399 0.226399 0.226399
0.241455 0.241455 0.241455
0.256539 0.256539 0.256539
0.271646 0.271646 0.271646
0.286773 0.286773 0.286773
0.301917 0.301917 0.301917
0.317075 0.317075 0.317075
0.332246 0.332246 0.332246
0.347428 0.347428 0.347428
0.362620 0.362620 0.362620
0.377820 0.377820 0.377820
0.393028 0.393028 0.393028
0.408242 0.408242 0.408242
0.423462 0.423462 0.423462
0.438688 0.438688 0.438688
0.514867 0.514867 0.514867
0.531140 0.531140 0.531140
0.036453 0.036453 0.036453
0.042650 0.042650 0.042650
0.049017 0.049017 0.049017
0.057241 0.057241 0.057241
0.067045 0.067045 0.067045
0.078069 0.078069 0.078069
0.090016 0.090016 0.090016
0.102654 0.102654 0.102654
0.115814 0.115814 0.115814
0.129370 0.129370 0.129370
0.143231 0.143231 0.143231
0.157329 0.157329 0.157329
0.171613 0.171613 0.171613
0.186047 0.186047 0.186047
0.200601 0.200601 0.200601
0.215254 0.215254 0.215254
0.229988 0.229988 0.229988
0.244789 0.244789 0.244789
0.259647 0.259647 0.259647
0.274553 0.274553 0.274553
0.289500 0.289500 0.289500
0.304482 0.304482 0.304482
0.319494 0.319494 0.319494
0.334532 0.334532 0.334532
0.349593 0.349593 0.349593
0.364674 0.364674 0.364674
0.379773 0.379773 0.379773
0.394888 0.394888 0.394888
0.410016 0.410016 0.410016
0.425157 0.425157 0.425157
0.500330 0.500330 0.500330
0.516526 0.516526 0.516526
0.532732 0.532732 0.532732
0.059020 0.059020 0.059020
0.063569 0.063569 0.063569
0.068423 0.068423 0.068423
0.074926 0.074926 0.074926
0.082968 0.082968 0.082968
0.092321 0.092321 0.092321
0.102751 0.102751 0.102751
0.114050 0.114050 0.114050
0.126043 0.126043 0.126043
0.138589 0.138589 0.138589
0.151577 0.151577 0.151577
0.164920 0.164920 0.164920
0.178550 0.178550 0.178550
0.192412 0.192412 0.192412
0.206467 0.206467 0.206467
0.220679 0.220679 0.220679
0.235024 0.235024 0.235024
0.249480 0.249480 0.249480
0.264030 0.264030 0.264030
0.278659 0.278659 0.278659
0.293357 0.293357 0.293357
0.308115 0.308115 0.308115
0.322923 0.322923 0.322923
0.337776 0.337776 0.337776
0.352668 0.352668 0.352668
0.367595 0.367595 0.367595
0.382552 0.382552 0.382552
0.397535 0.397535 0.397535
0.412543 0.412543 0.412543
0.427573 0.427573 0.427573
0.502800 0.502800 0.502800
0.518893 0.518893 0.518893
0.535003 0.535003 0.535003
0.081587 0.081587 0.081587
0.085107 0.085107 0.085107
0.088940 0.088940 0.088940
0.094187 0.094187 0.094187
0.100835 0.100835 0.100835
0.108755 0.108755 0.108755
0.117793 0.117793 0.117793
0.127785 0.127785 0.127785
0.138582 0.138582 0.138582
0.150049 0.150049 0.150049
0.162072 0.162072 0.162072
0.174555 0.174555 0.174555
0.187421 0.187421 0.187421
0.200606 0.200606 0.200606
0.214057 0.214057 0.214057
0.227732 0.227732 0.227732
0.241596 0.241596 0.241596
0.255620 0.255620 0.255620
0.269782 0.269782 0.269782
0.284062 0.284062 0.284062
0.298443 0.298443 0.298443
0.312913 0.312913 0.312913
0.327460 0.327460 0.327460
0.342074 0.342074 0.342074
0.356747 0.356747 0.356747
0.371472 0.371472 0.371472
0.386244 0.386244 0.386244
0.401057 0.401057 0.401057
0.415907 0.415907 0.415907
0.430789 0.430789 0.430789
0.506090 0.506090 0.506090
0.522048 0.522048 0.522048
0.538032 0.538032 0.538032
0.104154 0.104154 0.104154
0.106984 0.106984 0.106984
0.110102 0.110102 0.110102
0.114428 0.114428 0.114428
0.119996 0.119996 0.119996
0.126744 0.126744 0.126744
0.134577 0.134577 0.134577
0.143382 0.143382 0.143382
0.153042 0.153042 0.153042
0.163442 0.163442 0.163442
0.174478 0.174478 0.174478
0.186058 0.186058 0.186058
0.198101 0.198101 0.198101
0.210539 0.210539 0.210539
0.223314 0.223314 0.223314
0.236377 0.236377 0.236377
0.249687 0.249687 0.249687
0.263210 0.263210 0.263210
0.276915 0.276915 0.276915
0.290780 0.290780 0.290780
0.304783 0.304783 0.304783
0.318908 0.318908 0.318908
0.333138 0.333138 0.333138
0.347461 0.347461 0.347461
0.361867 0.361867 0.361867
0.376347 0.376347 0.376347
0.390891 0.390891 0.390891
0.405493 0.405493 0.405493
0.420148 0.420148 0.420148
0.434849 0.434849 0.434849
0.510247 0.510247 0.510247
0.526036 0.526036 0.526036
0.541863 0.541863 0.541863
0.126721 0.126721 0.126721
0.129063 0.129063 0.129063
0.131661 0.131661 0.131661
0.135298 0.135298 0.135298
0.140028 0.140028 0.140028
0.145830 0.145830 0.145830
0.152652 0.152652 0.152652
0.160420 0.160420 0.160420
0.169048 0.169048 0.169048
0.178446 0.178446 0.178446
0.188527 0.188527 0.188527
0.199207 0.199207 0.199207
0.210412 0.210412 0.210412
0.222073 0.222073 0.222073
0.234131 0.234131 0.234131
0.246535 0.246535 0.246535
0.259239 0.259239 0.259239
0.272206 0.272206 0.272206
0.285402 0.285402 0.285402
0.298799 0.298799 0.298799
0.312372 0.312372 0.312372
0.326100 0.326100 0.326100
0.339965 0.339965 0.339965
0.353952 0.353952 0.353952
0.368047 0.368047 0.368047
0.382239 0.382239 0.382239
0.396516 0.396516 0.396516
0.410870 0.410870 0.410870
0.425294 0.425294 0.425294
0.439780 0.439780 0.439780
0.515299 0.515299 0.515299
0.530888 0.530888 0.530888
0.546527 0.546527 0.546527
0.149288 0.149288 0.149288
0.151269 0.151269 0.151269
0.153477 0.153477 0.153477
0.156586 0.156586 0.156586
0.160660 0.160660 0.160660
0.165700 0.165700 0.165700
0.171682 0.171682 0.171682
0.178561 0.178561 0.178561
0.186278 0.186278 0.186278
0.194766 0.194766 0.194766
0.203954 0.203954 0.203954
0.213773 0.213773 0.213773
0.224156 0.224156 0.224156
0.235040 0.235040 0.235040
0.246369 0.246369 0.246369
0.258091 0.258091 0.258091
0.270161 0.270161 0.270161
0.282538 0.282538 0.282538
0.295186 0.295186 0.295186
0.308075 0.308075 0.308075
0.321177 0.321177 0.321177
0.334469 0.334469 0.334469
0.347929 0.347929 0.347929
0.361540 0.361540 0.361540
0.375285 0.375285 0.375285
0.389151 0.389151 0.389151
0.403125 0.403125 0.403125
0.417197 0.417197 0.417197
0.431357 0.431357 0.431357
0.505978 0.505978 0.505978
0.521265 0.521265 0.521265
0.536623 0.536623 0.536623
0.552044 0.552044 0.552044
0.171856 0.171856 0.171856
0.173561 0.173561 0.173561
0.175468 0.175468 0.175468
0.178165 0.178165 0.178165
0.181716 0.181716 0.181716
0.186137 0.186137 0.186137
0.191422 0.191422 0.191422
0.197546 0.197546 0.197546
0.204470 0.204470 0.204470
0.212146 0.212146 0.212146
0.220520 0.220520 0.220520
0.229537 0.229537 0.229537
0.239138 0.239138 0.239138
0.249269 0.249269 0.249269
0.259879 0.259879 0.259879
0.270918 0.270918 0.270918
0.282343 0.282343 0.282343
0.294113 0.294113 0.294113
0.306191 0.306191 0.306191
0.318547 0.318547 0.318547
0.331149 0.331149 0.331149
0.343974 0.343974 0.343974
0.356997 0.356997 0.356997
0.370200 0.370200 0.370200
0.383564 0.383564 0.383564
0.397073 0.397073 0.397073
0.410712 0.410712 0.410712
0.424471 0.424471 0.424471
0.438337 0.438337 0.438337
0.513140 0.513140 0.513140
0.528151 0.528151 0.528151
0.543248 0.543248 0.543248
0.558425 0.558425 0.558425
0.194423 0.194423 0.194423
0.195912 0.195912 0.195912
0.197582 0.197582 0.197582
0.199949 0.199949 0.199949
0.203079 0.203079 0.203079
0.206993 0.206993 0.206993
0.211698 0.211698 0.211698
0.217180 0.217180 0.217180
0.223419 0.223419 0.223419
0.230379 0.230379 0.230379
0.238022 0.238022 0.238022
0.246302 0.246302 0.246302
0.255175 0.255175 0.255175
0.264592 0.264592 0.264592
0.274509 0.274509 0.274509
0.284881 0.284881 0.284881
0.295667 0.295667 0.295667
0.306827 0.306827 0.306827
0.318328 0.318328 0.318328
0.330136 0.330136 0.330136
0.342222 0.342222 0.342222
0.354559 0.354559 0.354559
0.367124 0.367124 0.367124
0.379895 0.379895 0.379895
0.392852 0.392852 0.392852
0.405978 0.405978 0.405978
0.419258 0.419258 0.419258
0.432677 0.432677 0.432677
0.506649 0.506649 0.506649
0.521244 0.521244 0.521244
0.535952 0.535952 0.535952
0.550764 0.550764 0.550764
0.565671 0.565671 0.565671
0.216990 0.216990 0.216990
0.218306 0.218306 0.218306
0.219784 0.219784 0.219784
0.221884 0.221884 0.221884
0.224669 0.224669 0.224669
0.228164 0.228164 0.228164
0.232381 0.232381 0.232381
0.237319 0.237319 0.237319
0.242965 0.242965 0.242965
0.249297 0.249297 0.249297
0.256288 0.256288 0.256288
0.263903 0.263903 0.263903
0.272105 0.272105 0.272105
0.280856 0.280856 0.280856
0.290116 0.290116 0.290116
0.299848 0.299848 0.299848
0.310012 0.310012 0.310012
0.320574 0.320574 0.320574
0.331500 0.331500 0.331500
0.342759 0.342759 0.342759
0.354322 0.354322 0.354322
0.366161 0.366161 0.366161
0.378253 0.378253 0.378253
0.390575 0.390575 0.390575
0.403108 0.403108 0.403108
0.415832 0.415832 0.415832
0.428732 0.428732 0.428732
0.501914 0.501914 0.501914
0.516022 0.516022 0.516022
0.530273 0.530273 0.530273
0.544655 0.544655 0.544655
0.559159 0.559159 0.559159
0.573774 0.573774 0.573774
0.239557 0.239557 0.239557
0.240732 0.240732 0.240732
0.242053 0.242053 0.242053
0.243933 0.243933 0.243933
0.246431 0.246431 0.246431
0.249575 0.249575 0.249575
0.253381 0.253381 0.253381
0.257853 0.257853 0.257853
0.262987 0.262987 0.262987
0.268769 0.268769 0.268769
0.275181 0.275181 0.275181
0.282197 0.282197 0.282197
0.289788 0.289788 0.289788
0.297923 0.297923 0.297923
0.306570 0.306570 0.306570
0.315695 0.315695 0.315695
0.325265 0.325265 0.325265
0.335247 0.335247 0.335247
0.345611 0.345611 0.345611
0.356328 0.356328 0.356328
0.367369 0.367369 0.367369
0.378708 0.378708 0.378708
0.390321 0.390321 0.390321
0.402187 0.402187 0.402187
0.414284 0.414284 0.414284
0.426593 0.426593 0.426593
0.439099 0.439099 0.439099
0.512587 0.512587 0.512587
0.526313 0.526313 0.526313
0.540202 0.540202 0.540202
0.554240 0.554240 0.554240
0.568417 0.568417 0.568417
0.582721 0.582721 0.582721
0.262124 0.262124 0.262124
0.263182 0.263182 0.263182
0.264372 0.264372 0.264372
0.266068 0.266068 0.266068
0.268326 0.268326 0.268326
0.271173 0.271173 0.271173
0.274628 0.274628 0.274628
0.278700 0.278700 0.278700
0.283390 0.283390 0.283390
0.288690 0.288690 0.288690
0.294589 0.294589 0.294589
0.301068 0.301068 0.301068
0.308105 0.308105 0.308105
0.315676 0.315676 0.315676
0.323754 0.323754 0.323754
0.332311 0.332311 0.332311
0.341317 0.341317 0.341317
0.350746 0.350746 0.350746
0.360567 0.360567 0.360567
0.370755 0.370755 0.370755
0.381283 0.381283 0.381283
0.392127 0.392127 0.392127
0.403263 0.403263 0.403263
0.414669 0.414669 0.414669
0.426326 0.426326 0.426326
0.438213 0.438213 0.438213
0.511018 0.511018 0.511018
0.524155 0.524155 0.524155
0.537488 0.537488 0.537488
0.551001 0.551001 0.551001
0.564680 0.564680 0.564680
0.578515 0.578515 0.578515
0.592492 0.592492 0.592492
0.284691 0.284691 0.284691
0.285650 0.285650 0.285650
0.286731 0.286731 0.286731
0.288271 0.288271 0.288271
0.290325 0.290325 0.290325
0.292919 0.292919 0.292919
0.296073 0.296073 0.296073
0.299800 0.299800 0.299800
0.304102 0.304102 0.304102
0.308979 0.308979 0.308979
0.314423 0.314423 0.314423
0.320421 0.320421 0.320421
0.326958 0.326958 0.326958
0.334014 0.334014 0.334014
0.341568 0.341568 0.341568
0.349596 0.349596 0.349596
0.358073 0.358073 0.358073
0.366976 0.366976 0.366976
0.376279 0.376279 0.376279
0.385957 0.385957 0.385957
0.395987 0.395987 0.395987
0.406345 0.406345 0.406345
0.417011 0.417011 0.417011
0.427961 0.427961 0.427961
0.439177 0.439177 0.439177
0.511366 0.511366 0.511366
0.523857 0.523857 0.523857
0.536575 0.536575 0.536575
0.549506 0.549506 0.549506
0.562633 0.562633 0.562633
0.575943 0.575943 0.575943
0.589424 0.589424 0.589424
0.603062 0.603062 0.603062
0.307259 0.307259 0.307259
0.308134 0.308134 0.308134
0.309120 0.309120 0.309120
0.310528 0.310528 0.310528
0.312407 0.312407 0.312407
0.314783 0.314783 0.314783
0.317678 0.317678 0.317678
0.321103 0.321103 0.321103
0.325067 0.325067 0.325067
0.329570 0.329570 0.329570
0.334610 0.334610 0.334610
0.340178 0.340178 0.340178
0.346263 0.346263 0.346263
0.352851 0.352851 0.352851
0.359923 0.359923 0.359923
0.367461 0.367461 0.367461
0.375445 0.375445 0.375445
0.383853 0.383853 0.383853
0.392664 0.392664 0.392664
0.401855 0.401855 0.401855
0.411405 0.411405 0.411405
0.421293 0.421293 0.421293
0.431498 0.431498 0.431498
0.502137 0.502137 0.502137
0.513653 0.513653 0.513653
0.525447 0.525447 0.525447
0.537502 0.537502 0.537502
0.549799 0.549799 0.549799
0.562323 0.562323 0.562323
0.575059 0.575059 0.575059
0.587993 0.587993 0.587993
0.601112 0.601112 0.601112
0.614402 0.614402 0.614402
0.329826 0.329826 0.329826
0.330629 0.330629 0.330629
0.331535 0.331535 0.331535
0.332828 0.332828 0.332828
0.334555 0.334555 0.334555
0.336743 0.336743 0.336743
0.339411 0.339411 0.339411
0.342574 0.342574 0.342574
0.346240 0.346240 0.346240
0.350413 0.350413 0.350413
0.355093 0.355093 0.355093
0.360276 0.360276 0.360276
0.365953 0.365953 0.365953
0.372114 0.372114 0.372114
0.378745 0.378745 0.378745
0.385832 0.385832 0.385832
0.393357 0.393357 0.393357
0.401301 0.401301 0.401301
0.409648 0.409648 0.409648
0.418376 0.418376 0.418376
0.427467 0.427467 0.427467
0.436902 0.436902 0.436902
0.507116 0.507116 0.507116
0.517868 0.517868 0.517868
0.528928 0.528928 0.528928
0.540278 0.540278 0.540278
0.551900 0.551900 0.551900
0.563778 0.563778 0.563778
0.575896 0.575896 0.575896
0.588239 0.588239 0.588239
0.600793 0.600793 0.600793
0.613544 0.613544 0.613544
0.626481 0.626481 0.626481
0.352393 0.352393 0.352393
0.353134 0.353134 0.353134
0.353969 0.353969 0.353969
0.355163 0.355163 0.355163
0.356759 0.356759 0.356759
0.358782 0.358782 0.358782
0.361251 0.361251 0.361251
0.364182 0.364182 0.364182
0.367585 0.367585 0.367585
0.371465 0.371465 0.371465
0.375824 0.375824 0.375824
0.380660 0.380660 0.380660
0.385969 0.385969 0.385969
0.391743 0.391743 0.391743
0.397971 0.397971 0.397971
0.404641 0.404641 0.404641
0.411741 0.411741 0.411741
0.419253 0.419253 0.419253
0.427164 0.427164 0.427164
0.435455 0.435455 0.435455
0.504389 0.504389 0.504389
0.514004 0.514004 0.514004
0.523971 0.523971 0.523971
0.534272 0.534272 0.534272
0.544888 0.544888 0.544888
0.555803 0.555803 0.555803
0.567000 0.567000 0.567000
0.578464 0.578464 0.578464
0.590178 0.590178 0.590178
0.602129 0.602129 0.602129
0.614302 0.614302 0.614302
0.626685 0.626685 0.626685
0.639264 0.639264 0.639264
0.374960 0.374960 0.374960
0.375646 0.375646 0.375646
0.376421 0.376421 0.376421
0.377527 0.377527 0.377527
0.379008 0.379008 0.379008
0.380885 0.380885 0.380885
0.383180 0.383180 0.383180
0.385906 0.385906 0.385906
0.389075 0.389075 0.389075
0.392693 0.392693 0.392693
0.396765 0.396765 0.396765
0.401290 0.401290 0.401290
0.406265 0.406265 0.406265
0.411686 0.411686 0.411686
0.417546 0.417546 0.417546
0.423833 0.423833 0.423833
0.430539 0.430539 0.430539
0.437649 0.437649 0.437649
0.505503 0.505503 0.505503
0.513919 0.513919 0.513919
0.522722 0.522722 0.522722
0.531896 0.531896 0.531896
0.541424 0.541424 0.541424
0.551289 0.551289 0.551289
0.561476 0.561476 0.561476
0.571969 0.571969 0.571969
0.582750 0.582750 0.582750
0.593807 0.593807 0.593807
0.605123 0.605123 0.605123
0.616686 0.616686 0.616686
0.628481 0.628481 0.628481
0.640495 0.640495 0.640495
0.652717 0.652717 0.652717
0.397527 0.397527 0.397527
0.398165 0.398165 0.398165
0.398886 0.398886 0.398886
0.399916 0.399916 0.399916
0.401294 0.401294 0.401294
0.403043 0.403043 0.403043
0.405182 0.405182 0.405182
0.407727 0.407727 0.407727
0.410687 0.410687 0.410687
0.414071 0.414071 0.414071
0.417884 0.417884 0.417884
0.422128 0.422128 0.422128
0.426802 0.426802 0.426802
0.431902 0.431902 0.431902
0.437424 0.437424 0.437424
0.503589 0.503589 0.503589
0.510362 0.510362 0.510362
0.517558 0.517558 0.517558
0.525165 0.525165 0.525165
0.533168 0.533168 0.533168
0.541554 0.541554 0.541554
0.550309 0.550309 0.550309
0.559419 0.559419 0.559419
0.568867 0.568867 0.568867
0.578641 0.578641 0.578641
0.588724 0.588724 0.588724
0.599102 0.599102 0.599102
0.609761 0.609761 0.609761
0.620688 0.620688 0.620688
0.631868 0.631868 0.631868
0.643289 0.643289 0.643289
0.654938 0.654938 0.654938
0.666804 0.666804 0.666804
0.420095 0.420095 0.420095
0.420690 0.420690 0.420690
0.421362 0.421362 0.421362
0.422324 0.422324 0.422324
0.423612 0.423612 0.423612
0.425247 0.425247 0.425247
0.427248 0.427248 0.427248
0.429629 0.429629 0.429629
0.432403 0.432403 0.432403
0.435577 0.435577 0.435577
0.439157 0.439157 0.439157
0.503361 0.503361 0.503361
0.508060 0.508060 0.508060
0.513195 0.513195 0.513195
0.518763 0.518763 0.518763
0.524758 0.524758 0.524758
0.531173 0.531173 0.531173
0.537998 0.537998 0.537998
0.545224 0.545224 0.545224
0.552840 0.552840 0.552840
0.560834 0.560834 0.560834
0.569193 0.569193 0.569193
0.577905 0.577905 0.577905
0.586955 0.586955 0.586955
0.596332 0.596332 0.596332
0.606021 0.606021 0.606021
0.616008 0.616008 0.616008
0.626282 0.626282 0.626282
0.636828 0.636828 0.636828
0.647634 0.647634 0.647634
0.658687 0.658687 0.658687
0.669976 0.669976 0.669976
0.681490 0.681490 0.681490
0.502843 0.502843 0.502843
0.503439 0.503439 0.503439
0.504111 0.504111 0.504111
0.505074 0.505074 0.505074
0.506363 0.506363 0.506363
0.508000 0.508000 0.508000
0.510005 0.510005 0.510005
0.512393 0.512393 0.512393
0.515176 0.515176 0.515176
0.518364 0.518364 0.518364
0.521963 0.521963 0.521963
0.525978 0.525978 0.525978
0.530410 0.530410 0.530410
0.535260 0.535260 0.535260
0.540525 0.540525 0.540525
0.546202 0.546202 0.546202
0.552284 0.552284 0.552284
0.558765 0.558765 0.558765
0.565637 0.565637 0.565637
0.572890 0.572890 0.572890
0.580515 0.580515 0.580515
0.588500 0.588500 0.588500
0.596835 0.596835 0.596835
0.605507 0.605507 0.605507
0.614504 0.614504 0.614504
0.623814 0.623814 0.623814
0.633426 0.633426 0.633426
0.643325 0.643325 0.643325
0.653502 0.653502 0.653502
0.663943 0.663943 0.663943
0.674637 0.674637 0.674637
0.685572 0.685572 0.685572
0.696739 0.696739 0.696739
0.526949 0.526949 0.526949
0.527508 0.527508 0.527508
0.528140 0.528140 0.528140
0.529044 0.529044 0.529044
0.530256 0.530256 0.530256
0.531795 0.531795 0.531795
0.533681 0.533681 0.533681
0.535928 0.535928 0.535928
0.538549 0.538549 0.538549
0.541554 0.541554 0.541554
0.544948 0.544948 0.544948
0.548739 0.548739 0.548739
0.552928 0.552928 0.552928
0.557516 0.557516 0.557516
0.562503 0.562503 0.562503
0.567886 0.567886 0.567886
0.573661 0.573661 0.573661
0.579823 0.579823 0.579823
0.586365 0.586365 0.586365
0.593279 0.593279 0.593279
0.600558 0.600558 0.600558
0.608190 0.608190 0.608190
0.616168 0.616168 0.616168
0.624480 0.624480 0.624480
0.633115 0.633115 0.633115
0.642063 0.642063 0.642063
0.651313 0.651313 0.651313
0.660852 0.660852 0.660852
0.670671 0.670671 0.670671
0.680758 0.680758 0.680758
0.691101 0.691101 0.691101
0.701691 0.701691 0.701691
0.712517 0.712517 0.712517
0.551055 0.551055 0.551055
0.551582 0.551582 0.551582
0.552177 0.552177 0.552177
0.553028 0.553028 0.553028
0.554169 0.554169 0.554169
0.555620 0.555620 0.555620
0.557399 0.557399 0.557399
0.559519 0.559519 0.559519
0.561993 0.561993 0.561993
0.564831 0.564831 0.564831
0.568040 0.568040 0.568040
0.571626 0.571626 0.571626
0.575592 0.575592 0.575592
0.579940 0.579940 0.579940
0.584672 0.584672 0.584672
0.589784 0.589784 0.589784
0.595275 0.595275 0.595275
0.601140 0.601140 0.601140
0.607374 0.607374 0.607374
0.613972 0.613972 0.613972
0.620925 0.620925 0.620925
0.628226 0.628226 0.628226
0.635866 0.635866 0.635866
0.643836 0.643836 0.643836
0.652127 0.652127 0.652127
0.660729 0.660729 0.660729
0.669632 0.669632 0.669632
0.678825 0.678825 0.678825
0.688299 0.688299 0.688299
0.698042 0.698042 0.698042
0.708046 0.708046 0.708046
0.718299 0.718299 0.718299
0.728791 0.728791 0.728791
0.575161 0.575161 0.575161
0.575658 0.575658 0.575658
0.576220 0.576220 0.576220
0.577024 0.577024 0.577024
0.578102 0.578102 0.578102
0.579472 0.579472 0.579472
0.581153 0.581153 0.581153
0.583158 0.583158 0.583158
0.585498 0.585498 0.585498
0.588184 0.588184 0.588184
0.591223 0.591223 0.591223
0.594622 0.594622 0.594622
0.598384 0.598384 0.598384
0.602513 0.602513 0.602513
0.607008 0.607008 0.607008
0.611870 0.611870 0.611870
0.617098 0.617098 0.617098
0.622687 0.622687 0.622687
0.628635 0.628635 0.628635
0.634936 0.634936 0.634936
0.641584 0.641584 0.641584
0.648572 0.648572 0.648572
0.655894 0.655894 0.655894
0.663541 0.663541 0.663541
0.671505 0.671505 0.671505
0.679777 0.679777 0.679777
0.688348 0.688348 0.688348
0.697209 0.697209 0.697209
0.706350 0.706350 0.706350
0.715762 0.715762 0.715762
0.725436 0.725436 0.725436
0.735362 0.735362 0.735362
0.745530 0.745530 0.745530
0.599267 0.599267 0.599267
0.599737 0.599737 0.599737
0.600269 0.600269 0.600269
0.601030 0.601030 0.601030
0.602050 0.602050 0.602050
0.603348 0.603348 0.603348
0.604939 0.604939 0.604939
0.606839 0.606839 0.606839
0.609057 0.609057 0.609057
0.611604 0.611604 0.611604
0.614488 0.614488 0.614488
0.617715 0.617715 0.617715
0.621290 0.621290 0.621290
0.625215 0.625215 0.625215
0.629493 0.629493 0.629493
0.634124 0.634124 0.634124
0.639107 0.639107 0.639107
0.644440 0.644440 0.644440
0.650121 0.650121 0.650121
0.656144 0.656144 0.656144
0.662506 0.662506 0.662506
0.669201 0.669201 0.669201
0.676222 0.676222 0.676222
0.683563 0.683563 0.683563
0.691216 0.691216 0.691216
0.699174 0.699174 0.699174
0.707429 0.707429 0.707429
0.715971 0.715971 0.715971
0.724793 0.724793 0.724793
0.733886 0.733886 0.733886
0.743241 0.743241 0.743241
0.752850 0.752850 0.752850
0.762703 0.762703 0.762703
0.623372 0.623372 0.623372
0.623818 0.623818 0.623818
0.624322 0.624322 0.624322
0.625044 0.625044 0.625044
0.626012 0.626012 0.626012
0.627243 0.627243 0.627243
0.628754 0.628754 0.628754
0.630557 0.630557 0.630557
0.632663 0.632663 0.632663
0.635083 0.635083 0.635083
0.637825 0.637825 0.637825
0.640894 0.640894 0.640894
0.644296 0.644296 0.644296
0.648034 0.648034 0.648034
0.652111 0.652111 0.652111
0.656527 0.656527 0.656527
0.661283 0.661283 0.661283
0.666378 0.666378 0.666378
0.671809 0.671809 0.671809
0.677573 0.677573 0.677573
0.683666 0.683666 0.683666
0.690085 0.690085 0.690085
0.696823 0.696823 0.696823
0.703874 0.703874 0.703874
0.711233 0.711233 0.711233
0.718892 0.718892 0.718892
0.726844 0.726844 0.726844
0.735082 0.735082 0.735082
0.743598 0.743598 0.743598
0.752384 0.752384 0.752384
0.761432 0.761432 0.761432
0.770734 0.770734 0.770734
0.780282 0.780282 0.780282
0.647478 0.647478 0.647478
0.647902 0.647902 0.647902
0.648381 0.648381 0.648381
0.649067 0.649067 0.649067
0.649986 0.649986 0.649986
0.651157 0.651157 0.651157
0.652593 0.652593 0.652593
0.654307 0.654307 0.654307
0.656311 0.656311 0.656311
0.658615 0.658615 0.658615
0.661225 0.661225 0.661225
0.664149 0.664149 0.664149
0.667391 0.667391 0.667391
0.670956 0.670956 0.670956
0.674847 0.674847 0.674847
0.679064 0.679064 0.679064
0.683609 0.683609 0.683609
0.688481 0.688481 0.688481
0.693679 0.693679 0.693679
0.699200 0.699200 0.699200
0.705042 0.705042 0.705042
0.711200 0.711200 0.711200
0.717670 0.717670 0.717670
0.724448 0.724448 0.724448
0.731528 0.731528 0.731528
