docs/luts/fuji_recipes/AcrosR_GB_BW_Hard.cube
TITLE "Fujifilm Recipe: GB BW Hard (AcrosR)"
# FilmSim=AcrosR HL=-1 SH=2 Col=0 WB=Auto WBR=0 WBB=0
LUT_3D_SIZE 5
DOMAIN_MIN 0.0 0.0 0.0
DOMAIN_MAX 1.0 1.0 1.0
0.000000 0.000000 0.000000
0.105426 0.105426 0.105426
0.233316 0.233316 0.233316
0.361206 0.361206 0.361206
0.529728 0.529728 0.529728
0.179667 0.179667 0.179667
0.213764 0.213764 0.213764
0.295177 0.295177 0.295177
0.400998 0.400998 0.400998
0.558425 0.558425 0.558425
0.368411 0.368411 0.368411
0.384293 0.384293 0.384293
0.430456 0.430456 0.430456
0.544888 0.544888 0.544888
0.639264 0.639264 0.639264
0.599267 0.599267 0.599267
0.609057 0.609057 0.609057
0.639107 0.639107 0.639107
0.691216 0.691216 0.691216
0.762703 0.762703 0.762703
0.792113 0.792113 0.792113
0.798853 0.798853 0.798853
0.819962 0.819962 0.819962
0.857963 0.857963 0.857963
0.912619 0.912619 0.912619
0.037968 0.037968 0.037968
0.121023 0.121023 0.121023
0.240415 0.240415 0.240415
0.365467 0.365467 0.365467
0.532720 0.532720 0.532720
0.189082 0.189082 0.189082
0.221585 0.221585 0.221585
0.300599 0.300599 0.300599
0.404749 0.404749 0.404749
0.561213 0.561213 0.561213
0.372571 0.372571 0.372571
0.388245 0.388245 0.388245
0.433892 0.433892 0.433892
0.547769 0.547769 0.547769
0.641589 0.641589 0.641589
0.601802 0.601802 0.601802
0.611538 0.611538 0.611538
0.641433 0.641433 0.641433
0.693308 0.693308 0.693308
0.764534 0.764534 0.764534
0.793852 0.793852 0.793852
0.800572 0.800572 0.800572
0.821621 0.821621 0.821621
0.859523 0.859523 0.859523
0.914053 0.914053 0.914053
0.110565 0.110565 0.110565
0.161138 0.161138 0.161138
0.261697 0.261697 0.261697
0.378738 0.378738 0.378738
0.542166 0.542166 0.542166
0.216261 0.216261 0.216261
0.244766 0.244766 0.244766
0.317246 0.317246 0.317246
0.416495 0.416495 0.416495
0.570031 0.570031 0.570031
0.385543 0.385543 0.385543
0.400594 0.400594 0.400594
0.444687 0.444687 0.444687
0.556874 0.556874 0.556874
0.648968 0.648968 0.648968
0.609840 0.609840 0.609840
0.619406 0.619406 0.619406
0.648815 0.648815 0.648815
0.699960 0.699960 0.699960
0.770365 0.770365 0.770365
0.799395 0.799395 0.799395
0.806051 0.806051 0.806051
0.826911 0.826911 0.826911
0.864500 0.864500 0.864500
0.918631 0.918631 0.918631
0.183162 0.183162 0.183162
0.216653 0.216653 0.216653
0.297168 0.297168 0.297168
0.402371 0.402371 0.402371
0.559444 0.559444 0.559444
0.259115 0.259115 0.259115
0.282736 0.282736 0.282736
0.346124 0.346124 0.346124
0.437638 0.437638 0.437638
0.586217 0.586217 0.586217
0.408692 0.408692 0.408692
0.422730 0.422730 0.422730
0.504335 0.504335 0.504335
0.573561 0.573561 0.573561
0.662618 0.662618 0.662618
0.624656 0.624656 0.624656
0.633921 0.633921 0.633921
0.662468 0.662468 0.662468
0.712306 0.712306 0.712306
0.781228 0.781228 0.781228
0.809732 0.809732 0.809732
0.816274 0.816274 0.816274
0.836789 0.836789 0.836789
0.873804 0.873804 0.873804
0.927202 0.927202 0.927202
0.255759 0.255759 0.255759
0.279712 0.279712 0.279712
0.343759 0.343759 0.343759
0.435873 0.435873 0.435873
0.584851 0.584851 0.584851
0.312545 0.312545 0.312545
0.331752 0.331752 0.331752
0.385759 0.385759 0.385759
0.508217 0.508217 0.508217
0.610143 0.610143 0.610143
0.441601 0.441601 0.441601
0.454384 0.454384 0.454384
0.533317 0.533317 0.533317
0.598168 0.598168 0.598168
0.683023 0.683023 0.683023
0.646693 0.646693 0.646693
0.655541 0.655541 0.655541
0.682880 0.682880 0.682880
0.730862 0.730862 0.730862
0.797649 0.797649 0.797649
0.825387 0.825387 0.825387
0.831762 0.831762 0.831762
0.851772 0.851772 0.851772
0.887943 0.887943 0.887943
0.940259 0.940259 0.940259
