docs/luts/fuji_recipes/AcrosG_KM_Portrait.cube
TITLE "Fujifilm Recipe: KM Portrait (AcrosG)"
# FilmSim=AcrosG HL=-1 SH=2 Col=0 WB=Auto WBR=0 WBB=0
LUT_3D_SIZE 9
DOMAIN_MIN 0.0 0.0 0.0
DOMAIN_MAX 1.0 1.0 1.0
0.000000 0.000000 0.000000
0.031549 0.031549 0.031549
0.088301 0.088301 0.088301
0.145228 0.145228 0.145228
0.202154 0.202154 0.202154
0.259081 0.259081 0.259081
0.316008 0.316008 0.316008
0.372934 0.372934 0.372934
0.429861 0.429861 0.429861
0.102050 0.102050 0.102050
0.115512 0.115512 0.115512
0.144289 0.144289 0.144289
0.184461 0.184461 0.184461
0.231182 0.231182 0.231182
0.281554 0.281554 0.281554
0.334037 0.334037 0.334037
0.387808 0.387808 0.387808
0.442405 0.442405 0.442405
0.208056 0.208056 0.208056
0.214770 0.214770 0.214770
0.230868 0.230868 0.230868
0.256751 0.256751 0.256751
0.290758 0.290758 0.290758
0.330851 0.330851 0.330851
0.375292 0.375292 0.375292
0.422797 0.422797 0.422797
0.512746 0.512746 0.512746
0.314063 0.314063 0.314063
0.318256 0.318256 0.318256
0.328637 0.328637 0.328637
0.346224 0.346224 0.346224
0.370799 0.370799 0.370799
0.401558 0.401558 0.401558
0.437467 0.437467 0.437467
0.517888 0.517888 0.517888
0.562117 0.562117 0.562117
0.420070 0.420070 0.420070
0.423014 0.423014 0.423014
0.430394 0.430394 0.430394
0.443175 0.443175 0.443175
0.501614 0.501614 0.501614
0.525966 0.525966 0.525966
0.555390 0.555390 0.555390
0.589268 0.589268 0.589268
0.626952 0.626952 0.626952
0.567513 0.567513 0.567513
0.569780 0.569780 0.569780
0.575497 0.575497 0.575497
0.585506 0.585506 0.585506
0.600146 0.600146 0.600146
0.619478 0.619478 0.619478
0.643343 0.643343 0.643343
0.671434 0.671434 0.671434
0.703355 0.703355 0.703355
0.675824 0.675824 0.675824
0.677616 0.677616 0.677616
0.682148 0.682148 0.682148
0.690130 0.690130 0.690130
0.701911 0.701911 0.701911
0.717648 0.717648 0.717648
0.737341 0.737341 0.737341
0.760868 0.760868 0.760868
0.788012 0.788012 0.788012
0.784135 0.784135 0.784135
0.785600 0.785600 0.785600
0.789312 0.789312 0.789312
0.795872 0.795872 0.795872
0.805608 0.805608 0.805608
0.818708 0.818708 0.818708
0.835247 0.835247 0.835247
0.855205 0.855205 0.855205
0.878482 0.878482 0.878482
0.892447 0.892447 0.892447
0.893675 0.893675 0.893675
0.896790 0.896790 0.896790
0.902310 0.902310 0.902310
0.910530 0.910530 0.910530
0.921643 0.921643 0.921643
0.935759 0.935759 0.935759
0.952910 0.952910 0.952910
0.970000 0.970000 0.970000
0.010714 0.010714 0.010714
0.041994 0.041994 0.041994
0.093697 0.093697 0.093697
0.148614 0.148614 0.148614
0.204536 0.204536 0.204536
0.260878 0.260878 0.260878
0.317428 0.317428 0.317428
0.374096 0.374096 0.374096
0.430835 0.430835 0.430835
0.106803 0.106803 0.106803
0.119752 0.119752 0.119752
0.147698 0.147698 0.147698
0.187094 0.187094 0.187094
0.233231 0.233231 0.233231
0.283184 0.283184 0.283184
0.335366 0.335366 0.335366
0.388915 0.388915 0.388915
0.443345 0.443345 0.443345
0.210364 0.210364 0.210364
0.216997 0.216997 0.216997
0.232920 0.232920 0.232920
0.258567 0.258567 0.258567
0.292327 0.292327 0.292327
0.332195 0.332195 0.332195
0.376445 0.376445 0.376445
0.423792 0.423792 0.423792
0.513630 0.513630 0.513630
0.315494 0.315494 0.315494
0.319664 0.319664 0.319664
0.329993 0.329993 0.329993
0.347496 0.347496 0.347496
0.371969 0.371969 0.371969
0.402618 0.402618 0.402618
0.438420 0.438420 0.438420
0.518760 0.518760 0.518760
0.562898 0.562898 0.562898
0.421072 0.421072 0.421072
0.424008 0.424008 0.424008
0.431366 0.431366 0.431366
0.444113 0.444113 0.444113
0.502525 0.502525 0.502525
0.526820 0.526820 0.526820
0.556184 0.556184 0.556184
0.590001 0.590001 0.590001
0.627626 0.627626 0.627626
0.568284 0.568284 0.568284
0.570547 0.570547 0.570547
0.576254 0.576254 0.576254
0.586245 0.586245 0.586245
0.600862 0.600862 0.600862
0.620163 0.620163 0.620163
0.643994 0.643994 0.643994
0.672049 0.672049 0.672049
0.703932 0.703932 0.703932
0.676433 0.676433 0.676433
0.678223 0.678223 0.678223
0.682749 0.682749 0.682749
0.690722 0.690722 0.690722
0.702490 0.702490 0.702490
0.718209 0.718209 0.718209
0.737883 0.737883 0.737883
0.761386 0.761386 0.761386
0.788507 0.788507 0.788507
0.784633 0.784633 0.784633
0.786097 0.786097 0.786097
0.789805 0.789805 0.789805
0.796360 0.796360 0.796360
0.806088 0.806088 0.806088
0.819177 0.819177 0.819177
0.835704 0.835704 0.835704
0.855647 0.855647 0.855647
0.878908 0.878908 0.878908
0.892864 0.892864 0.892864
0.894091 0.894091 0.894091
0.897205 0.897205 0.897205
0.902721 0.902721 0.902721
0.910936 0.910936 0.910936
0.922043 0.922043 0.922043
0.936150 0.936150 0.936150
0.953291 0.953291 0.953291
0.970000 0.970000 0.970000
0.037968 0.037968 0.037968
0.063343 0.063343 0.063343
0.106296 0.106296 0.106296
0.156889 0.156889 0.156889
0.210463 0.210463 0.210463
0.265388 0.265388 0.265388
0.321011 0.321011 0.321011
0.377033 0.377033 0.377033
0.433302 0.433302 0.433302
0.118077 0.118077 0.118077
0.129927 0.129927 0.129927
0.156024 0.156024 0.156024
0.193620 0.193620 0.193620
0.238355 0.238355 0.238355
0.287284 0.287284 0.287284
0.338720 0.338720 0.338720
0.391716 0.391716 0.391716
0.445726 0.445726 0.445726
0.216111 0.216111 0.216111
0.222550 0.222550 0.222550
0.238052 0.238052 0.238052
0.263123 0.263123 0.263123
0.296277 0.296277 0.296277
0.335588 0.335588 0.335588
0.379360 0.379360 0.379360
0.426310 0.426310 0.426310
0.515870 0.515870 0.515870
0.319103 0.319103 0.319103
0.323217 0.323217 0.323217
0.333412 0.333412 0.333412
0.350709 0.350709 0.350709
0.374927 0.374927 0.374927
0.405302 0.405302 0.405302
0.440834 0.440834 0.440834
0.520971 0.520971 0.520971
0.564881 0.564881 0.564881
0.423611 0.423611 0.423611
0.426525 0.426525 0.426525
0.433830 0.433830 0.433830
0.446489 0.446489 0.446489
0.504832 0.504832 0.504832
0.528987 0.528987 0.528987
0.558198 0.558198 0.558198
0.591862 0.591862 0.591862
0.629338 0.629338 0.629338
0.570241 0.570241 0.570241
0.572494 0.572494 0.572494
0.578174 0.578174 0.578174
0.588122 0.588122 0.588122
0.602677 0.602677 0.602677
0.621903 0.621903 0.621903
0.645648 0.645648 0.645648
0.673610 0.673610 0.673610
0.705399 0.705399 0.705399
0.677981 0.677981 0.677981
0.679765 0.679765 0.679765
0.684277 0.684277 0.684277
0.692226 0.692226 0.692226
0.703960 0.703960 0.703960
0.719636 0.719636 0.719636
0.739258 0.739258 0.739258
0.762704 0.762704 0.762704
0.789764 0.789764 0.789764
0.785898 0.785898 0.785898
0.787359 0.787359 0.787359
0.791059 0.791059 0.791059
0.797600 0.797600 0.797600
0.807307 0.807307 0.807307
0.820371 0.820371 0.820371
0.836865 0.836865 0.836865
0.856772 0.856772 0.856772
0.879992 0.879992 0.879992
0.893925 0.893925 0.893925
0.895150 0.895150 0.895150
0.898259 0.898259 0.898259
0.903766 0.903766 0.903766
0.911968 0.911968 0.911968
0.923058 0.923058 0.923058
0.937144 0.937144 0.937144
0.954262 0.954262 0.954262
0.970000 0.970000 0.970000
0.074267 0.074267 0.074267
0.091517 0.091517 0.091517
0.125792 0.125792 0.125792
0.170598 0.170598 0.170598
0.220590 0.220590 0.220590
0.273214 0.273214 0.273214
0.327282 0.327282 0.327282
0.382202 0.382202 0.382202
0.437660 0.437660 0.437660
0.135913 0.135913 0.135913
0.146309 0.146309 0.146309
0.169807 0.169807 0.169807
0.204688 0.204688 0.204688
0.247189 0.247189 0.247189
0.294427 0.294427 0.294427
0.344602 0.344602 0.344602
0.396649 0.396649 0.396649
0.449932 0.449932 0.449932
0.225951 0.225951 0.225951
0.232081 0.232081 0.232081
0.246899 0.246899 0.246899
0.271026 0.271026 0.271026
0.303168 0.303168 0.303168
0.341536 0.341536 0.341536
0.384490 0.384490 0.384490
0.430756 0.430756 0.430756
0.519835 0.519835 0.519835
0.325419 0.325419 0.325419
0.329437 0.329437 0.329437
0.339407 0.339407 0.339407
0.356352 0.356352 0.356352
0.380131 0.380131 0.380131
0.410034 0.410034 0.410034
0.445099 0.445099 0.445099
0.524884 0.524884 0.524884
0.568392 0.568392 0.568392
0.428092 0.428092 0.428092
0.430968 0.430968 0.430968
0.438181 0.438181 0.438181
0.450687 0.450687 0.450687
0.508912 0.508912 0.508912
0.532820 0.532820 0.532820
0.561766 0.561766 0.561766
0.595161 0.595161 0.595161
0.632376 0.632376 0.632376
0.573709 0.573709 0.573709
0.575943 0.575943 0.575943
0.581578 0.581578 0.581578
0.591449 0.591449 0.591449
0.605897 0.605897 0.605897
0.624990 0.624990 0.624990
0.648583 0.648583 0.648583
0.676382 0.676382 0.676382
0.708003 0.708003 0.708003
0.680728 0.680728 0.680728
0.682503 0.682503 0.682503
0.686991 0.686991 0.686991
0.694898 0.694898 0.694898
0.706571 0.706571 0.706571
0.722171 0.722171 0.722171
0.741702 0.741702 0.741702
0.765047 0.765047 0.765047
0.791998 0.791998 0.791998
0.788148 0.788148 0.788148
0.789603 0.789603 0.789603
0.793288 0.793288 0.793288
0.799805 0.799805 0.799805
0.809476 0.809476 0.809476
0.822493 0.822493 0.822493
0.838931 0.838931 0.838931
0.858772 0.858772 0.858772
0.881921 0.881921 0.881921
0.895813 0.895813 0.895813
0.897035 0.897035 0.897035
0.900134 0.900134 0.900134
0.905626 0.905626 0.905626
0.913805 0.913805 0.913805
0.924865 0.924865 0.924865
0.938914 0.938914 0.938914
0.955988 0.955988 0.955988
0.970000 0.970000 0.970000
0.110565 0.110565 0.110565
0.123129 0.123129 0.123129
0.150440 0.150440 0.150440
0.189229 0.189229 0.189229
0.234900 0.234900 0.234900
0.284516 0.284516 0.284516
0.336453 0.336453 0.336453
0.389822 0.389822 0.389822
0.444115 0.444115 0.444115
0.158954 0.158954 0.158954
0.167866 0.167866 0.167866
0.188523 0.188523 0.188523
0.220177 0.220177 0.220177
0.259831 0.259831 0.259831
0.304803 0.304803 0.304803
0.353231 0.353231 0.353231
0.403934 0.403934 0.403934
0.456171 0.456171 0.456171
0.239896 0.239896 0.239896
0.245628 0.245628 0.245628
0.259558 0.259558 0.259558
0.282431 0.282431 0.282431
0.313198 0.313198 0.313198
0.350257 0.350257 0.350257
0.392055 0.392055 0.392055
0.437340 0.437340 0.437340
0.525725 0.525725 0.525725
0.334652 0.334652 0.334652
0.338538 0.338538 0.338538
0.348193 0.348193 0.348193
0.364642 0.364642 0.364642
0.387801 0.387801 0.387801
0.417029 0.417029 0.417029
0.451422 0.451422 0.451422
0.530699 0.530699 0.530699
0.573623 0.573623 0.573623
0.434726 0.434726 0.434726
0.437547 0.437547 0.437547
0.444627 0.444627 0.444627
0.456912 0.456912 0.456912
0.514970 0.514970 0.514970
0.538521 0.538521 0.538521
0.567079 0.567079 0.567079
0.600079 0.600079 0.600079
0.636910 0.636910 0.636910
0.578875 0.578875 0.578875
0.581082 0.581082 0.581082
0.586651 0.586651 0.586651
0.596409 0.596409 0.596409
0.610699 0.610699 0.610699
0.629596 0.629596 0.629596
0.652965 0.652965 0.652965
0.680524 0.680524 0.680524
0.711897 0.711897 0.711897
0.684835 0.684835 0.684835
0.686595 0.686595 0.686595
0.691047 0.691047 0.691047
0.698892 0.698892 0.698892
0.710477 0.710477 0.710477
0.725963 0.725963 0.725963
0.745360 0.745360 0.745360
0.768555 0.768555 0.768555
0.795345 0.795345 0.795345
0.791517 0.791517 0.791517
0.792963 0.792963 0.792963
0.796628 0.796628 0.796628
0.803107 0.803107 0.803107
0.812725 0.812725 0.812725
0.825672 0.825672 0.825672
0.842026 0.842026 0.842026
0.861770 0.861770 0.861770
0.884813 0.884813 0.884813
0.898644 0.898644 0.898644
0.899860 0.899860 0.899860
0.902946 0.902946 0.902946
0.908415 0.908415 0.908415
0.916560 0.916560 0.916560
0.927575 0.927575 0.927575
0.941570 0.941570 0.941570
0.958579 0.958579 0.958579
0.970000 0.970000 0.970000
0.146864 0.146864 0.146864
0.156507 0.156507 0.156507
0.178588 0.178588 0.178588
0.211894 0.211894 0.211894
0.253033 0.253033 0.253033
0.299201 0.299201 0.299201
0.348560 0.348560 0.348560
0.399984 0.399984 0.399984
0.452784 0.452784 0.452784
0.185730 0.185730 0.185730
0.193316 0.193316 0.193316
0.211272 0.211272 0.211272
0.239596 0.239596 0.239596
0.276082 0.276082 0.276082
0.318381 0.318381 0.318381
0.364663 0.364663 0.364663
0.413668 0.413668 0.413668
0.504657 0.504657 0.504657
0.257624 0.257624 0.257624
0.262909 0.262909 0.262909
0.275827 0.275827 0.275827
0.297239 0.297239 0.297239
0.326358 0.326358 0.326358
0.361804 0.361804 0.361804
0.402147 0.402147 0.402147
0.446174 0.446174 0.446174
0.533663 0.533663 0.533663
0.346836 0.346836 0.346836
0.350558 0.350558 0.350558
0.359821 0.359821 0.359821
0.375650 0.375650 0.375650
0.398027 0.398027 0.398027
0.426392 0.426392 0.426392
0.459918 0.459918 0.459918
0.538539 0.538539 0.538539
0.580694 0.580694 0.580694
0.443626 0.443626 0.443626
0.446377 0.446377 0.446377
0.453284 0.453284 0.453284
0.505398 0.505398 0.505398
0.523128 0.523128 0.523128
0.546210 0.546210 0.546210
0.574259 0.574259 0.574259
0.606739 0.606739 0.606739
0.643060 0.643060 0.643060
0.585861 0.585861 0.585861
0.588033 0.588033 0.588033
0.593514 0.593514 0.593514
0.603123 0.603123 0.603123
0.617204 0.617204 0.617204
0.635842 0.635842 0.635842
0.658914 0.658914 0.658914
0.686151 0.686151 0.686151
0.717193 0.717193 0.717193
0.690414 0.690414 0.690414
0.692155 0.692155 0.692155
0.696559 0.696559 0.696559
0.704321 0.704321 0.704321
0.715787 0.715787 0.715787
0.731121 0.731121 0.731121
0.750338 0.750338 0.750338
0.773331 0.773331 0.773331
0.799905 0.799905 0.799905
0.796106 0.796106 0.796106
0.797541 0.797541 0.797541
0.801177 0.801177 0.801177
0.807607 0.807607 0.807607
0.817153 0.817153 0.817153
0.830006 0.830006 0.830006
0.846246 0.846246 0.846246
0.865860 0.865860 0.865860
0.888758 0.888758 0.888758
0.902507 0.902507 0.902507
0.903716 0.903716 0.903716
0.906785 0.906785 0.906785
0.912222 0.912222 0.912222
0.920321 0.920321 0.920321
0.931276 0.931276 0.931276
0.945195 0.945195 0.945195
0.962117 0.962117 0.962117
0.970000 0.970000 0.970000
0.183162 0.183162 0.183162
0.190860 0.190860 0.190860
0.209051 0.209051 0.209051
0.237675 0.237675 0.237675
0.274457 0.274457 0.274457
0.317011 0.317011 0.317011
0.363503 0.363503 0.363503
0.412676 0.412676 0.412676
0.503782 0.503782 0.503782
0.215081 0.215081 0.215081
0.221555 0.221555 0.221555
0.237131 0.237131 0.237131
0.262303 0.262303 0.262303
0.295565 0.295565 0.295565
0.334976 0.334976 0.334976
0.378833 0.378833 0.378833
0.425855 0.425855 0.425855
0.515465 0.515465 0.515465
0.278637 0.278637 0.278637
0.283464 0.283464 0.283464
0.295330 0.295330 0.295330
0.315182 0.315182 0.315182
0.342488 0.342488 0.342488
0.376106 0.376106 0.376106
0.414757 0.414757 0.414757
0.457290 0.457290 0.457290
0.543706 0.543706 0.543706
0.361865 0.361865 0.361865
0.365401 0.365401 0.365401
0.374216 0.374216 0.374216
0.389331 0.389331 0.389331
0.410794 0.410794 0.410794
0.438140 0.438140 0.438140
0.510858 0.510858 0.510858
0.548462 0.548462 0.548462
0.589676 0.589676 0.589676
0.454820 0.454820 0.454820
0.457486 0.457486 0.457486
0.504277 0.504277 0.504277
0.516184 0.516184 0.516184
0.533438 0.533438 0.533438
0.555950 0.555950 0.555950
0.583375 0.583375 0.583375
0.615213 0.615213 0.615213
0.650902 0.650902 0.650902
0.594738 0.594738 0.594738
0.596867 0.596867 0.596867
0.602240 0.602240 0.602240
0.611665 0.611665 0.611665
0.625488 0.625488 0.625488
0.643803 0.643803 0.643803
0.666504 0.666504 0.666504
0.693341 0.693341 0.693341
0.723969 0.723969 0.723969
0.697545 0.697545 0.697545
0.699262 0.699262 0.699262
0.703606 0.703606 0.703606
0.711263 0.711263 0.711263
0.722580 0.722580 0.722580
0.737723 0.737723 0.737723
0.756713 0.756713 0.756713
0.779452 0.779452 0.779452
0.805753 0.805753 0.805753
0.801993 0.801993 0.801993
0.803413 0.803413 0.803413
0.807013 0.807013 0.807013
0.813380 0.813380 0.813380
0.822836 0.822836 0.822836
0.835570 0.835570 0.835570
0.851666 0.851666 0.851666
0.871114 0.871114 0.871114
0.893829 0.893829 0.893829
0.907473 0.907473 0.907473
0.908674 0.908674 0.908674
0.911719 0.911719 0.911719
0.917116 0.917116 0.917116
0.925157 0.925157 0.925157
0.936035 0.936035 0.936035
0.949859 0.949859 0.949859
0.966670 0.966670 0.966670
0.970000 0.970000 0.970000
0.219460 0.219460 0.219460
0.225792 0.225792 0.225792
0.241055 0.241055 0.241055
0.265799 0.265799 0.265799
0.298604 0.298604 0.298604
0.337593 0.337593 0.337593
0.381086 0.381086 0.381086
0.427805 0.427805 0.427805
0.517202 0.517202 0.517202
0.246199 0.246199 0.246199
0.251765 0.251765 0.251765
0.265321 0.265321 0.265321
0.287658 0.287658 0.287658
0.317827 0.317827 0.317827
0.354305 0.354305 0.354305
0.395584 0.395584 0.395584
0.440422 0.440422 0.440422
0.528490 0.528490 0.528490
0.302391 0.302391 0.302391
0.306776 0.306776 0.306776
0.317611 0.317611 0.317611
0.335898 0.335898 0.335898
0.361330 0.361330 0.361330
0.393000 0.393000 0.393000
0.429795 0.429795 0.429795
0.510881 0.510881 0.510881
0.555852 0.555852 0.555852
0.379541 0.379541 0.379541
0.382877 0.382877 0.382877
0.391210 0.391210 0.391210
0.405548 0.405548 0.405548
0.426006 0.426006 0.426006
0.452215 0.452215 0.452215
0.524037 0.524037 0.524037
0.560471 0.560471 0.560471
0.600591 0.600591 0.600591
0.508448 0.508448 0.508448
0.511075 0.511075 0.511075
0.517680 0.517680 0.517680
0.529186 0.529186 0.529186
0.545892 0.545892 0.545892
0.567747 0.567747 0.567747
0.594446 0.594446 0.594446
0.625532 0.625532 0.625532
0.660476 0.660476 0.660476
0.605531 0.605531 0.605531
0.607609 0.607609 0.607609
0.612855 0.612855 0.612855
0.622063 0.622063 0.622063
0.635582 0.635582 0.635582
0.653517 0.653517 0.653517
0.675781 0.675781 0.675781
0.702141 0.702141 0.702141
0.732274 0.732274 0.732274
0.706274 0.706274 0.706274
0.707962 0.707962 0.707962
0.712234 0.712234 0.712234
0.719767 0.719767 0.719767
0.730906 0.730906 0.730906
0.745821 0.745821 0.745821
0.764539 0.764539 0.764539
0.786972 0.786972 0.786972
0.812944 0.812944 0.812944
0.809229 0.809229 0.809229
0.810632 0.810632 0.810632
0.814189 0.814189 0.814189
0.820480 0.820480 0.820480
0.829826 0.829826 0.829826
0.842416 0.842416 0.842416
0.858338 0.858338 0.858338
0.877585 0.877585 0.877585
0.900079 0.900079 0.900079
0.913596 0.913596 0.913596
0.914785 0.914785 0.914785
0.917803 0.917803 0.917803
0.923152 0.923152 0.923152
0.931122 0.931122 0.931122
0.941905 0.941905 0.941905
0.955614 0.955614 0.955614
0.970000 0.970000 0.970000
0.970000 0.970000 0.970000
0.255759 0.255759 0.255759
0.261088 0.261088 0.261088
0.274107 0.274107 0.274107
0.295666 0.295666 0.295666
0.324953 0.324953 0.324953
0.360566 0.360566 0.360566
0.401061 0.401061 0.401061
0.445221 0.445221 0.445221
0.532804 0.532804 0.532804
0.278546 0.278546 0.278546
0.283374 0.283374 0.283374
0.295244 0.295244 0.295244
0.315103 0.315103 0.315103
0.342416 0.342416 0.342416
0.376043 0.376043 0.376043
0.414701 0.414701 0.414701
0.457240 0.457240 0.457240
0.543661 0.543661 0.543661
0.328377 0.328377 0.328377
0.332353 0.332353 0.332353
0.342219 0.342219 0.342219
0.359003 0.359003 0.359003
0.382581 0.382581 0.382581
0.412265 0.412265 0.412265
0.447114 0.447114 0.447114
0.526735 0.526735 0.526735
0.570056 0.570056 0.570056
0.399611 0.399611 0.399611
0.402742 0.402742 0.402742
0.410579 0.410579 0.410579
0.424110 0.424110 0.424110
0.443510 0.443510 0.443510
0.508688 0.508688 0.508688
0.539376 0.539376 0.539376
0.574521 0.574521 0.574521
0.613421 0.613421 0.613421
0.524400 0.524400 0.524400
0.526920 0.526920 0.526920
0.533264 0.533264 0.533264
0.544330 0.544330 0.544330
0.560435 0.560435 0.560435
0.581561 0.581561 0.581561
0.607451 0.607451 0.607451
0.637690 0.637690 0.637690
0.671789 0.671789 0.671789
0.618223 0.618223 0.618223
0.620243 0.620243 0.620243
0.625347 0.625347 0.625347
0.634311 0.634311 0.634311
0.647487 0.647487 0.647487
0.664991 0.664991 0.664991
0.686754 0.686754 0.686754
0.712568 0.712568 0.712568
0.742132 0.742132 0.742132
0.716620 0.716620 0.716620
0.718275 0.718275 0.718275
0.722465 0.722465 0.722465
0.729855 0.729855 0.729855
0.740789 0.740789 0.740789
0.755440 0.755440 0.755440
0.773843 0.773843 0.773843
0.795922 0.795922 0.795922
0.821511 0.821511 0.821511
0.817849 0.817849 0.817849
0.819232 0.819232 0.819232
0.822739 0.822739 0.822739
0.828942 0.828942 0.828942
0.838159 0.838159 0.838159
0.850582 0.850582 0.850582
0.866300 0.866300 0.866300
0.885312 0.885312 0.885312
0.907545 0.907545 0.907545
0.920913 0.920913 0.920913
0.922090 0.922090 0.922090
0.925075 0.925075 0.925075
0.930367 0.930367 0.930367
0.938253 0.938253 0.938253
0.948926 0.948926 0.948926
0.962498 0.962498 0.962498
0.970000 0.970000 0.970000
0.970000 0.970000 0.970000
