docs/luts/fuji_recipes/AcrosG_BLP_Ilford_Delta_3200.cube
TITLE "Fujifilm Recipe: BLP Ilford Delta 3200 (AcrosG)"
# FilmSim=AcrosG HL=-2 SH=4 Col=0 WB=Auto WBR=0 WBB=0
LUT_3D_SIZE 5
DOMAIN_MIN 0.0 0.0 0.0
DOMAIN_MAX 1.0 1.0 1.0
0.000000 0.000000 0.000000
0.069094 0.069094 0.069094
0.163597 0.163597 0.163597
0.258100 0.258100 0.258100
0.352602 0.352602 0.352602
0.168496 0.168496 0.168496
0.187430 0.187430 0.187430
0.237141 0.237141 0.237141
0.307308 0.307308 0.307308
0.387973 0.387973 0.387973
0.344476 0.344476 0.344476
0.353045 0.353045 0.353045
0.378931 0.378931 0.378931
0.502741 0.502741 0.502741
0.563645 0.563645 0.563645
0.605239 0.605239 0.605239
0.610621 0.610621 0.610621
0.627441 0.627441 0.627441
0.657594 0.657594 0.657594
0.700719 0.700719 0.700719
0.789599 0.789599 0.789599
0.793296 0.793296 0.793296
0.804989 0.804989 0.804989
0.826460 0.826460 0.826460
0.858214 0.858214 0.858214
0.027591 0.027591 0.027591
0.084030 0.084030 0.084030
0.170493 0.170493 0.170493
0.262252 0.262252 0.262252
0.355459 0.355459 0.355459
0.175181 0.175181 0.175181
0.193393 0.193393 0.193393
0.241722 0.241722 0.241722
0.310684 0.310684 0.310684
0.390512 0.390512 0.390512
0.347415 0.347415 0.347415
0.355897 0.355897 0.355897
0.381545 0.381545 0.381545
0.505131 0.505131 0.505131
0.565676 0.565676 0.565676
0.607074 0.607074 0.607074
0.612433 0.612433 0.612433
0.629184 0.629184 0.629184
0.659225 0.659225 0.659225
0.702209 0.702209 0.702209
0.790857 0.790857 0.790857
0.794545 0.794545 0.794545
0.806213 0.806213 0.806213
0.827640 0.827640 0.827640
0.859331 0.859331 0.859331
0.087574 0.087574 0.087574
0.120671 0.120671 0.120671
0.190777 0.190777 0.190777
0.275070 0.275070 0.275070
0.364434 0.364434 0.364434
0.194924 0.194924 0.194924
0.211244 0.211244 0.211244
0.255768 0.255768 0.255768
0.321222 0.321222 0.321222
0.398517 0.398517 0.398517
0.356641 0.356641 0.356641
0.364859 0.364859 0.364859
0.389781 0.389781 0.389781
0.512690 0.512690 0.512690
0.572121 0.572121 0.572121
0.612908 0.612908 0.612908
0.618195 0.618195 0.618195
0.634731 0.634731 0.634731
0.664418 0.664418 0.664418
0.706959 0.706959 0.706959
0.794873 0.794873 0.794873
0.798535 0.798535 0.798535
0.810121 0.810121 0.810121
0.831406 0.831406 0.831406
0.862903 0.862903 0.862903
0.147832 0.147832 0.147832
0.169321 0.169321 0.169321
0.223611 0.223611 0.223611
0.297523 0.297523 0.297523
0.380691 0.380691 0.380691
0.227080 0.227080 0.227080
0.240936 0.240936 0.240936
0.280079 0.280079 0.280079
0.340066 0.340066 0.340066
0.413125 0.413125 0.413125
0.373319 0.373319 0.373319
0.381093 0.381093 0.381093
0.404783 0.404783 0.404783
0.526559 0.526559 0.526559
0.584029 0.584029 0.584029
0.623725 0.623725 0.623725
0.628883 0.628883 0.628883
0.645032 0.645032 0.645032
0.674081 0.674081 0.674081
0.715817 0.715817 0.715817
0.802388 0.802388 0.802388
0.806001 0.806001 0.806001
0.817438 0.817438 0.817438
0.838461 0.838461 0.838461
0.869599 0.869599 0.869599
0.208091 0.208091 0.208091
0.223320 0.223320 0.223320
0.265525 0.265525 0.265525
0.328697 0.328697 0.328697
0.404269 0.404269 0.404269
0.268367 0.268367 0.268367
0.279856 0.279856 0.279856
0.313358 0.313358 0.313358
0.366923 0.366923 0.366923
0.515223 0.515223 0.515223
0.397441 0.397441 0.397441
0.404642 0.404642 0.404642
0.507035 0.507035 0.507035
0.547049 0.547049 0.547049
0.601805 0.601805 0.601805
0.639959 0.639959 0.639959
0.644933 0.644933 0.644933
0.660528 0.660528 0.660528
0.688660 0.688660 0.688660
0.729228 0.729228 0.729228
0.813826 0.813826 0.813826
0.817368 0.817368 0.817368
0.828583 0.828583 0.828583
0.849217 0.849217 0.849217
0.879821 0.879821 0.879821
