docs/luts/fuji_recipes/AcrosR_GB_BW_Hard.cube
TITLE "Fujifilm Recipe: GB BW Hard (AcrosR)"
# FilmSim=AcrosR HL=-1 SH=2 Col=0 WB=Auto WBR=0 WBB=0
LUT_3D_SIZE 9
DOMAIN_MIN 0.0 0.0 0.0
DOMAIN_MAX 1.0 1.0 1.0
0.000000 0.000000 0.000000
0.041481 0.041481 0.041481
0.105426 0.105426 0.105426
0.169371 0.169371 0.169371
0.233316 0.233316 0.233316
0.297261 0.297261 0.297261
0.361206 0.361206 0.361206
0.425151 0.425151 0.425151
0.529728 0.529728 0.529728
0.085295 0.085295 0.085295
0.105418 0.105418 0.105418
0.144881 0.144881 0.144881
0.195940 0.195940 0.195940
0.252577 0.252577 0.252577
0.312009 0.312009 0.312009
0.372963 0.372963 0.372963
0.434811 0.434811 0.434811
0.538032 0.538032 0.538032
0.179667 0.179667 0.179667
0.189976 0.189976 0.189976
0.213764 0.213764 0.213764
0.250008 0.250008 0.250008
0.295177 0.295177 0.295177
0.346201 0.346201 0.346201
0.400998 0.400998 0.400998
0.458262 0.458262 0.458262
0.558425 0.558425 0.558425
0.274039 0.274039 0.274039
0.280522 0.280522 0.280522
0.296271 0.296271 0.296271
0.322110 0.322110 0.322110
0.356832 0.356832 0.356832
0.398614 0.398614 0.398614
0.445704 0.445704 0.445704
0.537488 0.537488 0.537488
0.592492 0.592492 0.592492
0.368411 0.368411 0.368411
0.372975 0.372975 0.372975
0.384293 0.384293 0.384293
0.403513 0.403513 0.403513
0.430456 0.430456 0.430456
0.504389 0.504389 0.504389
0.544888 0.544888 0.544888
0.590178 0.590178 0.590178
0.639264 0.639264 0.639264
0.502843 0.502843 0.502843
0.506363 0.506363 0.506363
0.515176 0.515176 0.515176
0.530410 0.530410 0.530410
0.552284 0.552284 0.552284
0.580515 0.580515 0.580515
0.614504 0.614504 0.614504
0.653502 0.653502 0.653502
0.696739 0.696739 0.696739
0.599267 0.599267 0.599267
0.602050 0.602050 0.602050
0.609057 0.609057 0.609057
0.621290 0.621290 0.621290
0.639107 0.639107 0.639107
0.662506 0.662506 0.662506
0.691216 0.691216 0.691216
0.724793 0.724793 0.724793
0.762703 0.762703 0.762703
0.695690 0.695690 0.695690
0.697966 0.697966 0.697966
0.703715 0.703715 0.703715
0.713811 0.713811 0.713811
0.728649 0.728649 0.728649
0.748358 0.748358 0.748358
0.772860 0.772860 0.772860
0.801918 0.801918 0.801918
0.835189 0.835189 0.835189
0.792113 0.792113 0.792113
0.794022 0.794022 0.794022
0.798853 0.798853 0.798853
0.807370 0.807370 0.807370
0.819962 0.819962 0.819962
0.836817 0.836817 0.836817
0.857963 0.857963 0.857963
0.883298 0.883298 0.883298
0.912619 0.912619 0.912619
0.010714 0.010714 0.010714
0.050685 0.050685 0.050685
0.110041 0.110041 0.110041
0.172257 0.172257 0.172257
0.235343 0.235343 0.235343
0.298789 0.298789 0.298789
0.362414 0.362414 0.362414
0.426139 0.426139 0.426139
0.530575 0.530575 0.530575
0.090852 0.090852 0.090852
0.110034 0.110034 0.110034
0.148276 0.148276 0.148276
0.198406 0.198406 0.198406
0.254428 0.254428 0.254428
0.313452 0.313452 0.313452
0.374124 0.374124 0.374124
0.435772 0.435772 0.435772
0.538860 0.538860 0.538860
0.182377 0.182377 0.182377
0.192526 0.192526 0.192526
0.216003 0.216003 0.216003
0.251881 0.251881 0.251881
0.296718 0.296718 0.296718
0.347474 0.347474 0.347474
0.402061 0.402061 0.402061
0.459161 0.459161 0.459161
0.559213 0.559213 0.559213
0.275722 0.275722 0.275722
0.282159 0.282159 0.282159
0.297806 0.297806 0.297806
0.323499 0.323499 0.323499
0.358058 0.358058 0.358058
0.399684 0.399684 0.399684
0.446635 0.446635 0.446635
0.538317 0.538317 0.538317
0.593220 0.593220 0.593220
0.369590 0.369590 0.369590
0.374137 0.374137 0.374137
0.385413 0.385413 0.385413
0.404567 0.404567 0.404567
0.431429 0.431429 0.431429
0.505293 0.505293 0.505293
0.545703 0.545703 0.545703
0.590910 0.590910 0.590910
0.639921 0.639921 0.639921
0.503751 0.503751 0.503751
0.507262 0.507262 0.507262
0.516055 0.516055 0.516055
0.531255 0.531255 0.531255
0.553084 0.553084 0.553084
0.581263 0.581263 0.581263
0.615197 0.615197 0.615197
0.654139 0.654139 0.654139
0.697323 0.697323 0.697323
0.599983 0.599983 0.599983
0.602762 0.602762 0.602762
0.609758 0.609758 0.609758
0.621973 0.621973 0.621973
0.639764 0.639764 0.639764
0.663132 0.663132 0.663132
0.691807 0.691807 0.691807
0.725347 0.725347 0.725347
0.763220 0.763220 0.763220
0.696276 0.696276 0.696276
0.698549 0.698549 0.698549
0.704291 0.704291 0.704291
0.714377 0.714377 0.714377
0.729199 0.729199 0.729199
0.748889 0.748889 0.748889
0.773368 0.773368 0.773368
0.802401 0.802401 0.802401
0.835646 0.835646 0.835646
0.792604 0.792604 0.792604
0.794512 0.794512 0.794512
0.799338 0.799338 0.799338
0.807849 0.807849 0.807849
0.820430 0.820430 0.820430
0.837272 0.837272 0.837272
0.858404 0.858404 0.858404
0.883722 0.883722 0.883722
0.913024 0.913024 0.913024
0.037968 0.037968 0.037968
0.070001 0.070001 0.070001
0.121023 0.121023 0.121023
0.179377 0.179377 0.179377
0.240415 0.240415 0.240415
0.302639 0.302639 0.302639
0.365467 0.365467 0.365467
0.428640 0.428640 0.428640
0.532720 0.532720 0.532720
0.103772 0.103772 0.103772
0.121016 0.121016 0.121016
0.156570 0.156570 0.156570
0.204532 0.204532 0.204532
0.259070 0.259070 0.259070
0.317088 0.317088 0.317088
0.377061 0.377061 0.377061
0.438204 0.438204 0.438204
0.540962 0.540962 0.540962
0.189082 0.189082 0.189082
0.198855 0.198855 0.198855
0.221585 0.221585 0.221585
0.256576 0.256576 0.256576
0.300599 0.300599 0.300599
0.350687 0.350687 0.350687
0.404749 0.404749 0.404749
0.501471 0.501471 0.501471
0.561213 0.561213 0.561213
0.279952 0.279952 0.279952
0.286277 0.286277 0.286277
0.301670 0.301670 0.301670
0.327001 0.327001 0.327001
0.361157 0.361157 0.361157
0.402392 0.402392 0.402392
0.448994 0.448994 0.448994
0.540422 0.540422 0.540422
0.595067 0.595067 0.595067
0.372571 0.372571 0.372571
0.377074 0.377074 0.377074
0.388245 0.388245 0.388245
0.407235 0.407235 0.407235
0.433892 0.433892 0.433892
0.507584 0.507584 0.507584
0.547769 0.547769 0.547769
0.592767 0.592767 0.592767
0.641589 0.641589 0.641589
0.506050 0.506050 0.506050
0.509540 0.509540 0.509540
0.518281 0.518281 0.518281
0.533397 0.533397 0.533397
0.555113 0.555113 0.555113
0.583162 0.583162 0.583162
0.616956 0.616956 0.616956
0.655758 0.655758 0.655758
0.698808 0.698808 0.698808
0.601802 0.601802 0.601802
0.604570 0.604570 0.604570
0.611538 0.611538 0.611538
0.623706 0.623706 0.623706
0.641433 0.641433 0.641433
0.664722 0.664722 0.664722
0.693308 0.693308 0.693308
0.726755 0.726755 0.726755
0.764534 0.764534 0.764534
0.697764 0.697764 0.697764
0.700031 0.700031 0.700031
0.705756 0.705756 0.705756
0.715814 0.715814 0.715814
0.730597 0.730597 0.730597
0.750237 0.750237 0.750237
0.774658 0.774658 0.774658
0.803628 0.803628 0.803628
0.836807 0.836807 0.836807
0.793852 0.793852 0.793852
0.795755 0.795755 0.795755
0.800572 0.800572 0.800572
0.809065 0.809065 0.809065
0.821621 0.821621 0.821621
0.838431 0.838431 0.838431
0.859523 0.859523 0.859523
0.884798 0.884798 0.884798
0.914053 0.914053 0.914053
0.074267 0.074267 0.074267
0.096483 0.096483 0.096483
0.138478 0.138478 0.138478
0.191360 0.191360 0.191360
0.249166 0.249166 0.249166
0.309361 0.309361 0.309361
0.370836 0.370836 0.370836
0.433056 0.433056 0.433056
0.536518 0.536518 0.536518
0.123656 0.123656 0.123656
0.138472 0.138472 0.138472
0.170306 0.170306 0.170306
0.214974 0.214974 0.214974
0.267114 0.267114 0.267114
0.323452 0.323452 0.323452
0.382230 0.382230 0.382230
0.442501 0.442501 0.442501
0.544683 0.544683 0.544683
0.200428 0.200428 0.200428
0.209615 0.209615 0.209615
0.231160 0.231160 0.231160
0.264709 0.264709 0.264709
0.307375 0.307375 0.307375
0.356330 0.356330 0.356330
0.409489 0.409489 0.409489
0.505587 0.505587 0.505587
0.564756 0.564756 0.564756
0.287312 0.287312 0.287312
0.293450 0.293450 0.293450
0.308418 0.308418 0.308418
0.333136 0.333136 0.333136
0.366603 0.366603 0.366603
0.407166 0.407166 0.407166
0.453163 0.453163 0.453163
0.544148 0.544148 0.544148
0.598342 0.598342 0.598342
0.377816 0.377816 0.377816
0.382242 0.382242 0.382242
0.393233 0.393233 0.393233
0.411939 0.411939 0.411939
0.438242 0.438242 0.438242
0.511634 0.511634 0.511634
0.551428 0.551428 0.551428
0.596059 0.596059 0.596059
0.644549 0.644549 0.644549
0.510117 0.510117 0.510117
0.513570 0.513570 0.513570
0.522221 0.522221 0.522221
0.537188 0.537188 0.537188
0.558708 0.558708 0.558708
0.586527 0.586527 0.586527
0.620076 0.620076 0.620076
0.658632 0.658632 0.658632
0.701446 0.701446 0.701446
0.605028 0.605028 0.605028
0.607776 0.607776 0.607776
0.614695 0.614695 0.614695
0.626780 0.626780 0.626780
0.644393 0.644393 0.644393
0.667543 0.667543 0.667543
0.695974 0.695974 0.695974
0.729256 0.729256 0.729256
0.766869 0.766869 0.766869
0.700406 0.700406 0.700406
0.702662 0.702662 0.702662
0.708359 0.708359 0.708359
0.718367 0.718367 0.718367
0.733080 0.733080 0.733080
0.752633 0.752633 0.752633
0.776952 0.776952 0.776952
0.805810 0.805810 0.805810
0.838873 0.838873 0.838873
0.796071 0.796071 0.796071
0.797967 0.797967 0.797967
0.802766 0.802766 0.802766
0.811227 0.811227 0.811227
0.823738 0.823738 0.823738
0.840491 0.840491 0.840491
0.861515 0.861515 0.861515
0.886712 0.886712 0.886712
0.915884 0.915884 0.915884
0.110565 0.110565 0.110565
0.126912 0.126912 0.126912
0.161138 0.161138 0.161138
0.207966 0.207966 0.207966
0.261697 0.261697 0.261697
0.319158 0.319158 0.319158
0.378738 0.378738 0.378738
0.439596 0.439596 0.439596
0.542166 0.542166 0.542166
0.148665 0.148665 0.148665
0.161133 0.161133 0.161133
0.188968 0.188968 0.188968
0.229683 0.229683 0.229683
0.278707 0.278707 0.278707
0.332751 0.332751 0.332751
0.389849 0.389849 0.389849
0.448870 0.448870 0.448870
0.550219 0.550219 0.550219
0.216261 0.216261 0.216261
0.224722 0.224722 0.224722
0.244766 0.244766 0.244766
0.276421 0.276421 0.276421
0.317246 0.317246 0.317246
0.364620 0.364620 0.364620
0.416495 0.416495 0.416495
0.511698 0.511698 0.511698
0.570031 0.570031 0.570031
0.297984 0.297984 0.297984
0.303865 0.303865 0.303865
0.318250 0.318250 0.318250
0.342117 0.342117 0.342117
0.374615 0.374615 0.374615
0.414221 0.414221 0.414221
0.459346 0.459346 0.459346
0.549691 0.549691 0.549691
0.603226 0.603226 0.603226
0.385543 0.385543 0.385543
0.389861 0.389861 0.389861
0.400594 0.400594 0.400594
0.418894 0.418894 0.418894
0.444687 0.444687 0.444687
0.517650 0.517650 0.517650
0.556874 0.556874 0.556874
0.600967 0.600967 0.600967
0.648968 0.648968 0.648968
0.516157 0.516157 0.516157
0.519556 0.519556 0.519556
0.528076 0.528076 0.528076
0.542827 0.542827 0.542827
0.564060 0.564060 0.564060
0.591542 0.591542 0.591542
0.624731 0.624731 0.624731
0.662925 0.662925 0.662925
0.705389 0.705389 0.705389
0.609840 0.609840 0.609840
0.612558 0.612558 0.612558
0.619406 0.619406 0.619406
0.631369 0.631369 0.631369
0.648815 0.648815 0.648815
0.671759 0.671759 0.671759
0.699960 0.699960 0.699960
0.732998 0.732998 0.732998
0.770365 0.770365 0.770365
0.704358 0.704358 0.704358
0.706597 0.706597 0.706597
0.712251 0.712251 0.712251
0.722186 0.722186 0.722186
0.736796 0.736796 0.736796
0.756218 0.756218 0.756218
0.780387 0.780387 0.780387
0.809079 0.809079 0.809079
0.841968 0.841968 0.841968
0.799395 0.799395 0.799395
0.801280 0.801280 0.801280
0.806051 0.806051 0.806051
0.814467 0.814467 0.814467
0.826911 0.826911 0.826911
0.843578 0.843578 0.843578
0.864500 0.864500 0.864500
0.889583 0.889583 0.889583
0.918631 0.918631 0.918631
0.146864 0.146864 0.146864
0.159480 0.159480 0.159480
0.187580 0.187580 0.187580
0.228570 0.228570 0.228570
0.277820 0.277820 0.277820
0.332034 0.332034 0.332034
0.389259 0.389259 0.389259
0.448375 0.448375 0.448375
0.549788 0.549788 0.549788
0.177113 0.177113 0.177113
0.187575 0.187575 0.187575
0.211664 0.211664 0.211664
0.248256 0.248256 0.248256
0.293738 0.293738 0.293738
0.345016 0.345016 0.345016
0.400010 0.400010 0.400010
0.457426 0.457426 0.457426
0.557693 0.557693 0.557693
0.236048 0.236048 0.236048
0.243729 0.243729 0.243729
0.262113 0.262113 0.262113
0.291592 0.291592 0.291592
0.330212 0.330212 0.330212
0.375630 0.375630 0.375630
0.425873 0.425873 0.425873
0.519925 0.519925 0.519925
0.577162 0.577162 0.577162
0.311918 0.311918 0.311918
0.317491 0.317491 0.317491
0.331168 0.331168 0.331168
0.353989 0.353989 0.353989
0.385275 0.385275 0.385275
0.423662 0.423662 0.423662
0.507828 0.507828 0.507828
0.557174 0.557174 0.557174
0.609839 0.609839 0.609839
0.395840 0.395840 0.395840
0.400021 0.400021 0.400021
0.410426 0.410426 0.410426
0.428207 0.428207 0.428207
0.453342 0.453342 0.453342
0.525752 0.525752 0.525752
0.564230 0.564230 0.564230
0.607613 0.607613 0.607613
0.654966 0.654966 0.654966
0.524290 0.524290 0.524290
0.527619 0.527619 0.527619
0.535967 0.535967 0.535967
0.550436 0.550436 0.550436
0.571291 0.571291 0.571291
0.598330 0.598330 0.598330
0.631042 0.631042 0.631042
0.668754 0.668754 0.668754
0.710751 0.710751 0.710751
0.616357 0.616357 0.616357
0.619037 0.619037 0.619037
0.625789 0.625789 0.625789
0.637591 0.637591 0.637591
0.654814 0.654814 0.654814
0.677485 0.677485 0.677485
0.705378 0.705378 0.705378
0.738090 0.738090 0.738090
0.775126 0.775126 0.775126
0.709731 0.709731 0.709731
0.711946 0.711946 0.711946
0.717543 0.717543 0.717543
0.727381 0.727381 0.727381
0.741852 0.741852 0.741852
0.761100 0.761100 0.761100
0.785065 0.785065 0.785065
0.813534 0.813534 0.813534
0.846189 0.846189 0.846189
0.803923 0.803923 0.803923
0.805794 0.805794 0.805794
0.810529 0.810529 0.810529
0.818882 0.818882 0.818882
0.831237 0.831237 0.831237
0.847788 0.847788 0.847788
0.868572 0.868572 0.868572
0.893500 0.893500 0.893500
0.922380 0.922380 0.922380
0.183162 0.183162 0.183162
0.193266 0.193266 0.193266
0.216653 0.216653 0.216653
0.252426 0.252426 0.252426
0.297168 0.297168 0.297168
0.347845 0.347845 0.347845
0.402371 0.402371 0.402371
0.459424 0.459424 0.459424
0.559444 0.559444 0.559444
0.207814 0.207814 0.207814
0.216650 0.216650 0.216650
0.237474 0.237474 0.237474
0.270122 0.270122 0.270122
0.311921 0.311921 0.311921
0.360138 0.360138 0.360138
0.412701 0.412701 0.412701
0.508385 0.508385 0.508385
0.567168 0.567168 0.567168
0.259115 0.259115 0.259115
0.266028 0.266028 0.266028
0.282736 0.282736 0.282736
0.309925 0.309925 0.309925
0.346124 0.346124 0.346124
0.389311 0.389311 0.389311
0.437638 0.437638 0.437638
0.530318 0.530318 0.530318
0.586217 0.586217 0.586217
0.328906 0.328906 0.328906
0.334139 0.334139 0.334139
0.347028 0.347028 0.347028
0.368664 0.368664 0.368664
0.398549 0.398549 0.398549
0.435502 0.435502 0.435502
0.518548 0.518548 0.518548
0.566662 0.566662 0.566662
0.618256 0.618256 0.618256
0.408692 0.408692 0.408692
0.412712 0.412712 0.412712
0.422730 0.422730 0.422730
0.439894 0.439894 0.439894
0.504335 0.504335 0.504335
0.535994 0.535994 0.535994
0.573561 0.573561 0.573561
0.616071 0.616071 0.616071
0.662618 0.662618 0.662618
0.534569 0.534569 0.534569
0.537813 0.537813 0.537813
0.545953 0.545953 0.545953
0.560078 0.560078 0.560078
0.580470 0.580470 0.580470
0.606963 0.606963 0.606963
0.639084 0.639084 0.639084
0.676196 0.676196 0.676196
0.717609 0.717609 0.717609
0.624656 0.624656 0.624656
0.627288 0.627288 0.627288
0.633921 0.633921 0.633921
0.645523 0.645523 0.645523
0.662468 0.662468 0.662468
0.684799 0.684799 0.684799
0.712306 0.712306 0.712306
0.744609 0.744609 0.744609
0.781228 0.781228 0.781228
0.716602 0.716602 0.716602
0.718789 0.718789 0.718789
0.724314 0.724314 0.724314
0.734029 0.734029 0.734029
0.748326 0.748326 0.748326
0.767355 0.767355 0.767355
0.791064 0.791064 0.791064
0.819251 0.819251 0.819251
0.851609 0.851609 0.851609
0.809732 0.809732 0.809732
0.811585 0.811585 0.811585
0.816274 0.816274 0.816274
0.824548 0.824548 0.824548
0.836789 0.836789 0.836789
0.853194 0.853194 0.853194
0.873804 0.873804 0.873804
0.898534 0.898534 0.898534
0.927202 0.927202 0.927202
0.219460 0.219460 0.219460
0.227786 0.227786 0.227786
0.247547 0.247547 0.247547
0.278836 0.278836 0.278836
0.319297 0.319297 0.319297
0.366353 0.366353 0.366353
0.417965 0.417965 0.417965
0.512984 0.512984 0.512984
0.571144 0.571144 0.571144
0.240004 0.240004 0.240004
0.247544 0.247544 0.247544
0.265622 0.265622 0.265622
0.294689 0.294689 0.294689
0.332883 0.332883 0.332883
0.377914 0.377914 0.377914
0.427829 0.427829 0.427829
0.521647 0.521647 0.521647
0.578659 0.578659 0.578659
0.284803 0.284803 0.284803
0.291003 0.291003 0.291003
0.306114 0.306114 0.306114
0.331038 0.331038 0.331038
0.364738 0.364738 0.364738
0.405530 0.405530 0.405530
0.451732 0.451732 0.451732
0.542868 0.542868 0.542868
0.597217 0.597217 0.597217
0.348644 0.348644 0.348644
0.353524 0.353524 0.353524
0.365586 0.365586 0.365586
0.385959 0.385959 0.385959
0.414322 0.414322 0.414322
0.449680 0.449680 0.449680
0.531472 0.531472 0.531472
0.578166 0.578166 0.578166
0.628507 0.628507 0.628507
0.423998 0.423998 0.423998
0.427839 0.427839 0.427839
0.437427 0.437427 0.437427
0.453901 0.453901 0.453901
0.517736 0.517736 0.517736
0.548370 0.548370 0.548370
0.584882 0.584882 0.584882
0.626371 0.626371 0.626371
0.671967 0.671967 0.671967
0.546989 0.546989 0.546989
0.550135 0.550135 0.550135
0.558034 0.558034 0.558034
0.571760 0.571760 0.571760
0.591614 0.591614 0.591614
0.617468 0.617468 0.617468
0.648894 0.648894 0.648894
0.685295 0.685295 0.685295
0.726013 0.726013 0.726013
0.634768 0.634768 0.634768
0.637344 0.637344 0.637344
0.643838 0.643838 0.643838
0.655203 0.655203 0.655203
0.671820 0.671820 0.671820
0.693746 0.693746 0.693746
0.720794 0.720794 0.720794
0.752606 0.752606 0.752606
0.788725 0.788725 0.788725
0.725021 0.725021 0.725021
0.727174 0.727174 0.727174
0.732614 0.732614 0.732614
0.742181 0.742181 0.742181
0.756270 0.756270 0.756270
0.775035 0.775035 0.775035
0.798435 0.798435 0.798435
0.826282 0.826282 0.826282
0.858282 0.858282 0.858282
0.816875 0.816875 0.816875
0.818706 0.818706 0.818706
0.823341 0.823341 0.823341
0.831519 0.831519 0.831519
0.843622 0.843622 0.843622
0.859850 0.859850 0.859850
0.880248 0.880248 0.880248
0.904739 0.904739 0.904739
0.933148 0.933148 0.933148
0.255759 0.255759 0.255759
0.262776 0.262776 0.262776
0.279712 0.279712 0.279712
0.307218 0.307218 0.307218
0.343759 0.343759 0.343759
0.387267 0.387267 0.387267
0.435873 0.435873 0.435873
0.528754 0.528754 0.528754
0.584851 0.584851 0.584851
0.273203 0.273203 0.273203
0.279709 0.279709 0.279709
0.295510 0.295510 0.295510
0.321422 0.321422 0.321422
0.356224 0.356224 0.356224
0.398084 0.398084 0.398084
0.445243 0.445243 0.445243
0.537077 0.537077 0.537077
0.592133 0.592133 0.592133
0.312545 0.312545 0.312545
0.318105 0.318105 0.318105
0.331752 0.331752 0.331752
0.354527 0.354527 0.354527
0.385759 0.385759 0.385759
0.424093 0.424093 0.424093
0.508217 0.508217 0.508217
0.557517 0.557517 0.557517
0.610143 0.610143 0.610143
0.370788 0.370788 0.370788
0.375317 0.375317 0.375317
0.386550 0.386550 0.386550
0.405638 0.405638 0.405638
0.432417 0.432417 0.432417
0.506212 0.506212 0.506212
0.546532 0.546532 0.546532
0.591655 0.591655 0.591655
0.640590 0.640590 0.640590
0.441601 0.441601 0.441601
0.445254 0.445254 0.445254
0.454384 0.454384 0.454384
0.510336 0.510336 0.510336
0.533317 0.533317 0.533317
0.562828 0.562828 0.562828
0.598168 0.598168 0.598168
0.638508 0.638508 0.638508
0.683023 0.683023 0.683023
0.561494 0.561494 0.561494
0.564531 0.564531 0.564531
0.572165 0.572165 0.572165
0.585447 0.585447 0.585447
0.604701 0.604701 0.604701
0.629837 0.629837 0.629837
0.660476 0.660476 0.660476
0.696066 0.696066 0.696066
0.735985 0.735985 0.735985
0.646693 0.646693 0.646693
0.649205 0.649205 0.649205
0.655541 0.655541 0.655541
0.666638 0.666638 0.666638
0.682880 0.682880 0.682880
0.704342 0.704342 0.704342
0.730862 0.730862 0.730862
0.762109 0.762109 0.762109
0.797649 0.797649 0.797649
0.735012 0.735012 0.735012
0.737124 0.737124 0.737124
0.742466 0.742466 0.742466
0.751863 0.751863 0.751863
0.765711 0.765711 0.765711
0.784170 0.784170 0.784170
0.807213 0.807213 0.807213
0.834664 0.834664 0.834664
0.866244 0.866244 0.866244
0.825387 0.825387 0.825387
0.827192 0.827192 0.827192
0.831762 0.831762 0.831762
0.839829 0.839829 0.839829
0.851772 0.851772 0.851772
0.867793 0.867793 0.867793
0.887943 0.887943 0.887943
0.912154 0.912154 0.912154
0.940259 0.940259 0.940259
