docs/luts/fuji_recipes/Acros_VM_Across.cube
TITLE "Fujifilm Recipe: VM Across (Acros)"
# FilmSim=Acros HL=0 SH=1 Col=0 WB=Auto WBR=0 WBB=0
LUT_3D_SIZE 33
DOMAIN_MIN 0.0 0.0 0.0
DOMAIN_MAX 1.0 1.0 1.0
0.000000 0.000000 0.000000
0.006378 0.006378 0.006378
0.013595 0.013595 0.013595
0.023944 0.023944 0.023944
0.037839 0.037839 0.037839
0.053586 0.053586 0.053586
0.069324 0.069324 0.069324
0.085062 0.085062 0.085062
0.100799 0.100799 0.100799
0.116537 0.116537 0.116537
0.132275 0.132275 0.132275
0.148012 0.148012 0.148012
0.163750 0.163750 0.163750
0.179487 0.179487 0.179487
0.195225 0.195225 0.195225
0.210963 0.210963 0.210963
0.226700 0.226700 0.226700
0.242438 0.242438 0.242438
0.258176 0.258176 0.258176
0.273913 0.273913 0.273913
0.289651 0.289651 0.289651
0.305388 0.305388 0.305388
0.321126 0.321126 0.321126
0.336864 0.336864 0.336864
0.352601 0.352601 0.352601
0.368339 0.368339 0.368339
0.384077 0.384077 0.384077
0.399814 0.399814 0.399814
0.415552 0.415552 0.415552
0.431289 0.431289 0.431289
0.447027 0.447027 0.447027
0.462765 0.462765 0.462765
0.478502 0.478502 0.478502
0.021456 0.021456 0.021456
0.027834 0.027834 0.027834
0.035051 0.035051 0.035051
0.044996 0.044996 0.044996
0.056506 0.056506 0.056506
0.069091 0.069091 0.069091
0.082435 0.082435 0.082435
0.096319 0.096319 0.096319
0.110594 0.110594 0.110594
0.125157 0.125157 0.125157
0.139936 0.139936 0.139936
0.154880 0.154880 0.154880
0.169953 0.169953 0.169953
0.185127 0.185127 0.185127
0.200383 0.200383 0.200383
0.215704 0.215704 0.215704
0.231079 0.231079 0.231079
0.246499 0.246499 0.246499
0.261956 0.261956 0.261956
0.277445 0.277445 0.277445
0.292960 0.292960 0.292960
0.308498 0.308498 0.308498
0.324055 0.324055 0.324055
0.339630 0.339630 0.339630
0.355220 0.355220 0.355220
0.370822 0.370822 0.370822
0.386437 0.386437 0.386437
0.402061 0.402061 0.402061
0.417694 0.417694 0.417694
0.433335 0.433335 0.433335
0.448984 0.448984 0.448984
0.464639 0.464639 0.464639
0.500312 0.500312 0.500312
0.045297 0.045297 0.045297
0.050780 0.050780 0.050780
0.056532 0.056532 0.056532
0.064107 0.064107 0.064107
0.073310 0.073310 0.073310
0.083833 0.083833 0.083833
0.095397 0.095397 0.095397
0.107770 0.107770 0.107770
0.120769 0.120769 0.120769
0.134254 0.134254 0.134254
0.148120 0.148120 0.148120
0.162287 0.162287 0.162287
0.176693 0.176693 0.176693
0.191292 0.191292 0.191292
0.206047 0.206047 0.206047
0.220932 0.220932 0.220932
0.235923 0.235923 0.235923
0.251003 0.251003 0.251003
0.266159 0.266159 0.266159
0.281378 0.281378 0.281378
0.296651 0.296651 0.296651
0.311972 0.311972 0.311972
0.327332 0.327332 0.327332
0.342728 0.342728 0.342728
0.358155 0.358155 0.358155
0.373608 0.373608 0.373608
0.389086 0.389086 0.389086
0.404584 0.404584 0.404584
0.420102 0.420102 0.420102
0.435636 0.435636 0.435636
0.451185 0.451185 0.451185
0.466748 0.466748 0.466748
0.502419 0.502419 0.502419
0.071386 0.071386 0.071386
0.075393 0.075393 0.075393
0.079724 0.079724 0.079724
0.085610 0.085610 0.085610
0.093001 0.093001 0.093001
0.101729 0.101729 0.101729
0.111600 0.111600 0.111600
0.122429 0.122429 0.122429
0.134046 0.134046 0.134046
0.146310 0.146310 0.146310
0.159100 0.159100 0.159100
0.172323 0.172323 0.172323
0.185899 0.185899 0.185899
0.199768 0.199768 0.199768
0.213879 0.213879 0.213879
0.228193 0.228193 0.228193
0.242676 0.242676 0.242676
0.257303 0.257303 0.257303
0.272053 0.272053 0.272053
0.286907 0.286907 0.286907
0.301851 0.301851 0.301851
0.316873 0.316873 0.316873
0.331963 0.331963 0.331963
0.347112 0.347112 0.347112
0.362313 0.362313 0.362313
0.377559 0.377559 0.377559
0.392846 0.392846 0.392846
0.408169 0.408169 0.408169
0.423525 0.423525 0.423525
0.438908 0.438908 0.438908
0.454318 0.454318 0.454318
0.469751 0.469751 0.469751
0.505422 0.505422 0.505422
0.097476 0.097476 0.097476
0.100568 0.100568 0.100568
0.103966 0.103966 0.103966
0.108664 0.108664 0.108664
0.114688 0.114688 0.114688
0.121957 0.121957 0.121957
0.130357 0.130357 0.130357
0.139758 0.139758 0.139758
0.150029 0.150029 0.150029
0.161046 0.161046 0.161046
0.172697 0.172697 0.172697
0.184886 0.184886 0.184886
0.197530 0.197530 0.197530
0.210559 0.210559 0.210559
0.223914 0.223914 0.223914
0.237548 0.237548 0.237548
0.251418 0.251418 0.251418
0.265491 0.265491 0.265491
0.279740 0.279740 0.279740
0.294139 0.294139 0.294139
0.308670 0.308670 0.308670
0.323316 0.323316 0.323316
0.338061 0.338061 0.338061
0.352895 0.352895 0.352895
0.367806 0.367806 0.367806
0.382786 0.382786 0.382786
0.397827 0.397827 0.397827
0.412923 0.412923 0.412923
0.428067 0.428067 0.428067
0.443255 0.443255 0.443255
0.458483 0.458483 0.458483
0.473747 0.473747 0.473747
0.509419 0.509419 0.509419
0.123565 0.123565 0.123565
0.126048 0.126048 0.126048
0.128801 0.128801 0.128801
0.132648 0.132648 0.132648
0.137646 0.137646 0.137646
0.143765 0.143765 0.143765
0.150947 0.150947 0.150947
0.159109 0.159109 0.159109
0.168157 0.168157 0.168157
0.177995 0.177995 0.177995
0.188530 0.188530 0.188530
0.199674 0.199674 0.199674
0.211349 0.211349 0.211349
0.223485 0.223485 0.223485
0.236019 0.236019 0.236019
0.248901 0.248901 0.248901
0.262082 0.262082 0.262082
0.275526 0.275526 0.275526
0.289198 0.289198 0.289198
0.303069 0.303069 0.303069
0.317116 0.317116 0.317116
0.331316 0.331316 0.331316
0.345652 0.345652 0.345652
0.360108 0.360108 0.360108
0.374670 0.374670 0.374670
0.389328 0.389328 0.389328
0.404071 0.404071 0.404071
0.418889 0.418889 0.418889
0.433776 0.433776 0.433776
0.448724 0.448724 0.448724
0.463728 0.463728 0.463728
0.478782 0.478782 0.478782
0.514461 0.514461 0.514461
0.149655 0.149655 0.149655
0.151707 0.151707 0.151707
0.153995 0.153995 0.153995
0.157216 0.157216 0.157216
0.161434 0.161434 0.161434
0.166652 0.166652 0.166652
0.172843 0.172843 0.172843
0.179960 0.179960 0.179960
0.187940 0.187940 0.187940
0.196714 0.196714 0.196714
0.206208 0.206208 0.206208
0.216351 0.216351 0.216351
0.227073 0.227073 0.227073
0.238310 0.238310 0.238310
0.250002 0.250002 0.250002
0.262097 0.262097 0.262097
0.274547 0.274547 0.274547
0.287312 0.287312 0.287312
0.300355 0.300355 0.300355
0.313643 0.313643 0.313643
0.327150 0.327150 0.327150
0.340850 0.340850 0.340850
0.354722 0.354722 0.354722
0.368747 0.368747 0.368747
0.382910 0.382910 0.382910
0.397196 0.397196 0.397196
0.411592 0.411592 0.411592
0.426088 0.426088 0.426088
0.440674 0.440674 0.440674
0.455341 0.455341 0.455341
0.470081 0.470081 0.470081
0.505092 0.505092 0.505092
0.520579 0.520579 0.520579
0.175744 0.175744 0.175744
0.177479 0.177479 0.177479
0.179421 0.179421 0.179421
0.182166 0.182166 0.182166
0.185783 0.185783 0.185783
0.190288 0.190288 0.190288
0.195675 0.195675 0.195675
0.201921 0.201921 0.201921
0.208987 0.208987 0.208987
0.216824 0.216824 0.216824
0.225380 0.225380 0.225380
0.234596 0.234596 0.234596
0.244416 0.244416 0.244416
0.254782 0.254782 0.254782
0.265643 0.265643 0.265643
0.276949 0.276949 0.276949
0.288655 0.288655 0.288655
0.300718 0.300718 0.300718
0.313102 0.313102 0.313102
0.325773 0.325773 0.325773
0.338701 0.338701 0.338701
0.351861 0.351861 0.351861
0.365228 0.365228 0.365228
0.378781 0.378781 0.378781
0.392502 0.392502 0.392502
0.406375 0.406375 0.406375
0.420384 0.420384 0.420384
0.434517 0.434517 0.434517
0.448763 0.448763 0.448763
0.463111 0.463111 0.463111
0.477551 0.477551 0.477551
0.512580 0.512580 0.512580
0.527791 0.527791 0.527791
0.201834 0.201834 0.201834
0.203327 0.203327 0.203327
0.205002 0.205002 0.205002
0.207378 0.207378 0.207378
0.210521 0.210521 0.210521
0.214456 0.214456 0.214456
0.219188 0.219188 0.219188
0.224710 0.224710 0.224710
0.230999 0.230999 0.230999
0.238024 0.238024 0.238024
0.245747 0.245747 0.245747
0.254124 0.254124 0.254124
0.263111 0.263111 0.263111
0.272659 0.272659 0.272659
0.282725 0.282725 0.282725
0.293263 0.293263 0.293263
0.304232 0.304232 0.304232
0.315592 0.315592 0.315592
0.327308 0.327308 0.327308
0.339345 0.339345 0.339345
0.351675 0.351675 0.351675
0.364269 0.364269 0.364269
0.377102 0.377102 0.377102
0.390153 0.390153 0.390153
0.403401 0.403401 0.403401
0.416827 0.416827 0.416827
0.430417 0.430417 0.430417
0.444155 0.444155 0.444155
0.458028 0.458028 0.458028
0.472024 0.472024 0.472024
0.506389 0.506389 0.506389
0.521194 0.521194 0.521194
0.536097 0.536097 0.536097
0.227923 0.227923 0.227923
0.229227 0.229227 0.229227
0.230692 0.230692 0.230692
0.232775 0.232775 0.232775
0.235538 0.235538 0.235538
0.239010 0.239010 0.239010
0.243205 0.243205 0.243205
0.248122 0.248122 0.248122
0.253752 0.253752 0.253752
0.260076 0.260076 0.260076
0.267068 0.267068 0.267068
0.274697 0.274697 0.274697
0.282927 0.282927 0.282927
0.291720 0.291720 0.291720
0.301040 0.301040 0.301040
0.310847 0.310847 0.310847
0.321106 0.321106 0.321106
0.331779 0.331779 0.331779
0.342833 0.342833 0.342833
0.354237 0.354237 0.354237
0.365961 0.365961 0.365961
0.377978 0.377978 0.377978
0.390262 0.390262 0.390262
0.402792 0.402792 0.402792
0.415545 0.415545 0.415545
0.428502 0.428502 0.428502
0.441647 0.441647 0.441647
0.454964 0.454964 0.454964
0.468438 0.468438 0.468438
0.502143 0.502143 0.502143
0.516467 0.516467 0.516467
0.530918 0.530918 0.530918
0.545487 0.545487 0.545487
0.254013 0.254013 0.254013
0.255165 0.255165 0.255165
0.256461 0.256461 0.256461
0.258306 0.258306 0.258306
0.260761 0.260761 0.260761
0.263853 0.263853 0.263853
0.267601 0.267601 0.267601
0.272011 0.272011 0.272011
0.277081 0.277081 0.277081
0.282801 0.282801 0.282801
0.289154 0.289154 0.289154
0.296119 0.296119 0.296119
0.303668 0.303668 0.303668
0.311773 0.311773 0.311773
0.320403 0.320403 0.320403
0.329527 0.329527 0.329527
0.339111 0.339111 0.339111
0.349125 0.349125 0.349125
0.359537 0.359537 0.359537
0.370320 0.370320 0.370320
0.381444 0.381444 0.381444
0.392884 0.392884 0.392884
0.404615 0.404615 0.404615
0.416614 0.416614 0.416614
0.428860 0.428860 0.428860
0.441335 0.441335 0.441335
0.454019 0.454019 0.454019
0.466896 0.466896 0.466896
0.479952 0.479952 0.479952
0.513721 0.513721 0.513721
0.527651 0.527651 0.527651
0.541726 0.541726 0.541726
0.555937 0.555937 0.555937
0.280102 0.280102 0.280102
0.281130 0.281130 0.281130
0.282288 0.282288 0.282288
0.283939 0.283939 0.283939
0.286138 0.286138 0.286138
0.288914 0.288914 0.288914
0.292287 0.292287 0.292287
0.296268 0.296268 0.296268
0.300860 0.300860 0.300860
0.306058 0.306058 0.306058
0.311854 0.311854 0.311854
0.318232 0.318232 0.318232
0.325173 0.325173 0.325173
0.332655 0.332655 0.332655
0.340654 0.340654 0.340654
0.349144 0.349144 0.349144
0.358097 0.358097 0.358097
0.367486 0.367486 0.367486
0.377286 0.377286 0.377286
0.387468 0.387468 0.387468
0.398007 0.398007 0.398007
0.408880 0.408880 0.408880
0.420062 0.420062 0.420062
0.431532 0.431532 0.431532
0.443268 0.443268 0.443268
0.455253 0.455253 0.455253
0.467467 0.467467 0.467467
0.479894 0.479894 0.479894
0.513040 0.513040 0.513040
0.526381 0.526381 0.526381
0.539899 0.539899 0.539899
0.553582 0.553582 0.553582
0.567417 0.567417 0.567417
0.306192 0.306192 0.306192
0.307117 0.307117 0.307117
0.308160 0.308160 0.308160
0.309648 0.309648 0.309648
0.311634 0.311634 0.311634
0.314144 0.314144 0.314144
0.317200 0.317200 0.317200
0.320816 0.320816 0.320816
0.324996 0.324996 0.324996
0.329743 0.329743 0.329743
0.335051 0.335051 0.335051
0.340911 0.340911 0.340911
0.347310 0.347310 0.347310
0.354231 0.354231 0.354231
0.361655 0.361655 0.361655
0.369563 0.369563 0.369563
0.377930 0.377930 0.377930
0.386735 0.386735 0.386735
0.395953 0.395953 0.395953
0.405562 0.405562 0.405562
0.415539 0.415539 0.415539
0.425861 0.425861 0.425861
0.436506 0.436506 0.436506
0.447454 0.447454 0.447454
0.458685 0.458685 0.458685
0.470180 0.470180 0.470180
0.502002 0.502002 0.502002
0.514473 0.514473 0.514473
0.527166 0.527166 0.527166
0.540069 0.540069 0.540069
0.553165 0.553165 0.553165
0.566442 0.566442 0.566442
0.579888 0.579888 0.579888
0.332281 0.332281 0.332281
0.333120 0.333120 0.333120
0.334067 0.334067 0.334067
0.335418 0.335418 0.335418
0.337222 0.337222 0.337222
0.339507 0.339507 0.339507
0.342292 0.342292 0.342292
0.345593 0.345593 0.345593
0.349419 0.349419 0.349419
0.353772 0.353772 0.353772
0.358653 0.358653 0.358653
0.364055 0.364055 0.364055
0.369970 0.369970 0.369970
0.376387 0.376387 0.376387
0.383291 0.383291 0.383291
0.390666 0.390666 0.390666
0.398493 0.398493 0.398493
0.406753 0.406753 0.406753
0.415427 0.415427 0.415427
0.424494 0.424494 0.424494
0.433934 0.433934 0.433934
0.443727 0.443727 0.443727
0.453853 0.453853 0.453853
0.464293 0.464293 0.464293
0.475028 0.475028 0.475028
0.506292 0.506292 0.506292
0.518034 0.518034 0.518034
0.530031 0.530031 0.530031
0.542266 0.542266 0.542266
0.554725 0.554725 0.554725
0.567394 0.567394 0.567394
0.580258 0.580258 0.580258
0.593307 0.593307 0.593307
0.358371 0.358371 0.358371
0.359136 0.359136 0.359136
0.360000 0.360000 0.360000
0.361235 0.361235 0.361235
0.362884 0.362884 0.362884
0.364975 0.364975 0.364975
0.367528 0.367528 0.367528
0.370557 0.370557 0.370557
0.374074 0.374074 0.374074
0.378083 0.378083 0.378083
0.382587 0.382587 0.382587
0.387584 0.387584 0.387584
0.393069 0.393069 0.393069
0.399032 0.399032 0.399032
0.405465 0.405465 0.405465
0.412354 0.412354 0.412354
0.419684 0.419684 0.419684
0.427441 0.427441 0.427441
0.435607 0.435607 0.435607
0.444165 0.444165 0.444165
0.453097 0.453097 0.453097
0.462386 0.462386 0.462386
0.472014 0.472014 0.472014
0.502044 0.502044 0.502044
0.512725 0.512725 0.512725
0.523704 0.523704 0.523704
0.534966 0.534966 0.534966
0.546495 0.546495 0.546495
0.558275 0.558275 0.558275
0.570292 0.570292 0.570292
0.582531 0.582531 0.582531
0.594980 0.594980 0.594980
0.607626 0.607626 0.607626
0.384460 0.384460 0.384460
0.385163 0.385163 0.385163
0.385956 0.385956 0.385956
0.387090 0.387090 0.387090
0.388606 0.388606 0.388606
0.390529 0.390529 0.390529
0.392879 0.392879 0.392879
0.395672 0.395672 0.395672
0.398918 0.398918 0.398918
0.402625 0.402625 0.402625
0.406797 0.406797 0.406797
0.411434 0.411434 0.411434
0.416533 0.416533 0.416533
0.422090 0.422090 0.422090
0.428096 0.428096 0.428096
0.434543 0.434543 0.434543
0.441418 0.441418 0.441418
0.448710 0.448710 0.448710
0.456404 0.456404 0.456404
0.464486 0.464486 0.464486
0.472941 0.472941 0.472941
0.501825 0.501825 0.501825
0.511359 0.511359 0.511359
0.521233 0.521233 0.521233
0.531429 0.531429 0.531429
0.541931 0.541931 0.541931
0.552725 0.552725 0.552725
0.563796 0.563796 0.563796
0.575127 0.575127 0.575127
0.586706 0.586706 0.586706
0.598519 0.598519 0.598519
0.610553 0.610553 0.610553
0.622795 0.622795 0.622795
0.410550 0.410550 0.410550
0.411198 0.411198 0.411198
0.411929 0.411929 0.411929
0.412976 0.412976 0.412976
0.414375 0.414375 0.414375
0.416152 0.416152 0.416152
0.418326 0.418326 0.418326
0.420911 0.420911 0.420911
0.423920 0.423920 0.423920
0.427360 0.427360 0.427360
0.431237 0.431237 0.431237
0.435553 0.435553 0.435553
0.440307 0.440307 0.440307
0.445497 0.445497 0.445497
0.451118 0.451118 0.451118
0.457162 0.457162 0.457162
0.463621 0.463621 0.463621
0.470484 0.470484 0.470484
0.477741 0.477741 0.477741
0.505604 0.505604 0.505604
0.513944 0.513944 0.513944
0.522654 0.522654 0.522654
0.531720 0.531720 0.531720
0.541126 0.541126 0.541126
0.550858 0.550858 0.550858
0.560902 0.560902 0.560902
0.571242 0.571242 0.571242
0.581866 0.581866 0.581866
0.592759 0.592759 0.592759
0.603908 0.603908 0.603908
0.615300 0.615300 0.615300
0.626923 0.626923 0.626923
0.638765 0.638765 0.638765
0.436639 0.436639 0.436639
0.437239 0.437239 0.437239
0.437917 0.437917 0.437917
0.438887 0.438887 0.438887
0.440185 0.440185 0.440185
0.441834 0.441834 0.441834
0.443852 0.443852 0.443852
0.446254 0.446254 0.446254
0.449052 0.449052 0.449052
0.452256 0.452256 0.452256
0.455870 0.455870 0.455870
0.459899 0.459899 0.459899
0.464344 0.464344 0.464344
0.469203 0.469203 0.469203
0.474474 0.474474 0.474474
0.500157 0.500157 0.500157
0.506488 0.506488 0.506488
0.513227 0.513227 0.513227
0.520366 0.520366 0.520366
0.527893 0.527893 0.527893
0.535798 0.535798 0.535798
0.544068 0.544068 0.544068
0.552690 0.552690 0.552690
0.561653 0.561653 0.561653
0.570943 0.570943 0.570943
0.580547 0.580547 0.580547
0.590451 0.590451 0.590451
0.600643 0.600643 0.600643
0.611110 0.611110 0.611110
0.621840 0.621840 0.621840
0.632820 0.632820 0.632820
0.644038 0.644038 0.644038
0.655484 0.655484 0.655484
0.462729 0.462729 0.462729
0.463287 0.463287 0.463287
0.463917 0.463917 0.463917
0.464820 0.464820 0.464820
0.466028 0.466028 0.466028
0.467563 0.467563 0.467563
0.469443 0.469443 0.469443
0.471683 0.471683 0.471683
0.474295 0.474295 0.474295
0.477287 0.477287 0.477287
0.500694 0.500694 0.500694
0.504623 0.504623 0.504623
0.508962 0.508962 0.508962
0.513712 0.513712 0.513712
0.518872 0.518872 0.518872
0.524438 0.524438 0.524438
0.530405 0.530405 0.530405
0.536767 0.536767 0.536767
0.543517 0.543517 0.543517
0.550645 0.550645 0.550645
0.558143 0.558143 0.558143
0.566001 0.566001 0.566001
0.574207 0.574207 0.574207
0.582751 0.582751 0.582751
0.591620 0.591620 0.591620
0.600804 0.600804 0.600804
0.610290 0.610290 0.610290
0.620067 0.620067 0.620067
0.630122 0.630122 0.630122
0.640445 0.640445 0.640445
0.651023 0.651023 0.651023
0.661846 0.661846 0.661846
0.672903 0.672903 0.672903
0.509186 0.509186 0.509186
0.509728 0.509728 0.509728
0.510341 0.510341 0.510341
0.511219 0.511219 0.511219
0.512394 0.512394 0.512394
0.513888 0.513888 0.513888
0.515719 0.515719 0.515719
0.517902 0.517902 0.517902
0.520448 0.520448 0.520448
0.523368 0.523368 0.523368
0.526669 0.526669 0.526669
0.530356 0.530356 0.530356
0.534433 0.534433 0.534433
0.538901 0.538901 0.538901
0.543760 0.543760 0.543760
0.549008 0.549008 0.549008
0.554642 0.554642 0.554642
0.560657 0.560657 0.560657
0.567047 0.567047 0.567047
0.573806 0.573806 0.573806
0.580926 0.580926 0.580926
0.588397 0.588397 0.588397
0.596212 0.596212 0.596212
0.604361 0.604361 0.604361
0.612832 0.612832 0.612832
0.621616 0.621616 0.621616
0.630703 0.630703 0.630703
0.640081 0.640081 0.640081
0.649740 0.649740 0.649740
0.659670 0.659670 0.659670
0.669859 0.669859 0.669859
0.680297 0.680297 0.680297
0.690974 0.690974 0.690974
0.536362 0.536362 0.536362
0.536870 0.536870 0.536870
0.537445 0.537445 0.537445
0.538266 0.538266 0.538266
0.539368 0.539368 0.539368
0.540768 0.540768 0.540768
0.542485 0.542485 0.542485
0.544532 0.544532 0.544532
0.546923 0.546923 0.546923
0.549665 0.549665 0.549665
0.552768 0.552768 0.552768
0.556237 0.556237 0.556237
0.560076 0.560076 0.560076
0.564287 0.564287 0.564287
0.568872 0.568872 0.568872
0.573830 0.573830 0.573830
0.579158 0.579158 0.579158
0.584854 0.584854 0.584854
0.590912 0.590912 0.590912
0.597328 0.597328 0.597328
0.604095 0.604095 0.604095
0.611207 0.611207 0.611207
0.618655 0.618655 0.618655
0.626431 0.626431 0.626431
0.634526 0.634526 0.634526
0.642931 0.642931 0.642931
0.651638 0.651638 0.651638
0.660635 0.660635 0.660635
0.669914 0.669914 0.669914
0.679465 0.679465 0.679465
0.689278 0.689278 0.689278
0.699343 0.699343 0.699343
0.709650 0.709650 0.709650
0.563539 0.563539 0.563539
0.564016 0.564016 0.564016
0.564555 0.564555 0.564555
0.565327 0.565327 0.565327
0.566362 0.566362 0.566362
0.567678 0.567678 0.567678
0.569292 0.569292 0.569292
0.571218 0.571218 0.571218
0.573468 0.573468 0.573468
0.576050 0.576050 0.576050
0.578974 0.578974 0.578974
0.582245 0.582245 0.582245
0.585868 0.585868 0.585868
0.589846 0.589846 0.589846
0.594181 0.594181 0.594181
0.598872 0.598872 0.598872
0.603919 0.603919 0.603919
0.609321 0.609321 0.609321
0.615072 0.615072 0.615072
0.621170 0.621170 0.621170
0.627610 0.627610 0.627610
0.634385 0.634385 0.634385
0.641489 0.641489 0.641489
0.648915 0.648915 0.648915
0.656655 0.656655 0.656655
0.664702 0.664702 0.664702
0.673047 0.673047 0.673047
0.681681 0.681681 0.681681
0.690597 0.690597 0.690597
0.699784 0.699784 0.699784
0.709234 0.709234 0.709234
0.718939 0.718939 0.718939
0.728889 0.728889 0.728889
0.590716 0.590716 0.590716
0.591165 0.591165 0.591165
0.591673 0.591673 0.591673
0.592400 0.592400 0.592400
0.593374 0.593374 0.593374
0.594615 0.594615 0.594615
0.596136 0.596136 0.596136
0.597952 0.597952 0.597952
0.600074 0.600074 0.600074
0.602512 0.602512 0.602512
0.605273 0.605273 0.605273
0.608364 0.608364 0.608364
0.611790 0.611790 0.611790
0.615555 0.615555 0.615555
0.619661 0.619661 0.619661
0.624108 0.624108 0.624108
0.628897 0.628897 0.628897
0.634026 0.634026 0.634026
0.639494 0.639494 0.639494
0.645297 0.645297 0.645297
0.651431 0.651431 0.651431
0.657892 0.657892 0.657892
0.664674 0.664674 0.664674
0.671771 0.671771 0.671771
0.679177 0.679177 0.679177
0.686885 0.686885 0.686885
0.694887 0.694887 0.694887
0.703176 0.703176 0.703176
0.711744 0.711744 0.711744
0.720584 0.720584 0.720584
0.729686 0.729686 0.729686
0.739044 0.739044 0.739044
0.748648 0.748648 0.748648
0.617892 0.617892 0.617892
0.618316 0.618316 0.618316
0.618796 0.618796 0.618796
0.619482 0.619482 0.619482
0.620403 0.620403 0.620403
0.621574 0.621574 0.621574
0.623012 0.623012 0.623012
0.624728 0.624728 0.624728
0.626734 0.626734 0.626734
0.629040 0.629040 0.629040
0.631653 0.631653 0.631653
0.634580 0.634580 0.634580
0.637827 0.637827 0.637827
0.641396 0.641396 0.641396
0.645291 0.645291 0.645291
0.649514 0.649514 0.649514
0.654065 0.654065 0.654065
0.658943 0.658943 0.658943
0.664148 0.664148 0.664148
0.669677 0.669677 0.669677
0.675527 0.675527 0.675527
0.681694 0.681694 0.681694
0.688175 0.688175 0.688175
0.694963 0.694963 0.694963
0.702054 0.702054 0.702054
0.709442 0.709442 0.709442
0.717119 0.717119 0.717119
0.725080 0.725080 0.725080
0.733318 0.733318 0.733318
0.741825 0.741825 0.741825
0.750594 0.750594 0.750594
0.759618 0.759618 0.759618
0.768888 0.768888 0.768888
0.645069 0.645069 0.645069
0.645470 0.645470 0.645470
0.645924 0.645924 0.645924
0.646573 0.646573 0.646573
0.647444 0.647444 0.647444
0.648553 0.648553 0.648553
0.649914 0.649914 0.649914
0.651540 0.651540 0.651540
0.653441 0.653441 0.653441
0.655627 0.655627 0.655627
0.658104 0.658104 0.658104
0.660881 0.660881 0.660881
0.663963 0.663963 0.663963
0.667353 0.667353 0.667353
0.671054 0.671054 0.671054
0.675070 0.675070 0.675070
0.679401 0.679401 0.679401
0.684048 0.684048 0.684048
0.689009 0.689009 0.689009
0.694283 0.694283 0.694283
0.699868 0.699868 0.699868
0.705762 0.705762 0.705762
0.711960 0.711960 0.711960
0.718458 0.718458 0.718458
0.725253 0.725253 0.725253
0.732338 0.732338 0.732338
0.739708 0.739708 0.739708
0.747358 0.747358 0.747358
0.755281 0.755281 0.755281
0.763471 0.763471 0.763471
0.771921 0.771921 0.771921
0.780624 0.780624 0.780624
0.789575 0.789575 0.789575
0.672245 0.672245 0.672245
0.672626 0.672626 0.672626
0.673056 0.673056 0.673056
0.673672 0.673672 0.673672
0.674498 0.674498 0.674498
0.675550 0.675550 0.675550
0.676841 0.676841 0.676841
0.678384 0.678384 0.678384
0.680189 0.680189 0.680189
0.682264 0.682264 0.682264
0.684618 0.684618 0.684618
0.687257 0.687257 0.687257
0.690187 0.690187 0.690187
0.693412 0.693412 0.693412
0.696936 0.696936 0.696936
0.700761 0.700761 0.700761
0.704888 0.704888 0.704888
0.709319 0.709319 0.709319
0.714054 0.714054 0.714054
0.719091 0.719091 0.719091
0.724430 0.724430 0.724430
0.730067 0.730067 0.730067
0.736000 0.736000 0.736000
0.742227 0.742227 0.742227
0.748742 0.748742 0.748742
0.755542 0.755542 0.755542
0.762622 0.762622 0.762622
0.769976 0.769976 0.769976
0.777600 0.777600 0.777600
0.785488 0.785488 0.785488
0.793633 0.793633 0.793633
0.802030 0.802030 0.802030
0.810673 0.810673 0.810673
0.699422 0.699422 0.699422
0.699783 0.699783 0.699783
0.700192 0.700192 0.700192
0.700777 0.700777 0.700777
0.701562 0.701562 0.701562
0.702562 0.702562 0.702562
0.703789 0.703789 0.703789
0.705256 0.705256 0.705256
0.706972 0.706972 0.706972
0.708947 0.708947 0.708947
0.711187 0.711187 0.711187
0.713699 0.713699 0.713699
0.716489 0.716489 0.716489
0.719562 0.719562 0.719562
0.722922 0.722922 0.722922
0.726570 0.726570 0.726570
0.730509 0.730509 0.730509
0.734740 0.734740 0.734740
0.739264 0.739264 0.739264
0.744081 0.744081 0.744081
0.749189 0.749189 0.749189
0.754587 0.754587 0.754587
0.760272 0.760272 0.760272
0.766243 0.766243 0.766243
0.772495 0.772495 0.772495
