docs/luts/fuji_recipes/Acros_RR_Split-Tones_B_W_1_2.cube
TITLE "Fujifilm Recipe: RR Split-Tones B&W 1/2 (Acros)"
# FilmSim=Acros HL=4 SH=4 Col=0 WB=Auto WBR=6 WBB=0
LUT_3D_SIZE 33
DOMAIN_MIN 0.0 0.0 0.0
DOMAIN_MAX 1.0 1.0 1.0
0.000000 0.000000 0.000000
0.010461 0.010461 0.010461
0.023386 0.023386 0.023386
0.041637 0.041637 0.041637
0.060854 0.060854 0.060854
0.080071 0.080071 0.080071
0.099288 0.099288 0.099288
0.118504 0.118504 0.118504
0.137721 0.137721 0.137721
0.156938 0.156938 0.156938
0.176155 0.176155 0.176155
0.195372 0.195372 0.195372
0.214589 0.214589 0.214589
0.233806 0.233806 0.233806
0.253023 0.253023 0.253023
0.272239 0.272239 0.272239
0.291456 0.291456 0.291456
0.310673 0.310673 0.310673
0.329890 0.329890 0.329890
0.349107 0.349107 0.349107
0.368324 0.368324 0.368324
0.387541 0.387541 0.387541
0.406758 0.406758 0.406758
0.418690 0.418690 0.418690
0.418690 0.418690 0.418690
0.418690 0.418690 0.418690
0.418690 0.418690 0.418690
0.418690 0.418690 0.418690
0.418690 0.418690 0.418690
0.418690 0.418690 0.418690
0.418690 0.418690 0.418690
0.418690 0.418690 0.418690
0.418690 0.418690 0.418690
0.029871 0.029871 0.029871
0.039914 0.039914 0.039914
0.050489 0.050489 0.050489
0.063539 0.063539 0.063539
0.078393 0.078393 0.078393
0.094457 0.094457 0.094457
0.111335 0.111335 0.111335
0.128772 0.128772 0.128772
0.146604 0.146604 0.146604
0.164721 0.164721 0.164721
0.183047 0.183047 0.183047
0.201532 0.201532 0.201532
0.220139 0.220139 0.220139
0.238842 0.238842 0.238842
0.257620 0.257620 0.257620
0.276459 0.276459 0.276459
0.295349 0.295349 0.295349
0.314279 0.314279 0.314279
0.333243 0.333243 0.333243
0.352236 0.352236 0.352236
0.371254 0.371254 0.371254
0.390292 0.390292 0.390292
0.409348 0.409348 0.409348
0.501640 0.501640 0.501640
0.501640 0.501640 0.501640
0.501640 0.501640 0.501640
0.501640 0.501640 0.501640
0.501640 0.501640 0.501640
0.501640 0.501640 0.501640
0.501640 0.501640 0.501640
0.501640 0.501640 0.501640
0.501640 0.501640 0.501640
0.501640 0.501640 0.501640
0.057960 0.057960 0.057960
0.064775 0.064775 0.064775
0.072461 0.072461 0.072461
0.082588 0.082588 0.082588
0.094787 0.094787 0.094787
0.108580 0.108580 0.108580
0.123572 0.123572 0.123572
0.139457 0.139457 0.139457
0.156010 0.156010 0.156010
0.173068 0.173068 0.173068
0.190511 0.190511 0.190511
0.208254 0.208254 0.208254
0.226231 0.226231 0.226231
0.244394 0.244394 0.244394
0.262708 0.262708 0.262708
0.281143 0.281143 0.281143
0.299679 0.299679 0.299679
0.318299 0.318299 0.318299
0.336988 0.336988 0.336988
0.355736 0.355736 0.355736
0.374535 0.374535 0.374535
0.393376 0.393376 0.393376
0.412254 0.412254 0.412254
0.505513 0.505513 0.505513
0.505513 0.505513 0.505513
0.505513 0.505513 0.505513
0.505513 0.505513 0.505513
0.505513 0.505513 0.505513
0.505513 0.505513 0.505513
0.505513 0.505513 0.505513
0.505513 0.505513 0.505513
0.505513 0.505513 0.505513
0.505513 0.505513 0.505513
0.085662 0.085662 0.085662
0.090654 0.090654 0.090654
0.096490 0.096490 0.096490
0.104471 0.104471 0.104471
0.114454 0.114454 0.114454
0.126139 0.126139 0.126139
0.139221 0.139221 0.139221
0.153423 0.153423 0.153423
0.168515 0.168515 0.168515
0.184313 0.184313 0.184313
0.200672 0.200672 0.200672
0.217479 0.217479 0.217479
0.234646 0.234646 0.234646
0.252106 0.252106 0.252106
0.269804 0.269804 0.269804
0.287700 0.287700 0.287700
0.305760 0.305760 0.305760
0.323957 0.323957 0.323957
0.342270 0.342270 0.342270
0.360682 0.360682 0.360682
0.379178 0.379178 0.379178
0.397746 0.397746 0.397746
0.416377 0.416377 0.416377
0.511011 0.511011 0.511011
0.511011 0.511011 0.511011
0.511011 0.511011 0.511011
0.511011 0.511011 0.511011
0.511011 0.511011 0.511011
0.511011 0.511011 0.511011
0.511011 0.511011 0.511011
0.511011 0.511011 0.511011
0.511011 0.511011 0.511011
0.511011 0.511011 0.511011
0.113364 0.113364 0.113364
0.117223 0.117223 0.117223
0.121821 0.121821 0.121821
0.128247 0.128247 0.128247
0.136485 0.136485 0.136485
0.146371 0.146371 0.146371
0.157700 0.157700 0.157700
0.170261 0.170261 0.170261
0.183854 0.183854 0.183854
0.198302 0.198302 0.198302
0.213458 0.213458 0.213458
0.229198 0.229198 0.229198
0.245419 0.245419 0.245419
0.262041 0.262041 0.262041
0.278996 0.278996 0.278996
0.296231 0.296231 0.296231
0.313701 0.313701 0.313701
0.331370 0.331370 0.331370
0.349209 0.349209 0.349209
0.367193 0.367193 0.367193
0.385303 0.385303 0.385303
0.403521 0.403521 0.403521
0.502533 0.502533 0.502533
0.518293 0.518293 0.518293
0.518293 0.518293 0.518293
0.518293 0.518293 0.518293
0.518293 0.518293 0.518293
0.518293 0.518293 0.518293
0.518293 0.518293 0.518293
0.518293 0.518293 0.518293
0.518293 0.518293 0.518293
0.518293 0.518293 0.518293
0.518293 0.518293 0.518293
0.141066 0.141066 0.141066
0.144166 0.144166 0.144166
0.147902 0.147902 0.147902
0.153193 0.153193 0.153193
0.160084 0.160084 0.160084
0.168501 0.168501 0.168501
0.178317 0.178317 0.178317
0.189386 0.189386 0.189386
0.201552 0.201552 0.201552
0.214665 0.214665 0.214665
0.228588 0.228588 0.228588
0.243202 0.243202 0.243202
0.258401 0.258401 0.258401
0.274099 0.274099 0.274099
0.290218 0.290218 0.290218
0.306699 0.306699 0.306699
0.323487 0.323487 0.323487
0.340539 0.340539 0.340539
0.357819 0.357819 0.357819
0.375296 0.375296 0.375296
0.392944 0.392944 0.392944
0.410741 0.410741 0.410741
0.511970 0.511970 0.511970
0.527423 0.527423 0.527423
0.527423 0.527423 0.527423
0.527423 0.527423 0.527423
0.527423 0.527423 0.527423
0.527423 0.527423 0.527423
0.527423 0.527423 0.527423
0.527423 0.527423 0.527423
0.527423 0.527423 0.527423
0.527423 0.527423 0.527423
0.527423 0.527423 0.527423
0.168768 0.168768 0.168768
0.171332 0.171332 0.171332
0.174443 0.174443 0.174443
0.178886 0.178886 0.178886
0.184737 0.184737 0.184737
0.191970 0.191970 0.191970
0.200517 0.200517 0.200517
0.210282 0.210282 0.210282
0.221152 0.221152 0.221152
0.233009 0.233009 0.233009
0.245736 0.245736 0.245736
0.259227 0.259227 0.259227
0.273382 0.273382 0.273382
0.288113 0.288113 0.288113
0.303345 0.303345 0.303345
0.319010 0.319010 0.319010
0.335051 0.335051 0.335051
0.351420 0.351420 0.351420
0.368073 0.368073 0.368073
0.384976 0.384976 0.384976
0.402097 0.402097 0.402097
0.419410 0.419410 0.419410
0.523327 0.523327 0.523327
0.538423 0.538423 0.538423
0.538423 0.538423 0.538423
0.538423 0.538423 0.538423
0.538423 0.538423 0.538423
0.538423 0.538423 0.538423
0.538423 0.538423 0.538423
0.538423 0.538423 0.538423
0.538423 0.538423 0.538423
0.538423 0.538423 0.538423
0.538423 0.538423 0.538423
0.196470 0.196470 0.196470
0.198638 0.198638 0.198638
0.201281 0.201281 0.201281
0.205078 0.205078 0.205078
0.210113 0.210113 0.210113
0.216393 0.216393 0.216393
0.223887 0.223887 0.223887
0.232535 0.232535 0.232535
0.242259 0.242259 0.242259
0.252972 0.252972 0.252972
0.264581 0.264581 0.264581
0.276994 0.276994 0.276994
0.290123 0.290123 0.290123
0.303887 0.303887 0.303887
0.318212 0.318212 0.318212
0.333032 0.333032 0.333032
0.348288 0.348288 0.348288
0.363928 0.363928 0.363928
0.379907 0.379907 0.379907
0.396185 0.396185 0.396185
0.412728 0.412728 0.412728
0.513128 0.513128 0.513128
0.536585 0.536585 0.536585
0.551281 0.551281 0.551281
0.551281 0.551281 0.551281
0.551281 0.551281 0.551281
0.551281 0.551281 0.551281
0.551281 0.551281 0.551281
0.551281 0.551281 0.551281
0.551281 0.551281 0.551281
0.551281 0.551281 0.551281
0.551281 0.551281 0.551281
0.551281 0.551281 0.551281
0.224172 0.224172 0.224172
0.226038 0.226038 0.226038
0.228320 0.228320 0.228320
0.231611 0.231611 0.231611
0.236000 0.236000 0.236000
0.241508 0.241508 0.241508
0.248127 0.248127 0.248127
0.255825 0.255825 0.255825
0.264553 0.264553 0.264553
0.274245 0.274245 0.274245
0.284831 0.284831 0.284831
0.296237 0.296237 0.296237
0.308388 0.308388 0.308388
0.321212 0.321212 0.321212
0.334640 0.334640 0.334640
0.348611 0.348611 0.348611
0.363067 0.363067 0.363067
0.377956 0.377956 0.377956
0.393231 0.393231 0.393231
0.408851 0.408851 0.408851
0.506600 0.506600 0.506600
0.528977 0.528977 0.528977
0.551695 0.551695 0.551695
0.565956 0.565956 0.565956
0.565956 0.565956 0.565956
0.565956 0.565956 0.565956
0.565956 0.565956 0.565956
0.565956 0.565956 0.565956
0.565956 0.565956 0.565956
0.565956 0.565956 0.565956
0.565956 0.565956 0.565956
0.565956 0.565956 0.565956
0.565956 0.565956 0.565956
0.251874 0.251874 0.251874
0.253504 0.253504 0.253504
0.255501 0.255501 0.255501
0.258389 0.258389 0.258389
0.262256 0.262256 0.262256
0.267131 0.267131 0.267131
0.273022 0.273022 0.273022
0.279915 0.279915 0.279915
0.287779 0.287779 0.287779
0.296571 0.296571 0.296571
0.306237 0.306237 0.306237
0.316719 0.316719 0.316719
0.327956 0.327956 0.327956
0.339886 0.339886 0.339886
0.352449 0.352449 0.352449
0.365587 0.365587 0.365587
0.379248 0.379248 0.379248
0.393381 0.393381 0.393381
0.407940 0.407940 0.407940
0.503982 0.503982 0.503982
0.525098 0.525098 0.525098
0.546646 0.546646 0.546646
0.568584 0.568584 0.568584
0.582385 0.582385 0.582385
0.582385 0.582385 0.582385
0.582385 0.582385 0.582385
0.582385 0.582385 0.582385
0.582385 0.582385 0.582385
0.582385 0.582385 0.582385
0.582385 0.582385 0.582385
0.582385 0.582385 0.582385
0.582385 0.582385 0.582385
0.582385 0.582385 0.582385
0.279576 0.279576 0.279576
0.281016 0.281016 0.281016
0.282784 0.282784 0.282784
0.285346 0.285346 0.285346
0.288785 0.288785 0.288785
0.293137 0.293137 0.293137
0.298418 0.298418 0.298418
0.304626 0.304626 0.304626
0.311744 0.311744 0.311744
0.319745 0.319745 0.319745
0.328590 0.328590 0.328590
0.338234 0.338234 0.338234
0.348628 0.348628 0.348628
0.359722 0.359722 0.359722
0.371463 0.371463 0.371463
0.383801 0.383801 0.383801
0.396687 0.396687 0.396687
0.410075 0.410075 0.410075
0.505413 0.505413 0.505413
0.525109 0.525109 0.525109
0.545330 0.545330 0.545330
0.566029 0.566029 0.566029
0.587162 0.587162 0.587162
0.600485 0.600485 0.600485
0.600485 0.600485 0.600485
0.600485 0.600485 0.600485
0.600485 0.600485 0.600485
0.600485 0.600485 0.600485
0.600485 0.600485 0.600485
0.600485 0.600485 0.600485
0.600485 0.600485 0.600485
0.600485 0.600485 0.600485
0.600485 0.600485 0.600485
0.307278 0.307278 0.307278
0.308563 0.308563 0.308563
0.310143 0.310143 0.310143
0.312436 0.312436 0.312436
0.315521 0.315521 0.315521
0.319435 0.319435 0.319435
0.324200 0.324200 0.324200
0.329823 0.329823 0.329823
0.336297 0.336297 0.336297
0.343604 0.343604 0.343604
0.351719 0.351719 0.351719
0.360608 0.360608 0.360608
0.370234 0.370234 0.370234
0.380554 0.380554 0.380554
0.391525 0.391525 0.391525
0.403103 0.403103 0.403103
0.415246 0.415246 0.415246
0.510923 0.510923 0.510923
0.529077 0.529077 0.529077
0.547842 0.547842 0.547842
0.567169 0.567169 0.567169
0.587012 0.587012 0.587012
0.607328 0.607328 0.607328
0.620164 0.620164 0.620164
0.620164 0.620164 0.620164
0.620164 0.620164 0.620164
0.620164 0.620164 0.620164
0.620164 0.620164 0.620164
0.620164 0.620164 0.620164
0.620164 0.620164 0.620164
0.620164 0.620164 0.620164
0.620164 0.620164 0.620164
0.620164 0.620164 0.620164
0.334980 0.334980 0.334980
0.336137 0.336137 0.336137
0.337560 0.337560 0.337560
0.339629 0.339629 0.339629
0.342416 0.342416 0.342416
0.345961 0.345961 0.345961
0.350287 0.350287 0.350287
0.355407 0.355407 0.355407
0.361321 0.361321 0.361321
0.368020 0.368020 0.368020
0.375488 0.375488 0.375488
0.383700 0.383700 0.383700
0.392627 0.392627 0.392627
0.402237 0.402237 0.402237
0.412493 0.412493 0.412493
0.504637 0.504637 0.504637
0.520431 0.520431 0.520431
0.536961 0.536961 0.536961
0.554179 0.554179 0.554179
0.572034 0.572034 0.572034
0.590481 0.590481 0.590481
0.609475 0.609475 0.609475
0.628974 0.628974 0.628974
0.641318 0.641318 0.641318
0.641318 0.641318 0.641318
0.641318 0.641318 0.641318
0.641318 0.641318 0.641318
0.641318 0.641318 0.641318
0.641318 0.641318 0.641318
0.641318 0.641318 0.641318
0.641318 0.641318 0.641318
0.641318 0.641318 0.641318
0.641318 0.641318 0.641318
0.362682 0.362682 0.362682
0.363731 0.363731 0.363731
0.365022 0.365022 0.365022
0.366901 0.366901 0.366901
0.369436 0.369436 0.369436
0.372666 0.372666 0.372666
0.376615 0.376615 0.376615
0.381300 0.381300 0.381300
0.386727 0.386727 0.386727
0.392892 0.392892 0.392892
0.399785 0.399785 0.399785
0.407390 0.407390 0.407390
0.415686 0.415686 0.415686
0.506416 0.506416 0.506416
0.519668 0.519668 0.519668
0.533754 0.533754 0.533754
0.548630 0.548630 0.548630
0.564251 0.564251 0.564251
0.580572 0.580572 0.580572
0.597549 0.597549 0.597549
0.615138 0.615138 0.615138
0.633297 0.633297 0.633297
0.651988 0.651988 0.651988
0.663845 0.663845 0.663845
0.663845 0.663845 0.663845
0.663845 0.663845 0.663845
0.663845 0.663845 0.663845
0.663845 0.663845 0.663845
0.663845 0.663845 0.663845
0.663845 0.663845 0.663845
0.663845 0.663845 0.663845
0.663845 0.663845 0.663845
0.663845 0.663845 0.663845
0.390384 0.390384 0.390384
0.391342 0.391342 0.391342
0.392520 0.392520 0.392520
0.394237 0.394237 0.394237
0.396556 0.396556 0.396556
0.399514 0.399514 0.399514
0.403138 0.403138 0.403138
0.407445 0.407445 0.407445
0.412445 0.412445 0.412445
0.418138 0.418138 0.418138
0.506244 0.506244 0.506244
0.515996 0.515996 0.515996
0.526664 0.526664 0.526664
0.538220 0.538220 0.538220
0.550633 0.550633 0.550633
0.563868 0.563868 0.563868
0.577886 0.577886 0.577886
0.592650 0.592650 0.592650
0.608119 0.608119 0.608119
0.624253 0.624253 0.624253
0.641014 0.641014 0.641014
0.658363 0.658363 0.658363
0.676263 0.676263 0.676263
0.687639 0.687639 0.687639
0.687639 0.687639 0.687639
0.687639 0.687639 0.687639
0.687639 0.687639 0.687639
0.687639 0.687639 0.687639
0.687639 0.687639 0.687639
0.687639 0.687639 0.687639
0.687639 0.687639 0.687639
0.687639 0.687639 0.687639
0.687639 0.687639 0.687639
0.418086 0.418086 0.418086
0.418965 0.418965 0.418965
0.500065 0.500065 0.500065
0.502243 0.502243 0.502243
0.505188 0.505188 0.505188
0.508948 0.508948 0.508948
0.513560 0.513560 0.513560
0.519051 0.519051 0.519051
0.525437 0.525437 0.525437
0.532724 0.532724 0.532724
0.540911 0.540911 0.540911
0.549990 0.549990 0.549990
0.559946 0.559946 0.559946
0.570758 0.570758 0.570758
0.582403 0.582403 0.582403
0.594850 0.594850 0.594850
0.608070 0.608070 0.608070
0.622029 0.622029 0.622029
0.636692 0.636692 0.636692
0.652025 0.652025 0.652025
0.667992 0.667992 0.667992
0.684559 0.684559 0.684559
0.701691 0.701691 0.701691
0.712598 0.712598 0.712598
0.712598 0.712598 0.712598
0.712598 0.712598 0.712598
0.712598 0.712598 0.712598
0.712598 0.712598 0.712598
0.712598 0.712598 0.712598
0.712598 0.712598 0.712598
0.712598 0.712598 0.712598
0.712598 0.712598 0.712598
0.712598 0.712598 0.712598
0.535612 0.535612 0.535612
0.536731 0.536731 0.536731
0.538110 0.538110 0.538110
0.540121 0.540121 0.540121
0.542841 0.542841 0.542841
0.546317 0.546317 0.546317
0.550586 0.550586 0.550586
0.555675 0.555675 0.555675
0.561603 0.561603 0.561603
0.568378 0.568378 0.568378
0.576005 0.576005 0.576005
0.584479 0.584479 0.584479
0.593791 0.593791 0.593791
0.603927 0.603927 0.603927
0.614867 0.614867 0.614867
0.626589 0.626589 0.626589
0.639068 0.639068 0.639068
0.652274 0.652274 0.652274
0.666180 0.666180 0.666180
0.680754 0.680754 0.680754
0.695964 0.695964 0.695964
0.711781 0.711781 0.711781
0.728172 0.728172 0.728172
0.738625 0.738625 0.738625
0.738625 0.738625 0.738625
0.738625 0.738625 0.738625
0.738625 0.738625 0.738625
0.738625 0.738625 0.738625
0.738625 0.738625 0.738625
0.738625 0.738625 0.738625
0.738625 0.738625 0.738625
0.738625 0.738625 0.738625
0.738625 0.738625 0.738625
0.573867 0.573867 0.573867
0.574904 0.574904 0.574904
0.576182 0.576182 0.576182
0.578045 0.578045 0.578045
0.580568 0.580568 0.580568
0.583795 0.583795 0.583795
0.587762 0.587762 0.587762
0.592496 0.592496 0.592496
0.598016 0.598016 0.598016
0.604335 0.604335 0.604335
0.611459 0.611459 0.611459
0.619389 0.619389 0.619389
0.628118 0.628118 0.628118
0.637638 0.637638 0.637638
0.647934 0.647934 0.647934
0.658988 0.658988 0.658988
0.670779 0.670779 0.670779
0.683285 0.683285 0.683285
0.696480 0.696480 0.696480
0.710338 0.710338 0.710338
0.724831 0.724831 0.724831
0.739932 0.739932 0.739932
0.755612 0.755612 0.755612
0.765627 0.765627 0.765627
0.765627 0.765627 0.765627
0.765627 0.765627 0.765627
0.765627 0.765627 0.765627
0.765627 0.765627 0.765627
0.765627 0.765627 0.765627
0.765627 0.765627 0.765627
0.765627 0.765627 0.765627
0.765627 0.765627 0.765627
0.765627 0.765627 0.765627
0.612123 0.612123 0.612123
0.613087 0.613087 0.613087
0.614275 0.614275 0.614275
0.616010 0.616010 0.616010
0.618358 0.618358 0.618358
0.621365 0.621365 0.621365
0.625063 0.625063 0.625063
0.629480 0.629480 0.629480
0.634637 0.634637 0.634637
0.640548 0.640548 0.640548
0.647221 0.647221 0.647221
0.654659 0.654659 0.654659
0.662860 0.662860 0.662860
0.671819 0.671819 0.671819
0.681524 0.681524 0.681524
0.691963 0.691963 0.691963
0.703118 0.703118 0.703118
0.714972 0.714972 0.714972
0.727502 0.727502 0.727502
0.740687 0.740687 0.740687
0.754502 0.754502 0.754502
0.768922 0.768922 0.768922
0.783923 0.783923 0.783923
0.793518 0.793518 0.793518
0.793518 0.793518 0.793518
0.793518 0.793518 0.793518
0.793518 0.793518 0.793518
0.793518 0.793518 0.793518
0.793518 0.793518 0.793518
0.793518 0.793518 0.793518
0.793518 0.793518 0.793518
0.793518 0.793518 0.793518
0.793518 0.793518 0.793518
0.650378 0.650378 0.650378
0.651277 0.651277 0.651277
0.652387 0.652387 0.652387
0.654007 0.654007 0.654007
0.656201 0.656201 0.656201
0.659011 0.659011 0.659011
0.662470 0.662470 0.662470
0.666605 0.666605 0.666605
0.671437 0.671437 0.671437
0.676980 0.676980 0.676980
0.683246 0.683246 0.683246
0.690239 0.690239 0.690239
0.697960 0.697960 0.697960
0.706406 0.706406 0.706406
0.715570 0.715570 0.715570
0.725443 0.725443 0.725443
0.736010 0.736010 0.736010
0.747258 0.747258 0.747258
0.759167 0.759167 0.759167
0.771720 0.771720 0.771720
0.784895 0.784895 0.784895
0.798670 0.798670 0.798670
0.813025 0.813025 0.813025
0.822219 0.822219 0.822219
0.822219 0.822219 0.822219
0.822219 0.822219 0.822219
0.822219 0.822219 0.822219
0.822219 0.822219 0.822219
0.822219 0.822219 0.822219
0.822219 0.822219 0.822219
0.822219 0.822219 0.822219
0.822219 0.822219 0.822219
0.822219 0.822219 0.822219
0.688633 0.688633 0.688633
0.689475 0.689475 0.689475
0.690514 0.690514 0.690514
0.692032 0.692032 0.692032
0.694088 0.694088 0.694088
0.696722 0.696722 0.696722
0.699967 0.699967 0.699967
0.703848 0.703848 0.703848
0.708387 0.708387 0.708387
0.713600 0.713600 0.713600
0.719497 0.719497 0.719497
0.726087 0.726087 0.726087
0.733370 0.733370 0.733370
0.741348 0.741348 0.741348
0.750016 0.750016 0.750016
0.759367 0.759367 0.759367
0.769390 0.769390 0.769390
0.780074 0.780074 0.780074
0.791404 0.791404 0.791404
0.803365 0.803365 0.803365
0.815937 0.815937 0.815937
0.829103 0.829103 0.829103
0.842844 0.842844 0.842844
0.851655 0.851655 0.851655
0.851655 0.851655 0.851655
0.851655 0.851655 0.851655
0.851655 0.851655 0.851655
0.851655 0.851655 0.851655
0.851655 0.851655 0.851655
0.851655 0.851655 0.851655
0.851655 0.851655 0.851655
0.851655 0.851655 0.851655
0.851655 0.851655 0.851655
0.726888 0.726888 0.726888
0.727679 0.727679 0.727679
0.728655 0.728655 0.728655
0.730081 0.730081 0.730081
0.732013 0.732013 0.732013
0.734489 0.734489 0.734489
0.737541 0.737541 0.737541
0.741194 0.741194 0.741194
0.745469 0.745469 0.745469
0.750382 0.750382 0.750382
0.755945 0.755945 0.755945
0.762167 0.762167 0.762167
0.769051 0.769051 0.769051
0.776600 0.776600 0.776600
0.784812 0.784812 0.784812
0.793682 0.793682 0.793682
0.803201 0.803201 0.803201
0.813362 0.813362 0.813362
0.824152 0.824152 0.824152
0.835557 0.835557 0.835557
0.847564 0.847564 0.847564
0.860155 0.860155 0.860155
0.873313 0.873313 0.873313
0.881761 0.881761 0.881761
0.881761 0.881761 0.881761
0.881761 0.881761 0.881761
0.881761 0.881761 0.881761
0.881761 0.881761 0.881761
0.881761 0.881761 0.881761
0.881761 0.881761 0.881761
0.881761 0.881761 0.881761
0.881761 0.881761 0.881761
0.881761 0.881761 0.881761
0.765143 0.765143 0.765143
0.765888 0.765888 0.765888
0.766807 0.766807 0.766807
0.768150 0.768150 0.768150
0.769971 0.769971 0.769971
0.772305 0.772305 0.772305
0.775182 0.775182 0.775182
0.778629 0.778629 0.778629
0.782664 0.782664 0.782664
0.787304 0.787304 0.787304
0.792563 0.792563 0.792563
0.798450 0.798450 0.798450
0.804969 0.804969 0.804969
0.812125 0.812125 0.812125
0.819917 0.819917 0.819917
0.828342 0.828342 0.828342
0.837395 0.837395 0.837395
0.847069 0.847069 0.847069
0.857355 0.857355 0.857355
0.868242 0.868242 0.868242
0.879716 0.879716 0.879716
0.891764 0.891764 0.891764
0.904372 0.904372 0.904372
0.912475 0.912475 0.912475
0.912475 0.912475 0.912475
0.912475 0.912475 0.912475
0.912475 0.912475 0.912475
0.912475 0.912475 0.912475
0.912475 0.912475 0.912475
0.912475 0.912475 0.912475
0.912475 0.912475 0.912475
0.912475 0.912475 0.912475
0.912475 0.912475 0.912475
0.803398 0.803398 0.803398
0.804102 0.804102 0.804102
0.804969 0.804969 0.804969
0.806237 0.806237 0.806237
0.807957 0.807957 0.807957
0.810162 0.810162 0.810162
0.812881 0.812881 0.812881
0.816140 0.816140 0.816140
0.819957 0.819957 0.819957
0.824350 0.824350 0.824350
0.829331 0.829331 0.829331
0.834910 0.834910 0.834910
0.841095 0.841095 0.841095
0.847889 0.847889 0.847889
0.855294 0.855294 0.855294
0.863308 0.863308 0.863308
0.871929 0.871929 0.871929
0.881151 0.881151 0.881151
0.890967 0.890967 0.890967
0.901367 0.901367 0.901367
0.912342 0.912342 0.912342
0.923880 0.923880 0.923880
0.935967 0.935967 0.935967
0.943742 0.943742 0.943742
0.943742 0.943742 0.943742
0.943742 0.943742 0.943742
0.943742 0.943742 0.943742
0.943742 0.943742 0.943742
0.943742 0.943742 0.943742
0.943742 0.943742 0.943742
0.943742 0.943742 0.943742
0.943742 0.943742 0.943742
0.943742 0.943742 0.943742
0.841654 0.841654 0.841654
0.842319 0.842319 0.842319
0.843140 0.843140 0.843140
0.844340 0.844340 0.844340
0.845967 0.845967 0.845967
0.848055 0.848055 0.848055
0.850631 0.850631 0.850631
0.853718 0.853718 0.853718
0.857336 0.857336 0.857336
0.861502 0.861502 0.861502
0.866229 0.866229 0.866229
0.871527 0.871527 0.871527
0.877404 0.877404 0.877404
0.883865 0.883865 0.883865
0.890912 0.890912 0.890912
0.898546 0.898546 0.898546
0.906766 0.906766 0.906766
0.915567 0.915567 0.915567
0.924944 0.924944 0.924944
0.934890 0.934890 0.934890
0.945396 0.945396 0.945396
0.956452 0.956452 0.956452
0.968047 0.968047 0.968047
0.975513 0.975513 0.975513
0.975513 0.975513 0.975513
0.975513 0.975513 0.975513
0.975513 0.975513 0.975513
0.975513 0.975513 0.975513
0.975513 0.975513 0.975513
0.975513 0.975513 0.975513
0.975513 0.975513 0.975513
0.975513 0.975513 0.975513
0.975513 0.975513 0.975513
0.879909 0.879909 0.879909
0.880540 0.880540 0.880540
0.881318 0.881318 0.881318
0.882456 0.882456 0.882456
0.884000 0.884000 0.884000
0.885980 0.885980 0.885980
0.888425 0.888425 0.888425
0.891355 0.891355 0.891355
0.894792 0.894792 0.894792
0.898750 0.898750 0.898750
0.903243 0.903243 0.903243
0.908282 0.908282 0.908282
0.913875 0.913875 0.913875
0.920028 0.920028 0.920028
0.926745 0.926745 0.926745
0.934027 0.934027 0.934027
0.941874 0.941874 0.941874
0.950283 0.950283 0.950283
0.959250 0.959250 0.959250
0.968770 0.968770 0.968770
0.978835 0.978835 0.978835
0.989439 0.989439 0.989439
1.000000 1.000000 1.000000
1.000000 1.000000 1.000000
1.000000 1.000000 1.000000
1.000000 1.000000 1.000000
1.000000 1.000000 1.000000
1.000000 1.000000 1.000000
1.000000 1.000000 1.000000
1.000000 1.000000 1.000000
1.000000 1.000000 1.000000
1.000000 1.000000 1.000000
1.000000 1.000000 1.000000
0.918164 0.918164 0.918164
0.918763 0.918763 0.918763
0.919503 0.919503 0.919503
0.920584 0.920584 0.920584
0.922051 0.922051 0.922051
0.923934 0.923934 0.923934
0.926257 0.926257 0.926257
0.929045 0.929045 0.929045
0.932314 0.932314 0.932314
0.936081 0.936081 0.936081
0.940359 0.940359 0.940359
0.945159 0.945159 0.945159
0.950491 0.950491 0.950491
0.956360 0.956360 0.956360
0.962770 0.962770 0.962770
0.969725 0.969725 0.969725
0.977225 0.977225 0.977225
0.985268 0.985268 0.985268
0.993852 0.993852 0.993852
1.000000 1.000000 1.000000
1.000000 1.000000 1.000000
1.000000 1.000000 1.000000
1.000000 1.000000 1.000000
1.000000 1.000000 1.000000
