docs/luts/fuji_recipes/AcrosR_PE_Moriyama.cube
TITLE "Fujifilm Recipe: PE Moriyama (AcrosR)"
# FilmSim=AcrosR HL=4 SH=4 Col=0 WB=Auto WBR=0 WBB=0
LUT_3D_SIZE 5
DOMAIN_MIN 0.0 0.0 0.0
DOMAIN_MAX 1.0 1.0 1.0
0.000000 0.000000 0.000000
0.096258 0.096258 0.096258
0.213027 0.213027 0.213027
0.329797 0.329797 0.329797
0.536686 0.536686 0.536686
0.164044 0.164044 0.164044
0.195176 0.195176 0.195176
0.269509 0.269509 0.269509
0.366129 0.366129 0.366129
0.572099 0.572099 0.572099
0.336375 0.336375 0.336375
0.350876 0.350876 0.350876
0.393025 0.393025 0.393025
0.555394 0.555394 0.555394
0.671858 0.671858 0.671858
0.622499 0.622499 0.622499
0.634581 0.634581 0.634581
0.671664 0.671664 0.671664
0.735969 0.735969 0.735969
0.824187 0.824187 0.824187
0.860480 0.860480 0.860480
0.868797 0.868797 0.868797
0.894846 0.894846 0.894846
0.941742 0.941742 0.941742
1.000000 1.000000 1.000000
0.034667 0.034667 0.034667
0.110499 0.110499 0.110499
0.219510 0.219510 0.219510
0.333687 0.333687 0.333687
0.540378 0.540378 0.540378
0.172640 0.172640 0.172640
0.202316 0.202316 0.202316
0.274460 0.274460 0.274460
0.369553 0.369553 0.369553
0.575540 0.575540 0.575540
0.340174 0.340174 0.340174
0.354484 0.354484 0.354484
0.396162 0.396162 0.396162
0.558949 0.558949 0.558949
0.674727 0.674727 0.674727
0.625629 0.625629 0.625629
0.637643 0.637643 0.637643
0.674534 0.674534 0.674534
0.738551 0.738551 0.738551
0.826446 0.826446 0.826446
0.862626 0.862626 0.862626
0.870918 0.870918 0.870918
0.896894 0.896894 0.896894
0.943667 0.943667 0.943667
1.000000 1.000000 1.000000
0.100951 0.100951 0.100951
0.147126 0.147126 0.147126
0.238941 0.238941 0.238941
0.345805 0.345805 0.345805
0.552035 0.552035 0.552035
0.197456 0.197456 0.197456
0.223482 0.223482 0.223482
0.289659 0.289659 0.289659
0.380278 0.380278 0.380278
0.586421 0.586421 0.586421
0.352017 0.352017 0.352017
0.365759 0.365759 0.365759
0.406018 0.406018 0.406018
0.570185 0.570185 0.570185
0.683833 0.683833 0.683833
0.635547 0.635547 0.635547
0.647352 0.647352 0.647352
0.683643 0.683643 0.683643
0.746759 0.746759 0.746759
0.833642 0.833642 0.833642
0.869466 0.869466 0.869466
0.877680 0.877680 0.877680
0.903422 0.903422 0.903422
0.949809 0.949809 0.949809
1.000000 1.000000 1.000000
0.167235 0.167235 0.167235
0.197814 0.197814 0.197814
0.271327 0.271327 0.271327
0.367382 0.367382 0.367382
0.573356 0.573356 0.573356
0.236583 0.236583 0.236583
0.258150 0.258150 0.258150
0.316026 0.316026 0.316026
0.399583 0.399583 0.399583
0.606395 0.606395 0.606395
0.373154 0.373154 0.373154
0.385971 0.385971 0.385971
0.505349 0.505349 0.505349
0.590777 0.590777 0.590777
0.700677 0.700677 0.700677
0.653830 0.653830 0.653830
0.665264 0.665264 0.665264
0.700493 0.700493 0.700493
0.761995 0.761995 0.761995
0.847048 0.847048 0.847048
0.882223 0.882223 0.882223
0.890296 0.890296 0.890296
0.915612 0.915612 0.915612
0.961290 0.961290 0.961290
1.000000 1.000000 1.000000
0.233519 0.233519 0.233519
0.255389 0.255389 0.255389
0.313867 0.313867 0.313867
0.397971 0.397971 0.397971
0.604709 0.604709 0.604709
0.285367 0.285367 0.285367
0.302904 0.302904 0.302904
0.352215 0.352215 0.352215
0.510140 0.510140 0.510140
0.635921 0.635921 0.635921
0.403201 0.403201 0.403201
0.414872 0.414872 0.414872
0.541115 0.541115 0.541115
0.621144 0.621144 0.621144
0.725858 0.725858 0.725858
0.681026 0.681026 0.681026
0.691944 0.691944 0.691944
0.725681 0.725681 0.725681
0.784894 0.784894 0.784894
0.867311 0.867311 0.867311
0.901542 0.901542 0.901542
0.909409 0.909409 0.909409
0.934102 0.934102 0.934102
0.978739 0.978739 0.978739
1.000000 1.000000 1.000000
