docs/luts/fuji_recipes/AcrosG_KM_Portrait.cube
TITLE "Fujifilm Recipe: KM Portrait (AcrosG)"
# FilmSim=AcrosG HL=-1 SH=2 Col=0 WB=Auto WBR=0 WBB=0
LUT_3D_SIZE 33
DOMAIN_MIN 0.0 0.0 0.0
DOMAIN_MAX 1.0 1.0 1.0
0.000000 0.000000 0.000000
0.005318 0.005318 0.005318
0.011335 0.011335 0.011335
0.019963 0.019963 0.019963
0.031549 0.031549 0.031549
0.045606 0.045606 0.045606
0.059838 0.059838 0.059838
0.074069 0.074069 0.074069
0.088301 0.088301 0.088301
0.102533 0.102533 0.102533
0.116764 0.116764 0.116764
0.130996 0.130996 0.130996
0.145228 0.145228 0.145228
0.159459 0.159459 0.159459
0.173691 0.173691 0.173691
0.187923 0.187923 0.187923
0.202154 0.202154 0.202154
0.216386 0.216386 0.216386
0.230618 0.230618 0.230618
0.244849 0.244849 0.244849
0.259081 0.259081 0.259081
0.273313 0.273313 0.273313
0.287544 0.287544 0.287544
0.301776 0.301776 0.301776
0.316008 0.316008 0.316008
0.330239 0.330239 0.330239
0.344471 0.344471 0.344471
0.358703 0.358703 0.358703
0.372934 0.372934 0.372934
0.387166 0.387166 0.387166
0.401398 0.401398 0.401398
0.415629 0.415629 0.415629
0.429861 0.429861 0.429861
0.023646 0.023646 0.023646
0.028964 0.028964 0.028964
0.034981 0.034981 0.034981
0.043212 0.043212 0.043212
0.052889 0.052889 0.052889
0.063642 0.063642 0.063642
0.075185 0.075185 0.075185
0.087306 0.087306 0.087306
0.099856 0.099856 0.099856
0.112727 0.112727 0.112727
0.125842 0.125842 0.125842
0.139146 0.139146 0.139146
0.152597 0.152597 0.152597
0.166166 0.166166 0.166166
0.179828 0.179828 0.179828
0.193568 0.193568 0.193568
0.207371 0.207371 0.207371
0.221226 0.221226 0.221226
0.235125 0.235125 0.235125
0.249060 0.249060 0.249060
0.263028 0.263028 0.263028
0.277022 0.277022 0.277022
0.291040 0.291040 0.291040
0.305078 0.305078 0.305078
0.319133 0.319133 0.319133
0.333204 0.333204 0.333204
0.347289 0.347289 0.347289
0.361385 0.361385 0.361385
0.375492 0.375492 0.375492
0.389609 0.389609 0.389609
0.403734 0.403734 0.403734
0.417867 0.417867 0.417867
0.432007 0.432007 0.432007
0.049046 0.049046 0.049046
0.053299 0.053299 0.053299
0.057834 0.057834 0.057834
0.063909 0.063909 0.063909
0.071417 0.071417 0.071417
0.080144 0.080144 0.080144
0.089873 0.089873 0.089873
0.100409 0.100409 0.100409
0.111588 0.111588 0.111588
0.123281 0.123281 0.123281
0.135383 0.135383 0.135383
0.147813 0.147813 0.147813
0.160508 0.160508 0.160508
0.173420 0.173420 0.173420
0.186508 0.186508 0.186508
0.199743 0.199743 0.199743
0.213101 0.213101 0.213101
0.226561 0.226561 0.226561
0.240107 0.240107 0.240107
0.253728 0.253728 0.253728
0.267412 0.267412 0.267412
0.281150 0.281150 0.281150
0.294936 0.294936 0.294936
0.308763 0.308763 0.308763
0.322626 0.322626 0.322626
0.336521 0.336521 0.336521
0.350444 0.350444 0.350444
0.364391 0.364391 0.364391
0.378361 0.378361 0.378361
0.392351 0.392351 0.392351
0.406359 0.406359 0.406359
0.420382 0.420382 0.420382
0.434420 0.434420 0.434420
0.075548 0.075548 0.075548
0.078643 0.078643 0.078643
0.082025 0.082025 0.082025
0.086673 0.086673 0.086673
0.092589 0.092589 0.092589
0.099670 0.099670 0.099670
0.107788 0.107788 0.107788
0.116805 0.116805 0.116805
0.126585 0.126585 0.126585
0.137010 0.137010 0.137010
0.147973 0.147973 0.147973
0.159387 0.159387 0.159387
0.171176 0.171176 0.171176
0.183281 0.183281 0.183281
0.195650 0.195650 0.195650
0.208243 0.208243 0.208243
0.221025 0.221025 0.221025
0.233968 0.233968 0.233968
0.247050 0.247050 0.247050
0.260250 0.260250 0.260250
0.273554 0.273554 0.273554
0.286947 0.286947 0.286947
0.300417 0.300417 0.300417
0.313956 0.313956 0.313956
0.327556 0.327556 0.327556
0.341208 0.341208 0.341208
0.354908 0.354908 0.354908
0.368649 0.368649 0.368649
0.382429 0.382429 0.382429
0.396242 0.396242 0.396242
0.410085 0.410085 0.410085
0.423956 0.423956 0.423956
0.437851 0.437851 0.437851
0.102050 0.102050 0.102050
0.104434 0.104434 0.104434
0.107072 0.107072 0.107072
0.110751 0.110751 0.110751
0.115512 0.115512 0.115512
0.121322 0.121322 0.121322
0.128113 0.128113 0.128113
0.135800 0.135800 0.135800
0.144289 0.144289 0.144289
0.153486 0.153486 0.153486
0.163299 0.163299 0.163299
0.173649 0.173649 0.173649
0.184461 0.184461 0.184461
0.195671 0.195671 0.195671
0.207225 0.207225 0.207225
0.219076 0.219076 0.219076
0.231182 0.231182 0.231182
0.243510 0.243510 0.243510
0.256030 0.256030 0.256030
0.268719 0.268719 0.268719
0.281554 0.281554 0.281554
0.294517 0.294517 0.294517
0.307594 0.307594 0.307594
0.320771 0.320771 0.320771
0.334037 0.334037 0.334037
0.347382 0.347382 0.347382
0.360796 0.360796 0.360796
0.374274 0.374274 0.374274
0.387808 0.387808 0.387808
0.401393 0.401393 0.401393
0.415023 0.415023 0.415023
0.428695 0.428695 0.428695
0.442405 0.442405 0.442405
0.128551 0.128551 0.128551
0.130464 0.130464 0.130464
0.132594 0.132594 0.132594
0.135590 0.135590 0.135590
0.139510 0.139510 0.139510
0.144351 0.144351 0.144351
0.150086 0.150086 0.150086
0.156668 0.156668 0.156668
0.164035 0.164035 0.164035
0.172122 0.172122 0.172122
0.180859 0.180859 0.180859
0.190178 0.190178 0.190178
0.200015 0.200015 0.200015
0.210310 0.210310 0.210310
0.221010 0.221010 0.221010
0.232067 0.232067 0.232067
0.243438 0.243438 0.243438
0.255086 0.255086 0.255086
0.266977 0.266977 0.266977
0.279085 0.279085 0.279085
0.291383 0.291383 0.291383
0.303850 0.303850 0.303850
0.316467 0.316467 0.316467
0.329218 0.329218 0.329218
0.342089 0.342089 0.342089
0.355067 0.355067 0.355067
0.368141 0.368141 0.368141
0.381300 0.381300 0.381300
0.394538 0.394538 0.394538
0.407846 0.407846 0.407846
0.421218 0.421218 0.421218
0.434648 0.434648 0.434648
0.448130 0.448130 0.448130
0.155053 0.155053 0.155053
0.156633 0.156633 0.156633
0.158401 0.158401 0.158401
0.160899 0.160899 0.160899
0.164191 0.164191 0.164191
0.168290 0.168290 0.168290
0.173190 0.173190 0.173190
0.178869 0.178869 0.178869
0.185292 0.185292 0.185292
0.192414 0.192414 0.192414
0.200186 0.200186 0.200186
0.208555 0.208555 0.208555
0.217469 0.217469 0.217469
0.226877 0.226877 0.226877
0.236730 0.236730 0.236730
0.246985 0.246985 0.246985
0.257599 0.257599 0.257599
0.268536 0.268536 0.268536
0.279760 0.279760 0.279760
0.291244 0.291244 0.291244
0.302958 0.302958 0.302958
0.314880 0.314880 0.314880
0.326988 0.326988 0.326988
0.339264 0.339264 0.339264
0.351690 0.351690 0.351690
0.364252 0.364252 0.364252
0.376936 0.376936 0.376936
0.389732 0.389732 0.389732
0.402629 0.402629 0.402629
0.415616 0.415616 0.415616
0.428688 0.428688 0.428688
0.441835 0.441835 0.441835
0.455051 0.455051 0.455051
0.181555 0.181555 0.181555
0.182890 0.182890 0.182890
0.184388 0.184388 0.184388
0.186513 0.186513 0.186513
0.189325 0.189325 0.189325
0.192846 0.192846 0.192846
0.197083 0.197083 0.197083
0.202029 0.202029 0.202029
0.207665 0.207665 0.207665
0.213964 0.213964 0.213964
0.220891 0.220891 0.220891
0.228410 0.228410 0.228410
0.236479 0.236479 0.236479
0.245058 0.245058 0.245058
0.254104 0.254104 0.254104
0.263580 0.263580 0.263580
0.273446 0.273446 0.273446
0.283669 0.283669 0.283669
0.294215 0.294215 0.294215
0.305055 0.305055 0.305055
0.316161 0.316161 0.316161
0.327508 0.327508 0.327508
0.339074 0.339074 0.339074
0.350839 0.350839 0.350839
0.362784 0.362784 0.362784
0.374892 0.374892 0.374892
0.387150 0.387150 0.387150
0.399544 0.399544 0.399544
0.412061 0.412061 0.412061
0.424692 0.424692 0.424692
0.437426 0.437426 0.437426
0.450255 0.450255 0.450255
0.503239 0.503239 0.503239
0.208056 0.208056 0.208056
0.209205 0.209205 0.209205
0.210496 0.210496 0.210496
0.212332 0.212332 0.212332
0.214770 0.214770 0.214770
0.217835 0.217835 0.217835
0.221539 0.221539 0.221539
0.225886 0.225886 0.225886
0.230868 0.230868 0.230868
0.236470 0.236470 0.236470
0.242669 0.242669 0.242669
0.249439 0.249439 0.249439
0.256751 0.256751 0.256751
0.264571 0.264571 0.264571
0.272868 0.272868 0.272868
0.281608 0.281608 0.281608
0.290758 0.290758 0.290758
0.300286 0.300286 0.300286
0.310163 0.310163 0.310163
0.320360 0.320360 0.320360
0.330851 0.330851 0.330851
0.341612 0.341612 0.341612
0.352619 0.352619 0.352619
0.363852 0.363852 0.363852
0.375292 0.375292 0.375292
0.386922 0.386922 0.386922
0.398725 0.398725 0.398725
0.410688 0.410688 0.410688
0.422797 0.422797 0.422797
0.435041 0.435041 0.435041
0.447408 0.447408 0.447408
0.459889 0.459889 0.459889
0.512746 0.512746 0.512746
0.234558 0.234558 0.234558
0.235561 0.235561 0.235561
0.236689 0.236689 0.236689
0.238297 0.238297 0.238297
0.240436 0.240436 0.240436
0.243134 0.243134 0.243134
0.246406 0.246406 0.246406
0.250260 0.250260 0.250260
0.254696 0.254696 0.254696
0.259707 0.259707 0.259707
0.265280 0.265280 0.265280
0.271398 0.271398 0.271398
0.278038 0.278038 0.278038
0.285177 0.285177 0.285177
0.292790 0.292790 0.292790
0.300847 0.300847 0.300847
0.309324 0.309324 0.309324
0.318191 0.318191 0.318191
0.327423 0.327423 0.327423
0.336994 0.336994 0.336994
0.346879 0.346879 0.346879
0.357056 0.357056 0.357056
0.367501 0.367501 0.367501
0.378195 0.378195 0.378195
0.389119 0.389119 0.389119
0.400256 0.400256 0.400256
0.411588 0.411588 0.411588
0.423101 0.423101 0.423101
0.434781 0.434781 0.434781
0.446615 0.446615 0.446615
0.458593 0.458593 0.458593
0.510935 0.510935 0.510935
0.523433 0.523433 0.523433
0.261060 0.261060 0.261060
0.261946 0.261946 0.261946
0.262944 0.262944 0.262944
0.264367 0.264367 0.264367
0.266265 0.266265 0.266265
0.268662 0.268662 0.268662
0.271578 0.271578 0.271578
0.275022 0.275022 0.275022
0.279001 0.279001 0.279001
0.283511 0.283511 0.283511
0.288546 0.288546 0.288546
0.294096 0.294096 0.294096
0.300145 0.300145 0.300145
0.306676 0.306676 0.306676
0.313670 0.313670 0.313670
0.321105 0.321105 0.321105
0.328958 0.328958 0.328958
0.337206 0.337206 0.337206
0.345827 0.345827 0.345827
0.354799 0.354799 0.354799
0.364098 0.364098 0.364098
0.373704 0.373704 0.373704
0.383596 0.383596 0.383596
0.393755 0.393755 0.393755
0.404162 0.404162 0.404162
0.414800 0.414800 0.414800
0.425653 0.425653 0.425653
0.436706 0.436706 0.436706
0.447945 0.447945 0.447945
0.459356 0.459356 0.459356
0.511165 0.511165 0.511165
0.523141 0.523141 0.523141
0.535259 0.535259 0.535259
0.287561 0.287561 0.287561
0.288352 0.288352 0.288352
0.289243 0.289243 0.289243
0.290516 0.290516 0.290516
0.292214 0.292214 0.292214
0.294363 0.294363 0.294363
0.296982 0.296982 0.296982
0.300083 0.300083 0.300083
0.303674 0.303674 0.303674
0.307757 0.307757 0.307757
0.312329 0.312329 0.312329
0.317385 0.317385 0.317385
0.322915 0.322915 0.322915
0.328907 0.328907 0.328907
0.335345 0.335345 0.335345
0.342214 0.342214 0.342214
0.349496 0.349496 0.349496
0.357171 0.357171 0.357171
0.365221 0.365221 0.365221
0.373626 0.373626 0.373626
0.382367 0.382367 0.382367
0.391425 0.391425 0.391425
0.400780 0.400780 0.400780
0.410415 0.410415 0.410415
0.420313 0.420313 0.420313
0.430457 0.430457 0.430457
0.440831 0.440831 0.440831
0.451421 0.451421 0.451421
0.502261 0.502261 0.502261
0.513480 0.513480 0.513480
0.524880 0.524880 0.524880
0.536447 0.536447 0.536447
0.548173 0.548173 0.548173
0.314063 0.314063 0.314063
0.314775 0.314775 0.314775
0.315577 0.315577 0.315577
0.316724 0.316724 0.316724
0.318256 0.318256 0.318256
0.320197 0.320197 0.320197
0.322566 0.322566 0.322566
0.325377 0.325377 0.325377
0.328637 0.328637 0.328637
0.332353 0.332353 0.332353
0.336525 0.336525 0.336525
0.341151 0.341151 0.341151
0.346224 0.346224 0.346224
0.351737 0.351737 0.351737
0.357679 0.357679 0.357679
0.364038 0.364038 0.364038
0.370799 0.370799 0.370799
0.377948 0.377948 0.377948
0.385468 0.385468 0.385468
0.393344 0.393344 0.393344
0.401558 0.401558 0.401558
0.410094 0.410094 0.410094
0.418935 0.418935 0.418935
0.428064 0.428064 0.428064
0.437467 0.437467 0.437467
0.447127 0.447127 0.447127
0.457030 0.457030 0.457030
0.507317 0.507317 0.507317
0.517888 0.517888 0.517888
0.528665 0.528665 0.528665
0.539637 0.539637 0.539637
0.550791 0.550791 0.550791
0.562117 0.562117 0.562117
0.340565 0.340565 0.340565
0.341210 0.341210 0.341210
0.341938 0.341938 0.341938
0.342978 0.342978 0.342978
0.344370 0.344370 0.344370
0.346135 0.346135 0.346135
0.348291 0.348291 0.348291
0.350853 0.350853 0.350853
0.353831 0.353831 0.353831
0.357230 0.357230 0.357230
0.361054 0.361054 0.361054
0.365303 0.365303 0.365303
0.369975 0.369975 0.369975
0.375063 0.375063 0.375063
0.380561 0.380561 0.380561
0.386460 0.386460 0.386460
0.392749 0.392749 0.392749
0.399417 0.399417 0.399417
0.406449 0.406449 0.406449
0.413833 0.413833 0.413833
0.421554 0.421554 0.421554
0.429599 0.429599 0.429599
0.437951 0.437951 0.437951
0.446598 0.446598 0.446598
0.455524 0.455524 0.455524
0.504818 0.504818 0.504818
0.514466 0.514466 0.514466
0.524358 0.524358 0.524358
0.534480 0.534480 0.534480
0.544820 0.544820 0.544820
0.555366 0.555366 0.555366
0.566107 0.566107 0.566107
0.577031 0.577031 0.577031
0.367066 0.367066 0.367066
0.367655 0.367655 0.367655
0.368320 0.368320 0.368320
0.369270 0.369270 0.369270
0.370541 0.370541 0.370541
0.372155 0.372155 0.372155
0.374129 0.374129 0.374129
0.376477 0.376477 0.376477
0.379210 0.379210 0.379210
0.382334 0.382334 0.382334
0.385854 0.385854 0.385854
0.389773 0.389773 0.389773
0.394089 0.394089 0.394089
0.398800 0.398800 0.398800
0.403902 0.403902 0.403902
0.409387 0.409387 0.409387
0.415249 0.415249 0.415249
0.421477 0.421477 0.421477
0.428061 0.428061 0.428061
0.434991 0.434991 0.434991
0.442254 0.442254 0.442254
0.449838 0.449838 0.449838
0.457730 0.457730 0.457730
0.506047 0.506047 0.506047
0.514703 0.514703 0.514703
0.523634 0.523634 0.523634
0.532829 0.532829 0.532829
0.542275 0.542275 0.542275
0.551959 0.551959 0.551959
0.561870 0.561870 0.561870
0.571996 0.571996 0.571996
0.582326 0.582326 0.582326
0.592850 0.592850 0.592850
0.393568 0.393568 0.393568
0.394108 0.394108 0.394108
0.394718 0.394718 0.394718
0.395591 0.395591 0.395591
0.396759 0.396759 0.396759
0.398242 0.398242 0.398242
0.400059 0.400059 0.400059
0.402221 0.402221 0.402221
0.404740 0.404740 0.404740
0.407623 0.407623 0.407623
0.410877 0.410877 0.410877
0.414504 0.414504 0.414504
0.418506 0.418506 0.418506
0.422881 0.422881 0.422881
0.427628 0.427628 0.427628
0.432741 0.432741 0.432741
0.438215 0.438215 0.438215
0.444043 0.444043 0.444043
0.450217 0.450217 0.450217
0.456728 0.456728 0.456728
0.503644 0.503644 0.503644
0.510954 0.510954 0.510954
0.518577 0.518577 0.518577
0.526502 0.526502 0.526502
0.534717 0.534717 0.534717
0.543210 0.543210 0.543210
0.551970 0.551970 0.551970
0.560986 0.560986 0.560986
0.570246 0.570246 0.570246
0.579739 0.579739 0.579739
0.589454 0.589454 0.589454
0.599382 0.599382 0.599382
0.609511 0.609511 0.609511
0.420070 0.420070 0.420070
0.420568 0.420568 0.420568
0.421130 0.421130 0.421130
0.421936 0.421936 0.421936
0.423014 0.423014 0.423014
0.424384 0.424384 0.424384
0.426062 0.426062 0.426062
0.428062 0.428062 0.428062
0.430394 0.430394 0.430394
0.433066 0.433066 0.433066
0.436084 0.436084 0.436084
0.439453 0.439453 0.439453
0.443175 0.443175 0.443175
0.447251 0.447251 0.447251
0.451679 0.451679 0.451679
0.456456 0.456456 0.456456
0.501614 0.501614 0.501614
0.507197 0.507197 0.507197
0.513122 0.513122 0.513122
0.519381 0.519381 0.519381
0.525966 0.525966 0.525966
0.532869 0.532869 0.532869
0.540081 0.540081 0.540081
0.547591 0.547591 0.547591
0.555390 0.555390 0.555390
0.563467 0.563467 0.563467
0.571813 0.571813 0.571813
0.580417 0.580417 0.580417
0.589268 0.589268 0.589268
0.598357 0.598357 0.598357
0.607674 0.607674 0.607674
0.617209 0.617209 0.617209
0.626952 0.626952 0.626952
0.446572 0.446572 0.446572
0.447033 0.447033 0.447033
0.447554 0.447554 0.447554
0.448300 0.448300 0.448300
0.449300 0.449300 0.449300
0.450570 0.450570 0.450570
0.452128 0.452128 0.452128
0.453984 0.453984 0.453984
0.456151 0.456151 0.456151
0.458636 0.458636 0.458636
0.501477 0.501477 0.501477
0.504685 0.504685 0.504685
0.508233 0.508233 0.508233
0.512123 0.512123 0.512123
0.516354 0.516354 0.516354
0.520926 0.520926 0.520926
0.525836 0.525836 0.525836
0.531080 0.531080 0.531080
0.536654 0.536654 0.536654
0.542551 0.542551 0.542551
0.548766 0.548766 0.548766
0.555292 0.555292 0.555292
0.562119 0.562119 0.562119
0.569241 0.569241 0.569241
0.576649 0.576649 0.576649
0.584334 0.584334 0.584334
0.592286 0.592286 0.592286
0.600498 0.600498 0.600498
0.608958 0.608958 0.608958
0.617659 0.617659 0.617659
0.626591 0.626591 0.626591
0.635745 0.635745 0.635745
0.645112 0.645112 0.645112
0.513357 0.513357 0.513357
0.513796 0.513796 0.513796
0.514291 0.514291 0.514291
0.515000 0.515000 0.515000
0.515950 0.515950 0.515950
0.517159 0.517159 0.517159
0.518641 0.518641 0.518641
0.520409 0.520409 0.520409
0.522473 0.522473 0.522473
0.524842 0.524842 0.524842
0.527523 0.527523 0.527523
0.530521 0.530521 0.530521
0.533841 0.533841 0.533841
0.537484 0.537484 0.537484
0.541451 0.541451 0.541451
0.545743 0.545743 0.545743
0.550358 0.550358 0.550358
0.555293 0.555293 0.555293
0.560546 0.560546 0.560546
0.566111 0.566111 0.566111
0.571985 0.571985 0.571985
0.578160 0.578160 0.578160
0.584631 0.584631 0.584631
0.591390 0.591390 0.591390
0.598431 0.598431 0.598431
0.605746 0.605746 0.605746
0.613327 0.613327 0.613327
0.621165 0.621165 0.621165
0.629253 0.629253 0.629253
0.637583 0.637583 0.637583
0.646145 0.646145 0.646145
0.654932 0.654932 0.654932
0.663935 0.663935 0.663935
0.540435 0.540435 0.540435
0.540844 0.540844 0.540844
0.541307 0.541307 0.541307
0.541969 0.541969 0.541969
0.542856 0.542856 0.542856
0.543985 0.543985 0.543985
0.545370 0.545370 0.545370
0.547022 0.547022 0.547022
0.548953 0.548953 0.548953
0.551170 0.551170 0.551170
0.553681 0.553681 0.553681
0.556492 0.556492 0.556492
0.559606 0.559606 0.559606
0.563026 0.563026 0.563026
0.566755 0.566755 0.566755
0.570793 0.570793 0.570793
0.575140 0.575140 0.575140
0.579793 0.579793 0.579793
0.584752 0.584752 0.584752
0.590012 0.590012 0.590012
0.595570 0.595570 0.595570
0.601421 0.601421 0.601421
0.607560 0.607560 0.607560
0.613982 0.613982 0.613982
0.620679 0.620679 0.620679
0.627647 0.627647 0.627647
0.634877 0.634877 0.634877
0.642362 0.642362 0.642362
0.650096 0.650096 0.650096
0.658071 0.658071 0.658071
0.666279 0.666279 0.666279
0.674714 0.674714 0.674714
0.683366 0.683366 0.683366
0.567513 0.567513 0.567513
0.567896 0.567896 0.567896
0.568329 0.568329 0.568329
0.568949 0.568949 0.568949
0.569780 0.569780 0.569780
0.570838 0.570838 0.570838
0.572136 0.572136 0.572136
0.573686 0.573686 0.573686
0.575497 0.575497 0.575497
0.577578 0.577578 0.577578
0.579936 0.579936 0.579936
0.582577 0.582577 0.582577
0.585506 0.585506 0.585506
0.588725 0.588725 0.588725
0.592238 0.592238 0.592238
0.596045 0.596045 0.596045
0.600146 0.600146 0.600146
0.604542 0.604542 0.604542
0.609231 0.609231 0.609231
0.614211 0.614211 0.614211
0.619478 0.619478 0.619478
0.625029 0.625029 0.625029
0.630860 0.630860 0.630860
0.636967 0.636967 0.636967
0.643343 0.643343 0.643343
0.649984 0.649984 0.649984
0.656884 0.656884 0.656884
0.664036 0.664036 0.664036
0.671434 0.671434 0.671434
0.679072 0.679072 0.679072
0.686943 0.686943 0.686943
0.695040 0.695040 0.695040
0.703355 0.703355 0.703355
0.594591 0.594591 0.594591
0.594950 0.594950 0.594950
0.595357 0.595357 0.595357
0.595939 0.595939 0.595939
0.596720 0.596720 0.596720
0.597714 0.597714 0.597714
0.598934 0.598934 0.598934
0.600391 0.600391 0.600391
0.602095 0.602095 0.602095
0.604054 0.604054 0.604054
0.606274 0.606274 0.606274
0.608762 0.608762 0.608762
0.611522 0.611522 0.611522
0.614559 0.614559 0.614559
0.617875 0.617875 0.617875
0.621471 0.621471 0.621471
0.625350 0.625350 0.625350
0.629510 0.629510 0.629510
0.633951 0.633951 0.633951
0.638672 0.638672 0.638672
0.643670 0.643670 0.643670
0.648944 0.648944 0.648944
0.654489 0.654489 0.654489
0.660302 0.660302 0.660302
0.666378 0.666378 0.666378
0.672713 0.672713 0.672713
0.679303 0.679303 0.679303
0.686140 0.686140 0.686140
0.693221 0.693221 0.693221
0.700539 0.700539 0.700539
0.708088 0.708088 0.708088
0.715863 0.715863 0.715863
0.723856 0.723856 0.723856
0.621669 0.621669 0.621669
0.622007 0.622007 0.622007
0.622390 0.622390 0.622390
0.622939 0.622939 0.622939
0.623674 0.623674 0.623674
0.624611 0.624611 0.624611
0.625760 0.625760 0.625760
0.627134 0.627134 0.627134
0.628740 0.628740 0.628740
0.630588 0.630588 0.630588
0.632683 0.632683 0.632683
0.635032 0.635032 0.635032
0.637640 0.637640 0.637640
0.640511 0.640511 0.640511
0.643647 0.643647 0.643647
0.647051 0.647051 0.647051
0.650725 0.650725 0.650725
0.654668 0.654668 0.654668
0.658882 0.658882 0.658882
0.663364 0.663364 0.663364
0.668114 0.668114 0.668114
0.673130 0.673130 0.673130
0.678410 0.678410 0.678410
0.683949 0.683949 0.683949
0.689745 0.689745 0.689745
0.695794 0.695794 0.695794
0.702091 0.702091 0.702091
0.708633 0.708633 0.708633
0.715414 0.715414 0.715414
0.722429 0.722429 0.722429
0.729672 0.729672 0.729672
0.737140 0.737140 0.737140
0.744825 0.744825 0.744825
0.648746 0.648746 0.648746
0.649066 0.649066 0.649066
0.649428 0.649428 0.649428
0.649945 0.649945 0.649945
0.650640 0.650640 0.650640
0.651524 0.651524 0.651524
0.652610 0.652610 0.652610
0.653908 0.653908 0.653908
0.655426 0.655426 0.655426
0.657173 0.657173 0.657173
0.659155 0.659155 0.659155
0.661378 0.661378 0.661378
0.663846 0.663846 0.663846
0.666565 0.666565 0.666565
0.669538 0.669538 0.669538
0.672766 0.672766 0.672766
0.676251 0.676251 0.676251
0.679996 0.679996 0.679996
0.683999 0.683999 0.683999
0.688261 0.688261 0.688261
0.692782 0.692782 0.692782
0.697559 0.697559 0.697559
0.702591 0.702591 0.702591
0.707875 0.707875 0.707875
0.713410 0.713410 0.713410
0.719190 0.719190 0.719190
0.725214 0.725214 0.725214
0.731477 0.731477 0.731477
0.737974 0.737974 0.737974
0.744702 0.744702 0.744702
0.751656 0.751656 0.751656
0.758831 0.758831 0.758831
0.766222 0.766222 0.766222
0.675824 0.675824 0.675824
0.676127 0.676127 0.676127
0.676469 0.676469 0.676469
0.676959 0.676959 0.676959
0.677616 0.677616 0.677616
0.678453 0.678453 0.678453
0.679481 0.679481 0.679481
0.680710 0.680710 0.680710
0.682148 0.682148 0.682148
0.683803 0.683803 0.683803
0.685681 0.685681 0.685681
0.687788 0.687788 0.687788
0.690130 0.690130 0.690130
0.692710 0.692710 0.692710
0.695532 0.695532 0.695532
0.698598 0.698598 0.698598
0.701911 0.701911 0.701911
0.705472 0.705472 0.705472
0.709282 0.709282 0.709282
0.713340 0.713340 0.713340
0.717648 0.717648 0.717648
0.722203 0.722203 0.722203
0.727005 0.727005 0.727005
0.732052 0.732052 0.732052
0.737341 0.737341 0.737341
0.742871 0.742871 0.742871
0.748637 0.748637 0.748637
0.754637 0.754637 0.754637
0.760868 0.760868 0.760868
0.767325 0.767325 0.767325
0.774004 0.774004 0.774004
0.780901 0.780901 0.780901
0.788012 0.788012 0.788012
0.702902 0.702902 0.702902
0.703189 0.703189 0.703189
0.703513 0.703513 0.703513
0.703978 0.703978 0.703978
0.704601 0.704601 0.704601
0.705395 0.705395 0.705395
0.706370 0.706370 0.706370
0.707536 0.707536 0.707536
0.708901 0.708901 0.708901
0.710471 0.710471 0.710471
0.712255 0.712255 0.712255
0.714257 0.714257 0.714257
0.716482 0.716482 0.716482
0.718934 0.718934 0.718934
0.721618 0.721618 0.721618
0.724535 0.724535 0.724535
0.727689 0.727689 0.727689
0.731080 0.731080 0.731080
0.734711 0.734711 0.734711
0.738581 0.738581 0.738581
0.742691 0.742691 0.742691
0.747040 0.747040 0.747040
0.751628 0.751628 0.751628
0.756453 0.756453 0.756453
0.761513 0.761513 0.761513
0.766807 0.766807 0.766807
0.772332 0.772332 0.772332
0.778085 0.778085 0.778085
0.784064 0.784064 0.784064
0.790264 0.790264 0.790264
0.796683 0.796683 0.796683
0.803317 0.803317 0.803317
0.810162 0.810162 0.810162
0.729980 0.729980 0.729980
0.730252 0.730252 0.730252
0.730560 0.730560 0.730560
0.731002 0.731002 0.731002
0.731594 0.731594 0.731594
0.732348 0.732348 0.732348
0.733275 0.733275 0.733275
0.734383 0.734383 0.734383
0.735681 0.735681 0.735681
0.737175 0.737175 0.737175
0.738871 0.738871 0.738871
0.740776 0.740776 0.740776
0.742894 0.742894 0.742894
0.745229 0.745229 0.745229
0.747785 0.747785 0.747785
0.750565 0.750565 0.750565
0.753571 0.753571 0.753571
0.756806 0.756806 0.756806
0.760271 0.760271 0.760271
0.763966 0.763966 0.763966
0.767893 0.767893 0.767893
0.772050 0.772050 0.772050
0.776438 0.776438 0.776438
0.781056 0.781056 0.781056
