docs/luts/fuji_recipes/Acros_RR_Acros_Push_Process.cube
TITLE "Fujifilm Recipe: RR Acros Push Process (Acros)"
# FilmSim=Acros HL=4 SH=3 Col=0 WB=Auto WBR=0 WBB=0
LUT_3D_SIZE 33
DOMAIN_MIN 0.0 0.0 0.0
DOMAIN_MAX 1.0 1.0 1.0
0.000000 0.000000 0.000000
0.011693 0.011693 0.011693
0.024924 0.024924 0.024924
0.043261 0.043261 0.043261
0.062518 0.062518 0.062518
0.081775 0.081775 0.081775
0.101031 0.101031 0.101031
0.120288 0.120288 0.120288
0.139545 0.139545 0.139545
0.158801 0.158801 0.158801
0.178058 0.178058 0.178058
0.197314 0.197314 0.197314
0.216571 0.216571 0.216571
0.235828 0.235828 0.235828
0.255084 0.255084 0.255084
0.274341 0.274341 0.274341
0.293597 0.293597 0.293597
0.312854 0.312854 0.312854
0.332111 0.332111 0.332111
0.351367 0.351367 0.351367
0.370624 0.370624 0.370624
0.389880 0.389880 0.389880
0.409137 0.409137 0.409137
0.428394 0.428394 0.428394
0.438627 0.438627 0.438627
0.438627 0.438627 0.438627
0.438627 0.438627 0.438627
0.438627 0.438627 0.438627
0.438627 0.438627 0.438627
0.438627 0.438627 0.438627
0.438627 0.438627 0.438627
0.438627 0.438627 0.438627
0.438627 0.438627 0.438627
0.039166 0.039166 0.039166
0.049196 0.049196 0.049196
0.059036 0.059036 0.059036
0.071264 0.071264 0.071264
0.085347 0.085347 0.085347
0.100746 0.100746 0.100746
0.117074 0.117074 0.117074
0.134063 0.134063 0.134063
0.151529 0.151529 0.151529
0.169348 0.169348 0.169348
0.187432 0.187432 0.187432
0.205718 0.205718 0.205718
0.224161 0.224161 0.224161
0.242729 0.242729 0.242729
0.261395 0.261395 0.261395
0.280143 0.280143 0.280143
0.298956 0.298956 0.298956
0.317823 0.317823 0.317823
0.336737 0.336737 0.336737
0.355688 0.355688 0.355688
0.374673 0.374673 0.374673
0.393685 0.393685 0.393685
0.412722 0.412722 0.412722
0.431779 0.431779 0.431779
0.502523 0.502523 0.502523
0.502523 0.502523 0.502523
0.502523 0.502523 0.502523
0.502523 0.502523 0.502523
0.502523 0.502523 0.502523
0.502523 0.502523 0.502523
0.502523 0.502523 0.502523
0.502523 0.502523 0.502523
0.502523 0.502523 0.502523
0.071631 0.071631 0.071631
0.078341 0.078341 0.078341
0.085379 0.085379 0.085379
0.094648 0.094648 0.094648
0.105908 0.105908 0.105908
0.118784 0.118784 0.118784
0.132934 0.132934 0.132934
0.148074 0.148074 0.148074
0.163979 0.163979 0.163979
0.180480 0.180480 0.180480
0.197447 0.197447 0.197447
0.214781 0.214781 0.214781
0.232408 0.232408 0.232408
0.250271 0.250271 0.250271
0.268327 0.268327 0.268327
0.286539 0.286539 0.286539
0.304882 0.304882 0.304882
0.323335 0.323335 0.323335
0.341879 0.341879 0.341879
0.360501 0.360501 0.360501
0.379190 0.379190 0.379190
0.397936 0.397936 0.397936
0.416731 0.416731 0.416731
0.435570 0.435570 0.435570
0.507377 0.507377 0.507377
0.507377 0.507377 0.507377
0.507377 0.507377 0.507377
0.507377 0.507377 0.507377
0.507377 0.507377 0.507377
0.507377 0.507377 0.507377
0.507377 0.507377 0.507377
0.507377 0.507377 0.507377
0.507377 0.507377 0.507377
0.103555 0.103555 0.103555
0.108457 0.108457 0.108457
0.113757 0.113757 0.113757
0.120959 0.120959 0.120959
0.130003 0.130003 0.130003
0.140682 0.140682 0.140682
0.152761 0.152761 0.152761
0.166011 0.166011 0.166011
0.180226 0.180226 0.180226
0.195231 0.195231 0.195231
0.210882 0.210882 0.210882
0.227061 0.227061 0.227061
0.243673 0.243673 0.243673
0.260643 0.260643 0.260643
0.277909 0.277909 0.277909
0.295423 0.295423 0.295423
0.313146 0.313146 0.313146
0.331044 0.331044 0.331044
0.349091 0.349091 0.349091
0.367267 0.367267 0.367267
0.385552 0.385552 0.385552
0.403933 0.403933 0.403933
0.422397 0.422397 0.422397
0.501230 0.501230 0.501230
0.514250 0.514250 0.514250
0.514250 0.514250 0.514250
0.514250 0.514250 0.514250
0.514250 0.514250 0.514250
0.514250 0.514250 0.514250
0.514250 0.514250 0.514250
0.514250 0.514250 0.514250
0.514250 0.514250 0.514250
0.514250 0.514250 0.514250
0.135478 0.135478 0.135478
0.139262 0.139262 0.139262
0.143419 0.143419 0.143419
0.149168 0.149168 0.149168
0.156539 0.156539 0.156539
0.165433 0.165433 0.165433
0.175711 0.175711 0.175711
0.187215 0.187215 0.187215
0.199782 0.199782 0.199782
0.213263 0.213263 0.213263
0.227519 0.227519 0.227519
0.242434 0.242434 0.242434
0.257905 0.257905 0.257905
0.273847 0.273847 0.273847
0.290189 0.290189 0.290189
0.306870 0.306870 0.306870
0.323842 0.323842 0.323842
0.341062 0.341062 0.341062
0.358497 0.358497 0.358497
0.376116 0.376116 0.376116
0.393896 0.393896 0.393896
0.411816 0.411816 0.411816
0.429859 0.429859 0.429859
0.510558 0.510558 0.510558
0.523324 0.523324 0.523324
0.523324 0.523324 0.523324
0.523324 0.523324 0.523324
0.523324 0.523324 0.523324
0.523324 0.523324 0.523324
0.523324 0.523324 0.523324
0.523324 0.523324 0.523324
0.523324 0.523324 0.523324
0.523324 0.523324 0.523324
0.167401 0.167401 0.167401
0.170439 0.170439 0.170439
0.173807 0.173807 0.173807
0.178515 0.178515 0.178515
0.184630 0.184630 0.184630
0.192118 0.192118 0.192118
0.200906 0.200906 0.200906
0.210892 0.210892 0.210892
0.221964 0.221964 0.221964
0.234002 0.234002 0.234002
0.246892 0.246892 0.246892
0.260528 0.260528 0.260528
0.274814 0.274814 0.274814
0.289663 0.289663 0.289663
0.305000 0.305000 0.305000
0.320762 0.320762 0.320762
0.336891 0.336891 0.336891
0.353341 0.353341 0.353341
0.370070 0.370070 0.370070
0.387043 0.387043 0.387043
0.404230 0.404230 0.404230
0.421605 0.421605 0.421605
0.439147 0.439147 0.439147
0.522192 0.522192 0.522192
0.534654 0.534654 0.534654
0.534654 0.534654 0.534654
0.534654 0.534654 0.534654
0.534654 0.534654 0.534654
0.534654 0.534654 0.534654
0.534654 0.534654 0.534654
0.534654 0.534654 0.534654
0.534654 0.534654 0.534654
0.534654 0.534654 0.534654
0.199324 0.199324 0.199324
0.201835 0.201835 0.201835
0.204635 0.204635 0.204635
0.208576 0.208576 0.208576
0.213738 0.213738 0.213738
0.220123 0.220123 0.220123
0.227698 0.227698 0.227698
0.236405 0.236405 0.236405
0.246170 0.246170 0.246170
0.256906 0.256906 0.256906
0.268524 0.268524 0.268524
0.280935 0.280935 0.280935
0.294054 0.294054 0.294054
0.307803 0.307803 0.307803
0.322109 0.322109 0.322109
0.336908 0.336908 0.336908
0.352143 0.352143 0.352143
0.367762 0.367762 0.367762
0.383721 0.383721 0.383721
0.399981 0.399981 0.399981
0.416508 0.416508 0.416508
0.433271 0.433271 0.433271
0.513505 0.513505 0.513505
0.536127 0.536127 0.536127
0.548241 0.548241 0.548241
0.548241 0.548241 0.548241
0.548241 0.548241 0.548241
0.548241 0.548241 0.548241
0.548241 0.548241 0.548241
0.548241 0.548241 0.548241
0.548241 0.548241 0.548241
0.548241 0.548241 0.548241
0.548241 0.548241 0.548241
0.231247 0.231247 0.231247
0.233371 0.233371 0.233371
0.235746 0.235746 0.235746
0.239105 0.239105 0.239105
0.243531 0.243531 0.243531
0.249043 0.249043 0.249043
0.255635 0.255635 0.255635
0.263277 0.263277 0.263277
0.271923 0.271923 0.271923
0.281513 0.281513 0.281513
0.291982 0.291982 0.291982
0.303259 0.303259 0.303259
0.315274 0.315274 0.315274
0.327959 0.327959 0.327959
0.341248 0.341248 0.341248
0.355082 0.355082 0.355082
0.369405 0.369405 0.369405
0.384165 0.384165 0.384165
0.399318 0.399318 0.399318
0.414823 0.414823 0.414823
0.430642 0.430642 0.430642
0.508890 0.508890 0.508890
0.530450 0.530450 0.530450
0.552310 0.552310 0.552310
0.564039 0.564039 0.564039
0.564039 0.564039 0.564039
0.564039 0.564039 0.564039
0.564039 0.564039 0.564039
0.564039 0.564039 0.564039
0.564039 0.564039 0.564039
0.564039 0.564039 0.564039
0.564039 0.564039 0.564039
0.564039 0.564039 0.564039
0.263171 0.263171 0.263171
0.264998 0.264998 0.264998
0.267047 0.267047 0.267047
0.269954 0.269954 0.269954
0.273800 0.273800 0.273800
0.278615 0.278615 0.278615
0.284406 0.284406 0.284406
0.291162 0.291162 0.291162
0.298857 0.298857 0.298857
0.307453 0.307453 0.307453
0.316903 0.316903 0.316903
0.327153 0.327153 0.327153
0.338149 0.338149 0.338149
0.349833 0.349833 0.349833
0.362150 0.362150 0.362150
0.375044 0.375044 0.375044
0.388465 0.388465 0.388465
0.402366 0.402366 0.402366
0.416701 0.416701 0.416701
0.431430 0.431430 0.431430
0.508590 0.508590 0.508590
0.528903 0.528903 0.528903
0.549603 0.549603 0.549603
0.570653 0.570653 0.570653
0.581970 0.581970 0.581970
0.581970 0.581970 0.581970
0.581970 0.581970 0.581970
0.581970 0.581970 0.581970
0.581970 0.581970 0.581970
0.581970 0.581970 0.581970
0.581970 0.581970 0.581970
0.581970 0.581970 0.581970
0.581970 0.581970 0.581970
0.295094 0.295094 0.295094
0.296689 0.296689 0.296689
0.298482 0.298482 0.298482
0.301030 0.301030 0.301030
0.304412 0.304412 0.304412
0.308660 0.308660 0.308660
0.313792 0.313792 0.313792
0.319809 0.319809 0.319809
0.326698 0.326698 0.326698
0.334437 0.334437 0.334437
0.342992 0.342992 0.342992
0.352326 0.352326 0.352326
0.362396 0.362396 0.362396
0.373156 0.373156 0.373156
0.384560 0.384560 0.384560
0.396560 0.396560 0.396560
0.409112 0.409112 0.409112
0.422172 0.422172 0.422172
0.435698 0.435698 0.435698
0.512723 0.512723 0.512723
0.531633 0.531633 0.531633
0.551015 0.551015 0.551015
0.570829 0.570829 0.570829
0.591038 0.591038 0.591038
0.601926 0.601926 0.601926
0.601926 0.601926 0.601926
0.601926 0.601926 0.601926
0.601926 0.601926 0.601926
0.601926 0.601926 0.601926
0.601926 0.601926 0.601926
0.601926 0.601926 0.601926
0.601926 0.601926 0.601926
0.601926 0.601926 0.601926
0.327017 0.327017 0.327017
0.328427 0.328427 0.328427
0.330013 0.330013 0.330013
0.332271 0.332271 0.332271
0.335274 0.335274 0.335274
0.339058 0.339058 0.339058
0.343643 0.343643 0.343643
0.349039 0.349039 0.349039
0.355243 0.355243 0.355243
0.362242 0.362242 0.362242
0.370016 0.370016 0.370016
0.378538 0.378538 0.378538
0.387775 0.387775 0.387775
0.397693 0.397693 0.397693
0.408253 0.408253 0.408253
0.419416 0.419416 0.419416
0.431143 0.431143 0.431143
0.504477 0.504477 0.504477
0.521272 0.521272 0.521272
0.538663 0.538663 0.538663
0.556606 0.556606 0.556606
0.575057 0.575057 0.575057
0.593979 0.593979 0.593979
0.613333 0.613333 0.613333
0.623782 0.623782 0.623782
0.623782 0.623782 0.623782
0.623782 0.623782 0.623782
0.623782 0.623782 0.623782
0.623782 0.623782 0.623782
0.623782 0.623782 0.623782
0.623782 0.623782 0.623782
0.623782 0.623782 0.623782
0.623782 0.623782 0.623782
0.358940 0.358940 0.358940
0.360198 0.360198 0.360198
0.361615 0.361615 0.361615
0.363635 0.363635 0.363635
0.366325 0.366325 0.366325
0.369723 0.369723 0.369723
0.373850 0.373850 0.373850
0.378721 0.378721 0.378721
0.384339 0.384339 0.384339
0.390700 0.390700 0.390700
0.397792 0.397792 0.397792
0.405596 0.405596 0.405596
0.414089 0.414089 0.414089
0.423244 0.423244 0.423244
0.433032 0.433032 0.433032
0.504508 0.504508 0.504508
0.518948 0.518948 0.518948
0.534093 0.534093 0.534093
0.549898 0.549898 0.549898
0.566321 0.566321 0.566321
0.583321 0.583321 0.583321
0.600858 0.600858 0.600858
0.618894 0.618894 0.618894
0.637394 0.637394 0.637394
0.647402 0.647402 0.647402
0.647402 0.647402 0.647402
0.647402 0.647402 0.647402
0.647402 0.647402 0.647402
0.647402 0.647402 0.647402
0.647402 0.647402 0.647402
0.647402 0.647402 0.647402
0.647402 0.647402 0.647402
0.647402 0.647402 0.647402
0.390863 0.390863 0.390863
0.391996 0.391996 0.391996
0.393272 0.393272 0.393272
0.395093 0.395093 0.395093
0.397522 0.397522 0.397522
0.400594 0.400594 0.400594
0.404334 0.404334 0.404334
0.408757 0.408757 0.408757
0.413873 0.413873 0.413873
0.419681 0.419681 0.419681
0.426175 0.426175 0.426175
0.433346 0.433346 0.433346
0.501549 0.501549 0.501549
0.512713 0.512713 0.512713
0.524688 0.524688 0.524688
0.537442 0.537442 0.537442
0.550938 0.550938 0.550938
0.565139 0.565139 0.565139
0.580008 0.580008 0.580008
0.595507 0.595507 0.595507
0.611599 0.611599 0.611599
0.628247 0.628247 0.628247
0.645417 0.645417 0.645417
0.663076 0.663076 0.663076
0.672647 0.672647 0.672647
0.672647 0.672647 0.672647
0.672647 0.672647 0.672647
0.672647 0.672647 0.672647
0.672647 0.672647 0.672647
0.672647 0.672647 0.672647
0.672647 0.672647 0.672647
0.672647 0.672647 0.672647
0.672647 0.672647 0.672647
0.422787 0.422787 0.422787
0.423813 0.423813 0.423813
0.424971 0.424971 0.424971
0.426625 0.426625 0.426625
0.428832 0.428832 0.428832
0.431628 0.431628 0.431628
0.435036 0.435036 0.435036
0.439075 0.439075 0.439075
0.504951 0.504951 0.504951
0.511973 0.511973 0.511973
0.519845 0.519845 0.519845
0.528558 0.528558 0.528558
0.538100 0.538100 0.538100
0.548450 0.548450 0.548450
0.559585 0.559585 0.559585
0.571480 0.571480 0.571480
0.584104 0.584104 0.584104
0.597428 0.597428 0.597428
0.611418 0.611418 0.611418
0.626043 0.626043 0.626043
0.641269 0.641269 0.641269
0.657065 0.657065 0.657065
0.673397 0.673397 0.673397
0.690235 0.690235 0.690235
0.699379 0.699379 0.699379
0.699379 0.699379 0.699379
0.699379 0.699379 0.699379
0.699379 0.699379 0.699379
0.699379 0.699379 0.699379
0.699379 0.699379 0.699379
0.699379 0.699379 0.699379
0.699379 0.699379 0.699379
0.699379 0.699379 0.699379
0.519390 0.519390 0.519390
0.520625 0.520625 0.520625
0.522019 0.522019 0.522019
0.524010 0.524010 0.524010
0.526670 0.526670 0.526670
0.530042 0.530042 0.530042
0.534160 0.534160 0.534160
0.539046 0.539046 0.539046
0.544718 0.544718 0.544718
0.551185 0.551185 0.551185
0.558450 0.558450 0.558450
0.566509 0.566509 0.566509
0.575355 0.575355 0.575355
0.584975 0.584975 0.584975
0.595350 0.595350 0.595350
0.606461 0.606461 0.606461
0.618285 0.618285 0.618285
0.630796 0.630796 0.630796
0.643967 0.643967 0.643967
0.657770 0.657770 0.657770
0.672178 0.672178 0.672178
0.687160 0.687160 0.687160
0.702689 0.702689 0.702689
0.718735 0.718735 0.718735
0.727464 0.727464 0.727464
0.727464 0.727464 0.727464
0.727464 0.727464 0.727464
0.727464 0.727464 0.727464
0.727464 0.727464 0.727464
0.727464 0.727464 0.727464
0.727464 0.727464 0.727464
0.727464 0.727464 0.727464
0.727464 0.727464 0.727464
0.561471 0.561471 0.561471
0.562604 0.562604 0.562604
0.563883 0.563883 0.563883
0.565712 0.565712 0.565712
0.568157 0.568157 0.568157
0.571259 0.571259 0.571259
0.575050 0.575050 0.575050
0.579554 0.579554 0.579554
0.584791 0.584791 0.584791
0.590770 0.590770 0.590770
0.597499 0.597499 0.597499
0.604978 0.604978 0.604978
0.613203 0.613203 0.613203
0.622165 0.622165 0.622165
0.631853 0.631853 0.631853
0.642251 0.642251 0.642251
0.653340 0.653340 0.653340
0.665101 0.665101 0.665101
0.677511 0.677511 0.677511
0.690547 0.690547 0.690547
0.704184 0.704184 0.704184
0.718396 0.718396 0.718396
0.733159 0.733159 0.733159
0.748447 0.748447 0.748447
0.756776 0.756776 0.756776
0.756776 0.756776 0.756776
0.756776 0.756776 0.756776
0.756776 0.756776 0.756776
0.756776 0.756776 0.756776
0.756776 0.756776 0.756776
0.756776 0.756776 0.756776
0.756776 0.756776 0.756776
0.756776 0.756776 0.756776
0.603552 0.603552 0.603552
0.604597 0.604597 0.604597
0.605777 0.605777 0.605777
0.607464 0.607464 0.607464
0.609722 0.609722 0.609722
0.612588 0.612588 0.612588
0.616094 0.616094 0.616094
0.620264 0.620264 0.620264
0.625116 0.625116 0.625116
0.630665 0.630665 0.630665
0.636919 0.636919 0.636919
0.643880 0.643880 0.643880
0.651549 0.651549 0.651549
0.659920 0.659920 0.659920
0.668985 0.668985 0.668985
0.678733 0.678733 0.678733
0.689151 0.689151 0.689151
0.700222 0.700222 0.700222
0.711927 0.711927 0.711927
0.724247 0.724247 0.724247
0.737161 0.737161 0.737161
0.750648 0.750648 0.750648
0.764685 0.764685 0.764685
0.779250 0.779250 0.779250
0.787196 0.787196 0.787196
0.787196 0.787196 0.787196
0.787196 0.787196 0.787196
0.787196 0.787196 0.787196
0.787196 0.787196 0.787196
0.787196 0.787196 0.787196
0.787196 0.787196 0.787196
0.787196 0.787196 0.787196
0.787196 0.787196 0.787196
0.645632 0.645632 0.645632
0.646600 0.646600 0.646600
0.647693 0.647693 0.647693
0.649257 0.649257 0.649257
0.651351 0.651351 0.651351
0.654010 0.654010 0.654010
0.657265 0.657265 0.657265
0.661140 0.661140 0.661140
0.665653 0.665653 0.665653
0.670820 0.670820 0.670820
0.676650 0.676650 0.676650
0.683149 0.683149 0.683149
0.690317 0.690317 0.690317
0.698155 0.698155 0.698155
0.706656 0.706656 0.706656
0.715813 0.715813 0.715813
0.725616 0.725616 0.725616
0.736051 0.736051 0.736051
0.747105 0.747105 0.747105
0.758760 0.758760 0.758760
0.771000 0.771000 0.771000
0.783805 0.783805 0.783805
0.797157 0.797157 0.797157
0.811035 0.811035 0.811035
0.818617 0.818617 0.818617
0.818617 0.818617 0.818617
0.818617 0.818617 0.818617
0.818617 0.818617 0.818617
0.818617 0.818617 0.818617
0.818617 0.818617 0.818617
0.818617 0.818617 0.818617
0.818617 0.818617 0.818617
0.818617 0.818617 0.818617
0.687713 0.687713 0.687713
0.688613 0.688613 0.688613
0.689630 0.689630 0.689630
0.691085 0.691085 0.691085
0.693034 0.693034 0.693034
0.695510 0.695510 0.695510
0.698543 0.698543 0.698543
0.702156 0.702156 0.702156
0.706368 0.706368 0.706368
0.711194 0.711194 0.711194
0.716645 0.716645 0.716645
0.722728 0.722728 0.722728
0.729447 0.729447 0.729447
0.736803 0.736803 0.736803
0.744792 0.744792 0.744792
0.753410 0.753410 0.753410
0.762649 0.762649 0.762649
0.772501 0.772501 0.772501
0.782952 0.782952 0.782952
0.793990 0.793990 0.793990
0.805600 0.805600 0.805600
0.817767 0.817767 0.817767
0.830473 0.830473 0.830473
0.843702 0.843702 0.843702
0.850939 0.850939 0.850939
0.850939 0.850939 0.850939
0.850939 0.850939 0.850939
0.850939 0.850939 0.850939
0.850939 0.850939 0.850939
0.850939 0.850939 0.850939
0.850939 0.850939 0.850939
0.850939 0.850939 0.850939
0.850939 0.850939 0.850939
0.729793 0.729793 0.729793
0.730633 0.730633 0.730633
0.731583 0.731583 0.731583
0.732941 0.732941 0.732941
0.734761 0.734761 0.734761
0.737075 0.737075 0.737075
0.739910 0.739910 0.739910
0.743290 0.743290 0.743290
0.747232 0.747232 0.747232
0.751754 0.751754 0.751754
0.756865 0.756865 0.756865
0.762574 0.762574 0.762574
0.768886 0.768886 0.768886
0.775805 0.775805 0.775805
0.783328 0.783328 0.783328
0.791454 0.791454 0.791454
0.800178 0.800178 0.800178
0.809492 0.809492 0.809492
0.819387 0.819387 0.819387
0.829852 0.829852 0.829852
0.840876 0.840876 0.840876
0.852446 0.852446 0.852446
0.864546 0.864546 0.864546
0.877163 0.877163 0.877163
0.884073 0.884073 0.884073
0.884073 0.884073 0.884073
0.884073 0.884073 0.884073
0.884073 0.884073 0.884073
0.884073 0.884073 0.884073
0.884073 0.884073 0.884073
0.884073 0.884073 0.884073
0.884073 0.884073 0.884073
0.884073 0.884073 0.884073
0.771874 0.771874 0.771874
0.772661 0.772661 0.772661
0.773550 0.773550 0.773550
0.774822 0.774822 0.774822
0.776527 0.776527 0.776527
0.778696 0.778696 0.778696
0.781354 0.781354 0.781354
0.784524 0.784524 0.784524
0.788225 0.788225 0.788225
0.792472 0.792472 0.792472
0.797277 0.797277 0.797277
0.802648 0.802648 0.802648
0.808592 0.808592 0.808592
0.815113 0.815113 0.815113
0.822213 0.822213 0.822213
0.829889 0.829889 0.829889
0.838139 0.838139 0.838139
0.846958 0.846958 0.846958
0.856339 0.856339 0.856339
0.866274 0.866274 0.866274
0.876753 0.876753 0.876753
0.887764 0.887764 0.887764
0.899296 0.899296 0.899296
0.911337 0.911337 0.911337
0.917938 0.917938 0.917938
0.917938 0.917938 0.917938
0.917938 0.917938 0.917938
0.917938 0.917938 0.917938
0.917938 0.917938 0.917938
0.917938 0.917938 0.917938
0.917938 0.917938 0.917938
0.917938 0.917938 0.917938
0.917938 0.917938 0.917938
0.813955 0.813955 0.813955
0.814693 0.814693 0.814693
0.815528 0.815528 0.815528
0.816724 0.816724 0.816724
0.818326 0.818326 0.818326
0.820364 0.820364 0.820364
0.822863 0.822863 0.822863
0.825845 0.825845 0.825845
0.829328 0.829328 0.829328
0.833327 0.833327 0.833327
0.837855 0.837855 0.837855
0.842920 0.842920 0.842920
0.848529 0.848529 0.848529
0.854689 0.854689 0.854689
0.861401 0.861401 0.861401
0.868665 0.868665 0.868665
0.876480 0.876480 0.876480
0.884843 0.884843 0.884843
0.893749 0.893749 0.893749
0.903192 0.903192 0.903192
0.913163 0.913163 0.913163
0.923653 0.923653 0.923653
0.934653 0.934653 0.934653
0.946151 0.946151 0.946151
0.952461 0.952461 0.952461
0.952461 0.952461 0.952461
0.952461 0.952461 0.952461
0.952461 0.952461 0.952461
0.952461 0.952461 0.952461
0.952461 0.952461 0.952461
0.952461 0.952461 0.952461
0.952461 0.952461 0.952461
0.952461 0.952461 0.952461
0.856035 0.856035 0.856035
0.856731 0.856731 0.856731
0.857517 0.857517 0.857517
0.858643 0.858643 0.858643
0.860152 0.860152 0.860152
0.862073 0.862073 0.862073
0.864429 0.864429 0.864429
0.867241 0.867241 0.867241
0.870527 0.870527 0.870527
0.874301 0.874301 0.874301
0.878576 0.878576 0.878576
0.883363 0.883363 0.883363
0.888668 0.888668 0.888668
0.894497 0.894497 0.894497
0.900854 0.900854 0.900854
0.907740 0.907740 0.907740
0.915155 0.915155 0.915155
0.923098 0.923098 0.923098
0.931564 0.931564 0.931564
0.940550 0.940550 0.940550
0.950048 0.950048 0.950048
0.960052 0.960052 0.960052
0.970553 0.970553 0.970553
0.981543 0.981543 0.981543
0.987578 0.987578 0.987578
0.987578 0.987578 0.987578
0.987578 0.987578 0.987578
0.987578 0.987578 0.987578
0.987578 0.987578 0.987578
0.987578 0.987578 0.987578
0.987578 0.987578 0.987578
0.987578 0.987578 0.987578
0.987578 0.987578 0.987578
0.898116 0.898116 0.898116
0.898772 0.898772 0.898772
0.899515 0.899515 0.899515
0.900578 0.900578 0.900578
0.902003 0.902003 0.902003
0.903817 0.903817 0.903817
0.906043 0.906043 0.906043
0.908701 0.908701 0.908701
0.911807 0.911807 0.911807
0.915378 0.915378 0.915378
0.919424 0.919424 0.919424
0.923956 0.923956 0.923956
0.928983 0.928983 0.928983
0.934509 0.934509 0.934509
0.940541 0.940541 0.940541
0.947079 0.947079 0.947079
0.954126 0.954126 0.954126
0.961680 0.961680 0.961680
0.969739 0.969739 0.969739
0.978300 0.978300 0.978300
0.987358 0.987358 0.987358
0.996908 0.996908 0.996908
1.000000 1.000000 1.000000
1.000000 1.000000 1.000000
1.000000 1.000000 1.000000
1.000000 1.000000 1.000000
1.000000 1.000000 1.000000
1.000000 1.000000 1.000000
1.000000 1.000000 1.000000
1.000000 1.000000 1.000000
1.000000 1.000000 1.000000
1.000000 1.000000 1.000000
1.000000 1.000000 1.000000
0.920478 0.920478 0.920478
0.921116 0.921116 0.921116
0.921836 0.921836 0.921836
0.922868 0.922868 0.922868
0.924252 0.924252 0.924252
0.926014 0.926014 0.926014
0.928175 0.928175 0.928175
0.930757 0.930757 0.930757
0.933775 0.933775 0.933775
0.937244 0.937244 0.937244
0.941177 0.941177 0.941177
0.945583 0.945583 0.945583
0.950471 0.950471 0.950471
0.955847 0.955847 0.955847
0.961716 0.961716 0.961716
0.968081 0.968081 0.968081
0.974944 0.974944 0.974944
0.982303 0.982303 0.982303
0.990158 0.990158 0.990158
0.998506 0.998506 0.998506
1.000000 1.000000 1.000000
1.000000 1.000000 1.000000
1.000000 1.000000 1.000000
1.000000 1.000000 1.000000
1.000000 1.000000 1.000000
1.000000 1.000000 1.000000
1.000000 1.000000 1.000000
1.000000 1.000000 1.000000
1.000000 1.000000 1.000000
1.000000 1.000000 1.000000
1.000000 1.000000 1.000000
1.000000 1.000000 1.000000
1.000000 1.000000 1.000000
0.920478 0.920478 0.920478
0.921116 0.921116 0.921116
0.921836 0.921836 0.921836
0.922868 0.922868 0.922868
0.924252 0.924252 0.924252
0.926014 0.926014 0.926014
0.928175 0.928175 0.928175
0.930757 0.930757 0.930757
0.933775 0.933775 0.933775
0.937244 0.937244 0.937244
0.941177 0.941177 0.941177
0.945583 0.945583 0.945583
0.950471 0.950471 0.950471
0.955847 0.955847 0.955847
0.961716 0.961716 0.961716
0.968081 0.968081 0.968081
0.974944 0.974944 0.974944
0.982303 0.982303 0.982303
0.990158 0.990158 0.990158
0.998506 0.998506 0.998506
1.000000 1.000000 1.000000
1.000000 1.000000 1.000000
1.000000 1.000000 1.000000
1.000000 1.000000 1.000000
1.000000 1.000000 1.000000
1.000000 1.000000 1.000000
1.000000 1.000000 1.000000
1.000000 1.000000 1.000000
1.000000 1.000000 1.000000
1.000000 1.000000 1.000000
1.000000 1.000000 1.000000
1.000000 1.000000 1.000000
1.000000 1.000000 1.000000
0.920478 0.920478 0.920478
0.921116 0.921116 0.921116
0.921836 0.921836 0.921836
0.922868 0.922868 0.922868
0.924252 0.924252 0.924252
0.926014 0.926014 0.926014
0.928175 0.928175 0.928175
0.930757 0.930757 0.930757
0.933775 0.933775 0.933775
0.937244 0.937244 0.937244
0.941177 0.941177 0.941177
0.945583 0.945583 0.945583
0.950471 0.950471 0.950471
0.955847 0.955847 0.955847
0.961716 0.961716 0.961716
0.968081 0.968081 0.968081
0.974944 0.974944 0.974944
0.982303 0.982303 0.982303
0.990158 0.990158 0.990158
0.998506 0.998506 0.998506
1.000000 1.000000 1.000000
1.000000 1.000000 1.000000
1.000000 1.000000 1.000000
1.000000 1.000000 1.000000
