docs/luts/fuji_recipes/Acros_EM_Acros.cube
TITLE "Fujifilm Recipe: EM Acros (Acros)"
# FilmSim=Acros HL=2 SH=2 Col=0 WB=Auto WBR=0 WBB=0
LUT_3D_SIZE 33
DOMAIN_MIN 0.0 0.0 0.0
DOMAIN_MAX 1.0 1.0 1.0
0.000000 0.000000 0.000000
0.006112 0.006112 0.006112
0.013029 0.013029 0.013029
0.022946 0.022946 0.022946
0.036263 0.036263 0.036263
0.051354 0.051354 0.051354
0.066435 0.066435 0.066435
0.081517 0.081517 0.081517
0.096599 0.096599 0.096599
0.111681 0.111681 0.111681
0.126763 0.126763 0.126763
0.141845 0.141845 0.141845
0.156927 0.156927 0.156927
0.172009 0.172009 0.172009
0.187091 0.187091 0.187091
0.202173 0.202173 0.202173
0.217254 0.217254 0.217254
0.232336 0.232336 0.232336
0.247418 0.247418 0.247418
0.262500 0.262500 0.262500
0.277582 0.277582 0.277582
0.292664 0.292664 0.292664
0.307746 0.307746 0.307746
0.322828 0.322828 0.322828
0.337910 0.337910 0.337910
0.352991 0.352991 0.352991
0.368073 0.368073 0.368073
0.383155 0.383155 0.383155
0.398237 0.398237 0.398237
0.413319 0.413319 0.413319
0.428401 0.428401 0.428401
0.443483 0.443483 0.443483
0.458565 0.458565 0.458565
0.020562 0.020562 0.020562
0.026674 0.026674 0.026674
0.033591 0.033591 0.033591
0.043121 0.043121 0.043121
0.054151 0.054151 0.054151
0.066212 0.066212 0.066212
0.079000 0.079000 0.079000
0.092306 0.092306 0.092306
0.105986 0.105986 0.105986
0.119942 0.119942 0.119942
0.134105 0.134105 0.134105
0.148427 0.148427 0.148427
0.162872 0.162872 0.162872
0.177414 0.177414 0.177414
0.192034 0.192034 0.192034
0.206717 0.206717 0.206717
0.221451 0.221451 0.221451
0.236228 0.236228 0.236228
0.251041 0.251041 0.251041
0.265884 0.265884 0.265884
0.280753 0.280753 0.280753
0.295644 0.295644 0.295644
0.310553 0.310553 0.310553
0.325479 0.325479 0.325479
0.340419 0.340419 0.340419
0.355372 0.355372 0.355372
0.370335 0.370335 0.370335
0.385308 0.385308 0.385308
0.400290 0.400290 0.400290
0.415280 0.415280 0.415280
0.430276 0.430276 0.430276
0.445279 0.445279 0.445279
0.500337 0.500337 0.500337
0.043409 0.043409 0.043409
0.048665 0.048665 0.048665
0.054177 0.054177 0.054177
0.061436 0.061436 0.061436
0.070255 0.070255 0.070255
0.080340 0.080340 0.080340
0.091422 0.091422 0.091422
0.103279 0.103279 0.103279
0.115737 0.115737 0.115737
0.128660 0.128660 0.128660
0.141949 0.141949 0.141949
0.155525 0.155525 0.155525
0.169331 0.169331 0.169331
0.183321 0.183321 0.183321
0.197462 0.197462 0.197462
0.211726 0.211726 0.211726
0.226093 0.226093 0.226093
0.240545 0.240545 0.240545
0.255069 0.255069 0.255069
0.269654 0.269654 0.269654
0.284291 0.284291 0.284291
0.298973 0.298973 0.298973
0.313693 0.313693 0.313693
0.328448 0.328448 0.328448
0.343232 0.343232 0.343232
0.358041 0.358041 0.358041
0.372874 0.372874 0.372874
0.387727 0.387727 0.387727
0.402598 0.402598 0.402598
0.417484 0.417484 0.417484
0.432386 0.432386 0.432386
0.447300 0.447300 0.447300
0.502613 0.502613 0.502613
0.068412 0.068412 0.068412
0.072251 0.072251 0.072251
0.076402 0.076402 0.076402
0.082043 0.082043 0.082043
0.089126 0.089126 0.089126
0.097490 0.097490 0.097490
0.106950 0.106950 0.106950
0.117328 0.117328 0.117328
0.128461 0.128461 0.128461
0.140213 0.140213 0.140213
0.152471 0.152471 0.152471
0.165143 0.165143 0.165143
0.178153 0.178153 0.178153
0.191444 0.191444 0.191444
0.204967 0.204967 0.204967
0.218685 0.218685 0.218685
0.232565 0.232565 0.232565
0.246582 0.246582 0.246582
0.260717 0.260717 0.260717
0.274953 0.274953 0.274953
0.289274 0.289274 0.289274
0.303670 0.303670 0.303670
0.318131 0.318131 0.318131
0.332649 0.332649 0.332649
0.347216 0.347216 0.347216
0.361828 0.361828 0.361828
0.376478 0.376478 0.376478
0.391162 0.391162 0.391162
0.405878 0.405878 0.405878
0.420621 0.420621 0.420621
0.435388 0.435388 0.435388
0.450178 0.450178 0.450178
0.505856 0.505856 0.505856
0.093414 0.093414 0.093414
0.096378 0.096378 0.096378
0.099634 0.099634 0.099634
0.104137 0.104137 0.104137
0.109909 0.109909 0.109909
0.116875 0.116875 0.116875
0.124925 0.124925 0.124925
0.133935 0.133935 0.133935
0.143778 0.143778 0.143778
0.154336 0.154336 0.154336
0.165502 0.165502 0.165502
0.177183 0.177183 0.177183
0.189300 0.189300 0.189300
0.201786 0.201786 0.201786
0.214585 0.214585 0.214585
0.227650 0.227650 0.227650
0.240942 0.240942 0.240942
0.254429 0.254429 0.254429
0.268084 0.268084 0.268084
0.281884 0.281884 0.281884
0.295809 0.295809 0.295809
0.309844 0.309844 0.309844
0.323975 0.323975 0.323975
0.338191 0.338191 0.338191
0.352481 0.352481 0.352481
0.366836 0.366836 0.366836
0.381251 0.381251 0.381251
0.395718 0.395718 0.395718
0.410231 0.410231 0.410231
0.424787 0.424787 0.424787
0.439380 0.439380 0.439380
0.454007 0.454007 0.454007
0.510173 0.510173 0.510173
0.118417 0.118417 0.118417
0.120796 0.120796 0.120796
0.123434 0.123434 0.123434
0.127121 0.127121 0.127121
0.131910 0.131910 0.131910
0.137775 0.137775 0.137775
0.144658 0.144658 0.144658
0.152479 0.152479 0.152479
0.161150 0.161150 0.161150
0.170579 0.170579 0.170579
0.180675 0.180675 0.180675
0.191355 0.191355 0.191355
0.202543 0.202543 0.202543
0.214173 0.214173 0.214173
0.226185 0.226185 0.226185
0.238530 0.238530 0.238530
0.251162 0.251162 0.251162
0.264046 0.264046 0.264046
0.277148 0.277148 0.277148
0.290441 0.290441 0.290441
0.303902 0.303902 0.303902
0.317511 0.317511 0.317511
0.331249 0.331249 0.331249
0.345103 0.345103 0.345103
0.359059 0.359059 0.359059
0.373106 0.373106 0.373106
0.387234 0.387234 0.387234
0.401435 0.401435 0.401435
0.415702 0.415702 0.415702
0.430027 0.430027 0.430027
0.444406 0.444406 0.444406
0.458833 0.458833 0.458833
0.515618 0.515618 0.515618
0.143419 0.143419 0.143419
0.145386 0.145386 0.145386
0.147579 0.147579 0.147579
0.150665 0.150665 0.150665
0.154708 0.154708 0.154708
0.159708 0.159708 0.159708
0.165641 0.165641 0.165641
0.172461 0.172461 0.172461
0.180109 0.180109 0.180109
0.188517 0.188517 0.188517
0.197616 0.197616 0.197616
0.207337 0.207337 0.207337
0.217612 0.217612 0.217612
0.228380 0.228380 0.228380
0.239585 0.239585 0.239585
0.251176 0.251176 0.251176
0.263108 0.263108 0.263108
0.275341 0.275341 0.275341
0.287840 0.287840 0.287840
0.300575 0.300575 0.300575
0.313518 0.313518 0.313518
0.326648 0.326648 0.326648
0.339942 0.339942 0.339942
0.353383 0.353383 0.353383
0.366956 0.366956 0.366956
0.380646 0.380646 0.380646
0.394443 0.394443 0.394443
0.408335 0.408335 0.408335
0.422312 0.422312 0.422312
0.436368 0.436368 0.436368
0.450494 0.450494 0.450494
0.505499 0.505499 0.505499
0.522226 0.522226 0.522226
0.168422 0.168422 0.168422
0.170084 0.170084 0.170084
0.171945 0.171945 0.171945
0.174576 0.174576 0.174576
0.178042 0.178042 0.178042
0.182359 0.182359 0.182359
0.187522 0.187522 0.187522
0.193508 0.193508 0.193508
0.200279 0.200279 0.200279
0.207790 0.207790 0.207790
0.215989 0.215989 0.215989
0.224821 0.224821 0.224821
0.234232 0.234232 0.234232
0.244166 0.244166 0.244166
0.254575 0.254575 0.254575
0.265410 0.265410 0.265410
0.276627 0.276627 0.276627
0.288188 0.288188 0.288188
0.300056 0.300056 0.300056
0.312199 0.312199 0.312199
0.324589 0.324589 0.324589
0.337200 0.337200 0.337200
0.350010 0.350010 0.350010
0.362998 0.362998 0.362998
0.376148 0.376148 0.376148
0.389442 0.389442 0.389442
0.402868 0.402868 0.402868
0.416412 0.416412 0.416412
0.430065 0.430065 0.430065
0.443814 0.443814 0.443814
0.457653 0.457653 0.457653
0.513586 0.513586 0.513586
0.530015 0.530015 0.530015
0.193424 0.193424 0.193424
0.194855 0.194855 0.194855
0.196460 0.196460 0.196460
0.198737 0.198737 0.198737
0.201749 0.201749 0.201749
0.205520 0.205520 0.205520
0.210055 0.210055 0.210055
0.215347 0.215347 0.215347
0.221374 0.221374 0.221374
0.228106 0.228106 0.228106
0.235507 0.235507 0.235507
0.243536 0.243536 0.243536
0.252148 0.252148 0.252148
0.261299 0.261299 0.261299
0.270945 0.270945 0.270945
0.281044 0.281044 0.281044
0.291556 0.291556 0.291556
0.302443 0.302443 0.302443
0.313670 0.313670 0.313670
0.325206 0.325206 0.325206
0.337022 0.337022 0.337022
0.349091 0.349091 0.349091
0.361390 0.361390 0.361390
0.373897 0.373897 0.373897
0.386592 0.386592 0.386592
0.399460 0.399460 0.399460
0.412483 0.412483 0.412483
0.425648 0.425648 0.425648
0.438943 0.438943 0.438943
0.452357 0.452357 0.452357
0.506900 0.506900 0.506900
0.522889 0.522889 0.522889
0.538985 0.538985 0.538985
0.218426 0.218426 0.218426
0.219676 0.219676 0.219676
0.221080 0.221080 0.221080
0.223076 0.223076 0.223076
0.225724 0.225724 0.225724
0.229052 0.229052 0.229052
0.233071 0.233071 0.233071
0.237784 0.237784 0.237784
0.243179 0.243179 0.243179
0.249240 0.249240 0.249240
0.255941 0.255941 0.255941
0.263251 0.263251 0.263251
0.271138 0.271138 0.271138
0.279565 0.279565 0.279565
0.288497 0.288497 0.288497
0.297895 0.297895 0.297895
0.307726 0.307726 0.307726
0.317955 0.317955 0.317955
0.328548 0.328548 0.328548
0.339477 0.339477 0.339477
0.350713 0.350713 0.350713
0.362229 0.362229 0.362229
0.374001 0.374001 0.374001
0.386009 0.386009 0.386009
0.398230 0.398230 0.398230
0.410648 0.410648 0.410648
0.423245 0.423245 0.423245
0.436007 0.436007 0.436007
0.448920 0.448920 0.448920
0.502314 0.502314 0.502314
0.517784 0.517784 0.517784
0.533392 0.533392 0.533392
0.549126 0.549126 0.549126
0.243429 0.243429 0.243429
0.244533 0.244533 0.244533
0.245775 0.245775 0.245775
0.247544 0.247544 0.247544
0.249896 0.249896 0.249896
0.252859 0.252859 0.252859
0.256451 0.256451 0.256451
0.260677 0.260677 0.260677
0.265536 0.265536 0.265536
0.271017 0.271017 0.271017
0.277106 0.277106 0.277106
0.283780 0.283780 0.283780
0.291015 0.291015 0.291015
0.298783 0.298783 0.298783
0.307053 0.307053 0.307053
0.315796 0.315796 0.315796
0.324981 0.324981 0.324981
0.334578 0.334578 0.334578
0.344557 0.344557 0.344557
0.354890 0.354890 0.354890
0.365550 0.365550 0.365550
0.376514 0.376514 0.376514
0.387756 0.387756 0.387756
0.399255 0.399255 0.399255
0.410991 0.410991 0.410991
0.422946 0.422946 0.422946
0.435101 0.435101 0.435101
0.447442 0.447442 0.447442
0.459954 0.459954 0.459954
0.514819 0.514819 0.514819
0.529863 0.529863 0.529863
0.545064 0.545064 0.545064
0.560412 0.560412 0.560412
0.268431 0.268431 0.268431
0.269417 0.269417 0.269417
0.270526 0.270526 0.270526
0.272108 0.272108 0.272108
0.274215 0.274215 0.274215
0.276876 0.276876 0.276876
0.280109 0.280109 0.280109
0.283924 0.283924 0.283924
0.288324 0.288324 0.288324
0.293306 0.293306 0.293306
0.298860 0.298860 0.298860
0.304972 0.304972 0.304972
0.311624 0.311624 0.311624
0.318795 0.318795 0.318795
0.326460 0.326460 0.326460
0.334596 0.334596 0.334596
0.343176 0.343176 0.343176
0.352175 0.352175 0.352175
0.361565 0.361565 0.361565
0.371323 0.371323 0.371323
0.381424 0.381424 0.381424
0.391843 0.391843 0.391843
0.402559 0.402559 0.402559
0.413551 0.413551 0.413551
0.424799 0.424799 0.424799
0.436284 0.436284 0.436284
0.447989 0.447989 0.447989
0.459898 0.459898 0.459898
0.514083 0.514083 0.514083
0.528492 0.528492 0.528492
0.543091 0.543091 0.543091
0.557868 0.557868 0.557868
0.572810 0.572810 0.572810
0.293434 0.293434 0.293434
0.294321 0.294321 0.294321
0.295320 0.295320 0.295320
0.296746 0.296746 0.296746
0.298649 0.298649 0.298649
0.301055 0.301055 0.301055
0.303984 0.303984 0.303984
0.307448 0.307448 0.307448
0.311455 0.311455 0.311455
0.316003 0.316003 0.316003
0.321090 0.321090 0.321090
0.326706 0.326706 0.326706
0.332838 0.332838 0.332838
0.339471 0.339471 0.339471
0.346586 0.346586 0.346586
0.354164 0.354164 0.354164
0.362183 0.362183 0.362183
0.370621 0.370621 0.370621
0.379455 0.379455 0.379455
0.388664 0.388664 0.388664
0.398225 0.398225 0.398225
0.408117 0.408117 0.408117
0.418318 0.418318 0.418318
0.428810 0.428810 0.428810
0.439573 0.439573 0.439573
0.450589 0.450589 0.450589
0.502162 0.502162 0.502162
0.515630 0.515630 0.515630
0.529340 0.529340 0.529340
0.543274 0.543274 0.543274
0.557418 0.557418 0.557418
0.571757 0.571757 0.571757
0.586279 0.586279 0.586279
0.318436 0.318436 0.318436
0.319240 0.319240 0.319240
0.320147 0.320147 0.320147
0.321442 0.321442 0.321442
0.323171 0.323171 0.323171
0.325361 0.325361 0.325361
0.328030 0.328030 0.328030
0.331194 0.331194 0.331194
0.334860 0.334860 0.334860
0.339032 0.339032 0.339032
0.343709 0.343709 0.343709
0.348886 0.348886 0.348886
0.354555 0.354555 0.354555
0.360705 0.360705 0.360705
0.367321 0.367321 0.367321
0.374388 0.374388 0.374388
0.381889 0.381889 0.381889
0.389805 0.389805 0.389805
0.398118 0.398118 0.398118
0.406807 0.406807 0.406807
0.415854 0.415854 0.415854
0.425239 0.425239 0.425239
0.434943 0.434943 0.434943
0.444947 0.444947 0.444947
0.455235 0.455235 0.455235
0.506795 0.506795 0.506795
0.519477 0.519477 0.519477
0.532434 0.532434 0.532434
0.545648 0.545648 0.545648
0.559104 0.559104 0.559104
0.572785 0.572785 0.572785
0.586679 0.586679 0.586679
0.600771 0.600771 0.600771
0.343439 0.343439 0.343439
0.344172 0.344172 0.344172
0.345000 0.345000 0.345000
0.346183 0.346183 0.346183
0.347764 0.347764 0.347764
0.349768 0.349768 0.349768
0.352214 0.352214 0.352214
0.355117 0.355117 0.355117
0.358487 0.358487 0.358487
0.362330 0.362330 0.362330
0.366646 0.366646 0.366646
0.371435 0.371435 0.371435
0.376691 0.376691 0.376691
0.382406 0.382406 0.382406
0.388571 0.388571 0.388571
0.395172 0.395172 0.395172
0.402198 0.402198 0.402198
0.409631 0.409631 0.409631
0.417457 0.417457 0.417457
0.425658 0.425658 0.425658
0.434218 0.434218 0.434218
0.443120 0.443120 0.443120
0.452347 0.452347 0.452347
0.502208 0.502208 0.502208
0.513742 0.513742 0.513742
0.525600 0.525600 0.525600
0.537764 0.537764 0.537764
0.550215 0.550215 0.550215
0.562937 0.562937 0.562937
0.575915 0.575915 0.575915
0.589133 0.589133 0.589133
0.602578 0.602578 0.602578
0.616236 0.616236 0.616236
0.368441 0.368441 0.368441
0.369114 0.369114 0.369114
0.369874 0.369874 0.369874
0.370961 0.370961 0.370961
0.372414 0.372414 0.372414
0.374257 0.374257 0.374257
0.376509 0.376509 0.376509
0.379186 0.379186 0.379186
0.382297 0.382297 0.382297
0.385849 0.385849 0.385849
0.389847 0.389847 0.389847
0.394291 0.394291 0.394291
0.399178 0.399178 0.399178
0.404503 0.404503 0.404503
0.410259 0.410259 0.410259
0.416437 0.416437 0.416437
0.423026 0.423026 0.423026
0.430014 0.430014 0.430014
0.437387 0.437387 0.437387
0.445133 0.445133 0.445133
0.453235 0.453235 0.453235
0.501971 0.501971 0.501971
0.512268 0.512268 0.512268
0.522931 0.522931 0.522931
0.533943 0.533943 0.533943
0.545286 0.545286 0.545286
0.556944 0.556944 0.556944
0.568899 0.568899 0.568899
0.581137 0.581137 0.581137
0.593642 0.593642 0.593642
0.606400 0.606400 0.606400
0.619397 0.619397 0.619397
0.632619 0.632619 0.632619
0.393444 0.393444 0.393444
0.394064 0.394064 0.394064
0.394766 0.394766 0.394766
0.395768 0.395768 0.395768
0.397110 0.397110 0.397110
0.398813 0.398813 0.398813
0.400896 0.400896 0.400896
0.403373 0.403373 0.403373
0.406257 0.406257 0.406257
0.409553 0.409553 0.409553
0.413269 0.413269 0.413269
0.417405 0.417405 0.417405
0.421961 0.421961 0.421961
0.426935 0.426935 0.426935
0.432321 0.432321 0.432321
0.438113 0.438113 0.438113
0.444303 0.444303 0.444303
0.450881 0.450881 0.450881
0.457835 0.457835 0.457835
0.506052 0.506052 0.506052
0.515060 0.515060 0.515060
0.524467 0.524467 0.524467
0.534257 0.534257 0.534257
0.544416 0.544416 0.544416
0.554927 0.554927 0.554927
0.565774 0.565774 0.565774
0.576942 0.576942 0.576942
0.588415 0.588415 0.588415
0.600180 0.600180 0.600180
0.612221 0.612221 0.612221
0.624524 0.624524 0.624524
0.637077 0.637077 0.637077
0.649866 0.649866 0.649866
0.418446 0.418446 0.418446
0.419021 0.419021 0.419021
0.419671 0.419671 0.419671
0.420600 0.420600 0.420600
0.421844 0.421844 0.421844
0.423424 0.423424 0.423424
0.425358 0.425358 0.425358
0.427660 0.427660 0.427660
0.430342 0.430342 0.430342
0.433412 0.433412 0.433412
0.436876 0.436876 0.436876
0.440737 0.440737 0.440737
0.444996 0.444996 0.444996
0.449653 0.449653 0.449653
0.454704 0.454704 0.454704
0.500170 0.500170 0.500170
0.507007 0.507007 0.507007
0.514286 0.514286 0.514286
0.521995 0.521995 0.521995
0.530125 0.530125 0.530125
0.538662 0.538662 0.538662
0.547593 0.547593 0.547593
0.556906 0.556906 0.556906
0.566586 0.566586 0.566586
0.576618 0.576618 0.576618
0.586990 0.586990 0.586990
0.597687 0.597687 0.597687
0.608694 0.608694 0.608694
0.619999 0.619999 0.619999
0.631587 0.631587 0.631587
0.643445 0.643445 0.643445
0.655562 0.655562 0.655562
0.667923 0.667923 0.667923
0.443448 0.443448 0.443448
0.443983 0.443983 0.443983
0.444588 0.444588 0.444588
0.445452 0.445452 0.445452
0.446610 0.446610 0.446610
0.448081 0.448081 0.448081
0.449883 0.449883 0.449883
0.452030 0.452030 0.452030
0.454533 0.454533 0.454533
0.457400 0.457400 0.457400
0.500750 0.500750 0.500750
0.504993 0.504993 0.504993
0.509679 0.509679 0.509679
0.514809 0.514809 0.514809
0.520382 0.520382 0.520382
0.526393 0.526393 0.526393
0.532837 0.532837 0.532837
0.539708 0.539708 0.539708
0.546998 0.546998 0.546998
0.554697 0.554697 0.554697
0.562795 0.562795 0.562795
0.571281 0.571281 0.571281
0.580144 0.580144 0.580144
0.589371 0.589371 0.589371
0.598950 0.598950 0.598950
0.608868 0.608868 0.608868
0.619113 0.619113 0.619113
0.629672 0.629672 0.629672
0.640532 0.640532 0.640532
0.651680 0.651680 0.651680
0.663105 0.663105 0.663105
0.674794 0.674794 0.674794
0.686735 0.686735 0.686735
0.509921 0.509921 0.509921
0.510507 0.510507 0.510507
0.511169 0.511169 0.511169
0.512116 0.512116 0.512116
0.513386 0.513386 0.513386
0.515000 0.515000 0.515000
0.516977 0.516977 0.516977
0.519334 0.519334 0.519334
0.522084 0.522084 0.522084
0.525238 0.525238 0.525238
0.528803 0.528803 0.528803
0.532785 0.532785 0.532785
0.537188 0.537188 0.537188
0.542013 0.542013 0.542013
0.547261 0.547261 0.547261
0.552929 0.552929 0.552929
0.559013 0.559013 0.559013
0.565509 0.565509 0.565509
0.572411 0.572411 0.572411
0.579711 0.579711 0.579711
0.587400 0.587400 0.587400
0.595469 0.595469 0.595469
0.603909 0.603909 0.603909
0.612709 0.612709 0.612709
0.621859 0.621859 0.621859
0.631346 0.631346 0.631346
0.641159 0.641159 0.641159
0.651288 0.651288 0.651288
0.661720 0.661720 0.661720
0.672443 0.672443 0.672443
0.683447 0.683447 0.683447
0.694721 0.694721 0.694721
0.706252 0.706252 0.706252
0.539271 0.539271 0.539271
0.539820 0.539820 0.539820
0.540440 0.540440 0.540440
0.541328 0.541328 0.541328
0.542517 0.542517 0.542517
0.544029 0.544029 0.544029
0.545884 0.545884 0.545884
0.548095 0.548095 0.548095
0.550676 0.550676 0.550676
0.553638 0.553638 0.553638
0.556989 0.556989 0.556989
0.560736 0.560736 0.560736
0.564882 0.564882 0.564882
0.569430 0.569430 0.569430
0.574382 0.574382 0.574382
0.579736 0.579736 0.579736
0.585491 0.585491 0.585491
0.591642 0.591642 0.591642
0.598185 0.598185 0.598185
0.605114 0.605114 0.605114
0.612423 0.612423 0.612423
0.620103 0.620103 0.620103
0.628147 0.628147 0.628147
0.636545 0.636545 0.636545
0.645288 0.645288 0.645288
0.654366 0.654366 0.654366
0.663769 0.663769 0.663769
0.673486 0.673486 0.673486
0.683507 0.683507 0.683507
0.693822 0.693822 0.693822
0.704420 0.704420 0.704420
0.715290 0.715290 0.715290
0.726422 0.726422 0.726422
0.568622 0.568622 0.568622
0.569137 0.569137 0.569137
0.569720 0.569720 0.569720
0.570554 0.570554 0.570554
0.571671 0.571671 0.571671
0.573092 0.573092 0.573092
0.574836 0.574836 0.574836
0.576916 0.576916 0.576916
0.579345 0.579345 0.579345
0.582134 0.582134 0.582134
0.585292 0.585292 0.585292
0.588825 0.588825 0.588825
0.592738 0.592738 0.592738
0.597034 0.597034 0.597034
0.601715 0.601715 0.601715
0.606782 0.606782 0.606782
0.612233 0.612233 0.612233
0.618066 0.618066 0.618066
0.624278 0.624278 0.624278
0.630864 0.630864 0.630864
0.637818 0.637818 0.637818
0.645135 0.645135 0.645135
0.652808 0.652808 0.652808
0.660828 0.660828 0.660828
0.669187 0.669187 0.669187
0.677878 0.677878 0.677878
0.686891 0.686891 0.686891
0.696216 0.696216 0.696216
0.705844 0.705844 0.705844
0.715767 0.715767 0.715767
0.725973 0.725973 0.725973
0.736454 0.736454 0.736454
0.747200 0.747200 0.747200
0.597973 0.597973 0.597973
0.598458 0.598458 0.598458
0.599006 0.599006 0.599006
0.599792 0.599792 0.599792
0.600844 0.600844 0.600844
0.602184 0.602184 0.602184
0.603827 0.603827 0.603827
0.605789 0.605789 0.605789
0.608080 0.608080 0.608080
0.610713 0.610713 0.610713
0.613695 0.613695 0.613695
0.617034 0.617034 0.617034
0.620734 0.620734 0.620734
0.624800 0.624800 0.624800
0.629233 0.629233 0.629233
0.634036 0.634036 0.634036
0.639208 0.639208 0.639208
0.644748 0.644748 0.644748
0.650653 0.650653 0.650653
0.656921 0.656921 0.656921
0.663546 0.663546 0.663546
0.670523 0.670523 0.670523
0.677848 0.677848 0.677848
0.685513 0.685513 0.685513
0.693511 0.693511 0.693511
0.701836 0.701836 0.701836
0.710478 0.710478 0.710478
0.719430 0.719430 0.719430
0.728684 0.728684 0.728684
0.738231 0.738231 0.738231
0.748061 0.748061 0.748061
0.758167 0.758167 0.758167
0.768539 0.768539 0.768539
0.627324 0.627324 0.627324
0.627782 0.627782 0.627782
0.628299 0.628299 0.628299
0.629041 0.629041 0.629041
0.630035 0.630035 0.630035
0.631300 0.631300 0.631300
0.632853 0.632853 0.632853
0.634706 0.634706 0.634706
0.636873 0.636873 0.636873
0.639363 0.639363 0.639363
0.642186 0.642186 0.642186
0.645347 0.645347 0.645347
0.648853 0.648853 0.648853
0.652708 0.652708 0.652708
0.656914 0.656914 0.656914
0.661475 0.661475 0.661475
0.666390 0.666390 0.666390
0.671658 0.671658 0.671658
0.677280 0.677280 0.677280
0.683251 0.683251 0.683251
0.689569 0.689569 0.689569
0.696230 0.696230 0.696230
0.703229 0.703229 0.703229
0.710560 0.710560 0.710560
0.718218 0.718218 0.718218
0.726197 0.726197 0.726197
0.734489 0.734489 0.734489
0.743087 0.743087 0.743087
0.751983 0.751983 0.751983
0.761171 0.761171 0.761171
0.770641 0.770641 0.770641
0.780387 0.780387 0.780387
0.790399 0.790399 0.790399
0.656674 0.656674 0.656674
0.657108 0.657108 0.657108
0.657597 0.657597 0.657597
0.658299 0.658299 0.658299
0.659240 0.659240 0.659240
0.660438 0.660438 0.660438
0.661908 0.661908 0.661908
0.663663 0.663663 0.663663
0.665716 0.665716 0.665716
0.668077 0.668077 0.668077
0.670753 0.670753 0.670753
0.673752 0.673752 0.673752
0.677080 0.677080 0.677080
0.680741 0.680741 0.680741
0.684739 0.684739 0.684739
0.689076 0.689076 0.689076
0.693753 0.693753 0.693753
0.698771 0.698771 0.698771
0.704129 0.704129 0.704129
0.709825 0.709825 0.709825
0.715858 0.715858 0.715858
0.722223 0.722223 0.722223
0.728916 0.728916 0.728916
0.735935 0.735935 0.735935
0.743273 0.743273 0.743273
0.750925 0.750925 0.750925
0.758885 0.758885 0.758885
0.767146 0.767146 0.767146
0.775703 0.775703 0.775703
0.784548 0.784548 0.784548
0.793674 0.793674 0.793674
0.803074 0.803074 0.803074
0.812741 0.812741 0.812741
0.686025 0.686025 0.686025
0.686436 0.686436 0.686436
0.686900 0.686900 0.686900
0.687566 0.687566 0.687566
0.688458 0.688458 0.688458
0.689594 0.689594 0.689594
0.690989 0.690989 0.690989
0.692655 0.692655 0.692655
0.694604 0.694604 0.694604
0.696845 0.696845 0.696845
0.699387 0.699387 0.699387
0.702238 0.702238 0.702238
0.705402 0.705402 0.705402
0.708885 0.708885 0.708885
0.712691 0.712691 0.712691
0.716821 0.716821 0.716821
0.721279 0.721279 0.721279
0.726065 0.726065 0.726065
0.731178 0.731178 0.731178
0.736618 0.736618 0.736618
0.742384 0.742384 0.742384
0.748472 0.748472 0.748472
0.754880 0.754880 0.754880
0.761605 0.761605 0.761605
0.768641 0.768641 0.768641
0.775985 0.775985 0.775985
0.783631 0.783631 0.783631
0.791574 0.791574 0.791574
0.799808 0.799808 0.799808
0.808327 0.808327 0.808327
0.817124 0.817124 0.817124
0.826193 0.826193 0.826193
0.835527 0.835527 0.835527
0.715376 0.715376 0.715376
0.715766 0.715766 0.715766
0.716207 0.716207 0.716207
0.716839 0.716839 0.716839
0.717687 0.717687 0.717687
0.718767 0.718767 0.718767
0.720093 0.720093 0.720093
0.721677 0.721677 0.721677
0.723530 0.723530 0.723530
0.725662 0.725662 0.725662
0.728082 0.728082 0.728082
0.730795 0.730795 0.730795
0.733809 0.733809 0.733809
0.737127 0.737127 0.737127
0.740755 0.740755 0.740755
0.744695 0.744695 0.744695
0.748950 0.748950 0.748950
0.753520 0.753520 0.753520
0.758406 0.758406 0.758406
0.763607 0.763607 0.763607
0.769124 0.769124 0.769124
0.774954 0.774954 0.774954
0.781094 0.781094 0.781094
0.787542 0.787542 0.787542
0.794295 0.794295 0.794295
