docs/luts/fuji_recipes/Acros_VM_Across.cube
TITLE "Fujifilm Recipe: VM Across (Acros)"
# FilmSim=Acros HL=0 SH=1 Col=0 WB=Auto WBR=0 WBB=0
LUT_3D_SIZE 9
DOMAIN_MIN 0.0 0.0 0.0
DOMAIN_MAX 1.0 1.0 1.0
0.000000 0.000000 0.000000
0.037839 0.037839 0.037839
0.100799 0.100799 0.100799
0.163750 0.163750 0.163750
0.226700 0.226700 0.226700
0.289651 0.289651 0.289651
0.352601 0.352601 0.352601
0.415552 0.415552 0.415552
0.478502 0.478502 0.478502
0.097476 0.097476 0.097476
0.114688 0.114688 0.114688
0.150029 0.150029 0.150029
0.197530 0.197530 0.197530
0.251418 0.251418 0.251418
0.308670 0.308670 0.308670
0.367806 0.367806 0.367806
0.428067 0.428067 0.428067
0.509419 0.509419 0.509419
0.201834 0.201834 0.201834
0.210521 0.210521 0.210521
0.230999 0.230999 0.230999
0.263111 0.263111 0.263111
0.304232 0.304232 0.304232
0.351675 0.351675 0.351675
0.403401 0.403401 0.403401
0.458028 0.458028 0.458028
0.536097 0.536097 0.536097
0.306192 0.306192 0.306192
0.311634 0.311634 0.311634
0.324996 0.324996 0.324996
0.347310 0.347310 0.347310
0.377930 0.377930 0.377930
0.415539 0.415539 0.415539
0.458685 0.458685 0.458685
0.527166 0.527166 0.527166
0.579888 0.579888 0.579888
0.410550 0.410550 0.410550
0.414375 0.414375 0.414375
0.423920 0.423920 0.423920
0.440307 0.440307 0.440307
0.463621 0.463621 0.463621
0.513944 0.513944 0.513944
0.550858 0.550858 0.550858
0.592759 0.592759 0.592759
0.638765 0.638765 0.638765
0.536362 0.536362 0.536362
0.539368 0.539368 0.539368
0.546923 0.546923 0.546923
0.560076 0.560076 0.560076
0.579158 0.579158 0.579158
0.604095 0.604095 0.604095
0.634526 0.634526 0.634526
0.669914 0.669914 0.669914
0.709650 0.709650 0.709650
0.645069 0.645069 0.645069
0.647444 0.647444 0.647444
0.653441 0.653441 0.653441
0.663963 0.663963 0.663963
0.679401 0.679401 0.679401
0.699868 0.699868 0.699868
0.725253 0.725253 0.725253
0.755281 0.755281 0.755281
0.789575 0.789575 0.789575
0.753775 0.753775 0.753775
0.755717 0.755717 0.755717
0.760632 0.760632 0.760632
0.769296 0.769296 0.769296
0.782097 0.782097 0.782097
0.799225 0.799225 0.799225
0.820700 0.820700 0.820700
0.846410 0.846410 0.846410
0.876141 0.876141 0.876141
0.862481 0.862481 0.862481
0.864110 0.864110 0.864110
0.868238 0.868238 0.868238
0.875535 0.875535 0.875535
0.886368 0.886368 0.886368
0.900950 0.900950 0.900950
0.919370 0.919370 0.919370
0.941610 0.941610 0.941610
0.967567 0.967567 0.967567
0.012850 0.012850 0.012850
0.049593 0.049593 0.049593
0.106767 0.106767 0.106767
0.167494 0.167494 0.167494
0.229334 0.229334 0.229334
0.291638 0.291638 0.291638
0.354172 0.354172 0.354172
0.416836 0.416836 0.416836
0.479580 0.479580 0.479580
0.103620 0.103620 0.103620
0.120000 0.120000 0.120000
0.154125 0.154125 0.154125
0.200598 0.200598 0.200598
0.253760 0.253760 0.253760
0.310514 0.310514 0.310514
0.369298 0.369298 0.369298
0.429305 0.429305 0.429305
0.510511 0.510511 0.510511
0.204830 0.204830 0.204830
0.213381 0.213381 0.213381
0.233578 0.233578 0.233578
0.265333 0.265333 0.265333
0.306107 0.306107 0.306107
0.353251 0.353251 0.353251
0.404733 0.404733 0.404733
0.459166 0.459166 0.459166
0.537121 0.537121 0.537121
0.308053 0.308053 0.308053
0.313456 0.313456 0.313456
0.326729 0.326729 0.326729
0.348910 0.348910 0.348910
0.379374 0.379374 0.379374
0.416824 0.416824 0.416824
0.459821 0.459821 0.459821
0.528212 0.528212 0.528212
0.580814 0.580814 0.580814
0.411854 0.411854 0.411854
0.415664 0.415664 0.415664
0.425173 0.425173 0.425173
0.441503 0.441503 0.441503
0.464741 0.464741 0.464741
0.515024 0.515024 0.515024
0.551847 0.551847 0.551847
0.593660 0.593660 0.593660
0.639583 0.639583 0.639583
0.537385 0.537385 0.537385
0.540383 0.540383 0.540383
0.547920 0.547920 0.547920
0.561044 0.561044 0.561044
0.580086 0.580086 0.580086
0.604974 0.604974 0.604974
0.635351 0.635351 0.635351
0.670684 0.670684 0.670684
0.710365 0.710365 0.710365
0.645877 0.645877 0.645877
0.648249 0.648249 0.648249
0.654236 0.654236 0.654236
0.664741 0.664741 0.664741
0.680157 0.680157 0.680157
0.700595 0.700595 0.700595
0.725947 0.725947 0.725947
0.755939 0.755939 0.755939
0.790196 0.790196 0.790196
0.754435 0.754435 0.754435
0.756375 0.756375 0.756375
0.761285 0.761285 0.761285
0.769939 0.769939 0.769939
0.782727 0.782727 0.782727
0.799837 0.799837 0.799837
0.821291 0.821291 0.821291
0.846977 0.846977 0.846977
0.876683 0.876683 0.876683
0.863035 0.863035 0.863035
0.864662 0.864662 0.864662
0.868786 0.868786 0.868786
0.876078 0.876078 0.876078
0.886902 0.886902 0.886902
0.901473 0.901473 0.901473
0.919879 0.919879 0.919879
0.942103 0.942103 0.942103
0.968043 0.968043 0.968043
0.045140 0.045140 0.045140
0.073200 0.073200 0.073200
0.120699 0.120699 0.120699
0.176645 0.176645 0.176645
0.235889 0.235889 0.235889
0.296625 0.296625 0.296625
0.358134 0.358134 0.358134
0.420085 0.420085 0.420085
0.502404 0.502404 0.502404
0.117907 0.117907 0.117907
0.132584 0.132584 0.132584
0.164070 0.164070 0.164070
0.208180 0.208180 0.208180
0.259612 0.259612 0.259612
0.315147 0.315147 0.315147
0.373065 0.373065 0.373065
0.432437 0.432437 0.432437
0.513277 0.513277 0.513277
0.212245 0.212245 0.212245
0.220475 0.220475 0.220475
0.240000 0.240000 0.240000
0.270896 0.270896 0.270896
0.310819 0.310819 0.310819
0.357225 0.357225 0.357225
0.408101 0.408101 0.408101
0.462047 0.462047 0.462047
0.539715 0.539715 0.539715
0.312730 0.312730 0.312730
0.318038 0.318038 0.318038
0.331092 0.331092 0.331092
0.352943 0.352943 0.352943
0.383019 0.383019 0.383019
0.420072 0.420072 0.420072
0.462697 0.462697 0.462697
0.530862 0.530862 0.530862
0.583164 0.583164 0.583164
0.415150 0.415150 0.415150
0.418924 0.418924 0.418924
0.428343 0.428343 0.428343
0.444528 0.444528 0.444528
0.467579 0.467579 0.467579
0.517759 0.517759 0.517759
0.554354 0.554354 0.554354
0.595945 0.595945 0.595945
0.641660 0.641660 0.641660
0.539978 0.539978 0.539978
0.542958 0.542958 0.542958
0.550450 0.550450 0.550450
0.563499 0.563499 0.563499
0.582439 0.582439 0.582439
0.607205 0.607205 0.607205
0.637446 0.637446 0.637446
0.672638 0.672638 0.672638
0.712179 0.712179 0.712179
0.647928 0.647928 0.647928
0.650290 0.650290 0.650290
0.656253 0.656253 0.656253
0.666717 0.666717 0.666717
0.682076 0.682076 0.682076
0.702442 0.702442 0.702442
0.727710 0.727710 0.727710
0.757612 0.757612 0.757612
0.791775 0.791775 0.791775
0.756113 0.756113 0.756113
0.758047 0.758047 0.758047
0.762943 0.762943 0.762943
0.771572 0.771572 0.771572
0.784326 0.784326 0.784326
0.801391 0.801391 0.801391
0.822793 0.822793 0.822793
0.848419 0.848419 0.848419
0.878061 0.878061 0.878061
0.864442 0.864442 0.864442
0.866066 0.866066 0.866066
0.870181 0.870181 0.870181
0.877457 0.877457 0.877457
0.888259 0.888259 0.888259
0.902801 0.902801 0.902801
0.921172 0.921172 0.921172
0.943357 0.943357 0.943357
0.969252 0.969252 0.969252
0.085280 0.085280 0.085280
0.104356 0.104356 0.104356
0.142258 0.142258 0.142258
0.191805 0.191805 0.191805
0.247087 0.247087 0.247087
0.305280 0.305280 0.305280
0.365069 0.365069 0.365069
0.425801 0.425801 0.425801
0.507423 0.507423 0.507423
0.139895 0.139895 0.139895
0.152458 0.152458 0.152458
0.180372 0.180372 0.180372
0.220987 0.220987 0.220987
0.269683 0.269683 0.269683
0.323214 0.323214 0.323214
0.379668 0.379668 0.379668
0.437954 0.437954 0.437954
0.518163 0.518163 0.518163
0.224792 0.224792 0.224792
0.232523 0.232523 0.232523
0.250988 0.250988 0.250988
0.280496 0.280496 0.280496
0.319017 0.319017 0.319017
0.364181 0.364181 0.364181
0.414024 0.414024 0.414024
0.467130 0.467130 0.467130
0.544303 0.544303 0.544303
0.320870 0.320870 0.320870
0.326019 0.326019 0.326019
0.338705 0.338705 0.338705
0.360000 0.360000 0.360000
0.389415 0.389415 0.389415
0.425788 0.425788 0.425788
0.467771 0.467771 0.467771
0.535546 0.535546 0.535546
0.587324 0.587324 0.587324
0.420950 0.420950 0.420950
0.424659 0.424659 0.424659
0.433924 0.433924 0.433924
0.449860 0.449860 0.449860
0.472587 0.472587 0.472587
0.522593 0.522593 0.522593
0.558790 0.558790 0.558790
0.599992 0.599992 0.599992
0.645343 0.645343 0.645343
0.544563 0.544563 0.544563
0.547511 0.547511 0.547511
0.554926 0.554926 0.554926
0.567844 0.567844 0.567844
0.586606 0.586606 0.586606
0.611156 0.611156 0.611156
0.641160 0.641160 0.641160
0.676104 0.676104 0.676104
0.715398 0.715398 0.715398
0.651565 0.651565 0.651565
0.653910 0.653910 0.653910
0.659831 0.659831 0.659831
0.670223 0.670223 0.670223
0.685480 0.685480 0.685480
0.705720 0.705720 0.705720
0.730842 0.730842 0.730842
0.760584 0.760584 0.760584
0.794581 0.794581 0.794581
0.759092 0.759092 0.759092
0.761017 0.761017 0.761017
0.765887 0.765887 0.765887
0.774474 0.774474 0.774474
0.787167 0.787167 0.787167
0.804154 0.804154 0.804154
0.825461 0.825461 0.825461
0.850983 0.850983 0.850983
0.880512 0.880512 0.880512
0.866943 0.866943 0.866943
0.868561 0.868561 0.868561
0.872661 0.872661 0.872661
0.879910 0.879910 0.879910
0.890673 0.890673 0.890673
0.905164 0.905164 0.905164
0.923474 0.923474 0.923474
0.945587 0.945587 0.945587
0.971404 0.971404 0.971404
0.125419 0.125419 0.125419
0.139313 0.139313 0.139313
0.169513 0.169513 0.169513
0.212407 0.212407 0.212407
0.262911 0.262911 0.262911
0.317777 0.317777 0.317777
0.375211 0.375211 0.375211
0.434227 0.434227 0.434227
0.514860 0.514860 0.514860
0.167551 0.167551 0.167551
0.178087 0.178087 0.178087
0.202260 0.202260 0.202260
0.238811 0.238811 0.238811
0.284057 0.284057 0.284057
0.334915 0.334915 0.334915
0.389346 0.389346 0.389346
0.446095 0.446095 0.446095
0.525408 0.525408 0.525408
0.242300 0.242300 0.242300
0.249415 0.249415 0.249415
0.266545 0.266545 0.266545
0.294253 0.294253 0.294253
0.330897 0.330897 0.330897
0.374352 0.374352 0.374352
0.422742 0.422742 0.422742
0.474650 0.474650 0.474650
0.551116 0.551116 0.551116
0.332670 0.332670 0.332670
0.337604 0.337604 0.337604
0.349785 0.349785 0.349785
0.370312 0.370312 0.370312
0.398804 0.398804 0.398804
0.434215 0.434215 0.434215
0.475278 0.475278 0.475278
0.542499 0.542499 0.542499
0.593514 0.593514 0.593514
0.429494 0.429494 0.429494
0.433113 0.433113 0.433113
0.442158 0.442158 0.442158
0.457737 0.457737 0.457737
0.480000 0.480000 0.480000
0.529762 0.529762 0.529762
0.565381 0.565381 0.565381
0.606016 0.606016 0.606016
0.650834 0.650834 0.650834
0.551372 0.551372 0.551372
0.554274 0.554274 0.554274
0.561575 0.561575 0.561575
0.574303 0.574303 0.574303
0.592805 0.592805 0.592805
0.617042 0.617042 0.617042
0.646697 0.646697 0.646697
0.681277 0.681277 0.681277
0.720209 0.720209 0.720209
0.656989 0.656989 0.656989
0.659309 0.659309 0.659309
0.665168 0.665168 0.665168
0.675455 0.675455 0.675455
0.690563 0.690563 0.690563
0.710615 0.710615 0.710615
0.735521 0.735521 0.735521
0.765028 0.765028 0.765028
0.798780 0.798780 0.798780
0.763548 0.763548 0.763548
0.765458 0.765458 0.765458
0.770291 0.770291 0.770291
0.778815 0.778815 0.778815
0.791416 0.791416 0.791416
0.808287 0.808287 0.808287
0.829456 0.829456 0.829456
0.854822 0.854822 0.854822
0.884183 0.884183 0.884183
0.870690 0.870690 0.870690
0.872299 0.872299 0.872299
0.876375 0.876375 0.876375
0.883585 0.883585 0.883585
0.894289 0.894289 0.894289
0.908704 0.908704 0.908704
0.926922 0.926922 0.926922
0.948930 0.948930 0.948930
0.974630 0.974630 0.974630
0.165559 0.165559 0.165559
0.176223 0.176223 0.176223
0.200640 0.200640 0.200640
0.237470 0.237470 0.237470
0.282962 0.282962 0.282962
0.334017 0.334017 0.334017
0.388599 0.388599 0.388599
0.445464 0.445464 0.445464
0.524845 0.524845 0.524845
0.199009 0.199009 0.199009
0.207828 0.207828 0.207828
0.228577 0.228577 0.228577
0.261029 0.261029 0.261029
0.302480 0.302480 0.302480
0.350205 0.350205 0.350205
0.402160 0.402160 0.402160
0.456969 0.456969 0.456969
0.535146 0.535146 0.535146
0.264180 0.264180 0.264180
0.270635 0.270635 0.270635
0.286300 0.286300 0.286300
0.311966 0.311966 0.311966
0.346401 0.346401 0.346401
0.387777 0.387777 0.387777
0.434350 0.434350 0.434350
0.504924 0.504924 0.504924
0.560291 0.560291 0.560291
0.348079 0.348079 0.348079
0.352753 0.352753 0.352753
0.364323 0.364323 0.364323
0.383909 0.383909 0.383909
0.411255 0.411255 0.411255
0.445452 0.445452 0.445452
0.505562 0.505562 0.505562
0.551856 0.551856 0.551856
0.601873 0.601873 0.601873
0.440882 0.440882 0.440882
0.444385 0.444385 0.444385
0.453150 0.453150 0.453150
0.468275 0.468275 0.468275
0.510354 0.510354 0.510354
0.539400 0.539400 0.539400
0.574267 0.574267 0.574267
0.614158 0.614158 0.614158
0.658270 0.658270 0.658270
0.560541 0.560541 0.560541
0.563383 0.563383 0.563383
0.570536 0.570536 0.570536
0.583016 0.583016 0.583016
0.601177 0.601177 0.601177
0.625000 0.625000 0.625000
0.654194 0.654194 0.654194
0.688291 0.688291 0.688291
0.726740 0.726740 0.726740
0.664337 0.664337 0.664337
0.666624 0.666624 0.666624
0.672401 0.672401 0.672401
0.682547 0.682547 0.682547
0.697457 0.697457 0.697457
0.717261 0.717261 0.717261
0.741878 0.741878 0.741878
0.771070 0.771070 0.771070
0.804492 0.804492 0.804492
0.769604 0.769604 0.769604
0.771495 0.771495 0.771495
0.776280 0.776280 0.776280
0.784719 0.784719 0.784719
0.797198 0.797198 0.797198
0.813912 0.813912 0.813912
0.834895 0.834895 0.834895
0.860052 0.860052 0.860052
0.889187 0.889187 0.889187
0.875796 0.875796 0.875796
0.877392 0.877392 0.877392
0.881438 0.881438 0.881438
0.888593 0.888593 0.888593
0.899219 0.899219 0.899219
0.913532 0.913532 0.913532
0.931625 0.931625 0.931625
0.953490 0.953490 0.953490
0.979032 0.979032 0.979032
0.205698 0.205698 0.205698
0.214211 0.214211 0.214211
0.234327 0.234327 0.234327
0.265980 0.265980 0.265980
0.306654 0.306654 0.306654
0.353711 0.353711 0.353711
0.405123 0.405123 0.405123
0.459499 0.459499 0.459499
0.537420 0.537420 0.537420
0.232959 0.232959 0.232959
0.240392 0.240392 0.240392
0.258215 0.258215 0.258215
0.286863 0.286863 0.286863
0.324498 0.324498 0.324498
0.368860 0.368860 0.368860
0.418026 0.418026 0.418026
0.470576 0.470576 0.470576
0.547422 0.547422 0.547422
0.289688 0.289688 0.289688
0.295493 0.295493 0.295493
0.309691 0.309691 0.309691
0.333239 0.333239 0.333239
0.365292 0.365292 0.365292
0.404342 0.404342 0.404342
0.448820 0.448820 0.448820
0.518113 0.518113 0.518113
0.571886 0.571886 0.571886
0.366865 0.366865 0.366865
0.371253 0.371253 0.371253
0.382144 0.382144 0.382144
0.400671 0.400671 0.400671
0.426705 0.426705 0.426705
0.459487 0.459487 0.459487
0.518730 0.518730 0.518730
0.563672 0.563672 0.563672
0.612474 0.612474 0.612474
0.455093 0.455093 0.455093
0.458461 0.458461 0.458461
0.466897 0.466897 0.466897
0.501544 0.501544 0.501544
0.523370 0.523370 0.523370
0.551556 0.551556 0.551556
0.585511 0.585511 0.585511
0.624493 0.624493 0.624493
0.667736 0.667736 0.667736
0.572130 0.572130 0.572130
0.574899 0.574899 0.574899
0.581872 0.581872 0.581872
0.594050 0.594050 0.594050
0.611793 0.611793 0.611793
0.635109 0.635109 0.635109
0.663734 0.663734 0.663734
0.697234 0.697234 0.697234
0.735081 0.735081 0.735081
0.673692 0.673692 0.673692
0.675938 0.675938 0.675938
0.681614 0.681614 0.681614
0.691585 0.691585 0.691585
0.706249 0.706249 0.706249
0.725743 0.725743 0.725743
0.750000 0.750000 0.750000
0.778798 0.778798 0.778798
0.811807 0.811807 0.811807
0.777351 0.777351 0.777351
0.779217 0.779217 0.779217
0.783940 0.783940 0.783940
0.792273 0.792273 0.792273
0.804600 0.804600 0.804600
0.821117 0.821117 0.821117
0.841866 0.841866 0.841866
0.866758 0.866758 0.866758
0.895607 0.895607 0.895607
0.882345 0.882345 0.882345
0.883925 0.883925 0.883925
0.887932 0.887932 0.887932
0.895019 0.895019 0.895019
0.905546 0.905546 0.905546
0.919729 0.919729 0.919729
0.937665 0.937665 0.937665
0.959349 0.959349 0.959349
0.984691 0.984691 0.984691
0.245838 0.245838 0.245838
0.252839 0.252839 0.252839
0.269717 0.269717 0.269717
0.297080 0.297080 0.297080
0.333357 0.333357 0.333357
0.376471 0.376471 0.376471
0.424567 0.424567 0.424567
0.476229 0.476229 0.476229
0.552550 0.552550 0.552550
0.268556 0.268556 0.268556
0.274890 0.274890 0.274890
0.290287 0.290287 0.290287
0.315570 0.315570 0.315570
0.349582 0.349582 0.349582
0.390551 0.390551 0.390551
0.436762 0.436762 0.436762
0.507115 0.507115 0.507115
0.562211 0.562211 0.562211
0.318094 0.318094 0.318094
0.323297 0.323297 0.323297
0.336106 0.336106 0.336106
0.357589 0.357589 0.357589
0.387227 0.387227 0.387227
0.423830 0.423830 0.423830
0.466031 0.466031 0.466031
0.533939 0.533939 0.533939
0.585895 0.585895 0.585895
0.388692 0.388692 0.388692
0.392782 0.392782 0.392782
0.402963 0.402963 0.402963
0.420370 0.420370 0.420370
0.444989 0.444989 0.444989
0.476218 0.476218 0.476218
0.534533 0.534533 0.534533
0.577935 0.577935 0.577935
0.625333 0.625333 0.625333
0.472019 0.472019 0.472019
0.475237 0.475237 0.475237
0.503444 0.503444 0.503444
0.518011 0.518011 0.518011
0.539001 0.539001 0.539001
0.566209 0.566209 0.566209
0.599115 0.599115 0.599115
0.637041 0.637041 0.637041
0.679266 0.679266 0.679266
0.586132 0.586132 0.586132
0.588817 0.588817 0.588817
0.595583 0.595583 0.595583
0.607410 0.607410 0.607410
0.624670 0.624670 0.624670
0.647393 0.647393 0.647393
0.675352 0.675352 0.675352
0.708147 0.708147 0.708147
0.745280 0.745280 0.745280
0.685093 0.685093 0.685093
0.687291 0.687291 0.687291
0.692846 0.692846 0.692846
0.702612 0.702612 0.702612
0.716984 0.716984 0.716984
0.736111 0.736111 0.736111
0.759940 0.759940 0.759940
0.788267 0.788267 0.788267
0.820781 0.820781 0.820781
0.786843 0.786843 0.786843
0.788679 0.788679 0.788679
0.793329 0.793329 0.793329
0.801534 0.801534 0.801534
0.813678 0.813678 0.813678
0.829960 0.829960 0.829960
0.850427 0.850427 0.850427
0.875000 0.875000 0.875000
0.903505 0.903505 0.903505
0.890398 0.890398 0.890398
0.891960 0.891960 0.891960
0.895919 0.895919 0.895919
0.902923 0.902923 0.902923
0.913331 0.913331 0.913331
0.927357 0.927357 0.927357
0.945103 0.945103 0.945103
0.966567 0.966567 0.966567
0.991665 0.991665 0.991665
0.285977 0.285977 0.285977
0.291870 0.291870 0.291870
0.306267 0.306267 0.306267
0.330107 0.330107 0.330107
0.362493 0.362493 0.362493
0.401874 0.401874 0.401874
0.446655 0.446655 0.446655
0.516133 0.516133 0.516133
0.570140 0.570140 0.570140
0.305268 0.305268 0.305268
0.310729 0.310729 0.310729
0.324136 0.324136 0.324136
0.346516 0.346516 0.346516
0.377214 0.377214 0.377214
0.414903 0.414903 0.414903
0.458123 0.458123 0.458123
0.526649 0.526649 0.526649
0.579430 0.579430 0.579430
0.348772 0.348772 0.348772
0.353435 0.353435 0.353435
0.364979 0.364979 0.364979
0.384525 0.384525 0.384525
0.411821 0.411821 0.411821
0.445964 0.445964 0.445964
0.506040 0.506040 0.506040
0.552284 0.552284 0.552284
0.602256 0.602256 0.602256
0.413178 0.413178 0.413178
0.416974 0.416974 0.416974
0.426446 0.426446 0.426446
0.442718 0.442718 0.442718
0.465881 0.465881 0.465881
0.516122 0.516122 0.516122
0.552853 0.552853 0.552853
0.594576 0.594576 0.594576
0.640416 0.640416 0.640416
0.511964 0.511964 0.511964
0.515150 0.515150 0.515150
0.523151 0.523151 0.523151
0.537047 0.537047 0.537047
0.557136 0.557136 0.557136
0.583277 0.583277 0.583277
0.615028 0.615028 0.615028
0.651778 0.651778 0.651778
0.692856 0.692856 0.692856
0.602485 0.602485 0.602485
0.605077 0.605077 0.605077
0.611614 0.611614 0.611614
0.623053 0.623053 0.623053
0.639774 0.639774 0.639774
0.661834 0.661834 0.661834
0.689043 0.689043 0.689043
0.721037 0.721037 0.721037
0.757356 0.757356 0.757356
0.698537 0.698537 0.698537
0.700681 0.700681 0.700681
0.706099 0.706099 0.706099
0.715632 0.715632 0.715632
0.729672 0.729672 0.729672
0.748380 0.748380 0.748380
0.771718 0.771718 0.771718
0.799503 0.799503 0.799503
0.831447 0.831447 0.831447
0.798106 0.798106 0.798106
0.799909 0.799909 0.799909
0.804474 0.804474 0.804474
0.812532 0.812532 0.812532
0.824464 0.824464 0.824464
0.840473 0.840473 0.840473
0.860613 0.860613 0.860613
0.884816 0.884816 0.884816
0.912920 0.912920 0.912920
0.899994 0.899994 0.899994
0.901534 0.901534 0.901534
0.905438 0.905438 0.905438
0.912346 0.912346 0.912346
0.922614 0.922614 0.922614
0.936457 0.936457 0.936457
0.953980 0.953980 0.953980
0.975186 0.975186 0.975186
1.000000 1.000000 1.000000
