docs/luts/fuji_recipes/Acros_RR_Acros_Push_Process.cube
TITLE "Fujifilm Recipe: RR Acros Push Process (Acros)"
# FilmSim=Acros HL=4 SH=3 Col=0 WB=Auto WBR=0 WBB=0
LUT_3D_SIZE 9
DOMAIN_MIN 0.0 0.0 0.0
DOMAIN_MAX 1.0 1.0 1.0
0.000000 0.000000 0.000000
0.062518 0.062518 0.062518
0.139545 0.139545 0.139545
0.216571 0.216571 0.216571
0.293597 0.293597 0.293597
0.370624 0.370624 0.370624
0.438627 0.438627 0.438627
0.438627 0.438627 0.438627
0.438627 0.438627 0.438627
0.135478 0.135478 0.135478
0.156539 0.156539 0.156539
0.199782 0.199782 0.199782
0.257905 0.257905 0.257905
0.323842 0.323842 0.323842
0.393896 0.393896 0.393896
0.523324 0.523324 0.523324
0.523324 0.523324 0.523324
0.523324 0.523324 0.523324
0.263171 0.263171 0.263171
0.273800 0.273800 0.273800
0.298857 0.298857 0.298857
0.338149 0.338149 0.338149
0.388465 0.388465 0.388465
0.508590 0.508590 0.508590
0.581970 0.581970 0.581970
0.581970 0.581970 0.581970
0.581970 0.581970 0.581970
0.390863 0.390863 0.390863
0.397522 0.397522 0.397522
0.413873 0.413873 0.413873
0.501549 0.501549 0.501549
0.550938 0.550938 0.550938
0.611599 0.611599 0.611599
0.672647 0.672647 0.672647
0.672647 0.672647 0.672647
0.672647 0.672647 0.672647
0.603552 0.603552 0.603552
0.609722 0.609722 0.609722
0.625116 0.625116 0.625116
0.651549 0.651549 0.651549
0.689151 0.689151 0.689151
0.737161 0.737161 0.737161
0.787196 0.787196 0.787196
0.787196 0.787196 0.787196
0.787196 0.787196 0.787196
0.771874 0.771874 0.771874
0.776527 0.776527 0.776527
0.788225 0.788225 0.788225
0.808592 0.808592 0.808592
0.838139 0.838139 0.838139
0.876753 0.876753 0.876753
0.917938 0.917938 0.917938
0.917938 0.917938 0.917938
0.917938 0.917938 0.917938
0.920478 0.920478 0.920478
0.924252 0.924252 0.924252
0.933775 0.933775 0.933775
0.950471 0.950471 0.950471
0.974944 0.974944 0.974944
1.000000 1.000000 1.000000
1.000000 1.000000 1.000000
1.000000 1.000000 1.000000
1.000000 1.000000 1.000000
0.920478 0.920478 0.920478
0.924252 0.924252 0.924252
0.933775 0.933775 0.933775
0.950471 0.950471 0.950471
0.974944 0.974944 0.974944
1.000000 1.000000 1.000000
1.000000 1.000000 1.000000
1.000000 1.000000 1.000000
1.000000 1.000000 1.000000
0.920478 0.920478 0.920478
0.924252 0.924252 0.924252
0.933775 0.933775 0.933775
0.950471 0.950471 0.950471
0.974944 0.974944 0.974944
1.000000 1.000000 1.000000
1.000000 1.000000 1.000000
1.000000 1.000000 1.000000
1.000000 1.000000 1.000000
0.023559 0.023559 0.023559
0.076888 0.076888 0.076888
0.146846 0.146846 0.146846
0.221153 0.221153 0.221153
0.296821 0.296821 0.296821
0.373055 0.373055 0.373055
0.500790 0.500790 0.500790
0.500790 0.500790 0.500790
0.500790 0.500790 0.500790
0.142996 0.142996 0.142996
0.163039 0.163039 0.163039
0.204794 0.204794 0.204794
0.261658 0.261658 0.261658
0.326708 0.326708 0.326708
0.396152 0.396152 0.396152
0.525788 0.525788 0.525788
0.525788 0.525788 0.525788
0.525788 0.525788 0.525788
0.266837 0.266837 0.266837
0.277301 0.277301 0.277301
0.302013 0.302013 0.302013
0.340869 0.340869 0.340869
0.390760 0.390760 0.390760
0.511133 0.511133 0.511133
0.584162 0.584162 0.584162
0.584162 0.584162 0.584162
0.584162 0.584162 0.584162
0.393141 0.393141 0.393141
0.399752 0.399752 0.399752
0.415993 0.415993 0.415993
0.504130 0.504130 0.504130
0.553267 0.553267 0.553267
0.613671 0.613671 0.613671
0.674507 0.674507 0.674507
0.674507 0.674507 0.674507
0.674507 0.674507 0.674507
0.605655 0.605655 0.605655
0.611801 0.611801 0.611801
0.627138 0.627138 0.627138
0.653477 0.653477 0.653477
0.690959 0.690959 0.690959
0.738833 0.738833 0.738833
0.788744 0.788744 0.788744
0.788744 0.788744 0.788744
0.788744 0.788744 0.788744
0.773458 0.773458 0.773458
0.778100 0.778100 0.778100
0.789771 0.789771 0.789771
0.810092 0.810092 0.810092
0.839576 0.839576 0.839576
0.878114 0.878114 0.878114
0.919226 0.919226 0.919226
0.919226 0.919226 0.919226
0.919226 0.919226 0.919226
0.921762 0.921762 0.921762
0.925530 0.925530 0.925530
0.935036 0.935036 0.935036
0.951706 0.951706 0.951706
0.976141 0.976141 0.976141
1.000000 1.000000 1.000000
1.000000 1.000000 1.000000
1.000000 1.000000 1.000000
1.000000 1.000000 1.000000
0.921762 0.921762 0.921762
0.925530 0.925530 0.925530
0.935036 0.935036 0.935036
0.951706 0.951706 0.951706
0.976141 0.976141 0.976141
1.000000 1.000000 1.000000
1.000000 1.000000 1.000000
1.000000 1.000000 1.000000
1.000000 1.000000 1.000000
0.921762 0.921762 0.921762
0.925530 0.925530 0.925530
0.935036 0.935036 0.935036
0.951706 0.951706 0.951706
0.976141 0.976141 0.976141
1.000000 1.000000 1.000000
1.000000 1.000000 1.000000
1.000000 1.000000 1.000000
1.000000 1.000000 1.000000
0.071440 0.071440 0.071440
0.105774 0.105774 0.105774
0.163893 0.163893 0.163893
0.232350 0.232350 0.232350
0.304840 0.304840 0.304840
0.379158 0.379158 0.379158
0.507342 0.507342 0.507342
0.507342 0.507342 0.507342
0.507342 0.507342 0.507342
0.160478 0.160478 0.160478
0.178437 0.178437 0.178437
0.216962 0.216962 0.216962
0.270936 0.270936 0.270936
0.333868 0.333868 0.333868
0.401821 0.401821 0.401821
0.532005 0.532005 0.532005
0.532005 0.532005 0.532005
0.532005 0.532005 0.532005
0.275910 0.275910 0.275910
0.285981 0.285981 0.285981
0.309871 0.309871 0.309871
0.347675 0.347675 0.347675
0.396526 0.396526 0.396526
0.517542 0.517542 0.517542
0.589698 0.589698 0.589698
0.589698 0.589698 0.589698
0.589698 0.589698 0.589698
0.398864 0.398864 0.398864
0.405359 0.405359 0.405359
0.421332 0.421332 0.421332
0.510636 0.510636 0.510636
0.559146 0.559146 0.559146
0.618910 0.618910 0.618910
0.679212 0.679212 0.679212
0.679212 0.679212 0.679212
0.679212 0.679212 0.679212
0.610972 0.610972 0.610972
0.617058 0.617058 0.617058
0.632250 0.632250 0.632250
0.658356 0.658356 0.658356
0.695536 0.695536 0.695536
0.743069 0.743069 0.743069
0.792667 0.792667 0.792667
0.792667 0.792667 0.792667
0.792667 0.792667 0.792667
0.777473 0.777473 0.777473
0.782087 0.782087 0.782087
0.793688 0.793688 0.793688
0.813893 0.813893 0.813893
0.843220 0.843220 0.843220
0.881567 0.881567 0.881567
0.922494 0.922494 0.922494
0.922494 0.922494 0.922494
0.922494 0.922494 0.922494
0.925020 0.925020 0.925020
0.928771 0.928771 0.928771
0.938238 0.938238 0.938238
0.954840 0.954840 0.954840
0.979180 0.979180 0.979180
1.000000 1.000000 1.000000
1.000000 1.000000 1.000000
1.000000 1.000000 1.000000
1.000000 1.000000 1.000000
0.925020 0.925020 0.925020
0.928771 0.928771 0.928771
0.938238 0.938238 0.938238
0.954840 0.954840 0.954840
0.979180 0.979180 0.979180
1.000000 1.000000 1.000000
1.000000 1.000000 1.000000
1.000000 1.000000 1.000000
1.000000 1.000000 1.000000
0.925020 0.925020 0.925020
0.928771 0.928771 0.928771
0.938238 0.938238 0.938238
0.954840 0.954840 0.954840
0.979180 0.979180 0.979180
1.000000 1.000000 1.000000
1.000000 1.000000 1.000000
1.000000 1.000000 1.000000
1.000000 1.000000 1.000000
0.120555 0.120555 0.120555
0.143897 0.143897 0.143897
0.190273 0.190273 0.190273
0.250899 0.250899 0.250899
0.318542 0.318542 0.318542
0.389747 0.389747 0.389747
0.518804 0.518804 0.518804
0.518804 0.518804 0.518804
0.518804 0.518804 0.518804
0.187382 0.187382 0.187382
0.202754 0.202754 0.202754
0.236911 0.236911 0.236911
0.286606 0.286606 0.286606
0.346191 0.346191 0.346191
0.411692 0.411692 0.411692
0.542896 0.542896 0.542896
0.542896 0.542896 0.542896
0.542896 0.542896 0.542896
0.291262 0.291262 0.291262
0.300723 0.300723 0.300723
0.323316 0.323316 0.323316
0.359422 0.359422 0.359422
0.406557 0.406557 0.406557
0.528762 0.528762 0.528762
0.599428 0.599428 0.599428
0.599428 0.599428 0.599428
0.599428 0.599428 0.599428
0.408823 0.408823 0.408823
0.415125 0.415125 0.415125
0.430647 0.430647 0.430647
0.522018 0.522018 0.522018
0.569463 0.569463 0.569463
0.628130 0.628130 0.628130
0.687512 0.687512 0.687512
0.687512 0.687512 0.687512
0.687512 0.687512 0.687512
0.620326 0.620326 0.620326
0.626309 0.626309 0.626309
0.641253 0.641253 0.641253
0.666956 0.666956 0.666956
0.703614 0.703614 0.703614
0.750553 0.750553 0.750553
0.799608 0.799608 0.799608
0.799608 0.799608 0.799608
0.799608 0.799608 0.799608
0.784572 0.784572 0.784572
0.789137 0.789137 0.789137
0.800618 0.800618 0.800618
0.820621 0.820621 0.820621
0.849671 0.849671 0.849671
0.887686 0.887686 0.887686
0.928289 0.928289 0.928289
0.928289 0.928289 0.928289
0.928289 0.928289 0.928289
0.930796 0.930796 0.930796
0.934519 0.934519 0.934519
0.943916 0.943916 0.943916
0.960399 0.960399 0.960399
0.984572 0.984572 0.984572
1.000000 1.000000 1.000000
1.000000 1.000000 1.000000
1.000000 1.000000 1.000000
1.000000 1.000000 1.000000
0.930796 0.930796 0.930796
0.934519 0.934519 0.934519
0.943916 0.943916 0.943916
0.960399 0.960399 0.960399
0.984572 0.984572 0.984572
1.000000 1.000000 1.000000
1.000000 1.000000 1.000000
1.000000 1.000000 1.000000
1.000000 1.000000 1.000000
0.930796 0.930796 0.930796
0.934519 0.934519 0.934519
0.943916 0.943916 0.943916
0.960399 0.960399 0.960399
0.984572 0.984572 0.984572
1.000000 1.000000 1.000000
1.000000 1.000000 1.000000
1.000000 1.000000 1.000000
1.000000 1.000000 1.000000
0.169670 0.169670 0.169670
0.186670 0.186670 0.186670
0.223623 0.223623 0.223623
0.276108 0.276108 0.276108
0.337905 0.337905 0.337905
0.405039 0.405039 0.405039
0.535545 0.535545 0.535545
0.535545 0.535545 0.535545
0.535545 0.535545 0.535545
0.221222 0.221222 0.221222
0.234114 0.234114 0.234114
0.263693 0.263693 0.263693
0.308417 0.308417 0.308417
0.363780 0.363780 0.363780
0.426010 0.426010 0.426010
0.558844 0.558844 0.558844
0.558844 0.558844 0.558844
0.558844 0.558844 0.558844
0.312685 0.312685 0.312685
0.321391 0.321391 0.321391
0.342351 0.342351 0.342351
0.376255 0.376255 0.376255
0.421093 0.421093 0.421093
0.545167 0.545167 0.545167
0.613743 0.613743 0.613743
0.613743 0.613743 0.613743
0.613743 0.613743 0.613743
0.423262 0.423262 0.423262
0.429300 0.429300 0.429300
0.505542 0.505542 0.505542
0.538650 0.538650 0.538650
0.584607 0.584607 0.584607
0.641721 0.641721 0.641721
0.699788 0.699788 0.699788
0.699788 0.699788 0.699788
0.699788 0.699788 0.699788
0.634108 0.634108 0.634108
0.639945 0.639945 0.639945
0.654533 0.654533 0.654533
0.679662 0.679662 0.679662
0.715570 0.715570 0.715570
0.761653 0.761653 0.761653
0.809919 0.809919 0.809919
0.809919 0.809919 0.809919
0.809919 0.809919 0.809919
0.795115 0.795115 0.795115
0.799608 0.799608 0.799608
0.810913 0.810913 0.810913
0.830622 0.830622 0.830622
0.859271 0.859271 0.859271
0.896799 0.896799 0.896799
0.936927 0.936927 0.936927
0.936927 0.936927 0.936927
0.936927 0.936927 0.936927
0.939406 0.939406 0.939406
0.943088 0.943088 0.943088
0.952383 0.952383 0.952383
0.968691 0.968691 0.968691
0.992618 0.992618 0.992618
1.000000 1.000000 1.000000
1.000000 1.000000 1.000000
1.000000 1.000000 1.000000
1.000000 1.000000 1.000000
0.939406 0.939406 0.939406
0.943088 0.943088 0.943088
0.952383 0.952383 0.952383
0.968691 0.968691 0.968691
0.992618 0.992618 0.992618
1.000000 1.000000 1.000000
1.000000 1.000000 1.000000
1.000000 1.000000 1.000000
1.000000 1.000000 1.000000
0.939406 0.939406 0.939406
0.943088 0.943088 0.943088
0.952383 0.952383 0.952383
0.968691 0.968691 0.968691
0.992618 0.992618 0.992618
1.000000 1.000000 1.000000
1.000000 1.000000 1.000000
1.000000 1.000000 1.000000
1.000000 1.000000 1.000000
0.218784 0.218784 0.218784
0.231833 0.231833 0.231833
0.261711 0.261711 0.261711
0.306775 0.306775 0.306775
0.362440 0.362440 0.362440
0.424910 0.424910 0.424910
0.557613 0.557613 0.557613
0.557613 0.557613 0.557613
0.557613 0.557613 0.557613
0.259715 0.259715 0.259715
0.270505 0.270505 0.270505
0.295893 0.295893 0.295893
0.335602 0.335602 0.335602
0.386322 0.386322 0.386322
0.506220 0.506220 0.506220
0.579929 0.579929 0.579929
0.579929 0.579929 0.579929
0.579929 0.579929 0.579929
0.339458 0.339458 0.339458
0.347356 0.347356 0.347356
0.366524 0.366524 0.366524
0.397929 0.397929 0.397929
0.500084 0.500084 0.500084
0.566820 0.566820 0.566820
0.632785 0.632785 0.632785
0.632785 0.632785 0.632785
0.632785 0.632785 0.632785
0.502790 0.502790 0.502790
0.510329 0.510329 0.510329
0.528991 0.528991 0.528991
0.560582 0.560582 0.560582
0.604690 0.604690 0.604690
0.659846 0.659846 0.659846
0.716232 0.716232 0.716232
0.716232 0.716232 0.716232
0.716232 0.716232 0.716232
0.652475 0.652475 0.652475
0.658126 0.658126 0.658126
0.672263 0.672263 0.672263
0.696658 0.696658 0.696658
0.731602 0.731602 0.731602
0.776577 0.776577 0.776577
0.823814 0.823814 0.823814
0.823814 0.823814 0.823814
0.823814 0.823814 0.823814
0.809312 0.809312 0.809312
0.813713 0.813713 0.813713
0.824789 0.824789 0.824789
0.844113 0.844113 0.844113
0.872234 0.872234 0.872234
0.909122 0.909122 0.909122
0.948622 0.948622 0.948622
0.948622 0.948622 0.948622
0.948622 0.948622 0.948622
0.951064 0.951064 0.951064
0.954692 0.954692 0.954692
0.963851 0.963851 0.963851
0.979926 0.979926 0.979926
1.000000 1.000000 1.000000
1.000000 1.000000 1.000000
1.000000 1.000000 1.000000
1.000000 1.000000 1.000000
1.000000 1.000000 1.000000
0.951064 0.951064 0.951064
0.954692 0.954692 0.954692
0.963851 0.963851 0.963851
0.979926 0.979926 0.979926
1.000000 1.000000 1.000000
1.000000 1.000000 1.000000
1.000000 1.000000 1.000000
1.000000 1.000000 1.000000
1.000000 1.000000 1.000000
0.951064 0.951064 0.951064
0.954692 0.954692 0.954692
0.963851 0.963851 0.963851
0.979926 0.979926 0.979926
1.000000 1.000000 1.000000
1.000000 1.000000 1.000000
1.000000 1.000000 1.000000
1.000000 1.000000 1.000000
1.000000 1.000000 1.000000
0.262146 0.262146 0.262146
0.272823 0.272823 0.272823
0.297977 0.297977 0.297977
0.337392 0.337392 0.337392
0.387828 0.387828 0.387828
0.507885 0.507885 0.507885
0.581363 0.581363 0.581363
0.581363 0.581363 0.581363
0.581363 0.581363 0.581363
0.296269 0.296269 0.296269
0.305544 0.305544 0.305544
0.327738 0.327738 0.327738
0.363312 0.363312 0.363312
0.409900 0.409900 0.409900
0.532520 0.532520 0.532520
0.602698 0.602698 0.602698
0.602698 0.602698 0.602698
0.602698 0.602698 0.602698
0.366814 0.366814 0.366814
0.374008 0.374008 0.374008
0.391586 0.391586 0.391586
0.420703 0.420703 0.420703
0.526719 0.526719 0.526719
0.590157 0.590157 0.590157
0.653483 0.653483 0.653483
0.653483 0.653483 0.653483
0.653483 0.653483 0.653483
0.529277 0.529277 0.529277
0.536409 0.536409 0.536409
0.554107 0.554107 0.554107
0.584198 0.584198 0.584198
0.626447 0.626447 0.626447
0.679603 0.679603 0.679603
0.734245 0.734245 0.734245
0.734245 0.734245 0.734245
0.734245 0.734245 0.734245
0.672481 0.672481 0.672481
0.677940 0.677940 0.677940
0.691612 0.691612 0.691612
0.715245 0.715245 0.715245
0.749184 0.749184 0.749184
0.792994 0.792994 0.792994
0.839142 0.839142 0.839142
0.839142 0.839142 0.839142
0.839142 0.839142 0.839142
0.824961 0.824961 0.824961
0.829263 0.829263 0.829263
0.840095 0.840095 0.840095
0.859009 0.859009 0.859009
0.886565 0.886565 0.886565
0.922766 0.922766 0.922766
0.961591 0.961591 0.961591
0.961591 0.961591 0.961591
0.961591 0.961591 0.961591
0.963993 0.963993 0.963993
0.967562 0.967562 0.967562
0.976574 0.976574 0.976574
0.992399 0.992399 0.992399
1.000000 1.000000 1.000000
1.000000 1.000000 1.000000
1.000000 1.000000 1.000000
1.000000 1.000000 1.000000
1.000000 1.000000 1.000000
0.963993 0.963993 0.963993
0.967562 0.967562 0.967562
0.976574 0.976574 0.976574
0.992399 0.992399 0.992399
1.000000 1.000000 1.000000
1.000000 1.000000 1.000000
1.000000 1.000000 1.000000
1.000000 1.000000 1.000000
1.000000 1.000000 1.000000
0.963993 0.963993 0.963993
0.967562 0.967562 0.967562
0.976574 0.976574 0.976574
0.992399 0.992399 0.992399
1.000000 1.000000 1.000000
1.000000 1.000000 1.000000
1.000000 1.000000 1.000000
1.000000 1.000000 1.000000
1.000000 1.000000 1.000000
0.262146 0.262146 0.262146
0.272823 0.272823 0.272823
0.297977 0.297977 0.297977
0.337392 0.337392 0.337392
0.387828 0.387828 0.387828
0.507885 0.507885 0.507885
0.581363 0.581363 0.581363
0.581363 0.581363 0.581363
0.581363 0.581363 0.581363
0.296269 0.296269 0.296269
0.305544 0.305544 0.305544
0.327738 0.327738 0.327738
0.363312 0.363312 0.363312
0.409900 0.409900 0.409900
0.532520 0.532520 0.532520
0.602698 0.602698 0.602698
0.602698 0.602698 0.602698
0.602698 0.602698 0.602698
0.366814 0.366814 0.366814
0.374008 0.374008 0.374008
0.391586 0.391586 0.391586
0.420703 0.420703 0.420703
0.526719 0.526719 0.526719
0.590157 0.590157 0.590157
0.653483 0.653483 0.653483
0.653483 0.653483 0.653483
0.653483 0.653483 0.653483
0.529277 0.529277 0.529277
0.536409 0.536409 0.536409
0.554107 0.554107 0.554107
0.584198 0.584198 0.584198
0.626447 0.626447 0.626447
0.679603 0.679603 0.679603
0.734245 0.734245 0.734245
0.734245 0.734245 0.734245
0.734245 0.734245 0.734245
0.672481 0.672481 0.672481
0.677940 0.677940 0.677940
0.691612 0.691612 0.691612
0.715245 0.715245 0.715245
0.749184 0.749184 0.749184
0.792994 0.792994 0.792994
0.839142 0.839142 0.839142
0.839142 0.839142 0.839142
0.839142 0.839142 0.839142
0.824961 0.824961 0.824961
0.829263 0.829263 0.829263
0.840095 0.840095 0.840095
0.859009 0.859009 0.859009
0.886565 0.886565 0.886565
0.922766 0.922766 0.922766
0.961591 0.961591 0.961591
0.961591 0.961591 0.961591
0.961591 0.961591 0.961591
0.963993 0.963993 0.963993
0.967562 0.967562 0.967562
0.976574 0.976574 0.976574
0.992399 0.992399 0.992399
1.000000 1.000000 1.000000
1.000000 1.000000 1.000000
1.000000 1.000000 1.000000
1.000000 1.000000 1.000000
1.000000 1.000000 1.000000
0.963993 0.963993 0.963993
0.967562 0.967562 0.967562
0.976574 0.976574 0.976574
0.992399 0.992399 0.992399
1.000000 1.000000 1.000000
1.000000 1.000000 1.000000
1.000000 1.000000 1.000000
1.000000 1.000000 1.000000
1.000000 1.000000 1.000000
0.963993 0.963993 0.963993
0.967562 0.967562 0.967562
0.976574 0.976574 0.976574
0.992399 0.992399 0.992399
1.000000 1.000000 1.000000
1.000000 1.000000 1.000000
1.000000 1.000000 1.000000
1.000000 1.000000 1.000000
1.000000 1.000000 1.000000
0.262146 0.262146 0.262146
0.272823 0.272823 0.272823
0.297977 0.297977 0.297977
0.337392 0.337392 0.337392
0.387828 0.387828 0.387828
0.507885 0.507885 0.507885
0.581363 0.581363 0.581363
0.581363 0.581363 0.581363
0.581363 0.581363 0.581363
0.296269 0.296269 0.296269
0.305544 0.305544 0.305544
0.327738 0.327738 0.327738
0.363312 0.363312 0.363312
0.409900 0.409900 0.409900
0.532520 0.532520 0.532520
0.602698 0.602698 0.602698
0.602698 0.602698 0.602698
0.602698 0.602698 0.602698
0.366814 0.366814 0.366814
0.374008 0.374008 0.374008
0.391586 0.391586 0.391586
0.420703 0.420703 0.420703
0.526719 0.526719 0.526719
0.590157 0.590157 0.590157
0.653483 0.653483 0.653483
0.653483 0.653483 0.653483
0.653483 0.653483 0.653483
0.529277 0.529277 0.529277
0.536409 0.536409 0.536409
0.554107 0.554107 0.554107
0.584198 0.584198 0.584198
0.626447 0.626447 0.626447
0.679603 0.679603 0.679603
0.734245 0.734245 0.734245
0.734245 0.734245 0.734245
0.734245 0.734245 0.734245
0.672481 0.672481 0.672481
0.677940 0.677940 0.677940
0.691612 0.691612 0.691612
0.715245 0.715245 0.715245
0.749184 0.749184 0.749184
0.792994 0.792994 0.792994
0.839142 0.839142 0.839142
0.839142 0.839142 0.839142
0.839142 0.839142 0.839142
0.824961 0.824961 0.824961
0.829263 0.829263 0.829263
0.840095 0.840095 0.840095
0.859009 0.859009 0.859009
0.886565 0.886565 0.886565
0.922766 0.922766 0.922766
0.961591 0.961591 0.961591
0.961591 0.961591 0.961591
0.961591 0.961591 0.961591
0.963993 0.963993 0.963993
0.967562 0.967562 0.967562
0.976574 0.976574 0.976574
0.992399 0.992399 0.992399
1.000000 1.000000 1.000000
1.000000 1.000000 1.000000
1.000000 1.000000 1.000000
1.000000 1.000000 1.000000
1.000000 1.000000 1.000000
0.963993 0.963993 0.963993
0.967562 0.967562 0.967562
0.976574 0.976574 0.976574
0.992399 0.992399 0.992399
1.000000 1.000000 1.000000
1.000000 1.000000 1.000000
1.000000 1.000000 1.000000
1.000000 1.000000 1.000000
1.000000 1.000000 1.000000
0.963993 0.963993 0.963993
0.967562 0.967562 0.967562
0.976574 0.976574 0.976574
0.992399 0.992399 0.992399
1.000000 1.000000 1.000000
1.000000 1.000000 1.000000
1.000000 1.000000 1.000000
1.000000 1.000000 1.000000
1.000000 1.000000 1.000000
