docs/luts/fuji_recipes/Acros_RR_Bleach_Bypass_2_2.cube
TITLE "Fujifilm Recipe: RR Bleach Bypass 2/2 (Acros)"
# FilmSim=Acros HL=3 SH=4 Col=2 WB=Auto WBR=-1 WBB=3
LUT_3D_SIZE 9
DOMAIN_MIN 0.0 0.0 0.0
DOMAIN_MAX 1.0 1.0 1.0
0.000000 0.000000 0.000000
0.039474 0.039474 0.039474
0.098549 0.098549 0.098549
0.157624 0.157624 0.157624
0.216699 0.216699 0.216699
0.275774 0.275774 0.275774
0.334849 0.334849 0.334849
0.393924 0.393924 0.393924
0.407673 0.407673 0.407673
0.098440 0.098440 0.098440
0.114346 0.114346 0.114346
0.146944 0.146944 0.146944
0.191000 0.191000 0.191000
0.241190 0.241190 0.241190
0.294651 0.294651 0.294651
0.349955 0.349955 0.349955
0.406367 0.406367 0.406367
0.419608 0.419608 0.419608
0.198884 0.198884 0.198884
0.206896 0.206896 0.206896
0.225662 0.225662 0.225662
0.255174 0.255174 0.255174
0.293130 0.293130 0.293130
0.337092 0.337092 0.337092
0.385169 0.385169 0.385169
0.521410 0.521410 0.521410
0.537608 0.537608 0.537608
0.299329 0.299329 0.299329
0.304345 0.304345 0.304345
0.316563 0.316563 0.316563
0.336978 0.336978 0.336978
0.365071 0.365071 0.365071
0.399693 0.399693 0.399693
0.526057 0.526057 0.526057
0.584590 0.584590 0.584590
0.598845 0.598845 0.598845
0.399773 0.399773 0.399773
0.403298 0.403298 0.403298
0.412017 0.412017 0.412017
0.509305 0.509305 0.509305
0.537726 0.537726 0.537726
0.574101 0.574101 0.574101
0.617526 0.617526 0.617526
0.666956 0.666956 0.666956
0.679210 0.679210 0.679210
0.606957 0.606957 0.606957
0.610501 0.610501 0.610501
0.619331 0.619331 0.619331
0.634685 0.634685 0.634685
0.656974 0.656974 0.656974
0.686148 0.686148 0.686148
0.721824 0.721824 0.721824
0.763409 0.763409 0.763409
0.773862 0.773862 0.773862
0.740883 0.740883 0.740883
0.743684 0.743684 0.743684
0.750691 0.750691 0.750691
0.762966 0.762966 0.762966
0.780978 0.780978 0.780978
0.804880 0.804880 0.804880
0.834570 0.834570 0.834570
0.869757 0.869757 0.869757
0.878692 0.878692 0.878692
0.874808 0.874808 0.874808
0.877099 0.877099 0.877099
0.882841 0.882841 0.882841
0.892944 0.892944 0.892944
0.907869 0.907869 0.907869
0.927848 0.927848 0.927848
0.952926 0.952926 0.952926
0.982991 0.982991 0.982991
0.990682 0.990682 0.990682
0.905979 0.905979 0.905979
0.908173 0.908173 0.908173
0.913676 0.913676 0.913676
0.923365 0.923365 0.923365
0.937695 0.937695 0.937695
0.956908 0.956908 0.956908
0.981070 0.981070 0.981070
1.000000 1.000000 1.000000
1.000000 1.000000 1.000000
0.016042 0.016042 0.016042
0.052446 0.052446 0.052446
0.105229 0.105229 0.105229
0.161835 0.161835 0.161835
0.219667 0.219667 0.219667
0.278015 0.278015 0.278015
0.336622 0.336622 0.336622
0.395374 0.395374 0.395374
0.409063 0.409063 0.409063
0.105127 0.105127 0.105127
0.120164 0.120164 0.120164
0.151475 0.151475 0.151475
0.194421 0.194421 0.194421
0.243814 0.243814 0.243814
0.296722 0.296722 0.296722
0.351635 0.351635 0.351635
0.407762 0.407762 0.407762
0.501265 0.501265 0.501265
0.202154 0.202154 0.202154
0.210024 0.210024 0.210024
0.228496 0.228496 0.228496
0.257631 0.257631 0.257631
0.295213 0.295213 0.295213
0.338851 0.338851 0.338851
0.386661 0.386661 0.386661
0.523112 0.523112 0.523112
0.539252 0.539252 0.539252
0.301361 0.301361 0.301361
0.306336 0.306336 0.306336
0.318462 0.318462 0.318462
0.338738 0.338738 0.338738
0.366665 0.366665 0.366665
0.401117 0.401117 0.401117
0.527742 0.527742 0.527742
0.586084 0.586084 0.586084
0.600298 0.600298 0.600298
0.401197 0.401197 0.401197
0.404707 0.404707 0.404707
0.413389 0.413389 0.413389
0.511054 0.511054 0.511054
0.539370 0.539370 0.539370
0.575626 0.575626 0.575626
0.618928 0.618928 0.618928
0.668236 0.668236 0.668236
0.680464 0.680464 0.680464
0.608387 0.608387 0.608387
0.611922 0.611922 0.611922
0.620728 0.620728 0.620728
0.636043 0.636043 0.636043
0.658277 0.658277 0.658277
0.687386 0.687386 0.687386
0.722989 0.722989 0.722989
0.764498 0.764498 0.764498
0.774934 0.774934 0.774934
0.742012 0.742012 0.742012
0.744809 0.744809 0.744809
0.751803 0.751803 0.751803
0.764056 0.764056 0.764056
0.782038 0.782038 0.782038
0.805902 0.805902 0.805902
0.835548 0.835548 0.835548
0.870687 0.870687 0.870687
0.879611 0.879611 0.879611
0.875732 0.875732 0.875732
0.878019 0.878019 0.878019
0.883754 0.883754 0.883754
0.893844 0.893844 0.893844
0.908751 0.908751 0.908751
0.928707 0.928707 0.928707
0.953756 0.953756 0.953756
0.983791 0.983791 0.983791
0.991474 0.991474 0.991474
0.906863 0.906863 0.906863
0.909055 0.909055 0.909055
0.914551 0.914551 0.914551
0.924228 0.924228 0.924228
0.938542 0.938542 0.938542
0.957734 0.957734 0.957734
0.981871 0.981871 0.981871
1.000000 1.000000 1.000000
1.000000 1.000000 1.000000
0.053978 0.053978 0.053978
0.078369 0.078369 0.078369
0.120996 0.120996 0.120996
0.172317 0.172317 0.172317
0.227216 0.227216 0.227216
0.283775 0.283775 0.283775
0.341205 0.341205 0.341205
0.399136 0.399136 0.399136
0.412669 0.412669 0.412669
0.120907 0.120907 0.120907
0.134172 0.134172 0.134172
0.162686 0.162686 0.162686
0.203056 0.203056 0.203056
0.250522 0.250522 0.250522
0.302055 0.302055 0.302055
0.355981 0.355981 0.355981
0.411383 0.411383 0.411383
0.505904 0.505904 0.505904
0.210430 0.210430 0.210430
0.217959 0.217959 0.217959
0.235718 0.235718 0.235718
0.263927 0.263927 0.263927
0.300579 0.300579 0.300579
0.343397 0.343397 0.343397
0.390528 0.390528 0.390528
0.527535 0.527535 0.527535
0.543525 0.543525 0.543525
0.306597 0.306597 0.306597
0.311471 0.311471 0.311471
0.323363 0.323363 0.323363
0.343286 0.343286 0.343286
0.370794 0.370794 0.370794
0.404812 0.404812 0.404812
0.532121 0.532121 0.532121
0.589969 0.589969 0.589969
0.604077 0.604077 0.604077
0.404892 0.404892 0.404892
0.408361 0.408361 0.408361
0.416948 0.416948 0.416948
0.515594 0.515594 0.515594
0.543642 0.543642 0.543642
0.579593 0.579593 0.579593
0.622575 0.622575 0.622575
0.671570 0.671570 0.671570
0.683727 0.683727 0.683727
0.612108 0.612108 0.612108
0.615618 0.615618 0.615618
0.624363 0.624363 0.624363
0.639576 0.639576 0.639576
0.661671 0.661671 0.661671
0.690611 0.690611 0.690611
0.726026 0.726026 0.726026
0.767339 0.767339 0.767339
0.777729 0.777729 0.777729
0.744956 0.744956 0.744956
0.747740 0.747740 0.747740
0.754702 0.754702 0.754702
0.766899 0.766899 0.766899
0.784802 0.784802 0.784802
0.808567 0.808567 0.808567
0.838099 0.838099 0.838099
0.873112 0.873112 0.873112
0.882006 0.882006 0.882006
0.878140 0.878140 0.878140
0.880420 0.880420 0.880420
0.886136 0.886136 0.886136
0.896193 0.896193 0.896193
0.911052 0.911052 0.911052
0.930947 0.930947 0.930947
0.955924 0.955924 0.955924
0.985877 0.985877 0.985877
0.993540 0.993540 0.993540
0.909171 0.909171 0.909171
0.911356 0.911356 0.911356
0.916834 0.916834 0.916834
0.926482 0.926482 0.926482
0.940754 0.940754 0.940754
0.959891 0.959891 0.959891
0.983962 0.983962 0.983962
1.000000 1.000000 1.000000
1.000000 1.000000 1.000000
0.095510 0.095510 0.095510
0.111823 0.111823 0.111823
0.145003 0.145003 0.145003
0.189549 0.189549 0.189549
0.240083 0.240083 0.240083
0.293779 0.293779 0.293779
0.349249 0.349249 0.349249
0.405781 0.405781 0.405781
0.419046 0.419046 0.419046
0.144930 0.144930 0.144930
0.156079 0.156079 0.156079
0.180936 0.180936 0.180936
0.217590 0.217590 0.217590
0.262062 0.262062 0.262062
0.311355 0.311355 0.311355
0.363624 0.363624 0.363624
0.417784 0.417784 0.417784
0.514115 0.514115 0.514115
0.224419 0.224419 0.224419
0.231426 0.231426 0.231426
0.248072 0.248072 0.248072
0.274803 0.274803 0.274803
0.309933 0.309933 0.309933
0.351380 0.351380 0.351380
0.397354 0.397354 0.397354
0.535371 0.535371 0.535371
0.551103 0.551103 0.551103
0.315734 0.315734 0.315734
0.320440 0.320440 0.320440
0.331941 0.331941 0.331941
0.351272 0.351272 0.351272
0.378068 0.378068 0.378068
0.411343 0.411343 0.411343
0.539882 0.539882 0.539882
0.596871 0.596871 0.596871
0.610794 0.610794 0.610794
0.411420 0.411420 0.411420
0.414822 0.414822 0.414822
0.504325 0.504325 0.504325
0.523633 0.523633 0.523633
0.551218 0.551218 0.551218
0.586637 0.586637 0.586637
0.629063 0.629063 0.629063
0.677509 0.677509 0.677509
0.689542 0.689542 0.689542
0.618724 0.618724 0.618724
0.622190 0.622190 0.622190
0.630829 0.630829 0.630829
0.645863 0.645863 0.645863
0.667714 0.667714 0.667714
0.696357 0.696357 0.696357
0.731441 0.731441 0.731441
0.772408 0.772408 0.772408
0.782716 0.782716 0.782716
0.750208 0.750208 0.750208
0.752968 0.752968 0.752968
0.759872 0.759872 0.759872
0.771971 0.771971 0.771971
0.789735 0.789735 0.789735
0.813326 0.813326 0.813326
0.842655 0.842655 0.842655
0.877447 0.877447 0.877447
0.886287 0.886287 0.886287
0.882444 0.882444 0.882444
0.884711 0.884711 0.884711
0.890392 0.890392 0.890392
0.900391 0.900391 0.900391
0.915167 0.915167 0.915167
0.934954 0.934954 0.934954
0.959802 0.959802 0.959802
0.989609 0.989609 0.989609
0.997237 0.997237 0.997237
0.913296 0.913296 0.913296
0.915468 0.915468 0.915468
0.920917 0.920917 0.920917
0.930513 0.930513 0.930513
0.944709 0.944709 0.944709
0.963749 0.963749 0.963749
0.987703 0.987703 0.987703
1.000000 1.000000 1.000000
1.000000 1.000000 1.000000
0.137042 0.137042 0.137042
0.148821 0.148821 0.148821
0.174803 0.174803 0.174803
0.212646 0.212646 0.212646
0.258103 0.258103 0.258103
0.308147 0.308147 0.308147
0.360978 0.360978 0.360978
0.415564 0.415564 0.415564
0.511265 0.511265 0.511265
0.174743 0.174743 0.174743
0.183949 0.183949 0.183949
0.205129 0.205129 0.205129
0.237620 0.237620 0.237620
0.278419 0.278419 0.278419
0.324787 0.324787 0.324787
0.374799 0.374799 0.374799
0.509630 0.509630 0.509630
0.526240 0.526240 0.526240
0.243801 0.243801 0.243801
0.250178 0.250178 0.250178
0.265457 0.265457 0.265457
0.290309 0.290309 0.290309
0.323437 0.323437 0.323437
0.363024 0.363024 0.363024
0.407390 0.407390 0.407390
0.546961 0.546961 0.546961
0.562323 0.562323 0.562323
0.328949 0.328949 0.328949
0.333427 0.333427 0.333427
0.344400 0.344400 0.344400
0.362920 0.362920 0.362920
0.388730 0.388730 0.388730
0.501284 0.501284 0.501284
0.551364 0.551364 0.551364
0.607121 0.607121 0.607121
0.620777 0.620777 0.620777
0.501384 0.501384 0.501384
0.505791 0.505791 0.505791
0.516710 0.516710 0.516710
0.535514 0.535514 0.535514
0.562435 0.562435 0.562435
0.597091 0.597091 0.597091
0.638711 0.638711 0.638711
0.686360 0.686360 0.686360
0.698212 0.698212 0.698212
0.628559 0.628559 0.628559
0.631962 0.631962 0.631962
0.640447 0.640447 0.640447
0.655222 0.655222 0.655222
0.676717 0.676717 0.676717
0.704927 0.704927 0.704927
0.739528 0.739528 0.739528
0.779986 0.779986 0.779986
0.790175 0.790175 0.790175
0.758055 0.758055 0.758055
0.760780 0.760780 0.760780
0.767600 0.767600 0.767600
0.779554 0.779554 0.779554
0.797114 0.797114 0.797114
0.820448 0.820448 0.820448
0.849478 0.849478 0.849478
0.883942 0.883942 0.883942
0.892704 0.892704 0.892704
0.888895 0.888895 0.888895
0.891141 0.891141 0.891141
0.896773 0.896773 0.896773
0.906685 0.906685 0.906685
0.921336 0.921336 0.921336
0.940963 0.940963 0.940963
0.965620 0.965620 0.965620
0.995211 0.995211 0.995211
1.000000 1.000000 1.000000
0.919480 0.919480 0.919480
0.921635 0.921635 0.921635
0.927039 0.927039 0.927039
0.936557 0.936557 0.936557
0.950642 0.950642 0.950642
0.969538 0.969538 0.969538
0.993319 0.993319 0.993319
1.000000 1.000000 1.000000
1.000000 1.000000 1.000000
0.178574 0.178574 0.178574
0.187571 0.187571 0.187571
0.208337 0.208337 0.208337
0.240332 0.240332 0.240332
0.280670 0.280670 0.280670
0.326657 0.326657 0.326657
0.376367 0.376367 0.376367
0.511405 0.511405 0.511405
0.527951 0.527951 0.527951
0.208288 0.208288 0.208288
0.215903 0.215903 0.215903
0.233842 0.233842 0.233842
0.262287 0.262287 0.262287
0.299178 0.299178 0.299178
0.342208 0.342208 0.342208
0.389514 0.389514 0.389514
0.526375 0.526375 0.526375
0.542404 0.542404 0.542404
0.267802 0.267802 0.267802
0.273522 0.273522 0.273522
0.287341 0.287341 0.287341
0.310117 0.310117 0.310117
0.340942 0.340942 0.340942
0.378310 0.378310 0.378310
0.500931 0.500931 0.500931
0.562448 0.562448 0.562448
0.577337 0.577337 0.577337
0.346114 0.346114 0.346114
0.350324 0.350324 0.350324
0.360668 0.360668 0.360668
0.378211 0.378211 0.378211
0.402814 0.402814 0.402814
0.518333 0.518333 0.518333
0.566712 0.566712 0.566712
0.620888 0.620888 0.620888
0.634198 0.634198 0.634198
0.518430 0.518430 0.518430
0.522674 0.522674 0.522674
0.533203 0.533203 0.533203
0.551368 0.551368 0.551368
0.577446 0.577446 0.577446
0.611122 0.611122 0.611122
0.651701 0.651701 0.651701
0.698309 0.698309 0.698309
0.709924 0.709924 0.709924
0.641790 0.641790 0.641790
0.645111 0.645111 0.645111
0.653396 0.653396 0.653396
0.667834 0.667834 0.667834
0.688865 0.688865 0.688865
0.716508 0.716508 0.716508
0.750473 0.750473 0.750473
0.790258 0.790258 0.790258
0.800289 0.800289 0.800289
0.768683 0.768683 0.768683
0.771363 0.771363 0.771363
0.778071 0.778071 0.778071
0.789834 0.789834 0.789834
0.807123 0.807123 0.807123
0.830116 0.830116 0.830116
0.858749 0.858749 0.858749
0.892776 0.892776 0.892776
0.901432 0.901432 0.901432
0.897668 0.897668 0.897668
0.899888 0.899888 0.899888
0.905452 0.905452 0.905452
0.915249 0.915249 0.915249
0.929733 0.929733 0.929733
0.949146 0.949146 0.949146
0.973547 0.973547 0.973547
1.000000 1.000000 1.000000
1.000000 1.000000 1.000000
0.927899 0.927899 0.927899
0.930029 0.930029 0.930029
0.935373 0.935373 0.935373
0.944788 0.944788 0.944788
0.958723 0.958723 0.958723
0.977425 0.977425 0.977425
1.000000 1.000000 1.000000
1.000000 1.000000 1.000000
1.000000 1.000000 1.000000
0.220105 0.220105 0.220105
0.227266 0.227266 0.227266
0.244244 0.244244 0.244244
0.271419 0.271419 0.271419
0.307012 0.307012 0.307012
0.348879 0.348879 0.348879
0.395211 0.395211 0.395211
0.532907 0.532907 0.532907
0.548719 0.548719 0.548719
0.244203 0.244203 0.244203
0.250567 0.250567 0.250567
0.265819 0.265819 0.265819
0.290634 0.290634 0.290634
0.323722 0.323722 0.323722
0.363272 0.363272 0.363272
0.407605 0.407605 0.407605
0.547210 0.547210 0.547210
0.562564 0.562564 0.562564
0.295523 0.295523 0.295523
0.300616 0.300616 0.300616
0.313010 0.313010 0.313010
0.333691 0.333691 0.333691
0.362096 0.362096 0.362096
0.397039 0.397039 0.397039
0.522920 0.522920 0.522920
0.581813 0.581813 0.581813
0.596145 0.596145 0.596145
0.366902 0.366902 0.366902
0.370822 0.370822 0.370822
0.380481 0.380481 0.380481
0.396946 0.396946 0.396946
0.500257 0.500257 0.500257
0.539522 0.539522 0.539522
0.585915 0.585915 0.585915
0.638213 0.638213 0.638213
0.651109 0.651109 0.651109
0.539615 0.539615 0.539615
0.543671 0.543671 0.543671
0.553746 0.553746 0.553746
0.571166 0.571166 0.571166
0.596250 0.596250 0.596250
0.628762 0.628762 0.628762
0.668091 0.668091 0.668091
0.713439 0.713439 0.713439
0.724765 0.724765 0.724765
0.658472 0.658472 0.658472
0.661694 0.661694 0.661694
0.669737 0.669737 0.669737
0.683769 0.683769 0.683769
0.704237 0.704237 0.704237
0.731190 0.731190 0.731190
0.764375 0.764375 0.764375
0.803334 0.803334 0.803334
0.813169 0.813169 0.813169
0.782196 0.782196 0.782196
0.784821 0.784821 0.784821
0.791390 0.791390 0.791390
0.802917 0.802917 0.802917
0.819873 0.819873 0.819873
0.842443 0.842443 0.842443
0.870582 0.870582 0.870582
0.904064 0.904064 0.904064
0.912588 0.912588 0.912588
0.908882 0.908882 0.908882
0.911068 0.911068 0.911068
0.916549 0.916549 0.916549
0.926201 0.926201 0.926201
0.940477 0.940477 0.940477
0.959621 0.959621 0.959621
0.983700 0.983700 0.983700
1.000000 1.000000 1.000000
1.000000 1.000000 1.000000
0.938669 0.938669 0.938669
0.940769 0.940769 0.940769
0.946038 0.946038 0.946038
0.955322 0.955322 0.955322
0.969070 0.969070 0.969070
0.987529 0.987529 0.987529
1.000000 1.000000 1.000000
1.000000 1.000000 1.000000
1.000000 1.000000 1.000000
0.250230 0.250230 0.250230
0.256419 0.256419 0.256419
0.271283 0.271283 0.271283
0.295553 0.295553 0.295553
0.328045 0.328045 0.328045
0.367028 0.367028 0.367028
0.410862 0.410862 0.410862
0.550989 0.550989 0.550989
0.566225 0.566225 0.566225
0.271247 0.271247 0.271247
0.276882 0.276882 0.276882
0.290509 0.290509 0.290509
0.313008 0.313008 0.313008
0.343519 0.343519 0.343519
0.380577 0.380577 0.380577
0.503579 0.503579 0.503579
0.564770 0.564770 0.564770
0.579590 0.579590 0.579590
0.317482 0.317482 0.317482
0.322156 0.322156 0.322156
0.333585 0.333585 0.333585
0.352806 0.352806 0.352806
0.379468 0.379468 0.379468
0.412603 0.412603 0.412603
0.541383 0.541383 0.541383
0.598209 0.598209 0.598209
0.612096 0.612096 0.612096
0.384005 0.384005 0.384005
0.387711 0.387711 0.387711
0.396861 0.396861 0.396861
0.412515 0.412515 0.412515
0.519635 0.519635 0.519635
0.557360 0.557360 0.557360
0.602181 0.602181 0.602181
0.652970 0.652970 0.652970
0.665530 0.665530 0.665530
0.557449 0.557449 0.557449
0.561358 0.561358 0.561358
0.571075 0.571075 0.571075
0.587906 0.587906 0.587906
0.612199 0.612199 0.612199
0.643774 0.643774 0.643774
0.682090 0.682090 0.682090
0.726404 0.726404 0.726404
0.737492 0.737492 0.737492
0.672707 0.672707 0.672707
0.675849 0.675849 0.675849
0.683695 0.683695 0.683695
0.697395 0.697395 0.697395
0.717401 0.717401 0.717401
0.743786 0.743786 0.743786
0.776326 0.776326 0.776326
0.814596 0.814596 0.814596
0.824268 0.824268 0.824268
0.793823 0.793823 0.793823
0.796402 0.796402 0.796402
0.802857 0.802857 0.802857
0.814187 0.814187 0.814187
0.830863 0.830863 0.830863
0.853079 0.853079 0.853079
0.880803 0.880803 0.880803
0.913827 0.913827 0.913827
0.922240 0.922240 0.922240
0.918582 0.918582 0.918582
0.920739 0.920739 0.920739
0.926150 0.926150 0.926150
0.935679 0.935679 0.935679
0.949780 0.949780 0.949780
0.968697 0.968697 0.968697
0.992503 0.992503 0.992503
1.000000 1.000000 1.000000
1.000000 1.000000 1.000000
0.947993 0.947993 0.947993
0.950068 0.950068 0.950068
0.955273 0.955273 0.955273
0.964448 0.964448 0.964448
0.978036 0.978036 0.978036
0.996289 0.996289 0.996289
1.000000 1.000000 1.000000
1.000000 1.000000 1.000000
1.000000 1.000000 1.000000
0.250230 0.250230 0.250230
0.256419 0.256419 0.256419
0.271283 0.271283 0.271283
0.295553 0.295553 0.295553
0.328045 0.328045 0.328045
0.367028 0.367028 0.367028
0.410862 0.410862 0.410862
0.550989 0.550989 0.550989
0.566225 0.566225 0.566225
0.271247 0.271247 0.271247
0.276882 0.276882 0.276882
0.290509 0.290509 0.290509
0.313008 0.313008 0.313008
0.343519 0.343519 0.343519
0.380577 0.380577 0.380577
0.503579 0.503579 0.503579
0.564770 0.564770 0.564770
0.579590 0.579590 0.579590
0.317482 0.317482 0.317482
0.322156 0.322156 0.322156
0.333585 0.333585 0.333585
0.352806 0.352806 0.352806
0.379468 0.379468 0.379468
0.412603 0.412603 0.412603
0.541383 0.541383 0.541383
0.598209 0.598209 0.598209
0.612096 0.612096 0.612096
0.384005 0.384005 0.384005
0.387711 0.387711 0.387711
0.396861 0.396861 0.396861
0.412515 0.412515 0.412515
0.519635 0.519635 0.519635
0.557360 0.557360 0.557360
0.602181 0.602181 0.602181
0.652970 0.652970 0.652970
0.665530 0.665530 0.665530
0.557449 0.557449 0.557449
0.561358 0.561358 0.561358
0.571075 0.571075 0.571075
0.587906 0.587906 0.587906
0.612199 0.612199 0.612199
0.643774 0.643774 0.643774
0.682090 0.682090 0.682090
0.726404 0.726404 0.726404
0.737492 0.737492 0.737492
0.672707 0.672707 0.672707
0.675849 0.675849 0.675849
0.683695 0.683695 0.683695
0.697395 0.697395 0.697395
0.717401 0.717401 0.717401
0.743786 0.743786 0.743786
0.776326 0.776326 0.776326
0.814596 0.814596 0.814596
0.824268 0.824268 0.824268
0.793823 0.793823 0.793823
0.796402 0.796402 0.796402
0.802857 0.802857 0.802857
0.814187 0.814187 0.814187
0.830863 0.830863 0.830863
0.853079 0.853079 0.853079
0.880803 0.880803 0.880803
0.913827 0.913827 0.913827
0.922240 0.922240 0.922240
0.918582 0.918582 0.918582
0.920739 0.920739 0.920739
0.926150 0.926150 0.926150
0.935679 0.935679 0.935679
0.949780 0.949780 0.949780
0.968697 0.968697 0.968697
0.992503 0.992503 0.992503
1.000000 1.000000 1.000000
1.000000 1.000000 1.000000
0.947993 0.947993 0.947993
0.950068 0.950068 0.950068
0.955273 0.955273 0.955273
0.964448 0.964448 0.964448
0.978036 0.978036 0.978036
0.996289 0.996289 0.996289
1.000000 1.000000 1.000000
1.000000 1.000000 1.000000
1.000000 1.000000 1.000000
