docs/luts/fuji_recipes/Acros_RR_Agfa_Scala.cube
TITLE "Fujifilm Recipe: RR Agfa Scala (Acros)"
# FilmSim=Acros HL=4 SH=0 Col=0 WB=Auto WBR=0 WBB=0
LUT_3D_SIZE 5
DOMAIN_MIN 0.0 0.0 0.0
DOMAIN_MAX 1.0 1.0 1.0
0.000000 0.000000 0.000000
0.104999 0.104999 0.104999
0.236146 0.236146 0.236146
0.367293 0.367293 0.367293
0.498440 0.498440 0.498440
0.210243 0.210243 0.210243
0.240624 0.240624 0.240624
0.316908 0.316908 0.316908
0.420209 0.420209 0.420209
0.541873 0.541873 0.541873
0.427656 0.427656 0.427656
0.441583 0.441583 0.441583
0.482938 0.482938 0.482938
0.558995 0.558995 0.558995
0.660967 0.660967 0.660967
0.668280 0.668280 0.668280
0.677992 0.677992 0.677992
0.708105 0.708105 0.708105
0.761293 0.761293 0.761293
0.835907 0.835907 0.835907
0.920478 0.920478 0.920478
0.927156 0.927156 0.927156
0.948186 0.948186 0.948186
0.986469 0.986469 0.986469
1.000000 1.000000 1.000000
0.047021 0.047021 0.047021
0.125728 0.125728 0.125728
0.245717 0.245717 0.245717
0.373056 0.373056 0.373056
0.502789 0.502789 0.502789
0.221088 0.221088 0.221088
0.250000 0.250000 0.250000
0.323770 0.323770 0.323770
0.425106 0.425106 0.425106
0.546070 0.546070 0.546070
0.432448 0.432448 0.432448
0.446190 0.446190 0.446190
0.487062 0.487062 0.487062
0.563051 0.563051 0.563051
0.664326 0.664326 0.664326
0.671596 0.671596 0.671596
0.681254 0.681254 0.681254
0.711208 0.711208 0.711208
0.764144 0.764144 0.764144
0.838459 0.838459 0.838459
0.922753 0.922753 0.922753
0.929410 0.929410 0.929410
0.950380 0.950380 0.950380
0.988560 0.988560 0.988560
1.000000 1.000000 1.000000
0.130645 0.130645 0.130645
0.176576 0.176576 0.176576
0.273865 0.273865 0.273865
0.390844 0.390844 0.390844
0.517237 0.517237 0.517237
0.252395 0.252395 0.252395
0.277651 0.277651 0.277651
0.344685 0.344685 0.344685
0.440356 0.440356 0.440356
0.559294 0.559294 0.559294
0.447390 0.447390 0.447390
0.460581 0.460581 0.460581
0.500000 0.500000 0.500000
0.575842 0.575842 0.575842
0.674967 0.674967 0.674967
0.682107 0.682107 0.682107
0.691595 0.691595 0.691595
0.721053 0.721053 0.721053
0.773205 0.773205 0.773205
0.846585 0.846585 0.846585
0.930001 0.930001 0.930001
0.936596 0.936596 0.936596
0.957376 0.957376 0.957376
0.995230 0.995230 0.995230
1.000000 1.000000 1.000000
0.214269 0.214269 0.214269
0.244091 0.244091 0.244091
0.319431 0.319431 0.319431
0.422003 0.422003 0.422003
0.543408 0.543408 0.543408
0.301758 0.301758 0.301758
0.322594 0.322594 0.322594
0.380513 0.380513 0.380513
0.467521 0.467521 0.467521
0.583388 0.583388 0.583388
0.474056 0.474056 0.474056
0.486351 0.486351 0.486351
0.527110 0.527110 0.527110
0.599193 0.599193 0.599193
0.694573 0.694573 0.694573
0.701483 0.701483 0.701483
0.710672 0.710672 0.710672
0.739249 0.739249 0.739249
0.790000 0.790000 0.790000
0.861696 0.861696 0.861696
0.943520 0.943520 0.943520
0.950001 0.950001 0.950001
0.970433 0.970433 0.970433
1.000000 1.000000 1.000000
1.000000 1.000000 1.000000
0.297893 0.297893 0.297893
0.319028 0.319028 0.319028
0.377597 0.377597 0.377597
0.465266 0.465266 0.465266
0.581363 0.581363 0.581363
0.363304 0.363304 0.363304
0.380186 0.380186 0.380186
0.428980 0.428980 0.428980
0.507007 0.507007 0.507007
0.618617 0.618617 0.618617
0.513878 0.513878 0.513878
0.526855 0.526855 0.526855
0.566277 0.566277 0.566277
0.633433 0.633433 0.633433
0.723713 0.723713 0.723713
0.730303 0.730303 0.730303
0.739075 0.739075 0.739075
0.766420 0.766420 0.766420
0.815193 0.815193 0.815193
0.884478 0.884478 0.884478
0.963993 0.963993 0.963993
0.970308 0.970308 0.970308
0.990232 0.990232 0.990232
1.000000 1.000000 1.000000
1.000000 1.000000 1.000000
