docs/luts/fuji_recipes/AcrosG_SS_Acros.cube
TITLE "Fujifilm Recipe: SS Acros (AcrosG)"
# FilmSim=AcrosG HL=-2 SH=2 Col=0 WB=Auto WBR=0 WBB=0
LUT_3D_SIZE 33
DOMAIN_MIN 0.0 0.0 0.0
DOMAIN_MAX 1.0 1.0 1.0
0.000000 0.000000 0.000000
0.005318 0.005318 0.005318
0.011335 0.011335 0.011335
0.019963 0.019963 0.019963
0.031549 0.031549 0.031549
0.045606 0.045606 0.045606
0.059838 0.059838 0.059838
0.074069 0.074069 0.074069
0.088301 0.088301 0.088301
0.102533 0.102533 0.102533
0.116764 0.116764 0.116764
0.130996 0.130996 0.130996
0.145228 0.145228 0.145228
0.159459 0.159459 0.159459
0.173691 0.173691 0.173691
0.187923 0.187923 0.187923
0.202154 0.202154 0.202154
0.216386 0.216386 0.216386
0.230618 0.230618 0.230618
0.244849 0.244849 0.244849
0.259081 0.259081 0.259081
0.273313 0.273313 0.273313
0.287544 0.287544 0.287544
0.301776 0.301776 0.301776
0.316008 0.316008 0.316008
0.330239 0.330239 0.330239
0.344471 0.344471 0.344471
0.358703 0.358703 0.358703
0.372934 0.372934 0.372934
0.387166 0.387166 0.387166
0.401398 0.401398 0.401398
0.415629 0.415629 0.415629
0.429861 0.429861 0.429861
0.023646 0.023646 0.023646
0.028964 0.028964 0.028964
0.034981 0.034981 0.034981
0.043212 0.043212 0.043212
0.052889 0.052889 0.052889
0.063642 0.063642 0.063642
0.075185 0.075185 0.075185
0.087306 0.087306 0.087306
0.099856 0.099856 0.099856
0.112727 0.112727 0.112727
0.125842 0.125842 0.125842
0.139146 0.139146 0.139146
0.152597 0.152597 0.152597
0.166166 0.166166 0.166166
0.179828 0.179828 0.179828
0.193568 0.193568 0.193568
0.207371 0.207371 0.207371
0.221226 0.221226 0.221226
0.235125 0.235125 0.235125
0.249060 0.249060 0.249060
0.263028 0.263028 0.263028
0.277022 0.277022 0.277022
0.291040 0.291040 0.291040
0.305078 0.305078 0.305078
0.319133 0.319133 0.319133
0.333204 0.333204 0.333204
0.347289 0.347289 0.347289
0.361385 0.361385 0.361385
0.375492 0.375492 0.375492
0.389609 0.389609 0.389609
0.403734 0.403734 0.403734
0.417867 0.417867 0.417867
0.432007 0.432007 0.432007
0.049046 0.049046 0.049046
0.053299 0.053299 0.053299
0.057834 0.057834 0.057834
0.063909 0.063909 0.063909
0.071417 0.071417 0.071417
0.080144 0.080144 0.080144
0.089873 0.089873 0.089873
0.100409 0.100409 0.100409
0.111588 0.111588 0.111588
0.123281 0.123281 0.123281
0.135383 0.135383 0.135383
0.147813 0.147813 0.147813
0.160508 0.160508 0.160508
0.173420 0.173420 0.173420
0.186508 0.186508 0.186508
0.199743 0.199743 0.199743
0.213101 0.213101 0.213101
0.226561 0.226561 0.226561
0.240107 0.240107 0.240107
0.253728 0.253728 0.253728
0.267412 0.267412 0.267412
0.281150 0.281150 0.281150
0.294936 0.294936 0.294936
0.308763 0.308763 0.308763
0.322626 0.322626 0.322626
0.336521 0.336521 0.336521
0.350444 0.350444 0.350444
0.364391 0.364391 0.364391
0.378361 0.378361 0.378361
0.392351 0.392351 0.392351
0.406359 0.406359 0.406359
0.420382 0.420382 0.420382
0.434420 0.434420 0.434420
0.075548 0.075548 0.075548
0.078643 0.078643 0.078643
0.082025 0.082025 0.082025
0.086673 0.086673 0.086673
0.092589 0.092589 0.092589
0.099670 0.099670 0.099670
0.107788 0.107788 0.107788
0.116805 0.116805 0.116805
0.126585 0.126585 0.126585
0.137010 0.137010 0.137010
0.147973 0.147973 0.147973
0.159387 0.159387 0.159387
0.171176 0.171176 0.171176
0.183281 0.183281 0.183281
0.195650 0.195650 0.195650
0.208243 0.208243 0.208243
0.221025 0.221025 0.221025
0.233968 0.233968 0.233968
0.247050 0.247050 0.247050
0.260250 0.260250 0.260250
0.273554 0.273554 0.273554
0.286947 0.286947 0.286947
0.300417 0.300417 0.300417
0.313956 0.313956 0.313956
0.327556 0.327556 0.327556
0.341208 0.341208 0.341208
0.354908 0.354908 0.354908
0.368649 0.368649 0.368649
0.382429 0.382429 0.382429
0.396242 0.396242 0.396242
0.410085 0.410085 0.410085
0.423956 0.423956 0.423956
0.437851 0.437851 0.437851
0.102050 0.102050 0.102050
0.104434 0.104434 0.104434
0.107072 0.107072 0.107072
0.110751 0.110751 0.110751
0.115512 0.115512 0.115512
0.121322 0.121322 0.121322
0.128113 0.128113 0.128113
0.135800 0.135800 0.135800
0.144289 0.144289 0.144289
0.153486 0.153486 0.153486
0.163299 0.163299 0.163299
0.173649 0.173649 0.173649
0.184461 0.184461 0.184461
0.195671 0.195671 0.195671
0.207225 0.207225 0.207225
0.219076 0.219076 0.219076
0.231182 0.231182 0.231182
0.243510 0.243510 0.243510
0.256030 0.256030 0.256030
0.268719 0.268719 0.268719
0.281554 0.281554 0.281554
0.294517 0.294517 0.294517
0.307594 0.307594 0.307594
0.320771 0.320771 0.320771
0.334037 0.334037 0.334037
0.347382 0.347382 0.347382
0.360796 0.360796 0.360796
0.374274 0.374274 0.374274
0.387808 0.387808 0.387808
0.401393 0.401393 0.401393
0.415023 0.415023 0.415023
0.428695 0.428695 0.428695
0.442405 0.442405 0.442405
0.128551 0.128551 0.128551
0.130464 0.130464 0.130464
0.132594 0.132594 0.132594
0.135590 0.135590 0.135590
0.139510 0.139510 0.139510
0.144351 0.144351 0.144351
0.150086 0.150086 0.150086
0.156668 0.156668 0.156668
0.164035 0.164035 0.164035
0.172122 0.172122 0.172122
0.180859 0.180859 0.180859
0.190178 0.190178 0.190178
0.200015 0.200015 0.200015
0.210310 0.210310 0.210310
0.221010 0.221010 0.221010
0.232067 0.232067 0.232067
0.243438 0.243438 0.243438
0.255086 0.255086 0.255086
0.266977 0.266977 0.266977
0.279085 0.279085 0.279085
0.291383 0.291383 0.291383
0.303850 0.303850 0.303850
0.316467 0.316467 0.316467
0.329218 0.329218 0.329218
0.342089 0.342089 0.342089
0.355067 0.355067 0.355067
0.368141 0.368141 0.368141
0.381300 0.381300 0.381300
0.394538 0.394538 0.394538
0.407846 0.407846 0.407846
0.421218 0.421218 0.421218
0.434648 0.434648 0.434648
0.448130 0.448130 0.448130
0.155053 0.155053 0.155053
0.156633 0.156633 0.156633
0.158401 0.158401 0.158401
0.160899 0.160899 0.160899
0.164191 0.164191 0.164191
0.168290 0.168290 0.168290
0.173190 0.173190 0.173190
0.178869 0.178869 0.178869
0.185292 0.185292 0.185292
0.192414 0.192414 0.192414
0.200186 0.200186 0.200186
0.208555 0.208555 0.208555
0.217469 0.217469 0.217469
0.226877 0.226877 0.226877
0.236730 0.236730 0.236730
0.246985 0.246985 0.246985
0.257599 0.257599 0.257599
0.268536 0.268536 0.268536
0.279760 0.279760 0.279760
0.291244 0.291244 0.291244
0.302958 0.302958 0.302958
0.314880 0.314880 0.314880
0.326988 0.326988 0.326988
0.339264 0.339264 0.339264
0.351690 0.351690 0.351690
0.364252 0.364252 0.364252
0.376936 0.376936 0.376936
0.389732 0.389732 0.389732
0.402629 0.402629 0.402629
0.415616 0.415616 0.415616
0.428688 0.428688 0.428688
0.441835 0.441835 0.441835
0.455051 0.455051 0.455051
0.181555 0.181555 0.181555
0.182890 0.182890 0.182890
0.184388 0.184388 0.184388
0.186513 0.186513 0.186513
0.189325 0.189325 0.189325
0.192846 0.192846 0.192846
0.197083 0.197083 0.197083
0.202029 0.202029 0.202029
0.207665 0.207665 0.207665
0.213964 0.213964 0.213964
0.220891 0.220891 0.220891
0.228410 0.228410 0.228410
0.236479 0.236479 0.236479
0.245058 0.245058 0.245058
0.254104 0.254104 0.254104
0.263580 0.263580 0.263580
0.273446 0.273446 0.273446
0.283669 0.283669 0.283669
0.294215 0.294215 0.294215
0.305055 0.305055 0.305055
0.316161 0.316161 0.316161
0.327508 0.327508 0.327508
0.339074 0.339074 0.339074
0.350839 0.350839 0.350839
0.362784 0.362784 0.362784
0.374892 0.374892 0.374892
0.387150 0.387150 0.387150
0.399544 0.399544 0.399544
0.412061 0.412061 0.412061
0.424692 0.424692 0.424692
0.437426 0.437426 0.437426
0.450255 0.450255 0.450255
0.503033 0.503033 0.503033
0.208056 0.208056 0.208056
0.209205 0.209205 0.209205
0.210496 0.210496 0.210496
0.212332 0.212332 0.212332
0.214770 0.214770 0.214770
0.217835 0.217835 0.217835
0.221539 0.221539 0.221539
0.225886 0.225886 0.225886
0.230868 0.230868 0.230868
0.236470 0.236470 0.236470
0.242669 0.242669 0.242669
0.249439 0.249439 0.249439
0.256751 0.256751 0.256751
0.264571 0.264571 0.264571
0.272868 0.272868 0.272868
0.281608 0.281608 0.281608
0.290758 0.290758 0.290758
0.300286 0.300286 0.300286
0.310163 0.310163 0.310163
0.320360 0.320360 0.320360
0.330851 0.330851 0.330851
0.341612 0.341612 0.341612
0.352619 0.352619 0.352619
0.363852 0.363852 0.363852
0.375292 0.375292 0.375292
0.386922 0.386922 0.386922
0.398725 0.398725 0.398725
0.410688 0.410688 0.410688
0.422797 0.422797 0.422797
0.435041 0.435041 0.435041
0.447408 0.447408 0.447408
0.459889 0.459889 0.459889
0.511932 0.511932 0.511932
0.234558 0.234558 0.234558
0.235561 0.235561 0.235561
0.236689 0.236689 0.236689
0.238297 0.238297 0.238297
0.240436 0.240436 0.240436
0.243134 0.243134 0.243134
0.246406 0.246406 0.246406
0.250260 0.250260 0.250260
0.254696 0.254696 0.254696
0.259707 0.259707 0.259707
0.265280 0.265280 0.265280
0.271398 0.271398 0.271398
0.278038 0.278038 0.278038
0.285177 0.285177 0.285177
0.292790 0.292790 0.292790
0.300847 0.300847 0.300847
0.309324 0.309324 0.309324
0.318191 0.318191 0.318191
0.327423 0.327423 0.327423
0.336994 0.336994 0.336994
0.346879 0.346879 0.346879
0.357056 0.357056 0.357056
0.367501 0.367501 0.367501
0.378195 0.378195 0.378195
0.389119 0.389119 0.389119
0.400256 0.400256 0.400256
0.411588 0.411588 0.411588
0.423101 0.423101 0.423101
0.434781 0.434781 0.434781
0.446615 0.446615 0.446615
0.458593 0.458593 0.458593
0.510237 0.510237 0.510237
0.521937 0.521937 0.521937
0.261060 0.261060 0.261060
0.261946 0.261946 0.261946
0.262944 0.262944 0.262944
0.264367 0.264367 0.264367
0.266265 0.266265 0.266265
0.268662 0.268662 0.268662
0.271578 0.271578 0.271578
0.275022 0.275022 0.275022
0.279001 0.279001 0.279001
0.283511 0.283511 0.283511
0.288546 0.288546 0.288546
0.294096 0.294096 0.294096
0.300145 0.300145 0.300145
0.306676 0.306676 0.306676
0.313670 0.313670 0.313670
0.321105 0.321105 0.321105
0.328958 0.328958 0.328958
0.337206 0.337206 0.337206
0.345827 0.345827 0.345827
0.354799 0.354799 0.354799
0.364098 0.364098 0.364098
0.373704 0.373704 0.373704
0.383596 0.383596 0.383596
0.393755 0.393755 0.393755
0.404162 0.404162 0.404162
0.414800 0.414800 0.414800
0.425653 0.425653 0.425653
0.436706 0.436706 0.436706
0.447945 0.447945 0.447945
0.459356 0.459356 0.459356
0.510452 0.510452 0.510452
0.521664 0.521664 0.521664
0.533008 0.533008 0.533008
0.287561 0.287561 0.287561
0.288352 0.288352 0.288352
0.289243 0.289243 0.289243
0.290516 0.290516 0.290516
0.292214 0.292214 0.292214
0.294363 0.294363 0.294363
0.296982 0.296982 0.296982
0.300083 0.300083 0.300083
0.303674 0.303674 0.303674
0.307757 0.307757 0.307757
0.312329 0.312329 0.312329
0.317385 0.317385 0.317385
0.322915 0.322915 0.322915
0.328907 0.328907 0.328907
0.335345 0.335345 0.335345
0.342214 0.342214 0.342214
0.349496 0.349496 0.349496
0.357171 0.357171 0.357171
0.365221 0.365221 0.365221
0.373626 0.373626 0.373626
0.382367 0.382367 0.382367
0.391425 0.391425 0.391425
0.400780 0.400780 0.400780
0.410415 0.410415 0.410415
0.420313 0.420313 0.420313
0.430457 0.430457 0.430457
0.440831 0.440831 0.440831
0.451421 0.451421 0.451421
0.502117 0.502117 0.502117
0.512620 0.512620 0.512620
0.523291 0.523291 0.523291
0.534121 0.534121 0.534121
0.545098 0.545098 0.545098
0.314063 0.314063 0.314063
0.314775 0.314775 0.314775
0.315577 0.315577 0.315577
0.316724 0.316724 0.316724
0.318256 0.318256 0.318256
0.320197 0.320197 0.320197
0.322566 0.322566 0.322566
0.325377 0.325377 0.325377
0.328637 0.328637 0.328637
0.332353 0.332353 0.332353
0.336525 0.336525 0.336525
0.341151 0.341151 0.341151
0.346224 0.346224 0.346224
0.351737 0.351737 0.351737
0.357679 0.357679 0.357679
0.364038 0.364038 0.364038
0.370799 0.370799 0.370799
0.377948 0.377948 0.377948
0.385468 0.385468 0.385468
0.393344 0.393344 0.393344
0.401558 0.401558 0.401558
0.410094 0.410094 0.410094
0.418935 0.418935 0.418935
0.428064 0.428064 0.428064
0.437467 0.437467 0.437467
0.447127 0.447127 0.447127
0.457030 0.457030 0.457030
0.506850 0.506850 0.506850
0.516746 0.516746 0.516746
0.526836 0.526836 0.526836
0.537107 0.537107 0.537107
0.547549 0.547549 0.547549
0.558152 0.558152 0.558152
0.340565 0.340565 0.340565
0.341210 0.341210 0.341210
0.341938 0.341938 0.341938
0.342978 0.342978 0.342978
0.344370 0.344370 0.344370
0.346135 0.346135 0.346135
0.348291 0.348291 0.348291
0.350853 0.350853 0.350853
0.353831 0.353831 0.353831
0.357230 0.357230 0.357230
0.361054 0.361054 0.361054
0.365303 0.365303 0.365303
0.369975 0.369975 0.369975
0.375063 0.375063 0.375063
0.380561 0.380561 0.380561
0.386460 0.386460 0.386460
0.392749 0.392749 0.392749
0.399417 0.399417 0.399417
0.406449 0.406449 0.406449
0.413833 0.413833 0.413833
0.421554 0.421554 0.421554
0.429599 0.429599 0.429599
0.437951 0.437951 0.437951
0.446598 0.446598 0.446598
0.455524 0.455524 0.455524
0.504510 0.504510 0.504510
0.513543 0.513543 0.513543
0.522803 0.522803 0.522803
0.532279 0.532279 0.532279
0.541960 0.541960 0.541960
0.551832 0.551832 0.551832
0.561887 0.561887 0.561887
0.572114 0.572114 0.572114
0.367066 0.367066 0.367066
0.367655 0.367655 0.367655
0.368320 0.368320 0.368320
0.369270 0.369270 0.369270
0.370541 0.370541 0.370541
0.372155 0.372155 0.372155
0.374129 0.374129 0.374129
0.376477 0.376477 0.376477
0.379210 0.379210 0.379210
0.382334 0.382334 0.382334
0.385854 0.385854 0.385854
0.389773 0.389773 0.389773
0.394089 0.394089 0.394089
0.398800 0.398800 0.398800
0.403902 0.403902 0.403902
0.409387 0.409387 0.409387
0.415249 0.415249 0.415249
0.421477 0.421477 0.421477
0.428061 0.428061 0.428061
0.434991 0.434991 0.434991
0.442254 0.442254 0.442254
0.449838 0.449838 0.449838
0.457730 0.457730 0.457730
0.505661 0.505661 0.505661
0.513764 0.513764 0.513764
0.522126 0.522126 0.522126
0.530734 0.530734 0.530734
0.539576 0.539576 0.539576
0.548642 0.548642 0.548642
0.557920 0.557920 0.557920
0.567400 0.567400 0.567400
0.577071 0.577071 0.577071
0.586923 0.586923 0.586923
0.393568 0.393568 0.393568
0.394108 0.394108 0.394108
0.394718 0.394718 0.394718
0.395591 0.395591 0.395591
0.396759 0.396759 0.396759
0.398242 0.398242 0.398242
0.400059 0.400059 0.400059
0.402221 0.402221 0.402221
0.404740 0.404740 0.404740
0.407623 0.407623 0.407623
0.410877 0.410877 0.410877
0.414504 0.414504 0.414504
0.418506 0.418506 0.418506
0.422881 0.422881 0.422881
0.427628 0.427628 0.427628
0.432741 0.432741 0.432741
0.438215 0.438215 0.438215
0.444043 0.444043 0.444043
0.450217 0.450217 0.450217
0.456728 0.456728 0.456728
0.503411 0.503411 0.503411
0.510255 0.510255 0.510255
0.517392 0.517392 0.517392
0.524811 0.524811 0.524811
0.532501 0.532501 0.532501
0.540452 0.540452 0.540452
0.548653 0.548653 0.548653
0.557093 0.557093 0.557093
0.565762 0.565762 0.565762
0.574649 0.574649 0.574649
0.583744 0.583744 0.583744
0.593038 0.593038 0.593038
0.602521 0.602521 0.602521
0.420070 0.420070 0.420070
0.420568 0.420568 0.420568
0.421130 0.421130 0.421130
0.421936 0.421936 0.421936
0.423014 0.423014 0.423014
0.424384 0.424384 0.424384
0.426062 0.426062 0.426062
0.428062 0.428062 0.428062
0.430394 0.430394 0.430394
0.433066 0.433066 0.433066
0.436084 0.436084 0.436084
0.439453 0.439453 0.439453
0.443175 0.443175 0.443175
0.447251 0.447251 0.447251
0.451679 0.451679 0.451679
0.456456 0.456456 0.456456
0.501511 0.501511 0.501511
0.506738 0.506738 0.506738
0.512284 0.512284 0.512284
0.518144 0.518144 0.518144
0.524309 0.524309 0.524309
0.530771 0.530771 0.530771
0.537522 0.537522 0.537522
0.544553 0.544553 0.544553
0.551854 0.551854 0.551854
0.559416 0.559416 0.559416
0.567229 0.567229 0.567229
0.575284 0.575284 0.575284
0.583570 0.583570 0.583570
0.592079 0.592079 0.592079
0.600801 0.600801 0.600801
0.609727 0.609727 0.609727
0.618848 0.618848 0.618848
0.446572 0.446572 0.446572
0.447033 0.447033 0.447033
0.447554 0.447554 0.447554
0.448300 0.448300 0.448300
0.449300 0.449300 0.449300
0.450570 0.450570 0.450570
0.452128 0.452128 0.452128
0.453984 0.453984 0.453984
0.456151 0.456151 0.456151
0.458636 0.458636 0.458636
0.501383 0.501383 0.501383
0.504386 0.504386 0.504386
0.507707 0.507707 0.507707
0.511349 0.511349 0.511349
0.515310 0.515310 0.515310
0.519590 0.519590 0.519590
0.524187 0.524187 0.524187
0.529096 0.529096 0.529096
0.534314 0.534314 0.534314
0.539835 0.539835 0.539835
0.545654 0.545654 0.545654
0.551762 0.551762 0.551762
0.558154 0.558154 0.558154
0.564822 0.564822 0.564822
0.571757 0.571757 0.571757
0.578951 0.578951 0.578951
0.586396 0.586396 0.586396
0.594083 0.594083 0.594083
0.602003 0.602003 0.602003
0.610149 0.610149 0.610149
0.618511 0.618511 0.618511
0.627080 0.627080 0.627080
0.635850 0.635850 0.635850
0.512505 0.512505 0.512505
0.512915 0.512915 0.512915
0.513379 0.513379 0.513379
0.514043 0.514043 0.514043
0.514932 0.514932 0.514932
0.516064 0.516064 0.516064
0.517451 0.517451 0.517451
0.519106 0.519106 0.519106
0.521038 0.521038 0.521038
0.523256 0.523256 0.523256
0.525766 0.525766 0.525766
0.528573 0.528573 0.528573
0.531681 0.531681 0.531681
0.535091 0.535091 0.535091
0.538805 0.538805 0.538805
0.542823 0.542823 0.542823
0.547144 0.547144 0.547144
0.551764 0.551764 0.551764
0.556681 0.556681 0.556681
0.561892 0.561892 0.561892
0.567390 0.567390 0.567390
0.573171 0.573171 0.573171
0.579229 0.579229 0.579229
0.585557 0.585557 0.585557
0.592148 0.592148 0.592148
0.598996 0.598996 0.598996
0.606093 0.606093 0.606093
0.613431 0.613431 0.613431
0.621003 0.621003 0.621003
0.628801 0.628801 0.628801
0.636816 0.636816 0.636816
0.645042 0.645042 0.645042
0.653471 0.653471 0.653471
0.537854 0.537854 0.537854
0.538237 0.538237 0.538237
0.538670 0.538670 0.538670
0.539290 0.539290 0.539290
0.540120 0.540120 0.540120
0.541177 0.541177 0.541177
0.542474 0.542474 0.542474
0.544021 0.544021 0.544021
0.545828 0.545828 0.545828
0.547904 0.547904 0.547904
0.550255 0.550255 0.550255
0.552886 0.552886 0.552886
0.555801 0.555801 0.555801
0.559003 0.559003 0.559003
0.562494 0.562494 0.562494
0.566274 0.566274 0.566274
0.570343 0.570343 0.570343
0.574700 0.574700 0.574700
0.579342 0.579342 0.579342
0.584266 0.584266 0.584266
0.589470 0.589470 0.589470
0.594947 0.594947 0.594947
0.600695 0.600695 0.600695
0.606706 0.606706 0.606706
0.612976 0.612976 0.612976
0.619499 0.619499 0.619499
0.626267 0.626267 0.626267
0.633275 0.633275 0.633275
0.640515 0.640515 0.640515
0.647981 0.647981 0.647981
0.655666 0.655666 0.655666
0.663562 0.663562 0.663562
0.671662 0.671662 0.671662
0.563204 0.563204 0.563204
0.563562 0.563562 0.563562
0.563968 0.563968 0.563968
0.564548 0.564548 0.564548
0.565326 0.565326 0.565326
0.566316 0.566316 0.566316
0.567532 0.567532 0.567532
0.568982 0.568982 0.568982
0.570678 0.570678 0.570678
0.572626 0.572626 0.572626
0.574834 0.574834 0.574834
0.577306 0.577306 0.577306
0.580048 0.580048 0.580048
0.583062 0.583062 0.583062
0.586350 0.586350 0.586350
0.589914 0.589914 0.589914
0.593754 0.593754 0.593754
0.597869 0.597869 0.597869
0.602259 0.602259 0.602259
0.606921 0.606921 0.606921
0.611852 0.611852 0.611852
0.617048 0.617048 0.617048
0.622507 0.622507 0.622507
0.628224 0.628224 0.628224
0.634194 0.634194 0.634194
0.640411 0.640411 0.640411
0.646870 0.646870 0.646870
0.653566 0.653566 0.653566
0.660492 0.660492 0.660492
0.667642 0.667642 0.667642
0.675010 0.675010 0.675010
0.682590 0.682590 0.682590
0.690375 0.690375 0.690375
0.588553 0.588553 0.588553
0.588890 0.588890 0.588890
0.589270 0.589270 0.589270
0.589816 0.589816 0.589816
0.590547 0.590547 0.590547
0.591477 0.591477 0.591477
0.592619 0.592619 0.592619
0.593983 0.593983 0.593983
0.595578 0.595578 0.595578
0.597412 0.597412 0.597412
0.599490 0.599490 0.599490
0.601820 0.601820 0.601820
0.604404 0.604404 0.604404
0.607247 0.607247 0.607247
0.610351 0.610351 0.610351
0.613718 0.613718 0.613718
0.617349 0.617349 0.617349
0.621243 0.621243 0.621243
0.625401 0.625401 0.625401
0.629820 0.629820 0.629820
0.634500 0.634500 0.634500
0.639437 0.639437 0.639437
0.644628 0.644628 0.644628
0.650070 0.650070 0.650070
0.655758 0.655758 0.655758
0.661689 0.661689 0.661689
0.667858 0.667858 0.667858
0.674259 0.674259 0.674259
0.680888 0.680888 0.680888
0.687739 0.687739 0.687739
0.694806 0.694806 0.694806
0.702084 0.702084 0.702084
0.709567 0.709567 0.709567
0.613903 0.613903 0.613903
0.614220 0.614220 0.614220
0.614578 0.614578 0.614578
0.615092 0.615092 0.615092
0.615780 0.615780 0.615780
0.616657 0.616657 0.616657
0.617733 0.617733 0.617733
0.619019 0.619019 0.619019
0.620523 0.620523 0.620523
0.622252 0.622252 0.622252
0.624214 0.624214 0.624214
0.626413 0.626413 0.626413
0.628855 0.628855 0.628855
0.631542 0.631542 0.631542
0.634478 0.634478 0.634478
0.637665 0.637665 0.637665
0.641104 0.641104 0.641104
0.644796 0.644796 0.644796
0.648740 0.648740 0.648740
0.652937 0.652937 0.652937
0.657384 0.657384 0.657384
0.662080 0.662080 0.662080
0.667022 0.667022 0.667022
0.672207 0.672207 0.672207
0.677634 0.677634 0.677634
0.683296 0.683296 0.683296
0.689192 0.689192 0.689192
0.695316 0.695316 0.695316
0.701664 0.701664 0.701664
0.708231 0.708231 0.708231
0.715013 0.715013 0.715013
0.722003 0.722003 0.722003
0.729198 0.729198 0.729198
0.639252 0.639252 0.639252
0.639551 0.639551 0.639551
0.639890 0.639890 0.639890
0.640374 0.640374 0.640374
0.641025 0.641025 0.641025
0.641853 0.641853 0.641853
0.642869 0.642869 0.642869
0.644084 0.644084 0.644084
0.645505 0.645505 0.645505
0.647141 0.647141 0.647141
0.648996 0.648996 0.648996
0.651077 0.651077 0.651077
0.653388 0.653388 0.653388
0.655934 0.655934 0.655934
0.658716 0.658716 0.658716
0.661738 0.661738 0.661738
0.665001 0.665001 0.665001
0.668507 0.668507 0.668507
0.672254 0.672254 0.672254
0.676245 0.676245 0.676245
0.680477 0.680477 0.680477
0.684949 0.684949 0.684949
0.689660 0.689660 0.689660
0.694607 0.694607 0.694607
0.699788 0.699788 0.699788
0.705199 0.705199 0.705199
0.710839 0.710839 0.710839
0.716701 0.716701 0.716701
0.722784 0.722784 0.722784
0.729083 0.729083 0.729083
0.735593 0.735593 0.735593
0.742310 0.742310 0.742310
0.749229 0.749229 0.749229
0.664601 0.664601 0.664601
0.664885 0.664885 0.664885
0.665205 0.665205 0.665205
0.665663 0.665663 0.665663
0.666279 0.666279 0.666279
0.667062 0.667062 0.667062
0.668025 0.668025 0.668025
0.669175 0.669175 0.669175
0.670521 0.670521 0.670521
0.672071 0.672071 0.672071
0.673829 0.673829 0.673829
0.675802 0.675802 0.675802
0.677994 0.677994 0.677994
0.680409 0.680409 0.680409
0.683051 0.683051 0.683051
0.685922 0.685922 0.685922
0.689023 0.689023 0.689023
0.692357 0.692357 0.692357
0.695923 0.695923 0.695923
0.699723 0.699723 0.699723
0.703755 0.703755 0.703755
0.708020 0.708020 0.708020
0.712516 0.712516 0.712516
0.717240 0.717240 0.717240
0.722192 0.722192 0.722192
0.727368 0.727368 0.727368
0.732767 0.732767 0.732767
0.738384 0.738384 0.738384
0.744217 0.744217 0.744217
0.750261 0.750261 0.750261
0.756514 0.756514 0.756514
0.762971 0.762971 0.762971
0.769629 0.769629 0.769629
0.689951 0.689951 0.689951
0.690219 0.690219 0.690219
0.690523 0.690523 0.690523
0.690958 0.690958 0.690958
0.691541 0.691541 0.691541
0.692285 0.692285 0.692285
0.693198 0.693198 0.693198
0.694289 0.694289 0.694289
0.695566 0.695566 0.695566
0.697037 0.697037 0.697037
0.698707 0.698707 0.698707
0.700581 0.700581 0.700581
0.702664 0.702664 0.702664
0.704960 0.704960 0.704960
0.707472 0.707472 0.707472
0.710203 0.710203 0.710203
0.713155 0.713155 0.713155
0.716330 0.716330 0.716330
0.719729 0.719729 0.719729
0.723352 0.723352 0.723352
0.727200 0.727200 0.727200
0.731272 0.731272 0.731272
0.735567 0.735567 0.735567
0.740084 0.740084 0.740084
0.744821 0.744821 0.744821
0.749777 0.749777 0.749777
0.754949 0.754949 0.754949
0.760335 0.760335 0.760335
0.765932 0.765932 0.765932
0.771737 0.771737 0.771737
0.777746 0.777746 0.777746
0.783957 0.783957 0.783957
0.790365 0.790365 0.790365
0.715300 0.715300 0.715300
0.715555 0.715555 0.715555
0.715844 0.715844 0.715844
0.716257 0.716257 0.716257
0.716811 0.716811 0.716811
0.717518 0.717518 0.717518
0.718385 0.718385 0.718385
0.719423 0.719423 0.719423
0.720637 0.720637 0.720637
0.722036 0.722036 0.722036
0.723624 0.723624 0.723624
0.725407 0.725407 0.725407
0.727390 0.727390 0.727390
0.729576 0.729576 0.729576
0.731969 0.731969 0.731969
0.734571 0.734571 0.734571
0.737386 0.737386 0.737386
0.740414 0.740414 0.740414
0.743658 0.743658 0.743658
0.747117 0.747117 0.747117
0.750793 0.750793 0.750793
0.754685 0.754685 0.754685
0.758793 0.758793 0.758793
0.763116 0.763116 0.763116
0.767653 0.767653 0.767653
