docs/luts/fuji_recipes/AcrosG_KM_Portrait.cube
TITLE "Fujifilm Recipe: KM Portrait (AcrosG)"
# FilmSim=AcrosG HL=-1 SH=2 Col=0 WB=Auto WBR=0 WBB=0
LUT_3D_SIZE 5
DOMAIN_MIN 0.0 0.0 0.0
DOMAIN_MAX 1.0 1.0 1.0
0.000000 0.000000 0.000000
0.088301 0.088301 0.088301
0.202154 0.202154 0.202154
0.316008 0.316008 0.316008
0.429861 0.429861 0.429861
0.208056 0.208056 0.208056
0.230868 0.230868 0.230868
0.290758 0.290758 0.290758
0.375292 0.375292 0.375292
0.512746 0.512746 0.512746
0.420070 0.420070 0.420070
0.430394 0.430394 0.430394
0.501614 0.501614 0.501614
0.555390 0.555390 0.555390
0.626952 0.626952 0.626952
0.675824 0.675824 0.675824
0.682148 0.682148 0.682148
0.701911 0.701911 0.701911
0.737341 0.737341 0.737341
0.788012 0.788012 0.788012
0.892447 0.892447 0.892447
0.896790 0.896790 0.896790
0.910530 0.910530 0.910530
0.935759 0.935759 0.935759
0.970000 0.970000 0.970000
0.037968 0.037968 0.037968
0.106296 0.106296 0.106296
0.210463 0.210463 0.210463
0.321011 0.321011 0.321011
0.433302 0.433302 0.433302
0.216111 0.216111 0.216111
0.238052 0.238052 0.238052
0.296277 0.296277 0.296277
0.379360 0.379360 0.379360
0.515870 0.515870 0.515870
0.423611 0.423611 0.423611
0.433830 0.433830 0.433830
0.504832 0.504832 0.504832
0.558198 0.558198 0.558198
0.629338 0.629338 0.629338
0.677981 0.677981 0.677981
0.684277 0.684277 0.684277
0.703960 0.703960 0.703960
0.739258 0.739258 0.739258
0.789764 0.789764 0.789764
0.893925 0.893925 0.893925
0.898259 0.898259 0.898259
0.911968 0.911968 0.911968
0.937144 0.937144 0.937144
0.970000 0.970000 0.970000
0.110565 0.110565 0.110565
0.150440 0.150440 0.150440
0.234900 0.234900 0.234900
0.336453 0.336453 0.336453
0.444115 0.444115 0.444115
0.239896 0.239896 0.239896
0.259558 0.259558 0.259558
0.313198 0.313198 0.313198
0.392055 0.392055 0.392055
0.525725 0.525725 0.525725
0.434726 0.434726 0.434726
0.444627 0.444627 0.444627
0.514970 0.514970 0.514970
0.567079 0.567079 0.567079
0.636910 0.636910 0.636910
0.684835 0.684835 0.684835
0.691047 0.691047 0.691047
0.710477 0.710477 0.710477
0.745360 0.745360 0.745360
0.795345 0.795345 0.795345
0.898644 0.898644 0.898644
0.902946 0.902946 0.902946
0.916560 0.916560 0.916560
0.941570 0.941570 0.941570
0.970000 0.970000 0.970000
0.183162 0.183162 0.183162
0.209051 0.209051 0.209051
0.274457 0.274457 0.274457
0.363503 0.363503 0.363503
0.503782 0.503782 0.503782
0.278637 0.278637 0.278637
0.295330 0.295330 0.295330
0.342488 0.342488 0.342488
0.414757 0.414757 0.414757
0.543706 0.543706 0.543706
0.454820 0.454820 0.454820
0.504277 0.504277 0.504277
0.533438 0.533438 0.533438
0.583375 0.583375 0.583375
0.650902 0.650902 0.650902
0.697545 0.697545 0.697545
0.703606 0.703606 0.703606
0.722580 0.722580 0.722580
0.756713 0.756713 0.756713
0.805753 0.805753 0.805753
0.907473 0.907473 0.907473
0.911719 0.911719 0.911719
0.925157 0.925157 0.925157
0.949859 0.949859 0.949859
0.970000 0.970000 0.970000
0.255759 0.255759 0.255759
0.274107 0.274107 0.274107
0.324953 0.324953 0.324953
0.401061 0.401061 0.401061
0.532804 0.532804 0.532804
0.328377 0.328377 0.328377
0.342219 0.342219 0.342219
0.382581 0.382581 0.382581
0.447114 0.447114 0.447114
0.570056 0.570056 0.570056
0.524400 0.524400 0.524400
0.533264 0.533264 0.533264
0.560435 0.560435 0.560435
0.607451 0.607451 0.607451
0.671789 0.671789 0.671789
0.716620 0.716620 0.716620
0.722465 0.722465 0.722465
0.740789 0.740789 0.740789
0.773843 0.773843 0.773843
0.821511 0.821511 0.821511
0.920913 0.920913 0.920913
0.925075 0.925075 0.925075
0.938253 0.938253 0.938253
0.962498 0.962498 0.962498
0.970000 0.970000 0.970000
