docs/luts/fuji_recipes/AcrosR_RR_Kodachrome_Monochrome.cube
TITLE "Fujifilm Recipe: RR Kodachrome Monochrome (AcrosR)"
# FilmSim=AcrosR HL=4 SH=-2 Col=0 WB=Auto WBR=0 WBB=9
LUT_3D_SIZE 5
DOMAIN_MIN 0.0 0.0 0.0
DOMAIN_MAX 1.0 1.0 1.0
0.080000 0.080000 0.080000
0.185426 0.185426 0.185426
0.313316 0.313316 0.313316
0.441206 0.441206 0.441206
0.536686 0.536686 0.536686
0.259667 0.259667 0.259667
0.293764 0.293764 0.293764
0.375177 0.375177 0.375177
0.480998 0.480998 0.480998
0.572099 0.572099 0.572099
0.448411 0.448411 0.448411
0.464293 0.464293 0.464293
0.510456 0.510456 0.510456
0.555394 0.555394 0.555394
0.671858 0.671858 0.671858
0.622499 0.622499 0.622499
0.634581 0.634581 0.634581
0.671664 0.671664 0.671664
0.735969 0.735969 0.735969
0.824187 0.824187 0.824187
0.860480 0.860480 0.860480
0.868797 0.868797 0.868797
0.894846 0.894846 0.894846
0.941742 0.941742 0.941742
1.000000 1.000000 1.000000
0.134303 0.134303 0.134303
0.208140 0.208140 0.208140
0.323884 0.323884 0.323884
0.447580 0.447580 0.447580
0.542218 0.542218 0.542218
0.273611 0.273611 0.273611
0.305388 0.305388 0.305388
0.383273 0.383273 0.383273
0.486612 0.486612 0.486612
0.577255 0.577255 0.577255
0.454635 0.454635 0.454635
0.470206 0.470206 0.470206
0.515601 0.515601 0.515601
0.560721 0.560721 0.560721
0.676159 0.676159 0.676159
0.627190 0.627190 0.627190
0.639171 0.639171 0.639171
0.675967 0.675967 0.675967
0.739840 0.739840 0.739840
0.827575 0.827575 0.827575
0.863699 0.863699 0.863699
0.871979 0.871979 0.871979
0.897918 0.897918 0.897918
0.944630 0.944630 0.944630
1.000000 1.000000 1.000000
0.223234 0.223234 0.223234
0.264801 0.264801 0.264801
0.356056 0.356056 0.356056
0.468089 0.468089 0.468089
0.560387 0.560387 0.560387
0.313910 0.313910 0.313910
0.340223 0.340223 0.340223
0.408779 0.408779 0.408779
0.504827 0.504827 0.504827
0.594235 0.594235 0.594235
0.474695 0.474695 0.474695
0.489331 0.489331 0.489331
0.532375 0.532375 0.532375
0.578246 0.578246 0.578246
0.690403 0.690403 0.690403
0.642688 0.642688 0.642688
0.654345 0.654345 0.654345
0.690216 0.690216 0.690216
0.752694 0.752694 0.752694
0.838857 0.838857 0.838857
0.874425 0.874425 0.874425
0.882585 0.882585 0.882585
0.908160 0.908160 0.908160
0.954268 0.954268 0.954268
1.000000 1.000000 1.000000
0.312165 0.312165 0.312165
0.338682 0.338682 0.338682
0.407615 0.407615 0.407615
0.503979 0.503979 0.503979
0.593436 0.593436 0.593436
0.374304 0.374304 0.374304
0.394854 0.394854 0.394854
0.451838 0.451838 0.451838
0.537196 0.537196 0.537196
0.625285 0.625285 0.625285
0.509907 0.509907 0.509907
0.523113 0.523113 0.523113
0.528317 0.528317 0.528317
0.610214 0.610214 0.610214
0.716750 0.716750 0.716750
0.671207 0.671207 0.671207
0.682307 0.682307 0.682307
0.716571 0.716571 0.716571
0.776595 0.776595 0.776595
0.859952 0.859952 0.859952
0.894520 0.894520 0.894520
0.902462 0.902462 0.902462
0.927378 0.927378 0.927378
0.972389 0.972389 0.972389
1.000000 1.000000 1.000000
0.335759 0.335759 0.335759
0.359712 0.359712 0.359712
0.423759 0.423759 0.423759
0.515873 0.515873 0.515873
0.604709 0.604709 0.604709
0.392545 0.392545 0.392545
0.411752 0.411752 0.411752
0.465759 0.465759 0.465759
0.510140 0.510140 0.510140
0.635921 0.635921 0.635921
0.521601 0.521601 0.521601
0.534384 0.534384 0.534384
0.541115 0.541115 0.541115
0.621144 0.621144 0.621144
0.725858 0.725858 0.725858
0.681026 0.681026 0.681026
0.691944 0.691944 0.691944
0.725681 0.725681 0.725681
0.784894 0.784894 0.784894
0.867311 0.867311 0.867311
0.901542 0.901542 0.901542
0.909409 0.909409 0.909409
0.934102 0.934102 0.934102
0.978739 0.978739 0.978739
1.000000 1.000000 1.000000
