docs/luts/fuji_recipes/Acros_EM_Acros.cube
TITLE "Fujifilm Recipe: EM Acros (Acros)"
# FilmSim=Acros HL=2 SH=2 Col=0 WB=Auto WBR=0 WBB=0
LUT_3D_SIZE 9
DOMAIN_MIN 0.0 0.0 0.0
DOMAIN_MAX 1.0 1.0 1.0
0.000000 0.000000 0.000000
0.036263 0.036263 0.036263
0.096599 0.096599 0.096599
0.156927 0.156927 0.156927
0.217254 0.217254 0.217254
0.277582 0.277582 0.277582
0.337910 0.337910 0.337910
0.398237 0.398237 0.398237
0.458565 0.458565 0.458565
0.093414 0.093414 0.093414
0.109909 0.109909 0.109909
0.143778 0.143778 0.143778
0.189300 0.189300 0.189300
0.240942 0.240942 0.240942
0.295809 0.295809 0.295809
0.352481 0.352481 0.352481
0.410231 0.410231 0.410231
0.510173 0.510173 0.510173
0.193424 0.193424 0.193424
0.201749 0.201749 0.201749
0.221374 0.221374 0.221374
0.252148 0.252148 0.252148
0.291556 0.291556 0.291556
0.337022 0.337022 0.337022
0.386592 0.386592 0.386592
0.438943 0.438943 0.438943
0.538985 0.538985 0.538985
0.293434 0.293434 0.293434
0.298649 0.298649 0.298649
0.311455 0.311455 0.311455
0.332838 0.332838 0.332838
0.362183 0.362183 0.362183
0.398225 0.398225 0.398225
0.439573 0.439573 0.439573
0.529340 0.529340 0.529340
0.586279 0.586279 0.586279
0.393444 0.393444 0.393444
0.397110 0.397110 0.397110
0.406257 0.406257 0.406257
0.421961 0.421961 0.421961
0.444303 0.444303 0.444303
0.515060 0.515060 0.515060
0.554927 0.554927 0.554927
0.600180 0.600180 0.600180
0.649866 0.649866 0.649866
0.539271 0.539271 0.539271
0.542517 0.542517 0.542517
0.550676 0.550676 0.550676
0.564882 0.564882 0.564882
0.585491 0.585491 0.585491
0.612423 0.612423 0.612423
0.645288 0.645288 0.645288
0.683507 0.683507 0.683507
0.726422 0.726422 0.726422
0.656674 0.656674 0.656674
0.659240 0.659240 0.659240
0.665716 0.665716 0.665716
0.677080 0.677080 0.677080
0.693753 0.693753 0.693753
0.715858 0.715858 0.715858
0.743273 0.743273 0.743273
0.775703 0.775703 0.775703
0.812741 0.812741 0.812741
0.774077 0.774077 0.774077
0.776175 0.776175 0.776175
0.781483 0.781483 0.781483
0.790839 0.790839 0.790839
0.804665 0.804665 0.804665
0.823163 0.823163 0.823163
0.846356 0.846356 0.846356
0.874123 0.874123 0.874123
0.906232 0.906232 0.906232
0.891480 0.891480 0.891480
0.893239 0.893239 0.893239
0.897697 0.897697 0.897697
0.905578 0.905578 0.905578
0.917277 0.917277 0.917277
0.933026 0.933026 0.933026
0.952920 0.952920 0.952920
0.976939 0.976939 0.976939
1.000000 1.000000 1.000000
0.012315 0.012315 0.012315
0.047526 0.047526 0.047526
0.102318 0.102318 0.102318
0.160515 0.160515 0.160515
0.219779 0.219779 0.219779
0.279486 0.279486 0.279486
0.339415 0.339415 0.339415
0.399468 0.399468 0.399468
0.459597 0.459597 0.459597
0.099302 0.099302 0.099302
0.115000 0.115000 0.115000
0.147703 0.147703 0.147703
0.192239 0.192239 0.192239
0.243187 0.243187 0.243187
0.297576 0.297576 0.297576
0.353911 0.353911 0.353911
0.411418 0.411418 0.411418
0.511352 0.511352 0.511352
0.196295 0.196295 0.196295
0.204491 0.204491 0.204491
0.223845 0.223845 0.223845
0.254278 0.254278 0.254278
0.293353 0.293353 0.293353
0.338532 0.338532 0.338532
0.387869 0.387869 0.387869
0.440034 0.440034 0.440034
0.540091 0.540091 0.540091
0.295217 0.295217 0.295217
0.300395 0.300395 0.300395
0.313116 0.313116 0.313116
0.334372 0.334372 0.334372
0.363567 0.363567 0.363567
0.399456 0.399456 0.399456
0.440662 0.440662 0.440662
0.530469 0.530469 0.530469
0.587280 0.587280 0.587280
0.394693 0.394693 0.394693
0.398345 0.398345 0.398345
0.407458 0.407458 0.407458
0.423107 0.423107 0.423107
0.445377 0.445377 0.445377
0.516226 0.516226 0.516226
0.555995 0.555995 0.555995
0.601153 0.601153 0.601153
0.650750 0.650750 0.650750
0.540376 0.540376 0.540376
0.543614 0.543614 0.543614
0.551754 0.551754 0.551754
0.565928 0.565928 0.565928
0.586493 0.586493 0.586493
0.613372 0.613372 0.613372
0.646179 0.646179 0.646179
0.684338 0.684338 0.684338
0.727194 0.727194 0.727194
0.657547 0.657547 0.657547
0.660108 0.660108 0.660108
0.666575 0.666575 0.666575
0.677920 0.677920 0.677920
0.694570 0.694570 0.694570
0.716643 0.716643 0.716643
0.744023 0.744023 0.744023
0.776414 0.776414 0.776414
0.813412 0.813412 0.813412
0.774790 0.774790 0.774790
0.776886 0.776886 0.776886
0.782188 0.782188 0.782188
0.791534 0.791534 0.791534
0.805345 0.805345 0.805345
0.823824 0.823824 0.823824
0.846994 0.846994 0.846994
0.874735 0.874735 0.874735
0.906818 0.906818 0.906818
0.892078 0.892078 0.892078
0.893835 0.893835 0.893835
0.898289 0.898289 0.898289
0.906164 0.906164 0.906164
0.917854 0.917854 0.917854
0.933590 0.933590 0.933590
0.953469 0.953469 0.953469
0.977472 0.977472 0.977472
1.000000 1.000000 1.000000
0.043259 0.043259 0.043259
0.070150 0.070150 0.070150
0.115670 0.115670 0.115670
0.169285 0.169285 0.169285
0.226060 0.226060 0.226060
0.284266 0.284266 0.284266
0.343212 0.343212 0.343212
0.402581 0.402581 0.402581
0.502597 0.502597 0.502597
0.112994 0.112994 0.112994
0.127060 0.127060 0.127060
0.157233 0.157233 0.157233
0.199506 0.199506 0.199506
0.248795 0.248795 0.248795
0.302016 0.302016 0.302016
0.357520 0.357520 0.357520
0.414419 0.414419 0.414419
0.514339 0.514339 0.514339
0.203401 0.203401 0.203401
0.211289 0.211289 0.211289
0.230000 0.230000 0.230000
0.259608 0.259608 0.259608
0.297869 0.297869 0.297869
0.342341 0.342341 0.342341
0.391097 0.391097 0.391097
0.442795 0.442795 0.442795
0.542893 0.542893 0.542893
0.299700 0.299700 0.299700
0.304787 0.304787 0.304787
0.317297 0.317297 0.317297
0.338237 0.338237 0.338237
0.367060 0.367060 0.367060
0.402569 0.402569 0.402569
0.443418 0.443418 0.443418
0.533331 0.533331 0.533331
0.589817 0.589817 0.589817
0.397852 0.397852 0.397852
0.401469 0.401469 0.401469
0.410495 0.410495 0.410495
0.426006 0.426006 0.426006
0.448097 0.448097 0.448097
0.519180 0.519180 0.519180
0.558702 0.558702 0.558702
0.603620 0.603620 0.603620
0.652993 0.652993 0.652993
0.543176 0.543176 0.543176
0.546395 0.546395 0.546395
0.554486 0.554486 0.554486
0.568579 0.568579 0.568579
0.589034 0.589034 0.589034
0.615781 0.615781 0.615781
0.648442 0.648442 0.648442
0.686449 0.686449 0.686449
0.729153 0.729153 0.729153
0.659762 0.659762 0.659762
0.662313 0.662313 0.662313
0.668753 0.668753 0.668753
0.680055 0.680055 0.680055
0.696642 0.696642 0.696642
0.718637 0.718637 0.718637
0.745927 0.745927 0.745927
0.778221 0.778221 0.778221
0.815117 0.815117 0.815117
0.776602 0.776602 0.776602
0.778691 0.778691 0.778691
0.783978 0.783978 0.783978
0.793298 0.793298 0.793298
0.807072 0.807072 0.807072
0.825503 0.825503 0.825503
0.848616 0.848616 0.848616
0.876293 0.876293 0.876293
0.908306 0.908306 0.908306
0.893597 0.893597 0.893597
0.895351 0.895351 0.895351
0.899795 0.899795 0.899795
0.907654 0.907654 0.907654
0.919320 0.919320 0.919320
0.935025 0.935025 0.935025
0.954866 0.954866 0.954866
0.978826 0.978826 0.978826
1.000000 1.000000 1.000000
0.081726 0.081726 0.081726
0.100008 0.100008 0.100008
0.136330 0.136330 0.136330
0.183813 0.183813 0.183813
0.236791 0.236791 0.236791
0.292560 0.292560 0.292560
0.349857 0.349857 0.349857
0.408059 0.408059 0.408059
0.508017 0.508017 0.508017
0.134066 0.134066 0.134066
0.146106 0.146106 0.146106
0.172857 0.172857 0.172857
0.211779 0.211779 0.211779
0.258446 0.258446 0.258446
0.309747 0.309747 0.309747
0.363848 0.363848 0.363848
0.419706 0.419706 0.419706
0.519616 0.519616 0.519616
0.215425 0.215425 0.215425
0.222835 0.222835 0.222835
0.240530 0.240530 0.240530
0.268808 0.268808 0.268808
0.305725 0.305725 0.305725
0.349007 0.349007 0.349007
0.396773 0.396773 0.396773
0.447666 0.447666 0.447666
0.547848 0.547848 0.547848
0.307500 0.307500 0.307500
0.312435 0.312435 0.312435
0.324592 0.324592 0.324592
0.345000 0.345000 0.345000
0.373190 0.373190 0.373190
0.408047 0.408047 0.408047
0.448280 0.448280 0.448280
0.538390 0.538390 0.538390
0.594310 0.594310 0.594310
0.403410 0.403410 0.403410
0.406965 0.406965 0.406965
0.415844 0.415844 0.415844
0.431116 0.431116 0.431116
0.452896 0.452896 0.452896
0.524400 0.524400 0.524400
0.563493 0.563493 0.563493
0.607991 0.607991 0.607991
0.656970 0.656970 0.656970
0.548128 0.548128 0.548128
0.551312 0.551312 0.551312
0.559320 0.559320 0.559320
0.573272 0.573272 0.573272
0.593534 0.593534 0.593534
0.620049 0.620049 0.620049
0.652453 0.652453 0.652453
0.690192 0.690192 0.690192
0.732630 0.732630 0.732630
0.663690 0.663690 0.663690
0.666223 0.666223 0.666223
0.672617 0.672617 0.672617
0.683841 0.683841 0.683841
0.700319 0.700319 0.700319
0.722177 0.722177 0.722177
0.749309 0.749309 0.749309
0.781431 0.781431 0.781431
0.818148 0.818148 0.818148
0.779820 0.779820 0.779820
0.781898 0.781898 0.781898
0.787158 0.787158 0.787158
0.796432 0.796432 0.796432
0.810140 0.810140 0.810140
0.828486 0.828486 0.828486
0.851498 0.851498 0.851498
0.879062 0.879062 0.879062
0.910953 0.910953 0.910953
0.896299 0.896299 0.896299
0.898046 0.898046 0.898046
0.902474 0.902474 0.902474
0.910303 0.910303 0.910303
0.921927 0.921927 0.921927
0.937577 0.937577 0.937577
0.957351 0.957351 0.957351
0.981234 0.981234 0.981234
1.000000 1.000000 1.000000
0.120193 0.120193 0.120193
0.133508 0.133508 0.133508
0.162450 0.162450 0.162450
0.203557 0.203557 0.203557
0.251956 0.251956 0.251956
0.304536 0.304536 0.304536
0.359577 0.359577 0.359577
0.416134 0.416134 0.416134
0.516049 0.516049 0.516049
0.160569 0.160569 0.160569
0.170667 0.170667 0.170667
0.193833 0.193833 0.193833
0.228861 0.228861 0.228861
0.272222 0.272222 0.272222
0.320961 0.320961 0.320961
0.373124 0.373124 0.373124
0.427508 0.427508 0.427508
0.527441 0.527441 0.527441
0.232204 0.232204 0.232204
0.239023 0.239023 0.239023
0.255439 0.255439 0.255439
0.281992 0.281992 0.281992
0.317110 0.317110 0.317110
0.358754 0.358754 0.358754
0.405128 0.405128 0.405128
0.454872 0.454872 0.454872
0.555205 0.555205 0.555205
0.318809 0.318809 0.318809
0.323537 0.323537 0.323537
0.335210 0.335210 0.335210
0.354882 0.354882 0.354882
0.382187 0.382187 0.382187
0.416122 0.416122 0.416122
0.455475 0.455475 0.455475
0.545898 0.545898 0.545898
0.600995 0.600995 0.600995
0.411599 0.411599 0.411599
0.415067 0.415067 0.415067
0.423735 0.423735 0.423735
0.438665 0.438665 0.438665
0.460000 0.460000 0.460000
0.532142 0.532142 0.532142
0.570612 0.570612 0.570612
0.614498 0.614498 0.614498
0.662900 0.662900 0.662900
0.555481 0.555481 0.555481
0.558616 0.558616 0.558616
0.566501 0.566501 0.566501
0.580248 0.580248 0.580248
0.600230 0.600230 0.600230
0.626405 0.626405 0.626405
0.658432 0.658432 0.658432
0.695779 0.695779 0.695779
0.737825 0.737825 0.737825
0.669548 0.669548 0.669548
0.672054 0.672054 0.672054
0.678382 0.678382 0.678382
0.689491 0.689491 0.689491
0.705808 0.705808 0.705808
0.727465 0.727465 0.727465
0.754363 0.754363 0.754363
0.786230 0.786230 0.786230
0.822682 0.822682 0.822682
0.784631 0.784631 0.784631
0.786694 0.786694 0.786694
0.791915 0.791915 0.791915
0.801120 0.801120 0.801120
0.814730 0.814730 0.814730
0.832950 0.832950 0.832950
0.855813 0.855813 0.855813
0.883208 0.883208 0.883208
0.914918 0.914918 0.914918
0.900345 0.900345 0.900345
0.902083 0.902083 0.902083
0.906486 0.906486 0.906486
0.914271 0.914271 0.914271
0.925832 0.925832 0.925832
0.941401 0.941401 0.941401
0.961076 0.961076 0.961076
0.984844 0.984844 0.984844
1.000000 1.000000 1.000000
0.158660 0.158660 0.158660
0.168880 0.168880 0.168880
0.192280 0.192280 0.192280
0.227576 0.227576 0.227576
0.271172 0.271172 0.271172
0.320099 0.320099 0.320099
0.372407 0.372407 0.372407
0.426903 0.426903 0.426903
0.526833 0.526833 0.526833
0.190717 0.190717 0.190717
0.199168 0.199168 0.199168
0.219053 0.219053 0.219053
0.250153 0.250153 0.250153
0.289877 0.289877 0.289877
0.335613 0.335613 0.335613
0.385403 0.385403 0.385403
0.437929 0.437929 0.437929
0.537957 0.537957 0.537957
0.253173 0.253173 0.253173
0.259358 0.259358 0.259358
0.274371 0.274371 0.274371
0.298968 0.298968 0.298968
0.331968 0.331968 0.331968
0.371619 0.371619 0.371619
0.416252 0.416252 0.416252
0.505318 0.505318 0.505318
0.565114 0.565114 0.565114
0.333576 0.333576 0.333576
0.338055 0.338055 0.338055
0.349143 0.349143 0.349143
0.367913 0.367913 0.367913
0.394120 0.394120 0.394120
0.426892 0.426892 0.426892
0.506007 0.506007 0.506007
0.556004 0.556004 0.556004
0.610023 0.610023 0.610023
0.422512 0.422512 0.422512
0.425869 0.425869 0.425869
0.434269 0.434269 0.434269
0.448763 0.448763 0.448763
0.511182 0.511182 0.511182
0.542552 0.542552 0.542552
0.580208 0.580208 0.580208
0.623291 0.623291 0.623291
0.670932 0.670932 0.670932
0.565384 0.565384 0.565384
0.568454 0.568454 0.568454
0.576179 0.576179 0.576179
0.589658 0.589658 0.589658
0.609271 0.609271 0.609271
0.635000 0.635000 0.635000
0.666529 0.666529 0.666529
0.703355 0.703355 0.703355
0.744879 0.744879 0.744879
0.677483 0.677483 0.677483
0.679954 0.679954 0.679954
0.686193 0.686193 0.686193
0.697151 0.697151 0.697151
0.713253 0.713253 0.713253
0.734641 0.734641 0.734641
0.761228 0.761228 0.761228
0.792755 0.792755 0.792755
0.828852 0.828852 0.828852
0.791173 0.791173 0.791173
0.793214 0.793214 0.793214
0.798382 0.798382 0.798382
0.807496 0.807496 0.807496
0.820974 0.820974 0.820974
0.839025 0.839025 0.839025
0.861687 0.861687 0.861687
0.888856 0.888856 0.888856
0.920322 0.920322 0.920322
0.905859 0.905859 0.905859
0.907583 0.907583 0.907583
0.911953 0.911953 0.911953
0.919680 0.919680 0.919680
0.931156 0.931156 0.931156
0.946614 0.946614 0.946614
0.966155 0.966155 0.966155
0.989769 0.989769 0.989769
1.000000 1.000000 1.000000
0.197127 0.197127 0.197127
0.205286 0.205286 0.205286
0.224563 0.224563 0.224563
0.254898 0.254898 0.254898
0.293876 0.293876 0.293876
0.338973 0.338973 0.338973
0.388243 0.388243 0.388243
0.440353 0.440353 0.440353
0.540414 0.540414 0.540414
0.223252 0.223252 0.223252
0.230376 0.230376 0.230376
0.247456 0.247456 0.247456
0.274911 0.274911 0.274911
0.310977 0.310977 0.310977
0.353491 0.353491 0.353491
0.400608 0.400608 0.400608
0.450969 0.450969 0.450969
0.551216 0.551216 0.551216
0.277618 0.277618 0.277618
0.283181 0.283181 0.283181
0.296787 0.296787 0.296787
0.319354 0.319354 0.319354
0.350072 0.350072 0.350072
0.387494 0.387494 0.387494
0.430119 0.430119 0.430119
0.519562 0.519562 0.519562
0.577637 0.577637 0.577637
0.351579 0.351579 0.351579
0.355784 0.355784 0.355784
0.366221 0.366221 0.366221
0.383977 0.383977 0.383977
0.408926 0.408926 0.408926
0.440342 0.440342 0.440342
0.520229 0.520229 0.520229
0.568766 0.568766 0.568766
0.621472 0.621472 0.621472
0.436131 0.436131 0.436131
0.439359 0.439359 0.439359
0.447443 0.447443 0.447443
0.501668 0.501668 0.501668
0.525240 0.525240 0.525240
0.555681 0.555681 0.555681
0.592352 0.592352 0.592352
0.634452 0.634452 0.634452
0.681154 0.681154 0.681154
0.577901 0.577901 0.577901
0.580891 0.580891 0.580891
0.588422 0.588422 0.588422
0.601574 0.601574 0.601574
0.620737 0.620737 0.620737
0.645917 0.645917 0.645917
0.676833 0.676833 0.676833
0.713012 0.713012 0.713012
0.753887 0.753887 0.753887
0.687587 0.687587 0.687587
0.690014 0.690014 0.690014
0.696143 0.696143 0.696143
0.706912 0.706912 0.706912
0.722749 0.722749 0.722749
0.743802 0.743802 0.743802
0.770000 0.770000 0.770000
0.801101 0.801101 0.801101
0.836752 0.836752 0.836752
0.799539 0.799539 0.799539
0.801554 0.801554 0.801554
0.806656 0.806656 0.806656
0.815655 0.815655 0.815655
0.828968 0.828968 0.828968
0.846807 0.846807 0.846807
0.869215 0.869215 0.869215
0.896098 0.896098 0.896098
0.927256 0.927256 0.927256
0.912932 0.912932 0.912932
0.914639 0.914639 0.914639
0.918966 0.918966 0.918966
0.926620 0.926620 0.926620
0.937989 0.937989 0.937989
0.953308 0.953308 0.953308
0.972678 0.972678 0.972678
0.996097 0.996097 0.996097
1.000000 1.000000 1.000000
0.235594 0.235594 0.235594
0.242304 0.242304 0.242304
0.258479 0.258479 0.258479
0.284701 0.284701 0.284701
0.319467 0.319467 0.319467
0.360785 0.360785 0.360785
0.406876 0.406876 0.406876
0.456386 0.456386 0.456386
0.556754 0.556754 0.556754
0.257366 0.257366 0.257366
0.263436 0.263436 0.263436
0.278191 0.278191 0.278191
0.302422 0.302422 0.302422
0.335016 0.335016 0.335016
0.374278 0.374278 0.374278
0.418564 0.418564 0.418564
0.507684 0.507684 0.507684
0.567188 0.567188 0.567188
0.304840 0.304840 0.304840
0.309827 0.309827 0.309827
0.322102 0.322102 0.322102
0.342689 0.342689 0.342689
0.371092 0.371092 0.371092
0.406171 0.406171 0.406171
0.446613 0.446613 0.446613
0.536654 0.536654 0.536654
0.592767 0.592767 0.592767
0.372496 0.372496 0.372496
0.376416 0.376416 0.376416
0.386173 0.386173 0.386173
0.402854 0.402854 0.402854
0.426448 0.426448 0.426448
0.456375 0.456375 0.456375
0.537295 0.537295 0.537295
0.584170 0.584170 0.584170
0.635359 0.635359 0.635359
0.452352 0.452352 0.452352
0.455435 0.455435 0.455435
0.503720 0.503720 0.503720
0.519452 0.519452 0.519452
0.542121 0.542121 0.542121
0.571505 0.571505 0.571505
0.607044 0.607044 0.607044
0.648004 0.648004 0.648004
0.693607 0.693607 0.693607
0.593022 0.593022 0.593022
0.595923 0.595923 0.595923
0.603229 0.603229 0.603229
0.616003 0.616003 0.616003
0.634643 0.634643 0.634643
0.659185 0.659185 0.659185
0.689381 0.689381 0.689381
0.724798 0.724798 0.724798
0.764903 0.764903 0.764903
0.699900 0.699900 0.699900
0.702274 0.702274 0.702274
0.708274 0.708274 0.708274
0.718821 0.718821 0.718821
0.734343 0.734343 0.734343
0.755000 0.755000 0.755000
0.780735 0.780735 0.780735
0.811328 0.811328 0.811328
0.846444 0.846444 0.846444
0.809790 0.809790 0.809790
0.811774 0.811774 0.811774
0.816796 0.816796 0.816796
0.825657 0.825657 0.825657
0.838772 0.838772 0.838772
0.856357 0.856357 0.856357
0.878461 0.878461 0.878461
0.905000 0.905000 0.905000
0.935786 0.935786 0.935786
0.921630 0.921630 0.921630
0.923316 0.923316 0.923316
0.927593 0.927593 0.927593
0.935157 0.935157 0.935157
0.946397 0.946397 0.946397
0.961546 0.961546 0.961546
0.980711 0.980711 0.980711
1.000000 1.000000 1.000000
1.000000 1.000000 1.000000
0.274061 0.274061 0.274061
0.279709 0.279709 0.279709
0.293505 0.293505 0.293505
0.316353 0.316353 0.316353
0.347390 0.347390 0.347390
0.385130 0.385130 0.385130
0.428044 0.428044 0.428044
0.517423 0.517423 0.517423
0.575751 0.575751 0.575751
0.292548 0.292548 0.292548
0.297782 0.297782 0.297782
0.310630 0.310630 0.310630
0.332078 0.332078 0.332078
0.361497 0.361497 0.361497
0.397615 0.397615 0.397615
0.439034 0.439034 0.439034
0.528781 0.528781 0.528781
0.585784 0.585784 0.585784
0.334240 0.334240 0.334240
0.338709 0.338709 0.338709
0.349771 0.349771 0.349771
0.368503 0.368503 0.368503
0.394661 0.394661 0.394661
0.427382 0.427382 0.427382
0.506524 0.506524 0.506524
0.556467 0.556467 0.556467
0.610437 0.610437 0.610437
0.395963 0.395963 0.395963
0.399600 0.399600 0.399600
0.408678 0.408678 0.408678
0.424271 0.424271 0.424271
0.446469 0.446469 0.446469
0.517412 0.517412 0.517412
0.557081 0.557081 0.557081
0.602143 0.602143 0.602143
0.651650 0.651650 0.651650
0.512921 0.512921 0.512921
0.516362 0.516362 0.516362
0.525003 0.525003 0.525003
0.540010 0.540010 0.540010
0.561706 0.561706 0.561706
0.589939 0.589939 0.589939
0.624231 0.624231 0.624231
0.663920 0.663920 0.663920
0.708285 0.708285 0.708285
0.610683 0.610683 0.610683
0.613484 0.613484 0.613484
0.620543 0.620543 0.620543
0.632897 0.632897 0.632897
0.650956 0.650956 0.650956
0.674781 0.674781 0.674781
0.704166 0.704166 0.704166
0.738720 0.738720 0.738720
0.777945 0.777945 0.777945
0.714420 0.714420 0.714420
0.716735 0.716735 0.716735
0.722587 0.722587 0.722587
0.732882 0.732882 0.732882
0.748046 0.748046 0.748046
0.768250 0.768250 0.768250
0.793455 0.793455 0.793455
0.823464 0.823464 0.823464
0.857963 0.857963 0.857963
0.821954 0.821954 0.821954
0.823901 0.823901 0.823901
0.828832 0.828832 0.828832
0.837535 0.837535 0.837535
0.850421 0.850421 0.850421
0.867711 0.867711 0.867711
0.889462 0.889462 0.889462
0.915602 0.915602 0.915602
0.945954 0.945954 0.945954
0.931993 0.931993 0.931993
0.933656 0.933656 0.933656
0.937873 0.937873 0.937873
0.945334 0.945334 0.945334
0.956423 0.956423 0.956423
0.971374 0.971374 0.971374
0.990298 0.990298 0.990298
1.000000 1.000000 1.000000
1.000000 1.000000 1.000000
