docs/luts/fuji_recipes/Astia_GB_Portrait.cube
TITLE "Fujifilm Recipe: GB Portrait (Astia)"
# FilmSim=Astia HL=2 SH=2 Col=0 WB=Auto WBR=0 WBB=0
LUT_3D_SIZE 5
DOMAIN_MIN 0.0 0.0 0.0
DOMAIN_MAX 1.0 1.0 1.0
0.022080 0.022080 0.022080
0.233484 0.036294 0.036294
0.434351 0.049799 0.049799
0.717834 0.064000 0.064000
0.961449 0.077953 0.077953
0.036222 0.232418 0.036222
0.233484 0.232489 0.036294
0.434351 0.245995 0.049799
0.717834 0.260196 0.064000
0.961449 0.274149 0.077953
0.050348 0.442507 0.050348
0.247538 0.442507 0.050348
0.434899 0.442507 0.050348
0.717834 0.456160 0.064000
0.961449 0.511872 0.077953
0.063811 0.714531 0.063811
0.261001 0.714531 0.063811
0.448363 0.714531 0.063811
0.717834 0.714753 0.064000
0.961449 0.731133 0.077953
0.077953 0.961449 0.077953
0.275143 0.961449 0.077953
0.502941 0.961449 0.077953
0.734214 0.961449 0.077953
0.961449 0.961449 0.077953
0.036222 0.036222 0.232418
0.233484 0.036294 0.232489
0.434351 0.049799 0.245995
0.717834 0.064000 0.260196
0.961449 0.077953 0.274149
0.036222 0.232418 0.232418
0.247626 0.246632 0.246632
0.448493 0.260137 0.260137
0.734436 0.274338 0.274338
0.978051 0.288291 0.288291
0.050348 0.442507 0.246543
0.261680 0.456649 0.260686
0.449042 0.456649 0.260686
0.734436 0.512094 0.274338
0.978051 0.528473 0.288291
0.063811 0.714531 0.260007
0.275143 0.731133 0.274149
0.502941 0.731133 0.274149
0.734436 0.731355 0.274338
0.978051 0.747735 0.288291
0.077953 0.961449 0.274149
0.289286 0.978051 0.288291
0.519542 0.978051 0.288291
0.750816 0.978051 0.288291
0.978051 0.978051 0.288291
0.050348 0.050348 0.442507
0.247538 0.050348 0.442507
0.434899 0.050348 0.442507
0.717834 0.064000 0.456160
0.961449 0.077953 0.511872
0.050348 0.246543 0.442507
0.261680 0.260686 0.456649
0.449042 0.260686 0.456649
0.734436 0.274338 0.512094
0.978051 0.288291 0.528473
0.050348 0.442507 0.442507
0.261752 0.456721 0.456721
0.503074 0.512005 0.512005
0.751018 0.528676 0.528676
0.994633 0.545056 0.545056
0.063811 0.714531 0.455971
0.275215 0.731217 0.511956
0.518879 0.747071 0.527810
0.751018 0.747937 0.528676
0.994633 0.764317 0.545056
0.077953 0.961449 0.511872
0.289357 0.978135 0.528558
0.535481 0.993990 0.544412
0.767398 0.994633 0.545056
0.994633 0.994633 0.545056
0.063811 0.063811 0.714531
0.261001 0.063811 0.714531
0.448363 0.063811 0.714531
0.717834 0.064000 0.714753
0.961449 0.077953 0.731133
0.063811 0.260007 0.714531
0.275143 0.274149 0.731133
0.502941 0.274149 0.731133
0.734436 0.274338 0.731355
0.978051 0.288291 0.747735
0.063811 0.455971 0.714531
0.275215 0.511956 0.731217
0.518879 0.527810 0.747071
0.751018 0.528676 0.747937
0.994633 0.545056 0.764317
0.063811 0.714531 0.714531
0.275215 0.731217 0.731217
0.518879 0.747071 0.747071
0.766823 0.763742 0.763742
1.000000 0.780122 0.780122
0.077953 0.961449 0.731133
0.289357 0.978135 0.747819
0.535481 0.993990 0.763673
0.783203 1.000000 0.780122
1.000000 1.000000 0.780122
0.077953 0.077953 0.961449
0.275143 0.077953 0.961449
0.502941 0.077953 0.961449
0.734214 0.077953 0.961449
0.961449 0.077953 0.961449
0.077953 0.274149 0.961449
0.289286 0.288291 0.978051
0.519542 0.288291 0.978051
0.750816 0.288291 0.978051
0.978051 0.288291 0.978051
0.077953 0.511872 0.961449
0.289357 0.528558 0.978135
0.535481 0.544412 0.993990
0.767398 0.545056 0.994633
0.994633 0.545056 0.994633
0.077953 0.731133 0.961449
0.289357 0.747819 0.978135
0.535481 0.763673 0.993990
0.783203 0.780122 1.000000
1.000000 0.780122 1.000000
0.077953 0.961449 0.961449
0.289357 0.978135 0.978135
0.535481 0.993990 0.993990
0.783425 1.000000 1.000000
1.000000 1.000000 1.000000
