docs/luts/fuji_recipes/Astia_VM_Astia_Fujipro_Color_Cast.cube
TITLE "Fujifilm Recipe: VM Astia Fujipro Color Cast (Astia)"
# FilmSim=Astia HL=-1 SH=-1 Col=-2 WB=Auto WBR=-2 WBB=-3
LUT_3D_SIZE 33
DOMAIN_MIN 0.0 0.0 0.0
DOMAIN_MAX 1.0 1.0 1.0
0.063040 0.063040 0.063040
0.097368 0.072740 0.072740
0.124244 0.080335 0.080335
0.150671 0.087803 0.087803
0.177098 0.095270 0.095270
0.203525 0.102738 0.102738
0.229952 0.110206 0.110206
0.256379 0.117673 0.117673
0.282807 0.125141 0.125141
0.309234 0.132609 0.132609
0.335661 0.140076 0.140076
0.362088 0.147544 0.147544
0.388515 0.155012 0.155012
0.414942 0.162480 0.162480
0.432387 0.167409 0.167409
0.442095 0.171207 0.171207
0.467980 0.178555 0.178555
0.493864 0.185904 0.185904
0.519749 0.193253 0.193253
0.545633 0.200601 0.200601
0.571518 0.207950 0.207950
0.597402 0.215298 0.215298
0.623287 0.222647 0.222647
0.649171 0.229996 0.229996
0.675056 0.237344 0.237344
0.700940 0.244693 0.244693
0.726825 0.252041 0.252041
0.728391 0.252486 0.252486
0.728391 0.252486 0.252486
0.728391 0.252486 0.252486
0.728391 0.252486 0.252486
0.728391 0.252486 0.252486
0.728391 0.252486 0.252486
0.073159 0.098851 0.073159
0.097787 0.098851 0.073159
0.124244 0.106026 0.080335
0.150671 0.113494 0.087803
0.177098 0.120962 0.095270
0.203525 0.128429 0.102738
0.229952 0.135897 0.110206
0.256379 0.143365 0.117673
0.282807 0.150833 0.125141
0.309234 0.158300 0.132609
0.335661 0.165768 0.140076
0.362088 0.173236 0.147544
0.388515 0.180703 0.155012
0.414942 0.188171 0.162480
0.432387 0.193101 0.167409
0.442095 0.196898 0.171207
0.467980 0.204247 0.178555
0.493864 0.211595 0.185904
0.519749 0.218944 0.193253
0.545633 0.226293 0.200601
0.571518 0.233641 0.207950
0.597402 0.240990 0.215298
0.623287 0.248338 0.222647
0.649171 0.255687 0.229996
0.675056 0.263036 0.237344
0.700940 0.270384 0.244693
0.726825 0.277733 0.252041
0.728391 0.278177 0.252486
0.728391 0.278177 0.252486
0.728391 0.278177 0.252486
0.728391 0.278177 0.252486
0.728391 0.278177 0.252486
0.728391 0.278177 0.252486
0.081120 0.127024 0.081120
0.105748 0.127024 0.081120
0.125030 0.127024 0.081120
0.150671 0.133706 0.087803
0.177098 0.141174 0.095270
0.203525 0.148641 0.102738
0.229952 0.156109 0.110206
0.256379 0.163577 0.117673
0.282807 0.171044 0.125141
0.309234 0.178512 0.132609
0.335661 0.185980 0.140076
0.362088 0.193448 0.147544
0.388515 0.200915 0.155012
0.414942 0.208383 0.162480
0.432387 0.213313 0.167409
0.442095 0.217110 0.171207
0.467980 0.224459 0.178555
0.493864 0.231807 0.185904
0.519749 0.239156 0.193253
0.545633 0.246505 0.200601
0.571518 0.253853 0.207950
0.597402 0.261202 0.215298
0.623287 0.268550 0.222647
0.649171 0.275899 0.229996
0.675056 0.283248 0.237344
0.700940 0.290596 0.244693
0.726825 0.297945 0.252041
0.728391 0.298389 0.252486
0.728391 0.298389 0.252486
0.728391 0.298389 0.252486
0.728391 0.298389 0.252486
0.728391 0.298389 0.252486
0.728391 0.298389 0.252486
0.088949 0.154727 0.088949
0.113577 0.154727 0.088949
0.132858 0.154727 0.088949
0.151817 0.154727 0.088949
0.177098 0.161048 0.095270
0.203525 0.168516 0.102738
0.229952 0.175984 0.110206
0.256379 0.183451 0.117673
0.282807 0.190919 0.125141
0.309234 0.198387 0.132609
0.335661 0.205855 0.140076
0.362088 0.213322 0.147544
0.388515 0.220790 0.155012
0.414942 0.228258 0.162480
0.432387 0.233187 0.167409
0.442095 0.236985 0.171207
0.467980 0.244334 0.178555
0.493864 0.251682 0.185904
0.519749 0.259031 0.193253
0.545633 0.266379 0.200601
0.571518 0.273728 0.207950
0.597402 0.281077 0.215298
0.623287 0.288425 0.222647
0.649171 0.295774 0.229996
0.675056 0.303122 0.237344
0.700940 0.310471 0.244693
0.726825 0.317820 0.252041
0.728391 0.318264 0.252486
0.728391 0.318264 0.252486
0.728391 0.318264 0.252486
0.728391 0.318264 0.252486
0.728391 0.318264 0.252486
0.728391 0.318264 0.252486
0.096777 0.182430 0.096777
0.121405 0.182430 0.096777
0.140686 0.182430 0.096777
0.159645 0.182430 0.096777
0.178605 0.182430 0.096777
0.203525 0.188391 0.102738
0.229952 0.195858 0.110206
0.256379 0.203326 0.117673
0.282807 0.210794 0.125141
0.309234 0.218261 0.132609
0.335661 0.225729 0.140076
0.362088 0.233197 0.147544
0.388515 0.240665 0.155012
0.414942 0.248132 0.162480
0.432387 0.253062 0.167409
0.442095 0.256860 0.171207
0.467980 0.264208 0.178555
0.493864 0.271557 0.185904
0.519749 0.278905 0.193253
0.545633 0.286254 0.200601
0.571518 0.293603 0.207950
0.597402 0.300951 0.215298
0.623287 0.308300 0.222647
0.649171 0.315648 0.229996
0.675056 0.322997 0.237344
0.700940 0.330346 0.244693
0.726825 0.337694 0.252041
0.728391 0.338139 0.252486
0.728391 0.338139 0.252486
0.728391 0.338139 0.252486
0.728391 0.338139 0.252486
0.728391 0.338139 0.252486
0.728391 0.338139 0.252486
0.104605 0.210132 0.104605
0.129233 0.210132 0.104605
0.148514 0.210132 0.104605
0.167474 0.210132 0.104605
0.186433 0.210132 0.104605
0.205392 0.210132 0.104605
0.229952 0.215733 0.110206
0.256379 0.223201 0.117673
0.282807 0.230668 0.125141
0.309234 0.238136 0.132609
0.335661 0.245604 0.140076
0.362088 0.253072 0.147544
0.388515 0.260539 0.155012
0.414942 0.268007 0.162480
0.432387 0.272937 0.167409
0.442095 0.276734 0.171207
0.467980 0.284083 0.178555
0.493864 0.291431 0.185904
0.519749 0.298780 0.193253
0.545633 0.306129 0.200601
0.571518 0.313477 0.207950
0.597402 0.320826 0.215298
0.623287 0.328174 0.222647
0.649171 0.335523 0.229996
0.675056 0.342872 0.237344
0.700940 0.350220 0.244693
0.726825 0.357569 0.252041
0.728391 0.358013 0.252486
0.728391 0.358013 0.252486
0.728391 0.358013 0.252486
0.728391 0.358013 0.252486
0.728391 0.358013 0.252486
0.728391 0.358013 0.252486
0.112433 0.237835 0.112433
0.137061 0.237835 0.112433
0.156342 0.237835 0.112433
0.175302 0.237835 0.112433
0.194261 0.237835 0.112433
0.213221 0.237835 0.112433
0.232180 0.237835 0.112433
0.256379 0.243075 0.117673
0.282807 0.250543 0.125141
0.309234 0.258011 0.132609
0.335661 0.265479 0.140076
0.362088 0.272946 0.147544
0.388515 0.280414 0.155012
0.414942 0.287882 0.162480
0.432387 0.292811 0.167409
0.442095 0.296609 0.171207
0.467980 0.303958 0.178555
0.493864 0.311306 0.185904
0.519749 0.318655 0.193253
0.545633 0.326003 0.200601
0.571518 0.333352 0.207950
0.597402 0.340701 0.215298
0.623287 0.348049 0.222647
0.649171 0.355398 0.229996
0.675056 0.362746 0.237344
0.700940 0.370095 0.244693
0.726825 0.377444 0.252041
0.728391 0.377888 0.252486
0.728391 0.377888 0.252486
0.728391 0.377888 0.252486
0.728391 0.377888 0.252486
0.728391 0.377888 0.252486
0.728391 0.377888 0.252486
0.120261 0.265538 0.120261
0.144889 0.265538 0.120261
0.164171 0.265538 0.120261
0.183130 0.265538 0.120261
0.202089 0.265538 0.120261
0.221049 0.265538 0.120261
0.240008 0.265538 0.120261
0.258967 0.265538 0.120261
0.282807 0.270418 0.125141
0.309234 0.277886 0.132609
0.335661 0.285353 0.140076
0.362088 0.292821 0.147544
0.388515 0.300289 0.155012
0.414942 0.307756 0.162480
0.432387 0.312686 0.167409
0.442095 0.316484 0.171207
0.467980 0.323832 0.178555
0.493864 0.331181 0.185904
0.519749 0.338529 0.193253
0.545633 0.345878 0.200601
0.571518 0.353227 0.207950
0.597402 0.360575 0.215298
0.623287 0.367924 0.222647
0.649171 0.375272 0.229996
0.675056 0.382621 0.237344
0.700940 0.389970 0.244693
0.726825 0.397318 0.252041
0.728391 0.397763 0.252486
0.728391 0.397763 0.252486
0.728391 0.397763 0.252486
0.728391 0.397763 0.252486
0.728391 0.397763 0.252486
0.728391 0.397763 0.252486
0.128090 0.293241 0.128090
0.152718 0.293241 0.128090
0.171999 0.293241 0.128090
0.190958 0.293241 0.128090
0.209918 0.293241 0.128090
0.228877 0.293241 0.128090
0.247836 0.293241 0.128090
0.266796 0.293241 0.128090
0.285755 0.293241 0.128090
0.309234 0.297760 0.132609
0.335661 0.305228 0.140076
0.362088 0.312696 0.147544
0.388515 0.320163 0.155012
0.414942 0.327631 0.162480
0.432387 0.332561 0.167409
0.442095 0.336358 0.171207
0.467980 0.343707 0.178555
0.493864 0.351055 0.185904
0.519749 0.358404 0.193253
0.545633 0.365753 0.200601
0.571518 0.373101 0.207950
0.597402 0.380450 0.215298
0.623287 0.387798 0.222647
0.649171 0.395147 0.229996
0.675056 0.402496 0.237344
0.700940 0.409844 0.244693
0.726825 0.417193 0.252041
0.728391 0.417637 0.252486
0.728391 0.417637 0.252486
0.728391 0.417637 0.252486
0.728391 0.417637 0.252486
0.728391 0.417637 0.252486
0.728391 0.417637 0.252486
0.135918 0.320944 0.135918
0.160546 0.320944 0.135918
0.179827 0.320944 0.135918
0.198786 0.320944 0.135918
0.217746 0.320944 0.135918
0.236705 0.320944 0.135918
0.255665 0.320944 0.135918
0.274624 0.320944 0.135918
0.293583 0.320944 0.135918
0.312543 0.320944 0.135918
0.335661 0.325103 0.140076
0.362088 0.332570 0.147544
0.388515 0.340038 0.155012
0.414942 0.347506 0.162480
0.432387 0.352435 0.167409
0.442095 0.356233 0.171207
0.467980 0.363582 0.178555
0.493864 0.370930 0.185904
0.519749 0.378279 0.193253
0.545633 0.385627 0.200601
0.571518 0.392976 0.207950
0.597402 0.400325 0.215298
0.623287 0.407673 0.222647
0.649171 0.415022 0.229996
0.675056 0.422370 0.237344
0.700940 0.429719 0.244693
0.726825 0.437068 0.252041
0.728391 0.437512 0.252486
0.728391 0.437512 0.252486
0.728391 0.437512 0.252486
0.728391 0.437512 0.252486
0.728391 0.437512 0.252486
0.728391 0.437512 0.252486
0.143746 0.348647 0.143746
0.168374 0.348647 0.143746
0.187655 0.348647 0.143746
0.206615 0.348647 0.143746
0.225574 0.348647 0.143746
0.244533 0.348647 0.143746
0.263493 0.348647 0.143746
0.282452 0.348647 0.143746
0.301412 0.348647 0.143746
0.320371 0.348647 0.143746
0.339330 0.348647 0.143746
0.362088 0.352445 0.147544
0.388515 0.359913 0.155012
0.414942 0.367380 0.162480
0.432387 0.372310 0.167409
0.442095 0.376108 0.171207
0.467980 0.383456 0.178555
0.493864 0.390805 0.185904
0.519749 0.398153 0.193253
0.545633 0.405502 0.200601
0.571518 0.412851 0.207950
0.597402 0.420199 0.215298
0.623287 0.427548 0.222647
0.649171 0.434896 0.229996
0.675056 0.442245 0.237344
0.700940 0.449594 0.244693
0.726825 0.456942 0.252041
0.728391 0.457387 0.252486
0.728391 0.457387 0.252486
0.728391 0.457387 0.252486
0.728391 0.457387 0.252486
0.728391 0.457387 0.252486
0.728391 0.457387 0.252486
0.151574 0.376350 0.151574
0.176202 0.376350 0.151574
0.195483 0.376350 0.151574
0.214443 0.376350 0.151574
0.233402 0.376350 0.151574
0.252362 0.376350 0.151574
0.271321 0.376350 0.151574
0.290280 0.376350 0.151574
0.309240 0.376350 0.151574
0.328199 0.376350 0.151574
0.347158 0.376350 0.151574
0.366118 0.376350 0.151574
0.388515 0.379787 0.155012
0.414942 0.387255 0.162480
0.432387 0.392185 0.167409
0.442095 0.395982 0.171207
0.467980 0.403331 0.178555
0.493864 0.410679 0.185904
0.519749 0.418028 0.193253
0.545633 0.425377 0.200601
0.571518 0.432725 0.207950
0.597402 0.440074 0.215298
0.623287 0.447422 0.222647
0.649171 0.454771 0.229996
0.675056 0.462120 0.237344
0.700940 0.469468 0.244693
0.726825 0.476817 0.252041
0.728391 0.477261 0.252486
0.728391 0.477261 0.252486
0.728391 0.477261 0.252486
0.728391 0.477261 0.252486
0.728391 0.477261 0.252486
0.728391 0.477261 0.252486
0.159402 0.404053 0.159402
0.184031 0.404053 0.159402
0.203312 0.404053 0.159402
0.222271 0.404053 0.159402
0.241230 0.404053 0.159402
0.260190 0.404053 0.159402
0.279149 0.404053 0.159402
0.298109 0.404053 0.159402
0.317068 0.404053 0.159402
0.336027 0.404053 0.159402
0.354987 0.404053 0.159402
0.373946 0.404053 0.159402
0.392905 0.404053 0.159402
0.414942 0.407130 0.162480
0.432387 0.412059 0.167409
0.442095 0.415857 0.171207
0.467980 0.423206 0.178555
0.493864 0.430554 0.185904
0.519749 0.437903 0.193253
0.545633 0.445251 0.200601
0.571518 0.452600 0.207950
0.597402 0.459949 0.215298
0.623287 0.467297 0.222647
0.649171 0.474646 0.229996
0.675056 0.481994 0.237344
0.700940 0.489343 0.244693
0.726825 0.496692 0.252041
0.728391 0.497136 0.252486
0.728391 0.497136 0.252486
0.728391 0.497136 0.252486
0.728391 0.497136 0.252486
0.728391 0.497136 0.252486
0.728391 0.497136 0.252486
0.164693 0.422774 0.164693
0.189321 0.422774 0.164693
0.208602 0.422774 0.164693
0.227561 0.422774 0.164693
0.246521 0.422774 0.164693
0.265480 0.422774 0.164693
0.284439 0.422774 0.164693
0.303399 0.422774 0.164693
0.322358 0.422774 0.164693
0.341317 0.422774 0.164693
0.360277 0.422774 0.164693
0.379236 0.422774 0.164693
0.398196 0.422774 0.164693
0.417155 0.422774 0.164693
0.432387 0.425490 0.167409
0.442095 0.429288 0.171207
0.467980 0.436636 0.178555
0.493864 0.443985 0.185904
0.519749 0.451334 0.193253
0.545633 0.458682 0.200601
0.571518 0.466031 0.207950
0.597402 0.473379 0.215298
0.623287 0.480728 0.222647
0.649171 0.488077 0.229996
0.675056 0.495425 0.237344
0.700940 0.502774 0.244693
0.726825 0.497299 0.252041
0.728391 0.497742 0.252486
0.728391 0.497742 0.252486
0.728391 0.497742 0.252486
0.728391 0.497742 0.252486
0.728391 0.497742 0.252486
0.728391 0.497742 0.252486
0.168888 0.433929 0.168888
0.193516 0.433929 0.168888
0.212798 0.433929 0.168888
0.231757 0.433929 0.168888
0.250716 0.433929 0.168888
0.269676 0.433929 0.168888
0.288635 0.433929 0.168888
0.307594 0.433929 0.168888
0.326554 0.433929 0.168888
0.345513 0.433929 0.168888
0.364473 0.433929 0.168888
0.383432 0.433929 0.168888
0.402391 0.433929 0.168888
0.421351 0.433929 0.168888
0.433866 0.433929 0.168888
0.442095 0.436238 0.171207
0.467980 0.443558 0.178555
0.493864 0.450878 0.185904
0.519749 0.458199 0.193253
0.545633 0.465519 0.200601
0.571518 0.472839 0.207950
0.597402 0.480159 0.215298
0.623287 0.487479 0.222647
0.649171 0.494799 0.229996
0.675056 0.502119 0.237344
0.700940 0.509439 0.244693
0.726825 0.516760 0.252041
0.728391 0.517202 0.252486
0.728391 0.517202 0.252486
0.728391 0.517202 0.252486
0.728391 0.517202 0.252486
0.728391 0.517202 0.252486
0.728391 0.517202 0.252486
0.176592 0.461063 0.176592
0.201220 0.461063 0.176592
0.220501 0.461063 0.176592
0.239460 0.461063 0.176592
0.258420 0.461063 0.176592
0.277379 0.461063 0.176592
0.296338 0.461063 0.176592
0.315298 0.461063 0.176592
0.334257 0.461063 0.176592
0.353217 0.461063 0.176592
0.372176 0.461063 0.176592
0.391135 0.461063 0.176592
0.410095 0.461063 0.176592
0.429054 0.461063 0.176592
0.441570 0.461063 0.176592
0.447459 0.461063 0.176592
0.467980 0.463019 0.178555
0.493864 0.470339 0.185904
0.519749 0.477659 0.193253
0.545633 0.484979 0.200601
0.571518 0.492299 0.207950
0.597402 0.499620 0.215298
0.623287 0.506940 0.222647
0.649171 0.514260 0.229996
0.675056 0.521580 0.237344
0.700940 0.528900 0.244693
0.726825 0.536220 0.252041
0.728391 0.536663 0.252486
0.728391 0.536663 0.252486
0.728391 0.536663 0.252486
0.728391 0.536663 0.252486
0.728391 0.536663 0.252486
0.728391 0.536663 0.252486
0.184295 0.488197 0.184295
0.208923 0.488197 0.184295
0.228204 0.488197 0.184295
0.247164 0.488197 0.184295
0.266123 0.488197 0.184295
0.285082 0.488197 0.184295
0.304042 0.488197 0.184295
0.323001 0.488197 0.184295
0.341961 0.488197 0.184295
0.360920 0.488197 0.184295
0.379879 0.488197 0.184295
0.398839 0.488197 0.184295
0.417798 0.488197 0.184295
0.436757 0.488197 0.184295
0.449273 0.488197 0.184295
0.455133 0.488197 0.184295
0.473697 0.488197 0.184295
0.493864 0.489800 0.185904
0.519749 0.497120 0.193253
0.545633 0.504440 0.200601
0.571518 0.511760 0.207950
0.597402 0.519080 0.215298
0.623287 0.526400 0.222647
0.649171 0.533720 0.229996
0.675056 0.541041 0.237344
0.700940 0.548361 0.244693
0.726825 0.555681 0.252041
0.728391 0.556124 0.252486
0.728391 0.556124 0.252486
0.728391 0.556124 0.252486
0.728391 0.556124 0.252486
0.728391 0.556124 0.252486
0.728391 0.556124 0.252486
0.191998 0.515331 0.191998
0.216626 0.515331 0.191998
0.235908 0.515331 0.191998
0.254867 0.515331 0.191998
0.273826 0.515331 0.191998
0.292786 0.515331 0.191998
0.311745 0.515331 0.191998
0.330705 0.515331 0.191998
0.349664 0.515331 0.191998
0.368623 0.515331 0.191998
0.387583 0.515331 0.191998
0.406542 0.515331 0.191998
0.425501 0.515331 0.191998
0.444461 0.515331 0.191998
0.456976 0.515331 0.191998
0.462806 0.515331 0.191998
0.481371 0.515331 0.191998
0.499935 0.515331 0.191998
0.519749 0.516580 0.193253
0.545633 0.523901 0.200601
0.571518 0.531221 0.207950
0.597402 0.538541 0.215298
0.623287 0.545861 0.222647
0.649171 0.553181 0.229996
0.675056 0.560501 0.237344
0.700940 0.567821 0.244693
0.726825 0.575141 0.252041
0.728391 0.575584 0.252486
0.728391 0.575584 0.252486
0.728391 0.575584 0.252486
0.728391 0.575584 0.252486
0.728391 0.575584 0.252486
0.728391 0.575584 0.252486
0.199702 0.542465 0.199702
0.224330 0.542465 0.199702
0.243611 0.542465 0.199702
0.262570 0.542465 0.199702
0.281530 0.542465 0.199702
0.300489 0.542465 0.199702
0.319449 0.542465 0.199702
0.338408 0.542465 0.199702
0.357367 0.542465 0.199702
0.376327 0.542465 0.199702
0.395286 0.542465 0.199702
0.414245 0.542465 0.199702
0.433205 0.542465 0.199702
0.452164 0.542465 0.199702
0.464680 0.542465 0.199702
0.470480 0.542465 0.199702
0.489044 0.542465 0.199702
0.507609 0.542465 0.199702
0.526173 0.542465 0.199702
0.545633 0.543361 0.200601
0.571518 0.550681 0.207950
0.597402 0.558001 0.215298
0.623287 0.565322 0.222647
0.649171 0.572642 0.229996
0.675056 0.579962 0.237344
0.700940 0.587282 0.244693
0.726825 0.594602 0.252041
0.728391 0.595045 0.252486
0.728391 0.595045 0.252486
0.728391 0.595045 0.252486
0.728391 0.595045 0.252486
0.728391 0.595045 0.252486
0.728391 0.595045 0.252486
0.207405 0.569599 0.207405
0.232033 0.569599 0.207405
0.251314 0.569599 0.207405
0.270274 0.569599 0.207405
0.289233 0.569599 0.207405
0.308192 0.569599 0.207405
0.327152 0.569599 0.207405
0.346111 0.569599 0.207405
0.365071 0.569599 0.207405
0.384030 0.569599 0.207405
0.402989 0.569599 0.207405
0.421949 0.569599 0.207405
0.440908 0.569599 0.207405
0.459868 0.569599 0.207405
0.472383 0.569599 0.207405
0.478153 0.569599 0.207405
0.496718 0.569599 0.207405
0.515282 0.569599 0.207405
0.533846 0.569599 0.207405
0.552411 0.569599 0.207405
0.571518 0.570142 0.207950
0.597402 0.577462 0.215298
0.623287 0.584782 0.222647
0.649171 0.592102 0.229996
0.675056 0.599422 0.237344
0.700940 0.606743 0.244693
0.726825 0.614063 0.252041
0.728391 0.614506 0.252486
0.728391 0.614506 0.252486
0.728391 0.614506 0.252486
0.728391 0.614506 0.252486
0.728391 0.614506 0.252486
0.728391 0.614506 0.252486
0.215109 0.596733 0.215109
0.239737 0.596733 0.215109
0.259018 0.596733 0.215109
0.277977 0.596733 0.215109
0.296936 0.596733 0.215109
0.315896 0.596733 0.215109
0.334855 0.596733 0.215109
0.353815 0.596733 0.215109
0.372774 0.596733 0.215109
0.391733 0.596733 0.215109
0.410693 0.596733 0.215109
0.429652 0.596733 0.215109
0.448612 0.596733 0.215109
0.467571 0.596733 0.215109
0.467262 0.596733 0.215109
0.485827 0.596733 0.215109
0.504391 0.596733 0.215109
0.522956 0.596733 0.215109
0.541520 0.596733 0.215109
0.560084 0.596733 0.215109
0.578649 0.596733 0.215109
0.597402 0.596923 0.215298
0.623287 0.604243 0.222647
0.649171 0.611563 0.229996
0.675056 0.618883 0.237344
0.700940 0.626203 0.244693
0.726825 0.633523 0.252041
0.728391 0.633966 0.252486
0.728391 0.633966 0.252486
0.728391 0.633966 0.252486
0.728391 0.633966 0.252486
0.728391 0.633966 0.252486
0.728391 0.633966 0.252486
0.222812 0.623868 0.222812
0.247440 0.623868 0.222812
0.266721 0.623868 0.222812
0.285680 0.623868 0.222812
0.304640 0.623868 0.222812
0.323599 0.623868 0.222812
0.342559 0.623868 0.222812
0.361518 0.623868 0.222812
0.380477 0.623868 0.222812
0.399437 0.623868 0.222812
0.418396 0.623868 0.222812
0.437356 0.623868 0.222812
0.456315 0.623868 0.222812
0.475274 0.623868 0.222812
0.474936 0.623868 0.222812
0.493500 0.623868 0.222812
0.512065 0.623868 0.222812
0.530629 0.623868 0.222812
0.549194 0.623868 0.222812
0.567758 0.623868 0.222812
0.586322 0.623868 0.222812
0.604887 0.623868 0.222812
0.623451 0.623868 0.222812
0.649171 0.631024 0.229996
0.675056 0.638344 0.237344
0.700940 0.645664 0.244693
0.726825 0.652984 0.252041
0.728391 0.653427 0.252486
0.728391 0.653427 0.252486
0.728391 0.653427 0.252486
0.728391 0.653427 0.252486
0.728391 0.653427 0.252486
0.728391 0.653427 0.252486
0.230515 0.651002 0.230515
0.255143 0.651002 0.230515
0.274424 0.651002 0.230515
0.293384 0.651002 0.230515
0.312343 0.651002 0.230515
0.331303 0.651002 0.230515
0.350262 0.651002 0.230515
0.369221 0.651002 0.230515
0.388181 0.651002 0.230515
0.407140 0.651002 0.230515
0.426099 0.651002 0.230515
0.445059 0.651002 0.230515
0.464018 0.651002 0.230515
0.482978 0.651002 0.230515
0.482609 0.651002 0.230515
0.501174 0.651002 0.230515
0.519738 0.651002 0.230515
0.538303 0.651002 0.230515
0.556867 0.651002 0.230515
0.575431 0.651002 0.230515
0.593996 0.651002 0.230515
0.612560 0.651002 0.230515
0.631125 0.651002 0.230515
0.649689 0.651002 0.230515
0.675056 0.657804 0.237344
0.700940 0.665124 0.244693
0.726825 0.672445 0.252041
0.728391 0.672887 0.252486
0.728391 0.672887 0.252486
0.728391 0.672887 0.252486
0.728391 0.672887 0.252486
0.728391 0.672887 0.252486
0.728391 0.672887 0.252486
0.238219 0.678136 0.238219
0.262847 0.678136 0.238219
0.282128 0.678136 0.238219
0.301087 0.678136 0.238219
0.320047 0.678136 0.238219
0.339006 0.678136 0.238219
0.357965 0.678136 0.238219
0.376925 0.678136 0.238219
0.395884 0.678136 0.238219
0.414843 0.678136 0.238219
0.433803 0.678136 0.238219
0.452762 0.678136 0.238219
0.471722 0.678136 0.238219
0.490681 0.678136 0.238219
0.490283 0.678136 0.238219
0.508847 0.678136 0.238219
0.527412 0.678136 0.238219
0.545976 0.678136 0.238219
0.564541 0.678136 0.238219
0.583105 0.678136 0.238219
0.601669 0.678136 0.238219
0.620234 0.678136 0.238219
0.638798 0.678136 0.238219
0.657363 0.678136 0.238219
0.675927 0.678136 0.238219
0.700940 0.684585 0.244693
0.726825 0.691905 0.252041
0.728391 0.692348 0.252486
0.728391 0.692348 0.252486
0.728391 0.692348 0.252486
0.728391 0.692348 0.252486
0.728391 0.692348 0.252486
0.728391 0.692348 0.252486
0.245922 0.705270 0.245922
0.270550 0.705270 0.245922
0.289831 0.705270 0.245922
0.308791 0.705270 0.245922
0.327750 0.705270 0.245922
0.346709 0.705270 0.245922
0.365669 0.705270 0.245922
0.384628 0.705270 0.245922
0.403587 0.705270 0.245922
0.422547 0.705270 0.245922
0.441506 0.705270 0.245922
0.460466 0.705270 0.245922
0.479425 0.705270 0.245922
0.498384 0.705270 0.245922
0.497956 0.705270 0.245922
0.516521 0.705270 0.245922
0.535085 0.705270 0.245922
0.553650 0.705270 0.245922
0.572214 0.705270 0.245922
0.590778 0.705270 0.245922
0.609343 0.705270 0.245922
0.627907 0.705270 0.245922
0.646472 0.705270 0.245922
0.665036 0.705270 0.245922
0.683600 0.705270 0.245922
0.702165 0.705270 0.245922
0.726825 0.711366 0.252041
0.728391 0.711809 0.252486
0.728391 0.711809 0.252486
0.728391 0.711809 0.252486
0.728391 0.711809 0.252486
0.728391 0.711809 0.252486
0.728391 0.711809 0.252486
0.253625 0.732404 0.253625
0.278253 0.732404 0.253625
0.297535 0.732404 0.253625
0.316494 0.732404 0.253625
0.335453 0.732404 0.253625
0.354413 0.732404 0.253625
0.373372 0.732404 0.253625
0.392331 0.732404 0.253625
0.411291 0.732404 0.253625
0.430250 0.732404 0.253625
0.449210 0.732404 0.253625
0.468169 0.732404 0.253625
0.487128 0.732404 0.253625
0.506088 0.732404 0.253625
0.505630 0.732404 0.253625
0.524194 0.732404 0.253625
0.542759 0.732404 0.253625
0.561323 0.732404 0.253625
0.579888 0.732404 0.253625
0.598452 0.732404 0.253625
0.617016 0.732404 0.253625
0.635581 0.732404 0.253625
0.654145 0.732404 0.253625
0.672710 0.732404 0.253625
0.691274 0.732404 0.253625
0.709838 0.732404 0.253625
0.728403 0.732404 0.253625
0.729526 0.732404 0.253625
0.729526 0.732404 0.253625
0.729526 0.732404 0.253625
0.729526 0.732404 0.253625
0.729526 0.732404 0.253625
0.729526 0.732404 0.253625
0.261329 0.759538 0.261329
0.285957 0.759538 0.261329
0.305238 0.759538 0.261329
0.324197 0.759538 0.261329
0.343157 0.759538 0.261329
0.362116 0.759538 0.261329
0.381075 0.759538 0.261329
0.400035 0.759538 0.261329
0.418994 0.759538 0.261329
0.437954 0.759538 0.261329
0.456913 0.759538 0.261329
0.475872 0.759538 0.261329
0.494832 0.759538 0.261329
0.513791 0.759538 0.261329
0.513304 0.759538 0.261329
0.531868 0.759538 0.261329
0.550432 0.759538 0.261329
0.568997 0.759538 0.261329
0.587561 0.759538 0.261329
0.606125 0.759538 0.261329
0.624690 0.759538 0.261329
0.643254 0.759538 0.261329
0.661819 0.759538 0.261329
0.680383 0.759538 0.261329
