docs/luts/fuji_recipes/Astia_JC_Astia_Travel.cube
TITLE "Fujifilm Recipe: JC Astia Travel (Astia)"
# FilmSim=Astia HL=-1 SH=2 Col=2 WB=Auto WBR=1 WBB=0
LUT_3D_SIZE 5
DOMAIN_MIN 0.0 0.0 0.0
DOMAIN_MAX 1.0 1.0 1.0
0.022080 0.022080 0.022080
0.275145 0.000268 0.000268
0.495421 0.000000 0.000000
0.770847 0.000000 0.000000
0.979585 0.000000 0.000000
0.000907 0.267733 0.000907
0.275145 0.267094 0.000268
0.495421 0.246447 0.000000
0.770847 0.236043 0.000000
0.979585 0.233332 0.000000
0.000000 0.492855 0.000000
0.254013 0.492855 0.000000
0.495421 0.492604 0.000000
0.770847 0.471808 0.000000
0.979585 0.514221 0.000000
0.000000 0.750533 0.000000
0.243525 0.750533 0.000000
0.475208 0.750533 0.000000
0.770847 0.749458 0.000000
0.979585 0.741181 0.000000
0.000000 0.979585 0.000000
0.240372 0.979585 0.000000
0.516946 0.979585 0.000000
0.762325 0.979585 0.000000
0.979585 0.979585 0.000000
0.000907 0.000907 0.267733
0.275145 0.000268 0.267094
0.495421 0.000000 0.246447
0.770847 0.000000 0.236043
0.979585 0.000000 0.233332
0.000907 0.267733 0.267733
0.253972 0.245921 0.245921
0.494731 0.225170 0.225170
0.800301 0.195334 0.195334
1.000000 0.204373 0.204373
0.000000 0.492855 0.246573
0.233463 0.491923 0.225412
0.494731 0.491681 0.225170
0.800301 0.516581 0.195334
1.000000 0.504089 0.204373
0.000000 0.750533 0.236392
0.205336 0.778035 0.197285
0.521611 0.778035 0.197285
0.800301 0.776122 0.195334
1.000000 0.745947 0.204373
0.000000 0.979585 0.233332
0.211875 1.000000 0.204373
0.506993 1.000000 0.204373
0.768479 1.000000 0.204373
1.000000 1.000000 0.204373
0.000000 0.000000 0.492855
0.254013 0.000000 0.492855
0.495421 0.000000 0.492604
0.770847 0.000000 0.471808
0.979585 0.000000 0.514221
0.000000 0.246573 0.492855
0.233463 0.225412 0.491923
0.494731 0.225170 0.491681
0.800301 0.195334 0.516581
1.000000 0.204373 0.504089
0.000000 0.492855 0.492855
0.232824 0.491284 0.491284
0.513878 0.510762 0.510762
0.772215 0.488496 0.488496
1.000000 0.469729 0.469729
0.000000 0.750533 0.472505
0.204695 0.777407 0.517867
0.493531 0.749955 0.490414
0.772215 0.748036 0.488496
1.000000 0.728345 0.469729
0.000000 0.979585 0.514221
0.211155 1.000000 0.503643
0.472835 1.000000 0.469729
0.752438 1.000000 0.469729
1.000000 1.000000 0.469729
0.000000 0.000000 0.750533
0.243525 0.000000 0.750533
0.475208 0.000000 0.750533
0.770847 0.000000 0.749458
0.979585 0.000000 0.741181
0.000000 0.236392 0.750533
0.205336 0.197285 0.778035
0.521611 0.197285 0.778035
0.800301 0.195334 0.776122
1.000000 0.204373 0.745947
0.000000 0.472505 0.750533
0.204695 0.517867 0.777407
0.493531 0.490414 0.749955
0.772215 0.488496 0.748036
1.000000 0.469729 0.728345
0.000000 0.750533 0.750533
0.204695 0.777407 0.777407
0.493284 0.749708 0.749708
0.751620 0.727441 0.727441
0.980353 0.707727 0.707727
0.000000 0.979585 0.741181
0.211155 1.000000 0.745719
0.472351 1.000000 0.728096
0.731906 0.980353 0.707727
0.980353 0.980353 0.707727
0.000000 0.000000 0.979585
0.240372 0.000000 0.979585
0.516946 0.000000 0.979585
0.762325 0.000000 0.979585
0.979585 0.000000 0.979585
0.000000 0.233332 0.979585
0.211875 0.204373 1.000000
0.506993 0.204373 1.000000
0.768479 0.204373 1.000000
1.000000 0.204373 1.000000
0.000000 0.514221 0.979585
0.211155 0.503643 1.000000
0.472835 0.469729 1.000000
0.752438 0.469729 1.000000
1.000000 0.469729 1.000000
0.000000 0.741181 0.979585
0.211155 0.745719 1.000000
0.472351 0.728096 1.000000
0.731906 0.707727 0.980353
0.980353 0.707727 0.980353
0.000000 0.979585 0.979585
0.211155 1.000000 1.000000
0.472351 1.000000 1.000000
0.729987 0.978435 0.978435
0.958720 0.958720 0.958720
