docs/luts/fuji_recipes/Astia_VM_Astia.cube
TITLE "Fujifilm Recipe: VM Astia (Astia)"
# FilmSim=Astia HL=-1 SH=-1 Col=-1 WB=Auto WBR=0 WBB=-1
LUT_3D_SIZE 5
DOMAIN_MIN 0.0 0.0 0.0
DOMAIN_MAX 1.0 1.0 1.0
0.063040 0.063040 0.063040
0.265117 0.096391 0.096391
0.457121 0.128079 0.128079
0.637143 0.159236 0.159236
0.831406 0.191569 0.191569
0.096222 0.264098 0.096222
0.265117 0.264266 0.096391
0.457121 0.295954 0.128079
0.637143 0.327111 0.159236
0.831406 0.359444 0.191569
0.129366 0.464918 0.129366
0.298092 0.464918 0.129366
0.458408 0.464918 0.129366
0.637143 0.494788 0.159236
0.831406 0.510541 0.191569
0.158798 0.634509 0.158798
0.327524 0.634509 0.158798
0.487840 0.634509 0.158798
0.637143 0.634944 0.159236
0.831406 0.667028 0.191569
0.191569 0.831406 0.191569
0.360295 0.831406 0.191569
0.504167 0.831406 0.191569
0.669227 0.831406 0.191569
0.831406 0.831406 0.191569
0.095393 0.095393 0.259071
0.265117 0.096391 0.260069
0.457121 0.128079 0.291757
0.637143 0.159236 0.322914
0.831406 0.191569 0.355247
0.096222 0.264098 0.259901
0.297470 0.296619 0.292422
0.489474 0.328307 0.324110
0.669223 0.359437 0.355240
0.863486 0.391770 0.387573
0.129366 0.464918 0.293044
0.330445 0.497271 0.325397
0.490761 0.497271 0.325397
0.669223 0.510537 0.355240
0.863486 0.542621 0.387573
0.158798 0.634509 0.322476
0.359850 0.666589 0.354802
0.503728 0.666589 0.354802
0.669223 0.667024 0.355240
0.863486 0.699108 0.387573
0.191569 0.831406 0.355247
0.392621 0.863486 0.387573
0.536247 0.863486 0.387573
0.701307 0.863486 0.387573
0.863486 0.863486 0.387573
0.127746 0.127746 0.455102
0.296472 0.127746 0.455102
0.457121 0.128079 0.455435
0.637143 0.159236 0.486593
0.831406 0.191569 0.502516
0.127746 0.295621 0.455102
0.329654 0.328803 0.488285
0.490304 0.329137 0.488618
0.670046 0.360266 0.503335
0.864309 0.392599 0.535418
0.129366 0.464918 0.456722
0.331442 0.498268 0.490073
0.503049 0.509423 0.501398
0.699476 0.540789 0.532764
0.893711 0.572846 0.564821
0.158798 0.634509 0.486154
0.360847 0.667579 0.503066
0.533981 0.696842 0.532330
0.699476 0.697277 0.532764
0.893711 0.729333 0.564821
0.191569 0.831406 0.502516
0.393618 0.864475 0.535585
0.566472 0.893711 0.564821
0.731532 0.893711 0.564821
0.893711 0.893711 0.564821
0.156340 0.156340 0.619742
0.325066 0.156340 0.619742
0.485382 0.156340 0.619742
0.637143 0.159236 0.622616
0.831406 0.191569 0.654700
0.156340 0.324215 0.619742
0.358221 0.357370 0.652645
0.502111 0.357370 0.652645
0.670046 0.360266 0.655519
0.864309 0.392599 0.687603
0.156340 0.491892 0.619742
0.358389 0.508652 0.652812
0.531870 0.538244 0.682403
0.701062 0.542376 0.686535
0.895297 0.574432 0.718591
0.158798 0.634509 0.622181
0.360847 0.667579 0.655250
0.534307 0.697169 0.684840
0.729557 0.727358 0.715029
0.923792 0.759414 0.747086
0.191569 0.831406 0.654700
0.393618 0.864475 0.687769
0.566798 0.894037 0.717331
0.761613 0.923792 0.747086
0.923792 0.923792 0.747086
0.188292 0.188292 0.811716
0.357018 0.188292 0.811716
0.500915 0.188292 0.811716
0.665975 0.188292 0.811716
0.831406 0.191569 0.814968
0.188292 0.356167 0.811716
0.390172 0.389322 0.844619
0.533817 0.389322 0.844619
0.698878 0.389322 0.844619
0.864309 0.392599 0.847871
0.188292 0.507289 0.811716
0.390340 0.540358 0.844786
0.563549 0.569923 0.874351
0.729869 0.571183 0.875610
0.895297 0.574432 0.878860
0.188292 0.663776 0.811716
0.390340 0.696846 0.844786
0.563549 0.726411 0.874351
0.760801 0.758602 0.906542
0.926229 0.761851 0.909791
0.191569 0.831406 0.814968
0.393618 0.864475 0.848038
0.566798 0.894037 0.877600
0.764485 0.926664 0.910226
0.955471 0.955471 0.939033
