docs/luts/fuji_recipes/Astia_JP_Travel.cube
TITLE "Fujifilm Recipe: JP Travel (Astia)"
# FilmSim=Astia HL=-1 SH=1 Col=0 WB=Auto WBR=0 WBB=0
LUT_3D_SIZE 5
DOMAIN_MIN 0.0 0.0 0.0
DOMAIN_MAX 1.0 1.0 1.0
0.023040 0.023040 0.023040
0.243635 0.037872 0.037872
0.453236 0.051965 0.051965
0.689597 0.066783 0.066783
0.901632 0.081343 0.081343
0.037797 0.242523 0.037797
0.243635 0.242598 0.037872
0.453236 0.256690 0.051965
0.689597 0.271509 0.066783
0.901632 0.286068 0.081343
0.052537 0.461747 0.052537
0.258300 0.461747 0.052537
0.453808 0.461747 0.052537
0.689597 0.475993 0.066783
0.901632 0.510333 0.081343
0.066586 0.686722 0.066586
0.272349 0.686722 0.066586
0.467857 0.686722 0.066586
0.689597 0.686915 0.066783
0.901632 0.701171 0.081343
0.081343 0.901632 0.081343
0.287106 0.901632 0.081343
0.502560 0.901632 0.081343
0.703853 0.901632 0.081343
0.901632 0.901632 0.081343
0.037797 0.037797 0.242523
0.243635 0.037872 0.242598
0.453236 0.051965 0.256690
0.689597 0.066783 0.271509
0.901632 0.081343 0.286068
0.037797 0.242523 0.242523
0.258392 0.257355 0.257355
0.467993 0.271447 0.271447
0.704046 0.286266 0.286266
0.916082 0.300826 0.300826
0.052537 0.461747 0.257263
0.273057 0.476504 0.272020
0.468565 0.476504 0.272020
0.704046 0.510526 0.286266
0.916082 0.524782 0.300826
0.066586 0.686722 0.271311
0.287106 0.701171 0.286068
0.502560 0.701171 0.286068
0.704046 0.701365 0.286266
0.916082 0.715621 0.300826
0.081343 0.901632 0.286068
0.301863 0.916082 0.300826
0.517009 0.916082 0.300826
0.718303 0.916082 0.300826
0.916082 0.916082 0.300826
0.052537 0.052537 0.461747
0.258300 0.052537 0.461747
0.453808 0.052537 0.461747
0.689597 0.066783 0.475993
0.901632 0.081343 0.510333
0.052537 0.257263 0.461747
0.273057 0.272020 0.476504
0.468565 0.272020 0.476504
0.704046 0.286266 0.510526
0.916082 0.300826 0.524782
0.052537 0.461747 0.461747
0.273132 0.476579 0.476579
0.502676 0.510449 0.510449
0.718479 0.524959 0.524959
0.930514 0.539215 0.539215
0.066586 0.686722 0.475795
0.287181 0.701245 0.510406
0.516432 0.715044 0.524205
0.718479 0.715797 0.524959
0.930514 0.730054 0.539215
0.081343 0.901632 0.510333
0.301938 0.916155 0.524856
0.530882 0.929954 0.538655
0.732735 0.930514 0.539215
0.930514 0.930514 0.539215
0.066586 0.066586 0.686722
0.272349 0.066586 0.686722
0.467857 0.066586 0.686722
0.689597 0.066783 0.686915
0.901632 0.081343 0.701171
0.066586 0.271311 0.686722
0.287106 0.286068 0.701171
0.502560 0.286068 0.701171
0.704046 0.286266 0.701365
0.916082 0.300826 0.715621
0.066586 0.475795 0.686722
0.287181 0.510406 0.701245
0.516432 0.524205 0.715044
0.718479 0.524959 0.715797
0.930514 0.539215 0.730054
0.066586 0.686722 0.686722
0.287181 0.701245 0.701245
0.516432 0.715044 0.715044
0.732235 0.729553 0.729553
0.944270 0.743810 0.743810
0.081343 0.901632 0.701171
0.301938 0.916155 0.715694
0.530882 0.929954 0.729493
0.746491 0.944270 0.743810
0.944270 0.944270 0.743810
0.081343 0.081343 0.901632
0.287106 0.081343 0.901632
0.502560 0.081343 0.901632
0.703853 0.081343 0.901632
0.901632 0.081343 0.901632
0.081343 0.286068 0.901632
0.301863 0.300826 0.916082
0.517009 0.300826 0.916082
0.718303 0.300826 0.916082
0.916082 0.300826 0.916082
0.081343 0.510333 0.901632
0.301938 0.524856 0.916155
0.530882 0.538655 0.929954
0.732735 0.539215 0.930514
0.930514 0.539215 0.930514
0.081343 0.701171 0.901632
0.301938 0.715694 0.916155
0.530882 0.729493 0.929954
0.746491 0.743810 0.944270
0.944270 0.743810 0.944270
0.081343 0.901632 0.901632
0.301938 0.916155 0.916155
0.530882 0.929954 0.929954
0.746685 0.944464 0.944464
0.958720 0.958720 0.958720
