docs/luts/fuji_recipes/Astia_NZD_Classic_Chrome.cube
TITLE "Fujifilm Recipe: NZD Classic Chrome (Astia)"
# FilmSim=Astia HL=1 SH=-2 Col=1 WB=Auto WBR=0 WBB=0
LUT_3D_SIZE 9
DOMAIN_MIN 0.0 0.0 0.0
DOMAIN_MAX 1.0 1.0 1.0
0.102080 0.102080 0.102080
0.216760 0.100312 0.100312
0.331231 0.098547 0.098547
0.445702 0.096782 0.096782
0.548961 0.095190 0.095190
0.631200 0.096086 0.096086
0.760685 0.093081 0.093081
0.890171 0.090077 0.090077
1.000000 0.102312 0.102312
0.100322 0.216078 0.100322
0.216760 0.216067 0.100312
0.331231 0.214302 0.098547
0.445702 0.212537 0.096782
0.548961 0.210945 0.095190
0.631200 0.211842 0.096086
0.760685 0.208837 0.093081
0.890171 0.205832 0.090077
1.000000 0.214292 0.102312
0.098565 0.330075 0.098565
0.215013 0.330075 0.098565
0.331231 0.330058 0.098547
0.445702 0.328293 0.096782
0.548961 0.326700 0.095190
0.631200 0.327597 0.096086
0.760685 0.324592 0.093081
0.890171 0.321587 0.090077
1.000000 0.326271 0.102312
0.096807 0.444073 0.096807
0.213255 0.444073 0.096807
0.329491 0.444073 0.096807
0.445702 0.444048 0.096782
0.548961 0.442456 0.095190
0.631200 0.443352 0.096086
0.760685 0.440348 0.093081
0.890171 0.437343 0.090077
1.000000 0.438250 0.102312
0.095053 0.557802 0.095053
0.211501 0.557802 0.095053
0.327738 0.557802 0.095053
0.443974 0.557802 0.095053
0.548824 0.557802 0.095053
0.631200 0.558834 0.096086
0.760685 0.555830 0.093081
0.890171 0.506127 0.090077
1.000000 0.505811 0.102312
0.096154 0.628285 0.096154
0.212602 0.628285 0.096154
0.328838 0.628285 0.096154
0.445074 0.628285 0.096154
0.549925 0.628285 0.096154
0.631200 0.628242 0.096086
0.760685 0.626330 0.093081
0.890171 0.624419 0.090077
1.000000 0.620244 0.102312
0.093162 0.757235 0.093162
0.209609 0.757235 0.093162
0.325846 0.757235 0.093162
0.442082 0.757235 0.093162
0.546932 0.757235 0.093162
0.629339 0.757235 0.093162
0.760685 0.757184 0.093081
0.890171 0.755273 0.090077
1.000000 0.746829 0.102312
0.090169 0.886185 0.090169
0.206617 0.886185 0.090169
0.322853 0.886185 0.090169
0.439090 0.886185 0.090169
0.543940 0.886185 0.090169
0.627435 0.886185 0.090169
0.758832 0.886185 0.090169
0.890171 0.886126 0.090077
1.000000 0.873415 0.102312
0.102312 1.000000 0.102312
0.214961 1.000000 0.102312
0.327406 1.000000 0.102312
0.439851 1.000000 0.102312
0.495994 1.000000 0.102312
0.623105 1.000000 0.102312
0.750216 1.000000 0.102312
0.877327 1.000000 0.102312
1.000000 1.000000 0.102312
0.100322 0.100322 0.216078
0.216760 0.100312 0.216067
0.331231 0.098547 0.214302
0.445702 0.096782 0.212537
0.548961 0.095190 0.210945
0.631200 0.096086 0.211842
0.760685 0.093081 0.208837
0.890171 0.090077 0.205832
1.000000 0.102312 0.214292
0.100322 0.216078 0.216078
0.215002 0.214309 0.214309
0.329473 0.212545 0.212545
0.443945 0.210780 0.210780
0.547203 0.209187 0.209187
0.630447 0.210001 0.210001
0.759933 0.206996 0.206996
0.889419 0.203991 0.203991
1.000000 0.215474 0.215474
0.098565 0.330075 0.214320
0.213255 0.328318 0.212562
0.329473 0.328300 0.212545
0.443945 0.326535 0.210780
0.547203 0.324943 0.209187
0.630447 0.325756 0.210001
0.759933 0.322751 0.206996
0.889419 0.319747 0.203991
1.000000 0.327136 0.215474
0.096807 0.444073 0.212562
0.211497 0.442315 0.210805
0.327733 0.442315 0.210805
0.443945 0.442290 0.210780
0.547203 0.440698 0.209187
0.630447 0.441512 0.210001
0.759933 0.438507 0.206996
0.889419 0.435502 0.203991
1.000000 0.438797 0.215474
0.095053 0.557802 0.210809
0.209744 0.556044 0.209051
0.325980 0.556044 0.209051
0.442216 0.556044 0.209051
0.547067 0.556044 0.209051
0.630447 0.556994 0.210001
0.759933 0.507286 0.206996
0.889419 0.505374 0.203991
1.000000 0.507215 0.215474
0.096154 0.628285 0.211909
0.210761 0.627533 0.210068
0.326997 0.627533 0.210068
0.443234 0.627533 0.210068
0.548084 0.627533 0.210068
0.630447 0.627490 0.210001
0.759933 0.625578 0.206996
0.889419 0.623666 0.203991
1.000000 0.621323 0.215474
0.093162 0.757235 0.208917
0.207769 0.756483 0.207076
0.324005 0.756483 0.207076
0.440241 0.756483 0.207076
0.545092 0.756483 0.207076
0.628586 0.756483 0.207076
0.759933 0.756432 0.206996
0.889419 0.754520 0.203991
1.000000 0.747549 0.215474
0.090169 0.886185 0.205925
0.204776 0.885433 0.204084
0.321013 0.885433 0.204084
0.437249 0.885433 0.204084
0.495285 0.885433 0.204084
0.626683 0.885433 0.204084
0.758080 0.885433 0.204084
0.889419 0.885374 0.203991
1.000000 0.873774 0.215474
0.102312 1.000000 0.214292
0.216143 1.000000 0.215474
0.328268 1.000000 0.215474
0.440393 1.000000 0.215474
0.497426 1.000000 0.215474
0.624176 1.000000 0.215474
0.750926 1.000000 0.215474
0.877676 1.000000 0.215474
1.000000 1.000000 0.215474
0.098565 0.098565 0.330075
0.215013 0.098565 0.330075
0.331231 0.098547 0.330058
0.445702 0.096782 0.328293
0.548961 0.095190 0.326700
0.631200 0.096086 0.327597
0.760685 0.093081 0.324592
0.890171 0.090077 0.321587
1.000000 0.102312 0.326271
0.098565 0.214320 0.330075
0.213255 0.212562 0.328318
0.329473 0.212545 0.328300
0.443945 0.210780 0.326535
0.547203 0.209187 0.324943
0.630447 0.210001 0.325756
0.759933 0.206996 0.322751
0.889419 0.203991 0.319747
1.000000 0.215474 0.327136
0.098565 0.330075 0.330075
0.213244 0.328307 0.328307
0.327716 0.326542 0.326542
0.442187 0.324777 0.324777
0.545445 0.323185 0.323185
0.629695 0.323915 0.323915
0.759181 0.320911 0.320911
0.888666 0.317906 0.317906
1.000000 0.328637 0.328637
0.096807 0.444073 0.328318
0.211487 0.442305 0.326549
0.325976 0.440558 0.324802
0.442187 0.440533 0.324777
0.545445 0.438940 0.323185
0.629695 0.439671 0.323915
0.759181 0.436666 0.320911
0.888666 0.433661 0.317906
1.000000 0.439875 0.328637
0.095053 0.557802 0.326564
0.209733 0.556033 0.324796
0.324222 0.554286 0.323049
0.440458 0.554286 0.323049
0.545309 0.554286 0.323049
0.629695 0.508446 0.323915
0.759181 0.506534 0.320911
0.888666 0.504622 0.317906
1.000000 0.509080 0.328637
0.096154 0.628285 0.327664
0.210750 0.627528 0.325813
0.325157 0.626781 0.323983
0.441393 0.626781 0.323983
0.546243 0.626781 0.323983
0.629695 0.626738 0.323915
0.759181 0.624826 0.320911
0.888666 0.622914 0.317906
1.000000 0.622756 0.328637
0.093162 0.757235 0.324672
0.207758 0.756478 0.322821
0.322164 0.755731 0.320991
0.438401 0.755731 0.320991
0.496437 0.755731 0.320991
0.627834 0.755731 0.320991
0.759181 0.755680 0.320911
0.888666 0.753768 0.317906
1.000000 0.748504 0.328637
0.090169 0.886185 0.321680
0.204765 0.885428 0.319828
0.319172 0.884681 0.317999
0.435408 0.884681 0.317999
0.494533 0.884681 0.317999
0.625930 0.884681 0.317999
0.757328 0.884681 0.317999
0.888666 0.884622 0.317906
1.000000 0.874252 0.328637
0.102312 1.000000 0.326271
0.216151 1.000000 0.327142
0.329764 1.000000 0.328637
0.441465 1.000000 0.328637
0.499328 1.000000 0.328637
0.625599 1.000000 0.328637
0.751869 1.000000 0.328637
0.878139 1.000000 0.328637
1.000000 1.000000 0.328637
0.096807 0.096807 0.444073
0.213255 0.096807 0.444073
0.329491 0.096807 0.444073
0.445702 0.096782 0.444048
0.548961 0.095190 0.442456
0.631200 0.096086 0.443352
0.760685 0.093081 0.440348
0.890171 0.090077 0.437343
1.000000 0.102312 0.438250
0.096807 0.212562 0.444073
0.211497 0.210805 0.442315
0.327733 0.210805 0.442315
0.443945 0.210780 0.442290
0.547203 0.209187 0.440698
0.630447 0.210001 0.441512
0.759933 0.206996 0.438507
0.889419 0.203991 0.435502
1.000000 0.215474 0.438797
0.096807 0.328318 0.444073
0.211487 0.326549 0.442305
0.325976 0.324802 0.440558
0.442187 0.324777 0.440533
0.545445 0.323185 0.438940
0.629695 0.323915 0.439671
0.759181 0.320911 0.436666
0.888666 0.317906 0.433661
1.000000 0.328637 0.439875
0.096807 0.444073 0.444073
0.211487 0.442305 0.442305
0.325958 0.440540 0.440540
0.440429 0.438775 0.438775
0.543688 0.437183 0.437183
0.628943 0.437830 0.437830
0.758428 0.434825 0.434825
0.887914 0.431821 0.431821
1.000000 0.441799 0.441799
0.095053 0.557802 0.442320
0.209733 0.556033 0.440551
0.324204 0.554268 0.438786
0.442257 0.509458 0.440603
0.544236 0.506586 0.437731
0.628943 0.507693 0.437830
0.758428 0.505782 0.434825
0.887914 0.503870 0.431821
1.000000 0.511678 0.441799
0.096154 0.628285 0.443420
0.210750 0.627528 0.441568
0.325138 0.626773 0.439720
0.439552 0.626028 0.437898
0.497588 0.626028 0.437898
0.628943 0.625985 0.437830
0.758428 0.624073 0.434825
0.887914 0.622162 0.431821
1.000000 0.624753 0.441799
0.093162 0.757235 0.440428
0.207758 0.756478 0.438576
0.322146 0.755723 0.436728
0.436560 0.754978 0.434906
0.495684 0.754978 0.434906
0.627082 0.754978 0.434906
0.758428 0.754927 0.434825
0.887914 0.753015 0.431821
1.000000 0.749835 0.441799
0.090169 0.886185 0.437435
0.204765 0.885428 0.435584
0.319153 0.884673 0.433735
0.433568 0.883928 0.431913
0.493780 0.883928 0.431913
0.625178 0.883928 0.431913
0.756575 0.883928 0.431913
0.887914 0.883869 0.431821
1.000000 0.874918 0.441799
0.102312 1.000000 0.438250
0.216151 1.000000 0.438801
0.329784 1.000000 0.439890
0.443380 1.000000 0.441799
0.501978 1.000000 0.441799
0.627580 1.000000 0.441799
0.753182 1.000000 0.441799
0.878784 1.000000 0.441799
1.000000 1.000000 0.441799
0.095053 0.095053 0.557802
0.211501 0.095053 0.557802
0.327738 0.095053 0.557802
0.443974 0.095053 0.557802
0.548824 0.095053 0.557802
0.631200 0.096086 0.558834
0.760685 0.093081 0.555830
0.890171 0.090077 0.506127
1.000000 0.102312 0.505811
0.095053 0.210809 0.557802
0.209744 0.209051 0.556044
0.325980 0.209051 0.556044
0.442216 0.209051 0.556044
0.547067 0.209051 0.556044
0.630447 0.210001 0.556994
0.759933 0.206996 0.507286
0.889419 0.203991 0.505374
1.000000 0.215474 0.507215
0.095053 0.326564 0.557802
0.209733 0.324796 0.556033
0.324222 0.323049 0.554286
0.440458 0.323049 0.554286
0.545309 0.323049 0.554286
0.629695 0.323915 0.508446
0.759181 0.320911 0.506534
0.888666 0.317906 0.504622
1.000000 0.328637 0.509080
0.095053 0.442320 0.557802
0.209733 0.440551 0.556033
0.324204 0.438786 0.554268
0.442257 0.440603 0.509458
0.544236 0.437731 0.506586
0.628943 0.437830 0.507693
0.758428 0.434825 0.505782
0.887914 0.431821 0.503870
1.000000 0.441799 0.511678
0.095053 0.557802 0.557802
0.209733 0.556033 0.556033
0.324204 0.554268 0.554268
0.442231 0.509447 0.509447
0.502186 0.512335 0.512335
0.631589 0.510339 0.510339
0.760991 0.508344 0.508344
0.890393 0.506349 0.506349
1.000000 0.519700 0.519700
0.096154 0.628285 0.558902
0.210750 0.627528 0.557050
0.325138 0.626773 0.508481
0.439526 0.626018 0.507726
0.500390 0.628830 0.510538
0.631589 0.628631 0.510339
0.760991 0.626636 0.508344
0.890393 0.624641 0.506349
1.000000 0.630917 0.519700
0.093162 0.757235 0.555910
0.207758 0.756478 0.507333
0.322146 0.755723 0.506577
0.436534 0.754967 0.505822
0.498403 0.757697 0.508551
0.629647 0.757543 0.508397
0.760991 0.757490 0.508344
0.890393 0.755495 0.506349
1.000000 0.753945 0.519700
0.090169 0.886185 0.506186
0.204765 0.885428 0.505429
0.319153 0.884673 0.504673
0.433541 0.883917 0.503918
0.496416 0.886564 0.506564
0.627660 0.886410 0.506410
0.759057 0.886410 0.506410
0.890393 0.886349 0.506349
1.000000 0.876972 0.519700
0.102312 1.000000 0.505811
0.216151 1.000000 0.507225
0.329784 1.000000 0.509102
0.443416 1.000000 0.511723
0.509860 1.000000 0.519408
0.633698 1.000000 0.519700
0.757237 1.000000 0.519700
0.880775 1.000000 0.519700
1.000000 1.000000 0.519700
0.096154 0.096154 0.628285
0.212602 0.096154 0.628285
0.328838 0.096154 0.628285
0.445074 0.096154 0.628285
0.549925 0.096154 0.628285
0.631200 0.096086 0.628242
0.760685 0.093081 0.626330
0.890171 0.090077 0.624419
1.000000 0.102312 0.620244
0.096154 0.211909 0.628285
0.210761 0.210068 0.627533
0.326997 0.210068 0.627533
0.443234 0.210068 0.627533
0.548084 0.210068 0.627533
0.630447 0.210001 0.627490
0.759933 0.206996 0.625578
0.889419 0.203991 0.623666
1.000000 0.215474 0.621323
0.096154 0.327664 0.628285
0.210750 0.325813 0.627528
0.325157 0.323983 0.626781
0.441393 0.323983 0.626781
0.546243 0.323983 0.626781
0.629695 0.323915 0.626738
0.759181 0.320911 0.624826
0.888666 0.317906 0.622914
1.000000 0.328637 0.622756
0.096154 0.443420 0.628285
0.210750 0.441568 0.627528
0.325138 0.439720 0.626773
0.439552 0.437898 0.626028
0.497588 0.437898 0.626028
0.628943 0.437830 0.625985
0.758428 0.434825 0.624073
0.887914 0.431821 0.622162
1.000000 0.441799 0.624753
0.096154 0.558902 0.628285
0.210750 0.557050 0.627528
0.325138 0.508481 0.626773
0.439526 0.507726 0.626018
0.500390 0.510538 0.628830
0.631589 0.510339 0.628631
0.760991 0.508344 0.626636
0.890393 0.506349 0.624641
1.000000 0.519700 0.630917
0.096154 0.628285 0.628285
0.210750 0.627528 0.627528
0.325138 0.626773 0.626773
0.439526 0.626018 0.626018
0.500390 0.628830 0.628830
0.629793 0.626835 0.626835
0.759195 0.624840 0.624840
0.888597 0.622845 0.622845
1.000000 0.634400 0.634400
0.093162 0.757235 0.626381
0.207758 0.756478 0.625625
0.322146 0.755723 0.624869
0.436534 0.754967 0.624114
0.498403 0.757697 0.626843
0.627850 0.755747 0.624893
0.759195 0.755694 0.624840
0.888597 0.753699 0.622845
1.000000 0.756267 0.634400
0.090169 0.886185 0.624477
0.204765 0.885428 0.623721
0.319153 0.884673 0.622965
0.433541 0.883917 0.622210
0.496416 0.886564 0.624856
0.625864 0.884614 0.622906
0.757261 0.884614 0.622906
0.888597 0.884552 0.622845
1.000000 0.878133 0.634400
0.102312 1.000000 0.620244
0.216151 1.000000 0.621330
0.329784 1.000000 0.622773
0.443416 1.000000 0.624787
0.509860 1.000000 0.630692
0.637154 1.000000 0.634400
0.759527 1.000000 0.634400
0.881900 1.000000 0.634400
1.000000 1.000000 0.634400
0.093162 0.093162 0.757235
0.209609 0.093162 0.757235
0.325846 0.093162 0.757235
0.442082 0.093162 0.757235
0.546932 0.093162 0.757235
0.629339 0.093162 0.757235
0.760685 0.093081 0.757184
0.890171 0.090077 0.755273
1.000000 0.102312 0.746829
0.093162 0.208917 0.757235
0.207769 0.207076 0.756483
0.324005 0.207076 0.756483
0.440241 0.207076 0.756483
0.545092 0.207076 0.756483
0.628586 0.207076 0.756483
0.759933 0.206996 0.756432
0.889419 0.203991 0.754520
1.000000 0.215474 0.747549
0.093162 0.324672 0.757235
0.207758 0.322821 0.756478
0.322164 0.320991 0.755731
0.438401 0.320991 0.755731
0.496437 0.320991 0.755731
0.627834 0.320991 0.755731
0.759181 0.320911 0.755680
0.888666 0.317906 0.753768
1.000000 0.328637 0.748504
0.093162 0.440428 0.757235
0.207758 0.438576 0.756478
0.322146 0.436728 0.755723
0.436560 0.434906 0.754978
0.495684 0.434906 0.754978
0.627082 0.434906 0.754978
0.758428 0.434825 0.754927
0.887914 0.431821 0.753015
1.000000 0.441799 0.749835
0.093162 0.555910 0.757235
0.207758 0.507333 0.756478
0.322146 0.506577 0.755723
0.436534 0.505822 0.754967
0.498403 0.508551 0.757697
0.629647 0.508397 0.757543
0.760991 0.508344 0.757490
0.890393 0.506349 0.755495
1.000000 0.519700 0.753945
0.093162 0.626381 0.757235
0.207758 0.625625 0.756478
0.322146 0.624869 0.755723
0.436534 0.624114 0.754967
0.498403 0.626843 0.757697
0.627850 0.624893 0.755747
0.759195 0.624840 0.755694
0.888597 0.622845 0.753699
1.000000 0.634400 0.756267
0.093162 0.757235 0.757235
0.207758 0.756478 0.756478
0.322146 0.755723 0.755723
0.436534 0.754967 0.754967
0.498403 0.757697 0.757697
0.627806 0.755702 0.755702
0.757208 0.753707 0.753707
0.886610 0.751712 0.751712
1.000000 0.761280 0.761280
0.090169 0.886185 0.755331
0.204765 0.885428 0.754575
0.319153 0.884673 0.753819
0.433541 0.883917 0.753064
0.496416 0.886564 0.755710
0.625819 0.884569 0.753715
0.755274 0.882627 0.751773
0.886610 0.882566 0.751712
1.000000 0.880640 0.761280
0.102312 1.000000 0.746829
0.216151 1.000000 0.747554
0.329784 1.000000 0.748516
0.443416 1.000000 0.749858
0.509860 1.000000 0.753795
0.637268 1.000000 0.756343
0.764474 1.000000 0.761280
0.884329 1.000000 0.761280
1.000000 1.000000 0.761280
0.090169 0.090169 0.886185
0.206617 0.090169 0.886185
0.322853 0.090169 0.886185
0.439090 0.090169 0.886185
0.543940 0.090169 0.886185
0.627435 0.090169 0.886185
0.758832 0.090169 0.886185
0.890171 0.090077 0.886126
1.000000 0.102312 0.873415
0.090169 0.205925 0.886185
0.204776 0.204084 0.885433
0.321013 0.204084 0.885433
0.437249 0.204084 0.885433
0.495285 0.204084 0.885433
0.626683 0.204084 0.885433
0.758080 0.204084 0.885433
0.889419 0.203991 0.885374
1.000000 0.215474 0.873774
0.090169 0.321680 0.886185
0.204765 0.319828 0.885428
0.319172 0.317999 0.884681
0.435408 0.317999 0.884681
0.494533 0.317999 0.884681
0.625930 0.317999 0.884681
0.757328 0.317999 0.884681
0.888666 0.317906 0.884622
1.000000 0.328637 0.874252
0.090169 0.437435 0.886185
0.204765 0.435584 0.885428
0.319153 0.433735 0.884673
0.433568 0.431913 0.883928
0.493780 0.431913 0.883928
0.625178 0.431913 0.883928
0.756575 0.431913 0.883928
0.887914 0.431821 0.883869
1.000000 0.441799 0.874918
0.090169 0.506186 0.886185
0.204765 0.505429 0.885428
0.319153 0.504673 0.884673
0.433541 0.503918 0.883917
0.496416 0.506564 0.886564
0.627660 0.506410 0.886410
0.759057 0.506410 0.886410
0.890393 0.506349 0.886349
1.000000 0.519700 0.876972
0.090169 0.624477 0.886185
0.204765 0.623721 0.885428
0.319153 0.622965 0.884673
0.433541 0.622210 0.883917
0.496416 0.624856 0.886564
0.625864 0.622906 0.884614
0.757261 0.622906 0.884614
0.888597 0.622845 0.884552
1.000000 0.634400 0.878133
0.090169 0.755331 0.886185
0.204765 0.754575 0.885428
0.319153 0.753819 0.884673
0.433541 0.753064 0.883917
0.496416 0.755710 0.886564
0.625819 0.753715 0.884569
0.755274 0.751773 0.882627
0.886610 0.751712 0.882566
1.000000 0.761280 0.880640
0.090169 0.886185 0.886185
0.204765 0.885428 0.885428
0.319153 0.884673 0.884673
0.433541 0.883917 0.883917
0.496416 0.886564 0.886564
0.625819 0.884569 0.884569
0.755221 0.882574 0.882574
0.884623 0.880579 0.880579
1.000000 0.888160 0.888160
0.102312 1.000000 0.873415
0.216151 1.000000 0.873777
0.329784 1.000000 0.874258
0.443416 1.000000 0.874929
0.509860 1.000000 0.876897
0.637268 1.000000 0.878171
0.764675 1.000000 0.880742
0.891617 1.000000 0.888160
1.000000 1.000000 0.888160
0.102312 0.102312 1.000000
0.214961 0.102312 1.000000
0.327406 0.102312 1.000000
0.439851 0.102312 1.000000
0.495994 0.102312 1.000000
0.623105 0.102312 1.000000
0.750216 0.102312 1.000000
0.877327 0.102312 1.000000
1.000000 0.102312 1.000000
0.102312 0.214292 1.000000
0.216143 0.215474 1.000000
0.328268 0.215474 1.000000
0.440393 0.215474 1.000000
0.497426 0.215474 1.000000
0.624176 0.215474 1.000000
0.750926 0.215474 1.000000
0.877676 0.215474 1.000000
1.000000 0.215474 1.000000
0.102312 0.326271 1.000000
0.216151 0.327142 1.000000
0.329764 0.328637 1.000000
0.441465 0.328637 1.000000
0.499328 0.328637 1.000000
0.625599 0.328637 1.000000
0.751869 0.328637 1.000000
0.878139 0.328637 1.000000
1.000000 0.328637 1.000000
0.102312 0.438250 1.000000
0.216151 0.438801 1.000000
0.329784 0.439890 1.000000
0.443380 0.441799 1.000000
0.501978 0.441799 1.000000
0.627580 0.441799 1.000000
0.753182 0.441799 1.000000
0.878784 0.441799 1.000000
1.000000 0.441799 1.000000
0.102312 0.505811 1.000000
0.216151 0.507225 1.000000
0.329784 0.509102 1.000000
0.443416 0.511723 1.000000
0.509860 0.519408 1.000000
0.633698 0.519700 1.000000
0.757237 0.519700 1.000000
0.880775 0.519700 1.000000
1.000000 0.519700 1.000000
0.102312 0.620244 1.000000
0.216151 0.621330 1.000000
0.329784 0.622773 1.000000
0.443416 0.624787 1.000000
0.509860 0.630692 1.000000
0.637154 0.634400 1.000000
0.759527 0.634400 1.000000
0.881900 0.634400 1.000000
1.000000 0.634400 1.000000
0.102312 0.746829 1.000000
0.216151 0.747554 1.000000
0.329784 0.748516 1.000000
0.443416 0.749858 1.000000
0.509860 0.753795 1.000000
0.637268 0.756343 1.000000
0.764474 0.761280 1.000000
0.884329 0.761280 1.000000
1.000000 0.761280 1.000000
0.102312 0.873415 1.000000
0.216151 0.873777 1.000000
0.329784 0.874258 1.000000
0.443416 0.874929 1.000000
0.509860 0.876897 1.000000
0.637268 0.878171 1.000000
0.764675 0.880742 1.000000
0.891617 0.888160 1.000000
1.000000 0.888160 1.000000
0.102312 1.000000 1.000000
0.216151 1.000000 1.000000
0.329784 1.000000 1.000000
0.443416 1.000000 1.000000
0.509860 1.000000 1.000000
0.637268 1.000000 1.000000
0.764675 1.000000 1.000000
0.892082 1.000000 1.000000
1.000000 1.000000 1.000000
