docs/luts/fuji_recipes/Astia_NZD_Classic_Chrome.cube
TITLE "Fujifilm Recipe: NZD Classic Chrome (Astia)"
# FilmSim=Astia HL=1 SH=-2 Col=1 WB=Auto WBR=0 WBB=0
LUT_3D_SIZE 33
DOMAIN_MIN 0.0 0.0 0.0
DOMAIN_MAX 1.0 1.0 1.0
0.102080 0.102080 0.102080
0.130864 0.101636 0.101636
0.159524 0.101194 0.101194
0.188142 0.100753 0.100753
0.216760 0.100312 0.100312
0.245378 0.099871 0.099871
0.273995 0.099429 0.099429
0.302613 0.098988 0.098988
0.331231 0.098547 0.098547
0.359849 0.098106 0.098106
0.388467 0.097664 0.097664
0.417084 0.097223 0.097223
0.445702 0.096782 0.096782
0.474320 0.096341 0.096341
0.502938 0.095899 0.095899
0.531556 0.095458 0.095458
0.548961 0.095190 0.095190
0.534085 0.098340 0.098340
0.566457 0.097588 0.097588
0.598828 0.096837 0.096837
0.631200 0.096086 0.096086
0.663571 0.095335 0.095335
0.695943 0.094584 0.094584
0.728314 0.093833 0.093833
0.760685 0.093081 0.093081
0.793057 0.092330 0.092330
0.825428 0.091579 0.091579
0.857800 0.090828 0.090828
0.890171 0.090077 0.090077
0.922543 0.089326 0.089326
0.954914 0.088574 0.088574
0.987285 0.087823 0.087823
1.000000 0.102312 0.102312
0.101641 0.130579 0.101641
0.130864 0.130575 0.101636
0.159524 0.130133 0.101194
0.188142 0.129692 0.100753
0.216760 0.129251 0.100312
0.245378 0.128809 0.099871
0.273995 0.128368 0.099429
0.302613 0.127927 0.098988
0.331231 0.127486 0.098547
0.359849 0.127044 0.098106
0.388467 0.126603 0.097664
0.417084 0.126162 0.097223
0.445702 0.125721 0.096782
0.474320 0.125279 0.096341
0.502938 0.124838 0.095899
0.531556 0.124397 0.095458
0.548961 0.124129 0.095190
0.534085 0.127279 0.098340
0.566457 0.126527 0.097588
0.598828 0.125776 0.096837
0.631200 0.125025 0.096086
0.663571 0.124274 0.095335
0.695943 0.123523 0.094584
0.728314 0.122771 0.093833
0.760685 0.122020 0.093081
0.793057 0.121269 0.092330
0.825428 0.120518 0.091579
0.857800 0.119767 0.090828
0.890171 0.119016 0.090077
0.922543 0.118264 0.089326
0.954914 0.117513 0.088574
0.987285 0.116762 0.087823
1.000000 0.130307 0.102312
0.101201 0.159079 0.101201
0.130429 0.159079 0.101201
0.159524 0.159072 0.101194
0.188142 0.158631 0.100753
0.216760 0.158189 0.100312
0.245378 0.157748 0.099871
0.273995 0.157307 0.099429
0.302613 0.156866 0.098988
0.331231 0.156425 0.098547
0.359849 0.155983 0.098106
0.388467 0.155542 0.097664
0.417084 0.155101 0.097223
0.445702 0.154660 0.096782
0.474320 0.154218 0.096341
0.502938 0.153777 0.095899
0.531556 0.153336 0.095458
0.548961 0.153067 0.095190
0.534085 0.156217 0.098340
0.566457 0.155466 0.097588
0.598828 0.154715 0.096837
0.631200 0.153964 0.096086
0.663571 0.153213 0.095335
0.695943 0.152461 0.094584
0.728314 0.151710 0.093833
0.760685 0.150959 0.093081
0.793057 0.150208 0.092330
0.825428 0.149457 0.091579
0.857800 0.148706 0.090828
0.890171 0.147954 0.090077
0.922543 0.147203 0.089326
0.954914 0.146452 0.088574
0.987285 0.145701 0.087823
1.000000 0.158302 0.102312
0.100762 0.187578 0.100762
0.129990 0.187578 0.100762
0.159091 0.187578 0.100762
0.188142 0.187570 0.100753
0.216760 0.187128 0.100312
0.245378 0.186687 0.099871
0.273995 0.186246 0.099429
0.302613 0.185805 0.098988
0.331231 0.185363 0.098547
0.359849 0.184922 0.098106
0.388467 0.184481 0.097664
0.417084 0.184040 0.097223
0.445702 0.183598 0.096782
0.474320 0.183157 0.096341
0.502938 0.182716 0.095899
0.531556 0.182275 0.095458
0.548961 0.182006 0.095190
0.534085 0.185156 0.098340
0.566457 0.184405 0.097588
0.598828 0.183654 0.096837
0.631200 0.182903 0.096086
0.663571 0.182151 0.095335
0.695943 0.181400 0.094584
0.728314 0.180649 0.093833
0.760685 0.179898 0.093081
0.793057 0.179147 0.092330
0.825428 0.178396 0.091579
0.857800 0.177644 0.090828
0.890171 0.176893 0.090077
0.922543 0.176142 0.089326
0.954914 0.175391 0.088574
0.987285 0.174640 0.087823
1.000000 0.186297 0.102312
0.100322 0.216078 0.100322
0.129551 0.216078 0.100322
0.158652 0.216078 0.100322
0.187711 0.216078 0.100322
0.216760 0.216067 0.100312
0.245378 0.215626 0.099871
0.273995 0.215185 0.099429
0.302613 0.214743 0.098988
0.331231 0.214302 0.098547
0.359849 0.213861 0.098106
0.388467 0.213420 0.097664
0.417084 0.212978 0.097223
0.445702 0.212537 0.096782
0.474320 0.212096 0.096341
0.502938 0.211655 0.095899
0.531556 0.211213 0.095458
0.548961 0.210945 0.095190
0.534085 0.214095 0.098340
0.566457 0.213344 0.097588
0.598828 0.212593 0.096837
0.631200 0.211842 0.096086
0.663571 0.211090 0.095335
0.695943 0.210339 0.094584
0.728314 0.209588 0.093833
0.760685 0.208837 0.093081
0.793057 0.208086 0.092330
0.825428 0.207334 0.091579
0.857800 0.206583 0.090828
0.890171 0.205832 0.090077
0.922543 0.205081 0.089326
0.954914 0.204330 0.088574
0.987285 0.203579 0.087823
1.000000 0.214292 0.102312
0.099883 0.244577 0.099883
0.129111 0.244577 0.099883
0.158213 0.244577 0.099883
0.187272 0.244577 0.099883
0.216331 0.244577 0.099883
0.245378 0.244565 0.099871
0.273995 0.244124 0.099429
0.302613 0.243682 0.098988
0.331231 0.243241 0.098547
0.359849 0.242800 0.098106
0.388467 0.242359 0.097664
0.417084 0.241917 0.097223
0.445702 0.241476 0.096782
0.474320 0.241035 0.096341
0.502938 0.240594 0.095899
0.531556 0.240152 0.095458
0.548961 0.239884 0.095190
0.534085 0.243034 0.098340
0.566457 0.242283 0.097588
0.598828 0.241532 0.096837
0.631200 0.240780 0.096086
0.663571 0.240029 0.095335
0.695943 0.239278 0.094584
0.728314 0.238527 0.093833
0.760685 0.237776 0.093081
0.793057 0.237024 0.092330
0.825428 0.236273 0.091579
0.857800 0.235522 0.090828
0.890171 0.234771 0.090077
0.922543 0.234020 0.089326
0.954914 0.233269 0.088574
0.987285 0.232517 0.087823
1.000000 0.242286 0.102312
0.099443 0.273077 0.099443
0.128672 0.273077 0.099443
0.157773 0.273077 0.099443
0.186832 0.273077 0.099443
0.215891 0.273077 0.099443
0.244950 0.273077 0.099443
0.273995 0.273062 0.099429
0.302613 0.272621 0.098988
0.331231 0.272180 0.098547
0.359849 0.271739 0.098106
0.388467 0.271297 0.097664
0.417084 0.270856 0.097223
0.445702 0.270415 0.096782
0.474320 0.269974 0.096341
0.502938 0.269532 0.095899
0.531556 0.269091 0.095458
0.548961 0.268823 0.095190
0.534085 0.271973 0.098340
0.566457 0.271222 0.097588
0.598828 0.270470 0.096837
0.631200 0.269719 0.096086
0.663571 0.268968 0.095335
0.695943 0.268217 0.094584
0.728314 0.267466 0.093833
0.760685 0.266714 0.093081
0.793057 0.265963 0.092330
0.825428 0.265212 0.091579
0.857800 0.264461 0.090828
0.890171 0.263710 0.090077
0.922543 0.262959 0.089326
0.954914 0.262207 0.088574
0.987285 0.261456 0.087823
1.000000 0.270281 0.102312
0.099004 0.301576 0.099004
0.128232 0.301576 0.099004
0.157334 0.301576 0.099004
0.186393 0.301576 0.099004
0.215452 0.301576 0.099004
0.244511 0.301576 0.099004
0.273570 0.301576 0.099004
0.302613 0.301560 0.098988
0.331231 0.301119 0.098547
0.359849 0.300677 0.098106
0.388467 0.300236 0.097664
0.417084 0.299795 0.097223
0.445702 0.299354 0.096782
0.474320 0.298912 0.096341
0.502938 0.298471 0.095899
0.531556 0.298030 0.095458
0.548961 0.297762 0.095190
0.534085 0.300912 0.098340
0.566457 0.300160 0.097588
0.598828 0.299409 0.096837
0.631200 0.298658 0.096086
0.663571 0.297907 0.095335
0.695943 0.297156 0.094584
0.728314 0.296404 0.093833
0.760685 0.295653 0.093081
0.793057 0.294902 0.092330
0.825428 0.294151 0.091579
0.857800 0.293400 0.090828
0.890171 0.292649 0.090077
0.922543 0.291897 0.089326
0.954914 0.291146 0.088574
0.987285 0.290395 0.087823
1.000000 0.298276 0.102312
0.098565 0.330075 0.098565
0.127793 0.330075 0.098565
0.156894 0.330075 0.098565
0.185953 0.330075 0.098565
0.215013 0.330075 0.098565
0.244072 0.330075 0.098565
0.273131 0.330075 0.098565
0.302190 0.330075 0.098565
0.331231 0.330058 0.098547
0.359849 0.329616 0.098106
0.388467 0.329175 0.097664
0.417084 0.328734 0.097223
0.445702 0.328293 0.096782
0.474320 0.327851 0.096341
0.502938 0.327410 0.095899
0.531556 0.326969 0.095458
0.548961 0.326700 0.095190
0.534085 0.329850 0.098340
0.566457 0.329099 0.097588
0.598828 0.328348 0.096837
0.631200 0.327597 0.096086
0.663571 0.326846 0.095335
0.695943 0.326095 0.094584
0.728314 0.325343 0.093833
0.760685 0.324592 0.093081
0.793057 0.323841 0.092330
0.825428 0.323090 0.091579
0.857800 0.322339 0.090828
0.890171 0.321587 0.090077
0.922543 0.320836 0.089326
0.954914 0.320085 0.088574
0.987285 0.319334 0.087823
1.000000 0.326271 0.102312
0.098125 0.358575 0.098125
0.127353 0.358575 0.098125
0.156455 0.358575 0.098125
0.185514 0.358575 0.098125
0.214573 0.358575 0.098125
0.243632 0.358575 0.098125
0.272691 0.358575 0.098125
0.301750 0.358575 0.098125
0.330809 0.358575 0.098125
0.359849 0.358555 0.098106
0.388467 0.358114 0.097664
0.417084 0.357673 0.097223
0.445702 0.357231 0.096782
0.474320 0.356790 0.096341
0.502938 0.356349 0.095899
0.531556 0.355908 0.095458
0.548961 0.355639 0.095190
0.534085 0.358789 0.098340
0.566457 0.358038 0.097588
0.598828 0.357287 0.096837
0.631200 0.356536 0.096086
0.663571 0.355785 0.095335
0.695943 0.355033 0.094584
0.728314 0.354282 0.093833
0.760685 0.353531 0.093081
0.793057 0.352780 0.092330
0.825428 0.352029 0.091579
0.857800 0.351277 0.090828
0.890171 0.350526 0.090077
0.922543 0.349775 0.089326
0.954914 0.349024 0.088574
0.987285 0.348273 0.087823
1.000000 0.354266 0.102312
0.097686 0.387074 0.097686
0.126914 0.387074 0.097686
0.156016 0.387074 0.097686
0.185075 0.387074 0.097686
0.214134 0.387074 0.097686
0.243193 0.387074 0.097686
0.272252 0.387074 0.097686
0.301311 0.387074 0.097686
0.330370 0.387074 0.097686
0.359429 0.387074 0.097686
0.388467 0.387053 0.097664
0.417084 0.386611 0.097223
0.445702 0.386170 0.096782
0.474320 0.385729 0.096341
0.502938 0.385288 0.095899
0.531556 0.384847 0.095458
0.548961 0.384578 0.095190
0.534085 0.387728 0.098340
0.566457 0.386977 0.097588
0.598828 0.386226 0.096837
0.631200 0.385475 0.096086
0.663571 0.384723 0.095335
0.695943 0.383972 0.094584
0.728314 0.383221 0.093833
0.760685 0.382470 0.093081
0.793057 0.381719 0.092330
0.825428 0.380967 0.091579
0.857800 0.380216 0.090828
0.890171 0.379465 0.090077
0.922543 0.378714 0.089326
0.954914 0.377963 0.088574
0.987285 0.377212 0.087823
1.000000 0.382261 0.102312
0.097246 0.415574 0.097246
0.126475 0.415574 0.097246
0.155576 0.415574 0.097246
0.184635 0.415574 0.097246
0.213694 0.415574 0.097246
0.242753 0.415574 0.097246
0.271812 0.415574 0.097246
0.300871 0.415574 0.097246
0.329931 0.415574 0.097246
0.358990 0.415574 0.097246
0.388049 0.415574 0.097246
0.417084 0.415550 0.097223
0.445702 0.415109 0.096782
0.474320 0.414668 0.096341
0.502938 0.414227 0.095899
0.531556 0.413785 0.095458
0.548961 0.413517 0.095190
0.534085 0.416667 0.098340
0.566457 0.415916 0.097588
0.598828 0.415165 0.096837
0.631200 0.414413 0.096086
0.663571 0.413662 0.095335
0.695943 0.412911 0.094584
0.728314 0.412160 0.093833
0.760685 0.411409 0.093081
0.793057 0.410658 0.092330
0.825428 0.409906 0.091579
0.857800 0.409155 0.090828
0.890171 0.408404 0.090077
0.922543 0.407653 0.089326
0.954914 0.406902 0.088574
0.987285 0.406150 0.087823
1.000000 0.410255 0.102312
0.096807 0.444073 0.096807
0.126035 0.444073 0.096807
0.155137 0.444073 0.096807
0.184196 0.444073 0.096807
0.213255 0.444073 0.096807
0.242314 0.444073 0.096807
0.271373 0.444073 0.096807
0.300432 0.444073 0.096807
0.329491 0.444073 0.096807
0.358550 0.444073 0.096807
0.387609 0.444073 0.096807
0.416668 0.444073 0.096807
0.445702 0.444048 0.096782
0.474320 0.443607 0.096341
0.502938 0.443165 0.095899
0.531556 0.442724 0.095458
0.548961 0.442456 0.095190
0.534085 0.445606 0.098340
0.566457 0.444855 0.097588
0.598828 0.444103 0.096837
0.631200 0.443352 0.096086
0.663571 0.442601 0.095335
0.695943 0.441850 0.094584
0.728314 0.441099 0.093833
0.760685 0.440348 0.093081
0.793057 0.439596 0.092330
0.825428 0.438845 0.091579
0.857800 0.438094 0.090828
0.890171 0.437343 0.090077
0.922543 0.436592 0.089326
0.954914 0.435840 0.088574
0.987285 0.435089 0.087823
1.000000 0.438250 0.102312
0.096368 0.472572 0.096368
0.125596 0.472572 0.096368
0.154697 0.472572 0.096368
0.183756 0.472572 0.096368
0.212815 0.472572 0.096368
0.241874 0.472572 0.096368
0.270934 0.472572 0.096368
0.299993 0.472572 0.096368
0.329052 0.472572 0.096368
0.358111 0.472572 0.096368
0.387170 0.472572 0.096368
0.416229 0.472572 0.096368
0.445288 0.472572 0.096368
0.474320 0.472546 0.096341
0.502938 0.472104 0.095899
0.531556 0.471663 0.095458
0.548961 0.471395 0.095190
0.534085 0.474545 0.098340
0.566457 0.473793 0.097588
0.598828 0.473042 0.096837
0.631200 0.472291 0.096086
0.663571 0.471540 0.095335
0.695943 0.470789 0.094584
0.728314 0.470038 0.093833
0.760685 0.469286 0.093081
0.793057 0.468535 0.092330
0.825428 0.467784 0.091579
0.857800 0.467033 0.090828
0.890171 0.466282 0.090077
0.922543 0.465530 0.089326
0.954914 0.464779 0.088574
0.987285 0.464028 0.087823
1.000000 0.466245 0.102312
0.095928 0.501072 0.095928
0.125156 0.501072 0.095928
0.154258 0.501072 0.095928
0.183317 0.501072 0.095928
0.212376 0.501072 0.095928
0.241435 0.501072 0.095928
0.270494 0.501072 0.095928
0.299553 0.501072 0.095928
0.328612 0.501072 0.095928
0.357671 0.501072 0.095928
0.386730 0.501072 0.095928
0.415789 0.501072 0.095928
0.444849 0.501072 0.095928
0.473908 0.501072 0.095928
0.502938 0.501043 0.095899
0.531556 0.500602 0.095458
0.548961 0.500333 0.095190
0.534085 0.503483 0.098340
0.566457 0.502732 0.097588
0.598828 0.501981 0.096837
0.631200 0.501230 0.096086
0.663571 0.500479 0.095335
0.695943 0.499728 0.094584
0.728314 0.498976 0.093833
0.760685 0.498225 0.093081
0.793057 0.497474 0.092330
0.825428 0.496723 0.091579
0.857800 0.495972 0.090828
0.890171 0.495220 0.090077
0.922543 0.494469 0.089326
0.954914 0.493718 0.088574
0.987285 0.492967 0.087823
1.000000 0.494240 0.102312
0.095489 0.529571 0.095489
0.124717 0.529571 0.095489
0.153818 0.529571 0.095489
0.182878 0.529571 0.095489
0.211937 0.529571 0.095489
0.240996 0.529571 0.095489
0.270055 0.529571 0.095489
0.299114 0.529571 0.095489
0.328173 0.529571 0.095489
0.357232 0.529571 0.095489
0.386291 0.529571 0.095489
0.415350 0.529571 0.095489
0.444409 0.529571 0.095489
0.473468 0.529571 0.095489
0.502527 0.529571 0.095489
0.531556 0.529541 0.095458
0.548961 0.529272 0.095190
0.534085 0.532422 0.098340
0.566457 0.531671 0.097588
0.598828 0.530920 0.096837
0.631200 0.530169 0.096086
0.663571 0.529418 0.095335
0.695943 0.528666 0.094584
0.728314 0.527915 0.093833
0.760685 0.527164 0.093081
0.793057 0.526413 0.092330
0.825428 0.525662 0.091579
0.857800 0.524911 0.090828
0.890171 0.524159 0.090077
0.922543 0.523408 0.089326
0.954914 0.522657 0.088574
0.987285 0.521906 0.087823
1.000000 0.522235 0.102312
0.095053 0.557802 0.095053
0.124282 0.557802 0.095053
0.153383 0.557802 0.095053
0.182442 0.557802 0.095053
0.211501 0.557802 0.095053
0.240560 0.557802 0.095053
0.269619 0.557802 0.095053
0.298679 0.557802 0.095053
0.327738 0.557802 0.095053
0.356797 0.557802 0.095053
0.385856 0.557802 0.095053
0.414915 0.557802 0.095053
0.443974 0.557802 0.095053
0.473033 0.557802 0.095053
0.502092 0.557802 0.095053
0.531151 0.557802 0.095053
0.548824 0.557802 0.095053
0.532026 0.559028 0.096280
0.566457 0.560337 0.097588
0.598828 0.559585 0.096837
0.631200 0.558834 0.096086
0.663571 0.558083 0.095335
0.695943 0.557332 0.094584
0.728314 0.556581 0.093833
0.760685 0.555830 0.093081
0.793057 0.555078 0.092330
0.825428 0.554327 0.091579
0.857800 0.506605 0.090828
0.890171 0.506127 0.090077
0.922543 0.505649 0.089326
0.954914 0.505171 0.088574
0.987285 0.504693 0.087823
1.000000 0.505811 0.102312
0.094783 0.575357 0.094783
0.124011 0.575357 0.094783
0.153112 0.575357 0.094783
0.182172 0.575357 0.094783
0.211231 0.575357 0.094783
0.240290 0.575357 0.094783
0.269349 0.575357 0.094783
0.298408 0.575357 0.094783
0.327467 0.575357 0.094783
0.356526 0.575357 0.094783
0.385585 0.575357 0.094783
0.414644 0.575357 0.094783
0.443703 0.575357 0.094783
0.472762 0.575357 0.094783
0.501821 0.575357 0.094783
0.530880 0.575357 0.094783
0.548554 0.575357 0.094783
0.530666 0.575495 0.094921
0.566457 0.531058 0.097588
0.598828 0.530580 0.096837
0.631200 0.530102 0.096086
0.663571 0.529624 0.095335
0.695943 0.529146 0.094584
0.728314 0.528668 0.093833
0.760685 0.528190 0.093081
0.793057 0.527712 0.092330
0.825428 0.527234 0.091579
0.857800 0.526756 0.090828
0.890171 0.526278 0.090077
0.922543 0.525800 0.089326
0.954914 0.525322 0.088574
0.987285 0.524844 0.087823
1.000000 0.525305 0.102312
0.097650 0.563810 0.097650
0.126878 0.563810 0.097650
0.155980 0.563810 0.097650
0.185039 0.563810 0.097650
0.214098 0.563810 0.097650
0.243157 0.563810 0.097650
0.272216 0.563810 0.097650
0.301275 0.563810 0.097650
0.330334 0.563810 0.097650
0.359393 0.563810 0.097650
0.388452 0.563810 0.097650
0.417511 0.563810 0.097650
0.446570 0.563810 0.097650
0.475629 0.563810 0.097650
0.504688 0.563810 0.097650
0.533748 0.563810 0.097650
0.551421 0.563810 0.097650
0.533647 0.563810 0.097650
0.566457 0.563771 0.097588
0.598828 0.563293 0.096837
0.631200 0.562815 0.096086
0.663571 0.562337 0.095335
0.695943 0.561859 0.094584
0.728314 0.561381 0.093833
0.760685 0.560904 0.093081
0.793057 0.560426 0.092330
0.825428 0.559948 0.091579
0.857800 0.559470 0.090828
0.890171 0.558992 0.090077
0.922543 0.558514 0.089326
0.954914 0.558036 0.088574
0.987285 0.557558 0.087823
1.000000 0.556951 0.102312
0.096902 0.596048 0.096902
0.126130 0.596048 0.096902
0.155232 0.596048 0.096902
0.184291 0.596048 0.096902
0.213350 0.596048 0.096902
0.242409 0.596048 0.096902
0.271468 0.596048 0.096902
0.300527 0.596048 0.096902
0.329586 0.596048 0.096902
0.358645 0.596048 0.096902
0.387704 0.596048 0.096902
0.416763 0.596048 0.096902
0.445822 0.596048 0.096902
0.474881 0.596048 0.096902
0.503940 0.596048 0.096902
0.532999 0.596048 0.096902
0.550673 0.596048 0.096902
0.533171 0.596048 0.096902
0.566020 0.596048 0.096902
0.598828 0.596007 0.096837
0.631200 0.595529 0.096086
0.663571 0.595051 0.095335
0.695943 0.594573 0.094584
0.728314 0.594095 0.093833
0.760685 0.593617 0.093081
0.793057 0.593139 0.092330
0.825428 0.592661 0.091579
0.857800 0.592183 0.090828
0.890171 0.591705 0.090077
0.922543 0.591227 0.089326
0.954914 0.590749 0.088574
0.987285 0.590271 0.087823
1.000000 0.588598 0.102312
0.096154 0.628285 0.096154
0.125382 0.628285 0.096154
0.154484 0.628285 0.096154
0.183543 0.628285 0.096154
0.212602 0.628285 0.096154
0.241661 0.628285 0.096154
0.270720 0.628285 0.096154
0.299779 0.628285 0.096154
0.328838 0.628285 0.096154
0.357897 0.628285 0.096154
0.386956 0.628285 0.096154
0.416015 0.628285 0.096154
0.445074 0.628285 0.096154
0.474133 0.628285 0.096154
0.503192 0.628285 0.096154
0.532251 0.628285 0.096154
0.549925 0.628285 0.096154
0.532695 0.628285 0.096154
0.565544 0.628285 0.096154
0.598393 0.628285 0.096154
0.631200 0.628242 0.096086
0.663571 0.627764 0.095335
0.695943 0.627286 0.094584
0.728314 0.626808 0.093833
0.760685 0.626330 0.093081
0.793057 0.625853 0.092330
0.825428 0.625375 0.091579
0.857800 0.624897 0.090828
0.890171 0.624419 0.090077
0.922543 0.623941 0.089326
0.954914 0.623463 0.088574
0.987285 0.622985 0.087823
1.000000 0.620244 0.102312
0.095406 0.660523 0.095406
0.124634 0.660523 0.095406
0.153735 0.660523 0.095406
0.182795 0.660523 0.095406
0.211854 0.660523 0.095406
0.240913 0.660523 0.095406
0.269972 0.660523 0.095406
0.299031 0.660523 0.095406
0.328090 0.660523 0.095406
0.357149 0.660523 0.095406
0.386208 0.660523 0.095406
0.415267 0.660523 0.095406
0.444326 0.660523 0.095406
0.473385 0.660523 0.095406
0.502444 0.660523 0.095406
0.531503 0.660523 0.095406
0.549177 0.660523 0.095406
0.532219 0.660523 0.095406
0.565068 0.660523 0.095406
0.597917 0.660523 0.095406
0.630767 0.660523 0.095406
0.663571 0.660478 0.095335
0.695943 0.660000 0.094584
0.728314 0.659522 0.093833
0.760685 0.659044 0.093081
0.793057 0.658566 0.092330
0.825428 0.658088 0.091579
0.857800 0.657610 0.090828
0.890171 0.657132 0.090077
0.922543 0.656654 0.089326
0.954914 0.656176 0.088574
0.987285 0.655698 0.087823
1.000000 0.651890 0.102312
0.094658 0.692760 0.094658
0.123886 0.692760 0.094658
0.152987 0.692760 0.094658
0.182046 0.692760 0.094658
0.211106 0.692760 0.094658
0.240165 0.692760 0.094658
0.269224 0.692760 0.094658
0.298283 0.692760 0.094658
0.327342 0.692760 0.094658
0.356401 0.692760 0.094658
0.385460 0.692760 0.094658
0.414519 0.692760 0.094658
0.443578 0.692760 0.094658
0.472637 0.692760 0.094658
0.501696 0.692760 0.094658
0.530755 0.692760 0.094658
0.548429 0.692760 0.094658
0.531743 0.692760 0.094658
0.564592 0.692760 0.094658
0.597441 0.692760 0.094658
0.630291 0.692760 0.094658
0.663140 0.692760 0.094658
0.695943 0.692713 0.094584
0.728314 0.692235 0.093833
0.760685 0.691757 0.093081
0.793057 0.691279 0.092330
0.825428 0.690801 0.091579
0.857800 0.690324 0.090828
0.890171 0.689846 0.090077
0.922543 0.689368 0.089326
0.954914 0.688890 0.088574
0.987285 0.688412 0.087823
1.000000 0.683537 0.102312
0.093910 0.724998 0.093910
0.123138 0.724998 0.093910
0.152239 0.724998 0.093910
0.181298 0.724998 0.093910
0.210357 0.724998 0.093910
0.239417 0.724998 0.093910
0.268476 0.724998 0.093910
0.297535 0.724998 0.093910
0.326594 0.724998 0.093910
0.355653 0.724998 0.093910
0.384712 0.724998 0.093910
0.413771 0.724998 0.093910
0.442830 0.724998 0.093910
0.471889 0.724998 0.093910
0.500948 0.724998 0.093910
0.530007 0.724998 0.093910
0.547680 0.724998 0.093910
0.531267 0.724998 0.093910
0.564116 0.724998 0.093910
0.596965 0.724998 0.093910
0.629815 0.724998 0.093910
0.662664 0.724998 0.093910
0.695514 0.724998 0.093910
0.728314 0.724949 0.093833
0.760685 0.724471 0.093081
0.793057 0.723993 0.092330
0.825428 0.723515 0.091579
0.857800 0.723037 0.090828
0.890171 0.722559 0.090077
0.922543 0.722081 0.089326
0.954914 0.721603 0.088574
0.987285 0.721125 0.087823
1.000000 0.715183 0.102312
0.093162 0.757235 0.093162
0.122390 0.757235 0.093162
0.151491 0.757235 0.093162
0.180550 0.757235 0.093162
0.209609 0.757235 0.093162
0.238668 0.757235 0.093162
0.267728 0.757235 0.093162
0.296787 0.757235 0.093162
0.325846 0.757235 0.093162
0.354905 0.757235 0.093162
0.383964 0.757235 0.093162
0.413023 0.757235 0.093162
0.442082 0.757235 0.093162
0.471141 0.757235 0.093162
0.500200 0.757235 0.093162
0.529259 0.757235 0.093162
0.546932 0.757235 0.093162
0.530791 0.757235 0.093162
0.563640 0.757235 0.093162
0.596489 0.757235 0.093162
0.629339 0.757235 0.093162
0.662188 0.757235 0.093162
0.695038 0.757235 0.093162
0.727887 0.757235 0.093162
0.760685 0.757184 0.093081
0.793057 0.756706 0.092330
0.825428 0.756228 0.091579
0.857800 0.755750 0.090828
0.890171 0.755273 0.090077
0.922543 0.754795 0.089326
0.954914 0.754317 0.088574
0.987285 0.753839 0.087823
1.000000 0.746829 0.102312
0.092413 0.789473 0.092413
0.121642 0.789473 0.092413
0.150743 0.789473 0.092413
0.179802 0.789473 0.092413
0.208861 0.789473 0.092413
0.237920 0.789473 0.092413
0.266979 0.789473 0.092413
0.296039 0.789473 0.092413
0.325098 0.789473 0.092413
0.354157 0.789473 0.092413
0.383216 0.789473 0.092413
0.412275 0.789473 0.092413
0.441334 0.789473 0.092413
0.470393 0.789473 0.092413
0.499452 0.789473 0.092413
0.528511 0.789473 0.092413
0.546184 0.789473 0.092413
0.530315 0.789473 0.092413
0.563164 0.789473 0.092413
0.596013 0.789473 0.092413
0.628863 0.789473 0.092413
0.661712 0.789473 0.092413
0.694562 0.789473 0.092413
0.727411 0.789473 0.092413
0.760260 0.789473 0.092413
0.793057 0.789420 0.092330
0.825428 0.788942 0.091579
0.857800 0.788464 0.090828
0.890171 0.787986 0.090077
0.922543 0.787508 0.089326
0.954914 0.787030 0.088574
0.987285 0.786552 0.087823
1.000000 0.778476 0.102312
0.091665 0.821710 0.091665
0.120894 0.821710 0.091665
0.149995 0.821710 0.091665
0.179054 0.821710 0.091665
0.208113 0.821710 0.091665
0.237172 0.821710 0.091665
0.266231 0.821710 0.091665
0.295290 0.821710 0.091665
0.324350 0.821710 0.091665
0.353409 0.821710 0.091665
0.382468 0.821710 0.091665
0.411527 0.821710 0.091665
0.440586 0.821710 0.091665
0.469645 0.821710 0.091665
0.498704 0.821710 0.091665
0.527763 0.821710 0.091665
0.545436 0.821710 0.091665
0.529839 0.821710 0.091665
0.562688 0.821710 0.091665
0.595537 0.821710 0.091665
0.628387 0.821710 0.091665
0.661236 0.821710 0.091665
0.694086 0.821710 0.091665
0.726935 0.821710 0.091665
