docs/luts/fuji_recipes/Astia_RR_Kodak_Ektar_100.cube
TITLE "Fujifilm Recipe: RR Kodak Ektar 100 (Astia)"
# FilmSim=Astia HL=1 SH=3 Col=4 WB=Auto WBR=3 WBB=-2
LUT_3D_SIZE 5
DOMAIN_MIN 0.0 0.0 0.0
DOMAIN_MAX 1.0 1.0 1.0
0.021120 0.021120 0.021120
0.274219 0.000000 0.000000
0.556491 0.000000 0.000000
0.827762 0.000000 0.000000
1.000000 0.018923 0.018923
0.000000 0.256960 0.000000
0.274219 0.253817 0.000000
0.556491 0.228447 0.000000
0.827762 0.222167 0.000000
1.000000 0.230598 0.018923
0.000000 0.471427 0.000000
0.254810 0.471427 0.000000
0.556491 0.456625 0.000000
0.827762 0.444072 0.000000
1.000000 0.511684 0.018923
0.000000 0.767622 0.000000
0.241090 0.767622 0.000000
0.546052 0.767622 0.000000
0.827762 0.764928 0.000000
1.000000 0.749838 0.018923
0.018923 1.000000 0.018923
0.247613 1.000000 0.018923
0.539664 1.000000 0.018923
0.809705 1.000000 0.018923
1.000000 1.000000 0.018923
0.000000 0.000000 0.246224
0.274219 0.000000 0.241126
0.556491 0.000000 0.217025
0.827762 0.000000 0.211059
1.000000 0.018923 0.220015
0.000000 0.256960 0.244112
0.260144 0.234198 0.218059
0.623240 0.155711 0.139572
0.967052 0.083170 0.067031
1.000000 0.235721 0.225243
0.000000 0.471427 0.224060
0.210519 0.506977 0.168434
0.623240 0.478114 0.139572
0.967052 0.512599 0.067031
1.000000 0.516591 0.225243
0.000000 0.767622 0.211995
0.125197 0.890830 0.083113
0.570335 0.890830 0.083113
0.967052 0.875761 0.067031
1.000000 0.752352 0.225243
0.018923 1.000000 0.220015
0.252564 1.000000 0.225243
0.544290 1.000000 0.225243
0.811617 1.000000 0.225243
1.000000 1.000000 0.225243
0.000000 0.000000 0.450208
0.255998 0.000000 0.450208
0.556491 0.000000 0.434049
0.827762 0.000000 0.422117
1.000000 0.018923 0.421106
0.000000 0.236952 0.450208
0.213157 0.187211 0.477717
0.620706 0.152965 0.443471
0.964517 0.080424 0.370930
1.000000 0.236102 0.492463
0.000000 0.471427 0.448120
0.203474 0.499932 0.468034
0.575087 0.532421 0.394045
0.896871 0.442418 0.404721
1.000000 0.518976 0.494624
0.000000 0.767622 0.423990
0.118037 0.884222 0.382598
0.500366 0.820861 0.420003
0.896871 0.805580 0.404721
1.000000 0.753574 0.494624
0.018923 1.000000 0.421106
0.253559 1.000000 0.493038
0.546538 1.000000 0.494624
0.812547 1.000000 0.494624
1.000000 1.000000 0.494624
0.000000 0.000000 0.729927
0.241853 0.000000 0.729927
0.547340 0.000000 0.729927
0.827762 0.000000 0.725544
1.000000 0.018923 0.712314
0.000000 0.223859 0.729927
0.132532 0.106586 0.840521
0.577246 0.106586 0.840521
0.964517 0.080424 0.816005
1.000000 0.236102 0.715398
0.000000 0.447454 0.729927
0.128117 0.530506 0.836446
0.503634 0.460968 0.766909
0.890561 0.436108 0.742049
1.000000 0.519700 0.717037
0.000000 0.767622 0.728063
0.118037 0.884222 0.827001
0.486914 0.807409 0.750188
0.839348 0.748057 0.690836
1.000000 0.759318 0.723216
0.018923 1.000000 0.712314
0.253559 1.000000 0.715720
0.548083 1.000000 0.717575
0.816916 1.000000 0.723216
1.000000 1.000000 0.723216
0.000000 0.000000 0.968663
0.238072 0.000000 0.968663
0.541526 0.000000 0.968663
0.822646 0.000000 0.968663
1.000000 0.018923 0.949968
0.000000 0.220359 0.968663
0.205040 0.185842 1.000000
0.537060 0.185842 1.000000
0.841744 0.185842 1.000000
1.000000 0.236102 0.950504
0.000000 0.512399 0.968663
0.203299 0.504566 1.000000
0.502850 0.468948 1.000000
0.830049 0.468948 1.000000
1.000000 0.519700 0.950789
0.000000 0.760323 0.968663
0.203299 0.773774 1.000000
0.497331 0.754818 1.000000
0.797121 0.710528 1.000000
1.000000 0.761280 0.952256
0.018923 1.000000 0.949968
0.253559 1.000000 0.950560
0.548083 1.000000 0.950883
0.822008 1.000000 0.953202
1.000000 1.000000 0.959965
