docs/luts/fuji_recipes/Astia_JP_Travel.cube
TITLE "Fujifilm Recipe: JP Travel (Astia)"
# FilmSim=Astia HL=-1 SH=1 Col=0 WB=Auto WBR=0 WBB=0
LUT_3D_SIZE 33
DOMAIN_MIN 0.0 0.0 0.0
DOMAIN_MAX 1.0 1.0 1.0
0.023040 0.023040 0.023040
0.050750 0.024903 0.024903
0.078339 0.026758 0.026758
0.105889 0.028610 0.028610
0.133438 0.030463 0.030463
0.160987 0.032315 0.032315
0.188537 0.034167 0.034167
0.216086 0.036020 0.036020
0.243635 0.037872 0.037872
0.271185 0.039724 0.039724
0.298734 0.041577 0.041577
0.326283 0.043429 0.043429
0.353833 0.045281 0.045281
0.381382 0.047133 0.047133
0.408931 0.048986 0.048986
0.436481 0.050838 0.050838
0.453236 0.051965 0.051965
0.500769 0.053817 0.053817
0.527744 0.055669 0.055669
0.554720 0.057521 0.057521
0.581695 0.059374 0.059374
0.608670 0.061226 0.061226
0.635646 0.063078 0.063078
0.662621 0.064931 0.064931
0.689597 0.066783 0.066783
0.716572 0.068635 0.068635
0.743547 0.070488 0.070488
0.770523 0.072340 0.072340
0.797498 0.074192 0.074192
0.824474 0.076045 0.076045
0.851449 0.077897 0.077897
0.878424 0.079749 0.079749
0.901632 0.081343 0.081343
0.024885 0.050475 0.024885
0.050750 0.050494 0.024903
0.078339 0.052349 0.026758
0.105889 0.054201 0.028610
0.133438 0.056053 0.030463
0.160987 0.057906 0.032315
0.188537 0.059758 0.034167
0.216086 0.061610 0.036020
0.243635 0.063463 0.037872
0.271185 0.065315 0.039724
0.298734 0.067167 0.041577
0.326283 0.069020 0.043429
0.353833 0.070872 0.045281
0.381382 0.072724 0.047133
0.408931 0.074576 0.048986
0.436481 0.076429 0.050838
0.453236 0.077555 0.051965
0.500769 0.079408 0.053817
0.527744 0.081260 0.055669
0.554720 0.083112 0.057521
0.581695 0.084965 0.059374
0.608670 0.086817 0.061226
0.635646 0.088669 0.063078
0.662621 0.090521 0.064931
0.689597 0.092374 0.066783
0.716572 0.094226 0.068635
0.743547 0.096078 0.070488
0.770523 0.097931 0.072340
0.797498 0.099783 0.074192
0.824474 0.101635 0.076045
0.851449 0.103488 0.077897
0.878424 0.105340 0.079749
0.901632 0.106933 0.081343
0.026729 0.077911 0.026729
0.052576 0.077911 0.026729
0.078339 0.077940 0.026758
0.105889 0.079792 0.028610
0.133438 0.081644 0.030463
0.160987 0.083496 0.032315
0.188537 0.085349 0.034167
0.216086 0.087201 0.036020
0.243635 0.089053 0.037872
0.271185 0.090906 0.039724
0.298734 0.092758 0.041577
0.326283 0.094610 0.043429
0.353833 0.096463 0.045281
0.381382 0.098315 0.047133
0.408931 0.100167 0.048986
0.436481 0.102019 0.050838
0.453236 0.103146 0.051965
0.500769 0.104998 0.053817
0.527744 0.106851 0.055669
0.554720 0.108703 0.057521
0.581695 0.110555 0.059374
0.608670 0.112408 0.061226
0.635646 0.114260 0.063078
0.662621 0.116112 0.064931
0.689597 0.117964 0.066783
0.716572 0.119817 0.068635
0.743547 0.121669 0.070488
0.770523 0.123521 0.072340
0.797498 0.125374 0.074192
0.824474 0.127226 0.076045
0.851449 0.129078 0.077897
0.878424 0.130931 0.079749
0.901632 0.132524 0.081343
0.028574 0.105346 0.028574
0.054421 0.105346 0.028574
0.080155 0.105346 0.028574
0.105889 0.105383 0.028610
0.133438 0.107235 0.030463
0.160987 0.109087 0.032315
0.188537 0.110939 0.034167
0.216086 0.112792 0.036020
0.243635 0.114644 0.037872
0.271185 0.116496 0.039724
0.298734 0.118349 0.041577
0.326283 0.120201 0.043429
0.353833 0.122053 0.045281
0.381382 0.123906 0.047133
0.408931 0.125758 0.048986
0.436481 0.127610 0.050838
0.453236 0.128737 0.051965
0.500769 0.130589 0.053817
0.527744 0.132441 0.055669
0.554720 0.134294 0.057521
0.581695 0.136146 0.059374
0.608670 0.137998 0.061226
0.635646 0.139851 0.063078
0.662621 0.141703 0.064931
0.689597 0.143555 0.066783
0.716572 0.145407 0.068635
0.743547 0.147260 0.070488
0.770523 0.149112 0.072340
0.797498 0.150964 0.074192
0.824474 0.152817 0.076045
0.851449 0.154669 0.077897
0.878424 0.156521 0.079749
0.901632 0.158115 0.081343
0.030419 0.132781 0.030419
0.056265 0.132781 0.030419
0.082000 0.132781 0.030419
0.107697 0.132781 0.030419
0.133438 0.132826 0.030463
0.160987 0.134678 0.032315
0.188537 0.136530 0.034167
0.216086 0.138382 0.036020
0.243635 0.140235 0.037872
0.271185 0.142087 0.039724
0.298734 0.143939 0.041577
0.326283 0.145792 0.043429
0.353833 0.147644 0.045281
0.381382 0.149496 0.047133
0.408931 0.151349 0.048986
0.436481 0.153201 0.050838
0.453236 0.154327 0.051965
0.500769 0.156180 0.053817
0.527744 0.158032 0.055669
0.554720 0.159884 0.057521
0.581695 0.161737 0.059374
0.608670 0.163589 0.061226
0.635646 0.165441 0.063078
0.662621 0.167294 0.064931
0.689597 0.169146 0.066783
0.716572 0.170998 0.068635
0.743547 0.172851 0.070488
0.770523 0.174703 0.072340
0.797498 0.176555 0.074192
0.824474 0.178407 0.076045
0.851449 0.180260 0.077897
0.878424 0.182112 0.079749
0.901632 0.183706 0.081343
0.032263 0.160217 0.032263
0.058110 0.160217 0.032263
0.083844 0.160217 0.032263
0.109541 0.160217 0.032263
0.135238 0.160217 0.032263
0.160987 0.160269 0.032315
0.188537 0.162121 0.034167
0.216086 0.163973 0.036020
0.243635 0.165826 0.037872
0.271185 0.167678 0.039724
0.298734 0.169530 0.041577
0.326283 0.171382 0.043429
0.353833 0.173235 0.045281
0.381382 0.175087 0.047133
0.408931 0.176939 0.048986
0.436481 0.178792 0.050838
0.453236 0.179918 0.051965
0.500769 0.181770 0.053817
0.527744 0.183623 0.055669
0.554720 0.185475 0.057521
0.581695 0.187327 0.059374
0.608670 0.189180 0.061226
0.635646 0.191032 0.063078
0.662621 0.192884 0.064931
0.689597 0.194737 0.066783
0.716572 0.196589 0.068635
0.743547 0.198441 0.070488
0.770523 0.200294 0.072340
0.797498 0.202146 0.074192
0.824474 0.203998 0.076045
0.851449 0.205850 0.077897
0.878424 0.207703 0.079749
0.901632 0.209296 0.081343
0.034108 0.187652 0.034108
0.059954 0.187652 0.034108
0.085689 0.187652 0.034108
0.111386 0.187652 0.034108
0.137083 0.187652 0.034108
0.162780 0.187652 0.034108
0.188537 0.187712 0.034167
0.216086 0.189564 0.036020
0.243635 0.191416 0.037872
0.271185 0.193269 0.039724
0.298734 0.195121 0.041577
0.326283 0.196973 0.043429
0.353833 0.198825 0.045281
0.381382 0.200678 0.047133
0.408931 0.202530 0.048986
0.436481 0.204382 0.050838
0.453236 0.205509 0.051965
0.500769 0.207361 0.053817
0.527744 0.209214 0.055669
0.554720 0.211066 0.057521
0.581695 0.212918 0.059374
0.608670 0.214770 0.061226
0.635646 0.216623 0.063078
0.662621 0.218475 0.064931
0.689597 0.220327 0.066783
0.716572 0.222180 0.068635
0.743547 0.224032 0.070488
0.770523 0.225884 0.072340
0.797498 0.227737 0.074192
0.824474 0.229589 0.076045
0.851449 0.231441 0.077897
0.878424 0.233293 0.079749
0.901632 0.234887 0.081343
0.035952 0.215088 0.035952
0.061799 0.215088 0.035952
0.087534 0.215088 0.035952
0.113231 0.215088 0.035952
0.138928 0.215088 0.035952
0.164625 0.215088 0.035952
0.190322 0.215088 0.035952
0.216086 0.215155 0.036020
0.243635 0.217007 0.037872
0.271185 0.218859 0.039724
0.298734 0.220712 0.041577
0.326283 0.222564 0.043429
0.353833 0.224416 0.045281
0.381382 0.226268 0.047133
0.408931 0.228121 0.048986
0.436481 0.229973 0.050838
0.453236 0.231100 0.051965
0.500769 0.232952 0.053817
0.527744 0.234804 0.055669
0.554720 0.236657 0.057521
0.581695 0.238509 0.059374
0.608670 0.240361 0.061226
0.635646 0.242213 0.063078
0.662621 0.244066 0.064931
0.689597 0.245918 0.066783
0.716572 0.247770 0.068635
0.743547 0.249623 0.070488
0.770523 0.251475 0.072340
0.797498 0.253327 0.074192
0.824474 0.255180 0.076045
0.851449 0.257032 0.077897
0.878424 0.258884 0.079749
0.901632 0.260478 0.081343
0.037797 0.242523 0.037797
0.063644 0.242523 0.037797
0.089378 0.242523 0.037797
0.115075 0.242523 0.037797
0.140772 0.242523 0.037797
0.166469 0.242523 0.037797
0.192166 0.242523 0.037797
0.217864 0.242523 0.037797
0.243635 0.242598 0.037872
0.271185 0.244450 0.039724
0.298734 0.246302 0.041577
0.326283 0.248155 0.043429
0.353833 0.250007 0.045281
0.381382 0.251859 0.047133
0.408931 0.253711 0.048986
0.436481 0.255564 0.050838
0.453236 0.256690 0.051965
0.500769 0.258543 0.053817
0.527744 0.260395 0.055669
0.554720 0.262247 0.057521
0.581695 0.264100 0.059374
0.608670 0.265952 0.061226
0.635646 0.267804 0.063078
0.662621 0.269656 0.064931
0.689597 0.271509 0.066783
0.716572 0.273361 0.068635
0.743547 0.275213 0.070488
0.770523 0.277066 0.072340
0.797498 0.278918 0.074192
0.824474 0.280770 0.076045
0.851449 0.282623 0.077897
0.878424 0.284475 0.079749
0.901632 0.286068 0.081343
0.039642 0.269958 0.039642
0.065488 0.269958 0.039642
0.091223 0.269958 0.039642
0.116920 0.269958 0.039642
0.142617 0.269958 0.039642
0.168314 0.269958 0.039642
0.194011 0.269958 0.039642
0.219708 0.269958 0.039642
0.245405 0.269958 0.039642
0.271185 0.270041 0.039724
0.298734 0.271893 0.041577
0.326283 0.273745 0.043429
0.353833 0.275598 0.045281
0.381382 0.277450 0.047133
0.408931 0.279302 0.048986
0.436481 0.281155 0.050838
0.453236 0.282281 0.051965
0.500769 0.284133 0.053817
0.527744 0.285986 0.055669
0.554720 0.287838 0.057521
0.581695 0.289690 0.059374
0.608670 0.291543 0.061226
0.635646 0.293395 0.063078
0.662621 0.295247 0.064931
0.689597 0.297099 0.066783
0.716572 0.298952 0.068635
0.743547 0.300804 0.070488
0.770523 0.302656 0.072340
0.797498 0.304509 0.074192
0.824474 0.306361 0.076045
0.851449 0.308213 0.077897
0.878424 0.310066 0.079749
0.901632 0.311659 0.081343
0.041486 0.297394 0.041486
0.067333 0.297394 0.041486
0.093068 0.297394 0.041486
0.118765 0.297394 0.041486
0.144462 0.297394 0.041486
0.170159 0.297394 0.041486
0.195856 0.297394 0.041486
0.221553 0.297394 0.041486
0.247250 0.297394 0.041486
0.272947 0.297394 0.041486
0.298734 0.297484 0.041577
0.326283 0.299336 0.043429
0.353833 0.301188 0.045281
0.381382 0.303041 0.047133
0.408931 0.304893 0.048986
0.436481 0.306745 0.050838
0.453236 0.307872 0.051965
0.500769 0.309724 0.053817
0.527744 0.311576 0.055669
0.554720 0.313429 0.057521
0.581695 0.315281 0.059374
0.608670 0.317133 0.061226
0.635646 0.318986 0.063078
0.662621 0.320838 0.064931
0.689597 0.322690 0.066783
0.716572 0.324543 0.068635
0.743547 0.326395 0.070488
0.770523 0.328247 0.072340
0.797498 0.330099 0.074192
0.824474 0.331952 0.076045
0.851449 0.333804 0.077897
0.878424 0.335656 0.079749
0.901632 0.337250 0.081343
0.043331 0.324829 0.043331
0.069178 0.324829 0.043331
0.094912 0.324829 0.043331
0.120609 0.324829 0.043331
0.146306 0.324829 0.043331
0.172003 0.324829 0.043331
0.197700 0.324829 0.043331
0.223397 0.324829 0.043331
0.249094 0.324829 0.043331
0.274792 0.324829 0.043331
0.300489 0.324829 0.043331
0.326283 0.324927 0.043429
0.353833 0.326779 0.045281
0.381382 0.328631 0.047133
0.408931 0.330484 0.048986
0.436481 0.332336 0.050838
0.453236 0.333463 0.051965
0.500769 0.335315 0.053817
0.527744 0.337167 0.055669
0.554720 0.339019 0.057521
0.581695 0.340872 0.059374
0.608670 0.342724 0.061226
0.635646 0.344576 0.063078
0.662621 0.346429 0.064931
0.689597 0.348281 0.066783
0.716572 0.350133 0.068635
0.743547 0.351986 0.070488
0.770523 0.353838 0.072340
0.797498 0.355690 0.074192
0.824474 0.357542 0.076045
0.851449 0.359395 0.077897
0.878424 0.361247 0.079749
0.901632 0.362841 0.081343
0.045176 0.352264 0.045176
0.071022 0.352264 0.045176
0.096757 0.352264 0.045176
0.122454 0.352264 0.045176
0.148151 0.352264 0.045176
0.173848 0.352264 0.045176
0.199545 0.352264 0.045176
0.225242 0.352264 0.045176
0.250939 0.352264 0.045176
0.276636 0.352264 0.045176
0.302333 0.352264 0.045176
0.328030 0.352264 0.045176
0.353833 0.352370 0.045281
0.381382 0.354222 0.047133
0.408931 0.356074 0.048986
0.436481 0.357927 0.050838
0.453236 0.359053 0.051965
0.500769 0.360906 0.053817
0.527744 0.362758 0.055669
0.554720 0.364610 0.057521
0.581695 0.366462 0.059374
0.608670 0.368315 0.061226
0.635646 0.370167 0.063078
0.662621 0.372019 0.064931
0.689597 0.373872 0.066783
0.716572 0.375724 0.068635
0.743547 0.377576 0.070488
0.770523 0.379429 0.072340
0.797498 0.381281 0.074192
0.824474 0.383133 0.076045
0.851449 0.384985 0.077897
0.878424 0.386838 0.079749
0.901632 0.388431 0.081343
0.047020 0.379700 0.047020
0.072867 0.379700 0.047020
0.098602 0.379700 0.047020
0.124299 0.379700 0.047020
0.149996 0.379700 0.047020
0.175693 0.379700 0.047020
0.201390 0.379700 0.047020
0.227087 0.379700 0.047020
0.252784 0.379700 0.047020
0.278481 0.379700 0.047020
0.304178 0.379700 0.047020
0.329875 0.379700 0.047020
0.355572 0.379700 0.047020
0.381382 0.379813 0.047133
0.408931 0.381665 0.048986
0.436481 0.383517 0.050838
0.453236 0.384644 0.051965
0.500769 0.386496 0.053817
0.527744 0.388349 0.055669
0.554720 0.390201 0.057521
0.581695 0.392053 0.059374
0.608670 0.393905 0.061226
0.635646 0.395758 0.063078
0.662621 0.397610 0.064931
0.689597 0.399462 0.066783
0.716572 0.401315 0.068635
0.743547 0.403167 0.070488
0.770523 0.405019 0.072340
0.797498 0.406872 0.074192
0.824474 0.408724 0.076045
0.851449 0.410576 0.077897
0.878424 0.412429 0.079749
0.901632 0.414022 0.081343
0.048865 0.407135 0.048865
0.074712 0.407135 0.048865
0.100446 0.407135 0.048865
0.126143 0.407135 0.048865
0.151840 0.407135 0.048865
0.177537 0.407135 0.048865
0.203234 0.407135 0.048865
0.228931 0.407135 0.048865
0.254628 0.407135 0.048865
0.280325 0.407135 0.048865
0.306022 0.407135 0.048865
0.331720 0.407135 0.048865
0.357417 0.407135 0.048865
0.383114 0.407135 0.048865
0.408931 0.407256 0.048986
0.436481 0.409108 0.050838
0.453236 0.410235 0.051965
0.500769 0.412087 0.053817
0.527744 0.413939 0.055669
0.554720 0.415792 0.057521
0.581695 0.417644 0.059374
0.608670 0.419496 0.061226
0.635646 0.421348 0.063078
0.662621 0.423201 0.064931
0.689597 0.425053 0.066783
0.716572 0.426905 0.068635
0.743547 0.428758 0.070488
0.770523 0.430610 0.072340
0.797498 0.432462 0.074192
0.824474 0.434315 0.076045
0.851449 0.436167 0.077897
0.878424 0.438019 0.079749
0.901632 0.439613 0.081343
0.050710 0.434570 0.050710
0.076556 0.434570 0.050710
0.102291 0.434570 0.050710
0.127988 0.434570 0.050710
0.153685 0.434570 0.050710
0.179382 0.434570 0.050710
0.205079 0.434570 0.050710
0.230776 0.434570 0.050710
0.256473 0.434570 0.050710
0.282170 0.434570 0.050710
0.307867 0.434570 0.050710
0.333564 0.434570 0.050710
0.359261 0.434570 0.050710
0.384958 0.434570 0.050710
0.410655 0.434570 0.050710
0.436481 0.434699 0.050838
0.453236 0.435825 0.051965
0.500769 0.437678 0.053817
0.527744 0.439530 0.055669
0.554720 0.441382 0.057521
0.581695 0.443235 0.059374
0.608670 0.445087 0.061226
0.635646 0.446939 0.063078
0.662621 0.448792 0.064931
0.689597 0.450644 0.066783
0.716572 0.452496 0.068635
0.743547 0.454348 0.070488
0.770523 0.456201 0.072340
0.797498 0.458053 0.074192
0.824474 0.459905 0.076045
0.851449 0.461758 0.077897
0.878424 0.463610 0.079749
0.901632 0.465204 0.081343
0.052537 0.461747 0.052537
0.078383 0.461747 0.052537
0.104118 0.461747 0.052537
0.129815 0.461747 0.052537
0.155512 0.461747 0.052537
0.181209 0.461747 0.052537
0.206906 0.461747 0.052537
0.232603 0.461747 0.052537
0.258300 0.461747 0.052537
0.283997 0.461747 0.052537
0.309694 0.461747 0.052537
0.335391 0.461747 0.052537
0.361088 0.461747 0.052537
0.386785 0.461747 0.052537
0.412482 0.461747 0.052537
0.438180 0.461747 0.052537
0.453808 0.461747 0.052537
0.500769 0.463027 0.053817
0.527744 0.464879 0.055669
0.554720 0.466731 0.057521
0.581695 0.468584 0.059374
0.608670 0.470436 0.061226
0.635646 0.472288 0.063078
0.662621 0.474141 0.064931
0.689597 0.475993 0.066783
0.716572 0.477845 0.068635
0.743547 0.479698 0.070488
0.770523 0.501518 0.072340
0.797498 0.503331 0.074192
0.824474 0.505145 0.076045
0.851449 0.506959 0.077897
0.878424 0.508772 0.079749
0.901632 0.510333 0.081343
0.053673 0.478647 0.053673
0.079520 0.478647 0.053673
0.105254 0.478647 0.053673
0.130951 0.478647 0.053673
0.156648 0.478647 0.053673
0.182345 0.478647 0.053673
0.208042 0.478647 0.053673
0.233740 0.478647 0.053673
0.259437 0.478647 0.053673
0.285134 0.478647 0.053673
0.310831 0.478647 0.053673
0.336528 0.478647 0.053673
0.362225 0.478647 0.053673
0.387922 0.478647 0.053673
0.413619 0.478647 0.053673
0.439316 0.478647 0.053673
0.454944 0.478647 0.053673
0.500769 0.478791 0.053817
0.527744 0.500630 0.055669
0.554720 0.502443 0.057521
0.581695 0.504257 0.059374
0.608670 0.506071 0.061226
0.635646 0.507884 0.063078
0.662621 0.509698 0.064931
0.689597 0.511512 0.066783
0.716572 0.513326 0.068635
0.743547 0.515139 0.070488
0.770523 0.516953 0.072340
0.797498 0.518767 0.074192
0.824474 0.520580 0.076045
0.851449 0.522394 0.077897
0.878424 0.524208 0.079749
0.901632 0.525768 0.081343
0.055518 0.525539 0.055518
0.081364 0.525539 0.055518
0.107099 0.525539 0.055518
0.132796 0.525539 0.055518
0.158493 0.525539 0.055518
0.184190 0.525539 0.055518
0.209887 0.525539 0.055518
0.235584 0.525539 0.055518
0.261281 0.525539 0.055518
0.286978 0.525539 0.055518
0.312675 0.525539 0.055518
0.338372 0.525539 0.055518
0.364069 0.525539 0.055518
0.389766 0.525539 0.055518
0.415463 0.525539 0.055518
0.441160 0.525539 0.055518
0.456789 0.525539 0.055518
0.502434 0.525539 0.055518
0.527744 0.525687 0.055669
0.554720 0.527501 0.057521
0.581695 0.529315 0.059374
0.608670 0.531128 0.061226
0.635646 0.532942 0.063078
0.662621 0.534756 0.064931
0.689597 0.536569 0.066783
0.716572 0.538383 0.068635
0.743547 0.540197 0.070488
0.770523 0.542011 0.072340
0.797498 0.543824 0.074192
0.824474 0.545638 0.076045
0.851449 0.547452 0.077897
0.878424 0.549265 0.079749
0.901632 0.550826 0.081343
0.057362 0.552403 0.057362
0.083209 0.552403 0.057362
0.108944 0.552403 0.057362
0.134641 0.552403 0.057362
0.160338 0.552403 0.057362
0.186035 0.552403 0.057362
0.211732 0.552403 0.057362
0.237429 0.552403 0.057362
0.263126 0.552403 0.057362
0.288823 0.552403 0.057362
0.314520 0.552403 0.057362
0.340217 0.552403 0.057362
0.365914 0.552403 0.057362
0.391611 0.552403 0.057362
0.417308 0.552403 0.057362
0.443005 0.552403 0.057362
0.458634 0.552403 0.057362
0.504240 0.552403 0.057362
0.529402 0.552403 0.057362
0.554720 0.552558 0.057521
0.581695 0.554372 0.059374
0.608670 0.556186 0.061226
0.635646 0.558000 0.063078
0.662621 0.559813 0.064931
0.689597 0.561627 0.066783
0.716572 0.563441 0.068635
0.743547 0.565254 0.070488
0.770523 0.567068 0.072340
0.797498 0.568882 0.074192
0.824474 0.570696 0.076045
0.851449 0.572509 0.077897
0.878424 0.574323 0.079749
0.901632 0.575883 0.081343
0.059207 0.579266 0.059207
0.085054 0.579266 0.059207
0.110788 0.579266 0.059207
0.136485 0.579266 0.059207
0.162182 0.579266 0.059207
0.187879 0.579266 0.059207
0.213576 0.579266 0.059207
0.239273 0.579266 0.059207
0.264970 0.579266 0.059207
0.290668 0.579266 0.059207
0.316365 0.579266 0.059207
0.342062 0.579266 0.059207
0.367759 0.579266 0.059207
0.393456 0.579266 0.059207
0.419153 0.579266 0.059207
0.444850 0.579266 0.059207
0.460478 0.579266 0.059207
0.506047 0.579266 0.059207
0.531208 0.579266 0.059207
0.556370 0.579266 0.059207
0.581695 0.579430 0.059374
0.608670 0.581243 0.061226
0.635646 0.583057 0.063078
0.662621 0.584871 0.064931
0.689597 0.586685 0.066783
0.716572 0.588498 0.068635
0.743547 0.590312 0.070488
0.770523 0.592126 0.072340
0.797498 0.593939 0.074192
0.824474 0.595753 0.076045
0.851449 0.597567 0.077897
0.878424 0.599381 0.079749
0.901632 0.600941 0.081343
0.061052 0.606130 0.061052
0.086898 0.606130 0.061052
0.112633 0.606130 0.061052
0.138330 0.606130 0.061052
0.164027 0.606130 0.061052
0.189724 0.606130 0.061052
0.215421 0.606130 0.061052
0.241118 0.606130 0.061052
0.266815 0.606130 0.061052
0.292512 0.606130 0.061052
0.318209 0.606130 0.061052
0.343906 0.606130 0.061052
0.369603 0.606130 0.061052
0.395300 0.606130 0.061052
0.420997 0.606130 0.061052
0.446694 0.606130 0.061052
0.462323 0.606130 0.061052
0.507853 0.606130 0.061052
0.533015 0.606130 0.061052
0.558176 0.606130 0.061052
0.583338 0.606130 0.061052
0.608670 0.606301 0.061226
0.635646 0.608115 0.063078
0.662621 0.609928 0.064931
0.689597 0.611742 0.066783
0.716572 0.613556 0.068635
0.743547 0.615370 0.070488
0.770523 0.617183 0.072340
0.797498 0.618997 0.074192
0.824474 0.620811 0.076045
0.851449 0.622624 0.077897
0.878424 0.624438 0.079749
0.901632 0.625999 0.081343
0.062896 0.632994 0.062896
0.088743 0.632994 0.062896
0.114478 0.632994 0.062896
0.140175 0.632994 0.062896
0.165872 0.632994 0.062896
0.191569 0.632994 0.062896
0.217266 0.632994 0.062896
0.242963 0.632994 0.062896
0.268660 0.632994 0.062896
0.294357 0.632994 0.062896
0.320054 0.632994 0.062896
0.345751 0.632994 0.062896
0.371448 0.632994 0.062896
0.397145 0.632994 0.062896
0.422842 0.632994 0.062896
0.448539 0.632994 0.062896
0.464168 0.632994 0.062896
0.509659 0.632994 0.062896
0.534821 0.632994 0.062896
0.559982 0.632994 0.062896
0.585144 0.632994 0.062896
0.610306 0.632994 0.062896
0.635646 0.633172 0.063078
0.662621 0.634986 0.064931
0.689597 0.636800 0.066783
0.716572 0.638613 0.068635
0.743547 0.640427 0.070488
0.770523 0.642241 0.072340
0.797498 0.644055 0.074192
0.824474 0.645868 0.076045
0.851449 0.647682 0.077897
0.878424 0.649496 0.079749
0.901632 0.651056 0.081343
0.064741 0.659858 0.064741
0.090588 0.659858 0.064741
0.116322 0.659858 0.064741
0.142019 0.659858 0.064741
0.167716 0.659858 0.064741
0.193413 0.659858 0.064741
0.219110 0.659858 0.064741
0.244807 0.659858 0.064741
0.270504 0.659858 0.064741
0.296201 0.659858 0.064741
0.321898 0.659858 0.064741
0.347596 0.659858 0.064741
0.373293 0.659858 0.064741
0.398990 0.659858 0.064741
0.424687 0.659858 0.064741
0.450384 0.659858 0.064741
0.466012 0.659858 0.064741
0.511465 0.659858 0.064741
0.536627 0.659858 0.064741
0.561789 0.659858 0.064741
0.586950 0.659858 0.064741
0.612112 0.659858 0.064741
0.637274 0.659858 0.064741
0.662621 0.660044 0.064931
0.689597 0.661857 0.066783
0.716572 0.663671 0.068635
0.743547 0.665485 0.070488
0.770523 0.667298 0.072340
0.797498 0.669112 0.074192
0.824474 0.670926 0.076045
0.851449 0.672740 0.077897
0.878424 0.674553 0.079749
0.901632 0.676114 0.081343
0.066586 0.686722 0.066586
0.092432 0.686722 0.066586
0.118167 0.686722 0.066586
0.143864 0.686722 0.066586
0.169561 0.686722 0.066586
0.195258 0.686722 0.066586
0.220955 0.686722 0.066586
0.246652 0.686722 0.066586
0.272349 0.686722 0.066586
0.298046 0.686722 0.066586
0.323743 0.686722 0.066586
0.349440 0.686722 0.066586
0.375137 0.686722 0.066586
0.400834 0.686722 0.066586
0.426531 0.686722 0.066586
0.452228 0.686722 0.066586
0.467857 0.686722 0.066586
0.513272 0.686722 0.066586
0.538433 0.686722 0.066586
0.563595 0.686722 0.066586
0.588757 0.686722 0.066586
0.613918 0.686722 0.066586
0.639080 0.686722 0.066586
0.664242 0.686722 0.066586
0.689597 0.686915 0.066783
0.716572 0.688729 0.068635
0.743547 0.690542 0.070488
0.770523 0.692356 0.072340
0.797498 0.694170 0.074192
0.824474 0.695983 0.076045
0.851449 0.697797 0.077897
0.878424 0.699611 0.079749
0.901632 0.701171 0.081343
0.068430 0.713585 0.068430
0.094277 0.713585 0.068430
0.120011 0.713585 0.068430
0.145708 0.713585 0.068430
0.171406 0.713585 0.068430
0.197103 0.713585 0.068430
0.222800 0.713585 0.068430
0.248497 0.713585 0.068430
0.274194 0.713585 0.068430
0.299891 0.713585 0.068430
0.325588 0.713585 0.068430
0.351285 0.713585 0.068430
0.376982 0.713585 0.068430
0.402679 0.713585 0.068430
0.428376 0.713585 0.068430
0.454073 0.713585 0.068430
0.469701 0.713585 0.068430
0.515078 0.713585 0.068430
0.540239 0.713585 0.068430
0.565401 0.713585 0.068430
0.590563 0.713585 0.068430
0.615724 0.713585 0.068430
0.640886 0.713585 0.068430
0.666048 0.713585 0.068430
0.691210 0.713585 0.068430
0.716572 0.713786 0.068635
0.743547 0.715600 0.070488
0.770523 0.717414 0.072340
0.797498 0.719227 0.074192
0.824474 0.721041 0.076045
0.851449 0.722855 0.077897
0.878424 0.724668 0.079749
0.901632 0.726229 0.081343
0.070275 0.740449 0.070275
0.096122 0.740449 0.070275
0.121856 0.740449 0.070275
0.147553 0.740449 0.070275
0.173250 0.740449 0.070275
0.198947 0.740449 0.070275
0.224644 0.740449 0.070275
0.250341 0.740449 0.070275
0.276038 0.740449 0.070275
0.301735 0.740449 0.070275
0.327432 0.740449 0.070275
0.353129 0.740449 0.070275
0.378826 0.740449 0.070275
0.404524 0.740449 0.070275
0.430221 0.740449 0.070275
0.455918 0.740449 0.070275
0.471546 0.740449 0.070275
0.516884 0.740449 0.070275
0.542046 0.740449 0.070275
0.567207 0.740449 0.070275
0.592369 0.740449 0.070275
0.617531 0.740449 0.070275
0.642692 0.740449 0.070275
0.667854 0.740449 0.070275
0.693016 0.740449 0.070275
