docs/luts/fuji_recipes/Astia_JP_Flat_Landscape.cube
TITLE "Fujifilm Recipe: JP Flat Landscape (Astia)"
# FilmSim=Astia HL=-1 SH=0 Col=-1 WB=5300K WBR=0 WBB=0
LUT_3D_SIZE 33
DOMAIN_MIN 0.0 0.0 0.0
DOMAIN_MAX 1.0 1.0 1.0
0.024000 0.024000 0.024000
0.049956 0.028284 0.028284
0.076008 0.032583 0.032583
0.102094 0.036889 0.036889
0.128180 0.041194 0.041194
0.154266 0.045499 0.045499
0.180352 0.049804 0.049804
0.206438 0.054109 0.054109
0.232524 0.058415 0.058415
0.258610 0.062720 0.062720
0.284696 0.067025 0.067025
0.310782 0.071330 0.071330
0.336868 0.075636 0.075636
0.362954 0.079941 0.079941
0.389040 0.084246 0.084246
0.415127 0.088551 0.088551
0.441005 0.092822 0.092822
0.456999 0.095462 0.095462
0.481711 0.099631 0.099631
0.506242 0.103783 0.103783
0.530774 0.107934 0.107934
0.555305 0.112086 0.112086
0.579836 0.116237 0.116237
0.604367 0.120389 0.120389
0.628898 0.124540 0.124540
0.653430 0.128691 0.128691
0.677961 0.132843 0.132843
0.702492 0.136994 0.136994
0.727023 0.141146 0.141146
0.751555 0.145297 0.145297
0.776086 0.149449 0.149449
0.800617 0.153600 0.153600
0.825148 0.157752 0.157752
0.028321 0.050179 0.028321
0.049993 0.050179 0.028321
0.076008 0.054442 0.032583
0.102094 0.058747 0.036889
0.128180 0.063053 0.041194
0.154266 0.067358 0.045499
0.180352 0.071663 0.049804
0.206438 0.075968 0.054109
0.232524 0.080273 0.058415
0.258610 0.084579 0.062720
0.284696 0.088884 0.067025
0.310782 0.093189 0.071330
0.336868 0.097494 0.075636
0.362954 0.101800 0.079941
0.389040 0.106105 0.084246
0.415127 0.110410 0.088551
0.441005 0.114681 0.092822
0.456999 0.117321 0.095462
0.481711 0.121490 0.099631
0.506242 0.125641 0.103783
0.530774 0.129793 0.107934
0.555305 0.133944 0.112086
0.579836 0.138096 0.116237
0.604367 0.142247 0.120389
0.628898 0.146399 0.124540
0.653430 0.150550 0.128691
0.677961 0.154702 0.132843
0.702492 0.158853 0.136994
0.727023 0.163005 0.141146
0.751555 0.167156 0.145297
0.776086 0.171307 0.149449
0.800617 0.175459 0.153600
0.825148 0.179610 0.157752
0.032641 0.076359 0.032641
0.054313 0.076359 0.032641
0.076066 0.076359 0.032641
0.102094 0.080606 0.036889
0.128180 0.084911 0.041194
0.154266 0.089217 0.045499
0.180352 0.093522 0.049804
0.206438 0.097827 0.054109
0.232524 0.102132 0.058415
0.258610 0.106437 0.062720
0.284696 0.110743 0.067025
0.310782 0.115048 0.071330
0.336868 0.119353 0.075636
0.362954 0.123658 0.079941
0.389040 0.127964 0.084246
0.415127 0.132269 0.088551
0.441005 0.136540 0.092822
0.456999 0.139179 0.095462
0.481711 0.143349 0.099631
0.506242 0.147500 0.103783
0.530774 0.151652 0.107934
0.555305 0.155803 0.112086
0.579836 0.159955 0.116237
0.604367 0.164106 0.120389
0.628898 0.168257 0.124540
0.653430 0.172409 0.128691
0.677961 0.176560 0.132843
0.702492 0.180712 0.136994
0.727023 0.184863 0.141146
0.751555 0.189015 0.145297
0.776086 0.193166 0.149449
0.800617 0.197318 0.153600
0.825148 0.201469 0.157752
0.036962 0.102538 0.036962
0.058634 0.102538 0.036962
0.080386 0.102538 0.036962
0.102167 0.102538 0.036962
0.128180 0.106770 0.041194
0.154266 0.111075 0.045499
0.180352 0.115380 0.049804
0.206438 0.119686 0.054109
0.232524 0.123991 0.058415
0.258610 0.128296 0.062720
0.284696 0.132601 0.067025
0.310782 0.136907 0.071330
0.336868 0.141212 0.075636
0.362954 0.145517 0.079941
0.389040 0.149822 0.084246
0.415127 0.154128 0.088551
0.441005 0.158399 0.092822
0.456999 0.161038 0.095462
0.481711 0.165207 0.099631
0.506242 0.169359 0.103783
0.530774 0.173510 0.107934
0.555305 0.177662 0.112086
0.579836 0.181813 0.116237
0.604367 0.185965 0.120389
0.628898 0.190116 0.124540
0.653430 0.194268 0.128691
0.677961 0.198419 0.132843
0.702492 0.202571 0.136994
0.727023 0.206722 0.141146
0.751555 0.210873 0.145297
0.776086 0.215025 0.149449
0.800617 0.219176 0.153600
0.825148 0.223328 0.157752
0.041283 0.128717 0.041283
0.062955 0.128717 0.041283
0.084707 0.128717 0.041283
0.106488 0.128717 0.041283
0.128269 0.128717 0.041283
0.154266 0.132934 0.045499
0.180352 0.137239 0.049804
0.206438 0.141544 0.054109
0.232524 0.145850 0.058415
0.258610 0.150155 0.062720
0.284696 0.154460 0.067025
0.310782 0.158765 0.071330
0.336868 0.163071 0.075636
0.362954 0.167376 0.079941
0.389040 0.171681 0.084246
0.415127 0.175986 0.088551
0.441005 0.180257 0.092822
0.456999 0.182897 0.095462
0.481711 0.187066 0.099631
0.506242 0.191218 0.103783
0.530774 0.195369 0.107934
0.555305 0.199521 0.112086
0.579836 0.203672 0.116237
0.604367 0.207823 0.120389
0.628898 0.211975 0.124540
0.653430 0.216126 0.128691
0.677961 0.220278 0.132843
0.702492 0.224429 0.136994
0.727023 0.228581 0.141146
0.751555 0.232732 0.145297
0.776086 0.236884 0.149449
0.800617 0.241035 0.153600
0.825148 0.245187 0.157752
0.045603 0.154897 0.045603
0.067275 0.154897 0.045603
0.089028 0.154897 0.045603
0.110808 0.154897 0.045603
0.132589 0.154897 0.045603
0.154370 0.154897 0.045603
0.180352 0.159098 0.049804
0.206438 0.163403 0.054109
0.232524 0.167708 0.058415
0.258610 0.172014 0.062720
0.284696 0.176319 0.067025
0.310782 0.180624 0.071330
0.336868 0.184929 0.075636
0.362954 0.189235 0.079941
0.389040 0.193540 0.084246
0.415127 0.197845 0.088551
0.441005 0.202116 0.092822
0.456999 0.204756 0.095462
0.481711 0.208925 0.099631
0.506242 0.213076 0.103783
0.530774 0.217228 0.107934
0.555305 0.221379 0.112086
0.579836 0.225531 0.116237
0.604367 0.229682 0.120389
0.628898 0.233834 0.124540
0.653430 0.237985 0.128691
0.677961 0.242137 0.132843
0.702492 0.246288 0.136994
0.727023 0.250439 0.141146
0.751555 0.254591 0.145297
0.776086 0.258742 0.149449
0.800617 0.262894 0.153600
0.825148 0.267045 0.157752
0.049924 0.181076 0.049924
0.071596 0.181076 0.049924
0.093348 0.181076 0.049924
0.115129 0.181076 0.049924
0.136910 0.181076 0.049924
0.158691 0.181076 0.049924
0.180472 0.181076 0.049924
0.206438 0.185262 0.054109
0.232524 0.189567 0.058415
0.258610 0.193872 0.062720
0.284696 0.198178 0.067025
0.310782 0.202483 0.071330
0.336868 0.206788 0.075636
0.362954 0.211093 0.079941
0.389040 0.215399 0.084246
0.415127 0.219704 0.088551
0.441005 0.223975 0.092822
0.456999 0.226614 0.095462
0.481711 0.230784 0.099631
0.506242 0.234935 0.103783
0.530774 0.239087 0.107934
0.555305 0.243238 0.112086
0.579836 0.247390 0.116237
0.604367 0.251541 0.120389
0.628898 0.255692 0.124540
0.653430 0.259844 0.128691
0.677961 0.263995 0.132843
0.702492 0.268147 0.136994
0.727023 0.272298 0.141146
0.751555 0.276450 0.145297
0.776086 0.280601 0.149449
0.800617 0.284753 0.153600
0.825148 0.288904 0.157752
0.054244 0.207256 0.054244
0.075917 0.207256 0.054244
0.097669 0.207256 0.054244
0.119450 0.207256 0.054244
0.141231 0.207256 0.054244
0.163011 0.207256 0.054244
0.184792 0.207256 0.054244
0.206573 0.207256 0.054244
0.232524 0.211426 0.058415
0.258610 0.215731 0.062720
0.284696 0.220036 0.067025
0.310782 0.224342 0.071330
0.336868 0.228647 0.075636
0.362954 0.232952 0.079941
0.389040 0.237257 0.084246
0.415127 0.241563 0.088551
0.441005 0.245833 0.092822
0.456999 0.248473 0.095462
0.481711 0.252642 0.099631
0.506242 0.256794 0.103783
0.530774 0.260945 0.107934
0.555305 0.265097 0.112086
0.579836 0.269248 0.116237
0.604367 0.273400 0.120389
0.628898 0.277551 0.124540
0.653430 0.281703 0.128691
0.677961 0.285854 0.132843
0.702492 0.290006 0.136994
0.727023 0.294157 0.141146
0.751555 0.298308 0.145297
0.776086 0.302460 0.149449
0.800617 0.306611 0.153600
0.825148 0.310763 0.157752
0.058565 0.233435 0.058565
0.080237 0.233435 0.058565
0.101990 0.233435 0.058565
0.123770 0.233435 0.058565
0.145551 0.233435 0.058565
0.167332 0.233435 0.058565
0.189113 0.233435 0.058565
0.210894 0.233435 0.058565
0.232674 0.233435 0.058565
0.258610 0.237590 0.062720
0.284696 0.241895 0.067025
0.310782 0.246200 0.071330
0.336868 0.250506 0.075636
0.362954 0.254811 0.079941
0.389040 0.259116 0.084246
0.415127 0.263421 0.088551
0.441005 0.267692 0.092822
0.456999 0.270332 0.095462
0.481711 0.274501 0.099631
0.506242 0.278653 0.103783
0.530774 0.282804 0.107934
0.555305 0.286956 0.112086
0.579836 0.291107 0.116237
0.604367 0.295258 0.120389
0.628898 0.299410 0.124540
0.653430 0.303561 0.128691
0.677961 0.307713 0.132843
0.702492 0.311864 0.136994
0.727023 0.316016 0.141146
0.751555 0.320167 0.145297
0.776086 0.324319 0.149449
0.800617 0.328470 0.153600
0.825148 0.332622 0.157752
0.062886 0.259614 0.062886
0.084558 0.259614 0.062886
0.106310 0.259614 0.062886
0.128091 0.259614 0.062886
0.149872 0.259614 0.062886
0.171653 0.259614 0.062886
0.193433 0.259614 0.062886
0.215214 0.259614 0.062886
0.236995 0.259614 0.062886
0.258776 0.259614 0.062886
0.284696 0.263754 0.067025
0.310782 0.268059 0.071330
0.336868 0.272364 0.075636
0.362954 0.276670 0.079941
0.389040 0.280975 0.084246
0.415127 0.285280 0.088551
0.441005 0.289551 0.092822
0.456999 0.292191 0.095462
0.481711 0.296360 0.099631
0.506242 0.300511 0.103783
0.530774 0.304663 0.107934
0.555305 0.308814 0.112086
0.579836 0.312966 0.116237
0.604367 0.317117 0.120389
0.628898 0.321269 0.124540
0.653430 0.325420 0.128691
0.677961 0.329572 0.132843
0.702492 0.333723 0.136994
0.727023 0.337874 0.141146
0.751555 0.342026 0.145297
0.776086 0.346177 0.149449
0.800617 0.350329 0.153600
0.825148 0.354480 0.157752
0.067206 0.285794 0.067206
0.088879 0.285794 0.067206
0.110631 0.285794 0.067206
0.132412 0.285794 0.067206
0.154192 0.285794 0.067206
0.175973 0.285794 0.067206
0.197754 0.285794 0.067206
0.219535 0.285794 0.067206
0.241316 0.285794 0.067206
0.263097 0.285794 0.067206
0.284877 0.285794 0.067206
0.310782 0.289918 0.071330
0.336868 0.294223 0.075636
0.362954 0.298528 0.079941
0.389040 0.302833 0.084246
0.415127 0.307139 0.088551
0.441005 0.311410 0.092822
0.456999 0.314049 0.095462
0.481711 0.318219 0.099631
0.506242 0.322370 0.103783
0.530774 0.326522 0.107934
0.555305 0.330673 0.112086
0.579836 0.334824 0.116237
0.604367 0.338976 0.120389
0.628898 0.343127 0.124540
0.653430 0.347279 0.128691
0.677961 0.351430 0.132843
0.702492 0.355582 0.136994
0.727023 0.359733 0.141146
0.751555 0.363885 0.145297
0.776086 0.368036 0.149449
0.800617 0.372188 0.153600
0.825148 0.376339 0.157752
0.071527 0.311973 0.071527
0.093199 0.311973 0.071527
0.114951 0.311973 0.071527
0.136732 0.311973 0.071527
0.158513 0.311973 0.071527
0.180294 0.311973 0.071527
0.202075 0.311973 0.071527
0.223856 0.311973 0.071527
0.245636 0.311973 0.071527
0.267417 0.311973 0.071527
0.289198 0.311973 0.071527
0.310979 0.311973 0.071527
0.336868 0.316082 0.075636
0.362954 0.320387 0.079941
0.389040 0.324692 0.084246
0.415127 0.328997 0.088551
0.441005 0.333268 0.092822
0.456999 0.335908 0.095462
0.481711 0.340077 0.099631
0.506242 0.344229 0.103783
0.530774 0.348380 0.107934
0.555305 0.352532 0.112086
0.579836 0.356683 0.116237
0.604367 0.360835 0.120389
0.628898 0.364986 0.124540
0.653430 0.369138 0.128691
0.677961 0.373289 0.132843
0.702492 0.377440 0.136994
0.727023 0.381592 0.141146
0.751555 0.385743 0.145297
0.776086 0.389895 0.149449
0.800617 0.394046 0.153600
0.825148 0.398198 0.157752
0.075848 0.338152 0.075848
0.097520 0.338152 0.075848
0.119272 0.338152 0.075848
0.141053 0.338152 0.075848
0.162834 0.338152 0.075848
0.184615 0.338152 0.075848
0.206395 0.338152 0.075848
0.228176 0.338152 0.075848
0.249957 0.338152 0.075848
0.271738 0.338152 0.075848
0.293519 0.338152 0.075848
0.315299 0.338152 0.075848
0.337080 0.338152 0.075848
0.362954 0.342246 0.079941
0.389040 0.346551 0.084246
0.415127 0.350856 0.088551
0.441005 0.355127 0.092822
0.456999 0.357767 0.095462
0.481711 0.361936 0.099631
0.506242 0.366088 0.103783
0.530774 0.370239 0.107934
0.555305 0.374390 0.112086
0.579836 0.378542 0.116237
0.604367 0.382693 0.120389
0.628898 0.386845 0.124540
0.653430 0.390996 0.128691
0.677961 0.395148 0.132843
0.702492 0.399299 0.136994
0.727023 0.403451 0.141146
0.751555 0.407602 0.145297
0.776086 0.411754 0.149449
0.800617 0.415905 0.153600
0.825148 0.420056 0.157752
0.080168 0.364332 0.080168
0.101840 0.364332 0.080168
0.123593 0.364332 0.080168
0.145374 0.364332 0.080168
0.167154 0.364332 0.080168
0.188935 0.364332 0.080168
0.210716 0.364332 0.080168
0.232497 0.364332 0.080168
0.254278 0.364332 0.080168
0.276058 0.364332 0.080168
0.297839 0.364332 0.080168
0.319620 0.364332 0.080168
0.341401 0.364332 0.080168
0.363182 0.364332 0.080168
0.389040 0.368410 0.084246
0.415127 0.372715 0.088551
0.441005 0.376986 0.092822
0.456999 0.379625 0.095462
0.481711 0.383795 0.099631
0.506242 0.387946 0.103783
0.530774 0.392098 0.107934
0.555305 0.396249 0.112086
0.579836 0.400401 0.116237
0.604367 0.404552 0.120389
0.628898 0.408704 0.124540
0.653430 0.412855 0.128691
0.677961 0.417007 0.132843
0.702492 0.421158 0.136994
0.727023 0.425309 0.141146
0.751555 0.429461 0.145297
0.776086 0.433612 0.149449
0.800617 0.437764 0.153600
0.825148 0.441915 0.157752
0.084489 0.390511 0.084489
0.106161 0.390511 0.084489
0.127913 0.390511 0.084489
0.149694 0.390511 0.084489
0.171475 0.390511 0.084489
0.193256 0.390511 0.084489
0.215037 0.390511 0.084489
0.236817 0.390511 0.084489
0.258598 0.390511 0.084489
0.280379 0.390511 0.084489
0.302160 0.390511 0.084489
0.323941 0.390511 0.084489
0.345722 0.390511 0.084489
0.367502 0.390511 0.084489
0.389283 0.390511 0.084489
0.415127 0.394574 0.088551
0.441005 0.398845 0.092822
0.456999 0.401484 0.095462
0.481711 0.405654 0.099631
0.506242 0.409805 0.103783
0.530774 0.413957 0.107934
0.555305 0.418108 0.112086
0.579836 0.422259 0.116237
0.604367 0.426411 0.120389
0.628898 0.430562 0.124540
0.653430 0.434714 0.128691
0.677961 0.438865 0.132843
0.702492 0.443017 0.136994
0.727023 0.447168 0.141146
0.751555 0.451320 0.145297
0.776086 0.455471 0.149449
0.800617 0.459623 0.153600
0.825148 0.463774 0.157752
0.088809 0.416691 0.088809
0.110482 0.416691 0.088809
0.132234 0.416691 0.088809
0.154015 0.416691 0.088809
0.175796 0.416691 0.088809
0.197576 0.416691 0.088809
0.219357 0.416691 0.088809
0.241138 0.416691 0.088809
0.262919 0.416691 0.088809
0.284700 0.416691 0.088809
0.306481 0.416691 0.088809
0.328261 0.416691 0.088809
0.350042 0.416691 0.088809
0.371823 0.416691 0.088809
0.393604 0.416691 0.088809
0.415385 0.416691 0.088809
0.441005 0.420703 0.092822
0.456999 0.423343 0.095462
0.481711 0.427512 0.099631
0.506242 0.431664 0.103783
0.530774 0.435815 0.107934
0.555305 0.439967 0.112086
0.579836 0.444118 0.116237
0.604367 0.448270 0.120389
0.628898 0.452421 0.124540
0.653430 0.456573 0.128691
0.677961 0.460724 0.132843
0.702492 0.464875 0.136994
0.727023 0.469027 0.141146
0.751555 0.473178 0.145297
0.776086 0.477330 0.149449
0.800617 0.481481 0.153600
0.825148 0.485633 0.157752
0.093089 0.442623 0.093089
0.114761 0.442623 0.093089
0.136514 0.442623 0.093089
0.158295 0.442623 0.093089
0.180075 0.442623 0.093089
0.201856 0.442623 0.093089
0.223637 0.442623 0.093089
0.245418 0.442623 0.093089
0.267199 0.442623 0.093089
0.288980 0.442623 0.093089
0.310760 0.442623 0.093089
0.332541 0.442623 0.093089
0.354322 0.442623 0.093089
0.376103 0.442623 0.093089
0.397884 0.442623 0.093089
0.419664 0.442623 0.093089
0.441272 0.442623 0.093089
0.456999 0.444995 0.095462
0.481711 0.449165 0.099631
0.506242 0.453316 0.103783
0.530774 0.457468 0.107934
0.555305 0.461619 0.112086
0.579836 0.465771 0.116237
0.604367 0.469922 0.120389
0.628898 0.474073 0.124540
0.653430 0.478225 0.128691
0.677961 0.482376 0.132843
0.702492 0.486469 0.136994
0.727023 0.490527 0.141146
0.751555 0.494584 0.145297
0.776086 0.498641 0.149449
0.800617 0.502698 0.153600
0.825148 0.506756 0.157752
0.095751 0.458749 0.095751
0.117423 0.458749 0.095751
0.139175 0.458749 0.095751
0.160956 0.458749 0.095751
0.182737 0.458749 0.095751
0.204518 0.458749 0.095751
0.226299 0.458749 0.095751
0.248079 0.458749 0.095751
0.269860 0.458749 0.095751
0.291641 0.458749 0.095751
0.313422 0.458749 0.095751
0.335203 0.458749 0.095751
0.356984 0.458749 0.095751
0.378764 0.458749 0.095751
0.400545 0.458749 0.095751
0.422326 0.458749 0.095751
0.443934 0.458749 0.095751
0.457287 0.458749 0.095751
0.481711 0.462611 0.099631
0.506242 0.466668 0.103783
0.530774 0.470726 0.107934
0.555305 0.474783 0.112086
0.579836 0.478840 0.116237
0.604367 0.482897 0.120389
0.628898 0.486955 0.124540
0.653430 0.491012 0.128691
0.677961 0.495069 0.132843
0.702492 0.499126 0.136994
0.727023 0.503184 0.141146
0.751555 0.507241 0.145297
0.776086 0.511298 0.149449
0.800617 0.515355 0.153600
0.825148 0.519413 0.157752
0.099925 0.483445 0.099925
0.121597 0.483445 0.099925
0.143349 0.483445 0.099925
0.165130 0.483445 0.099925
0.186911 0.483445 0.099925
0.208692 0.483445 0.099925
0.230473 0.483445 0.099925
0.252253 0.483445 0.099925
0.274034 0.483445 0.099925
0.295815 0.483445 0.099925
0.317596 0.483445 0.099925
0.339377 0.483445 0.099925
0.361157 0.483445 0.099925
0.382938 0.483445 0.099925
0.404719 0.483445 0.099925
0.426500 0.483445 0.099925
0.448108 0.483445 0.099925
0.461461 0.483445 0.099925
0.481998 0.483445 0.099925
0.506242 0.487216 0.103783
0.530774 0.491273 0.107934
0.555305 0.495330 0.112086
0.579836 0.499387 0.116237
0.604367 0.503445 0.120389
0.628898 0.507502 0.124540
0.653430 0.511559 0.128691
0.677961 0.515616 0.132843
0.702492 0.519674 0.136994
0.727023 0.523731 0.141146
0.751555 0.527788 0.145297
0.776086 0.531845 0.149449
0.800617 0.535903 0.153600
0.825148 0.539960 0.157752
0.104091 0.508064 0.104091
0.125763 0.508064 0.104091
0.147516 0.508064 0.104091
0.169296 0.508064 0.104091
0.191077 0.508064 0.104091
0.212858 0.508064 0.104091
0.234639 0.508064 0.104091
0.256420 0.508064 0.104091
0.278200 0.508064 0.104091
0.299981 0.508064 0.104091
0.321762 0.508064 0.104091
0.343543 0.508064 0.104091
0.365324 0.508064 0.104091
0.387105 0.508064 0.104091
0.408885 0.508064 0.104091
0.430666 0.508064 0.104091
0.452274 0.508064 0.104091
0.465596 0.508064 0.104091
0.486070 0.508064 0.104091
0.506544 0.508064 0.104091
0.530774 0.511820 0.107934
0.555305 0.515877 0.112086
0.579836 0.519935 0.116237
0.604367 0.523992 0.120389
0.628898 0.528049 0.124540
0.653430 0.532106 0.128691
0.677961 0.536164 0.132843
0.702492 0.540221 0.136994
0.727023 0.544278 0.141146
0.751555 0.548335 0.145297
0.776086 0.552393 0.149449
0.800617 0.556450 0.153600
0.825148 0.560507 0.157752
0.108257 0.532683 0.108257
0.129930 0.532683 0.108257
0.151682 0.532683 0.108257
0.173463 0.532683 0.108257
0.195243 0.532683 0.108257
0.217024 0.532683 0.108257
0.238805 0.532683 0.108257
0.260586 0.532683 0.108257
0.282367 0.532683 0.108257
0.304148 0.532683 0.108257
0.325928 0.532683 0.108257
0.347709 0.532683 0.108257
0.369490 0.532683 0.108257
0.391271 0.532683 0.108257
0.413052 0.532683 0.108257
0.434833 0.532683 0.108257
0.456440 0.532683 0.108257
0.469667 0.532683 0.108257
0.490141 0.532683 0.108257
0.510615 0.532683 0.108257
0.531089 0.532683 0.108257
0.555305 0.536425 0.112086
0.579836 0.540482 0.116237
0.604367 0.544539 0.120389
0.628898 0.548596 0.124540
0.653430 0.552654 0.128691
0.677961 0.556711 0.132843
0.702492 0.560768 0.136994
0.727023 0.564825 0.141146
0.751555 0.568883 0.145297
0.776086 0.572940 0.149449
0.800617 0.576997 0.153600
0.825148 0.581054 0.157752
0.112424 0.557302 0.112424
0.134096 0.557302 0.112424
0.155848 0.557302 0.112424
0.177629 0.557302 0.112424
0.199410 0.557302 0.112424
0.221191 0.557302 0.112424
0.242971 0.557302 0.112424
0.264752 0.557302 0.112424
0.286533 0.557302 0.112424
0.308314 0.557302 0.112424
0.330095 0.557302 0.112424
0.351876 0.557302 0.112424
0.373656 0.557302 0.112424
0.395437 0.557302 0.112424
0.417218 0.557302 0.112424
0.438999 0.557302 0.112424
0.460606 0.557302 0.112424
0.473739 0.557302 0.112424
0.494213 0.557302 0.112424
0.514687 0.557302 0.112424
0.535161 0.557302 0.112424
0.555635 0.557302 0.112424
0.579836 0.561029 0.116237
0.604367 0.565086 0.120389
0.628898 0.569144 0.124540
0.653430 0.573201 0.128691
0.677961 0.577258 0.132843
0.702492 0.581315 0.136994
0.727023 0.585373 0.141146
0.751555 0.589430 0.145297
0.776086 0.593487 0.149449
0.800617 0.597544 0.153600
0.825148 0.601602 0.157752
0.116590 0.581921 0.116590
0.138262 0.581921 0.116590
0.160014 0.581921 0.116590
0.181795 0.581921 0.116590
0.203576 0.581921 0.116590
0.225357 0.581921 0.116590
0.247138 0.581921 0.116590
0.268919 0.581921 0.116590
0.290699 0.581921 0.116590
0.312480 0.581921 0.116590
0.334261 0.581921 0.116590
0.356042 0.581921 0.116590
0.377823 0.581921 0.116590
0.399603 0.581921 0.116590
0.421384 0.581921 0.116590
0.443165 0.581921 0.116590
0.464773 0.581921 0.116590
0.477811 0.581921 0.116590
0.498285 0.581921 0.116590
0.518759 0.581921 0.116590
0.539233 0.581921 0.116590
0.559707 0.581921 0.116590
0.580181 0.581921 0.116590
0.604367 0.585633 0.120389
0.628898 0.589691 0.124540
0.653430 0.593748 0.128691
0.677961 0.597805 0.132843
0.702492 0.601863 0.136994
0.727023 0.605920 0.141146
0.751555 0.609977 0.145297
0.776086 0.614034 0.149449
0.800617 0.618092 0.153600
0.825148 0.622149 0.157752
0.120756 0.606540 0.120756
0.142428 0.606540 0.120756
0.164181 0.606540 0.120756
0.185962 0.606540 0.120756
0.207742 0.606540 0.120756
0.229523 0.606540 0.120756
0.251304 0.606540 0.120756
0.273085 0.606540 0.120756
0.294866 0.606540 0.120756
0.316647 0.606540 0.120756
0.338427 0.606540 0.120756
0.360208 0.606540 0.120756
0.381989 0.606540 0.120756
0.403770 0.606540 0.120756
0.425551 0.606540 0.120756
0.447331 0.606540 0.120756
0.468939 0.606540 0.120756
0.481883 0.606540 0.120756
0.502357 0.606540 0.120756
0.522831 0.606540 0.120756
0.543305 0.606540 0.120756
0.563779 0.606540 0.120756
0.584253 0.606540 0.120756
0.604727 0.606540 0.120756
0.628898 0.610238 0.124540
0.653430 0.614295 0.128691
0.677961 0.618352 0.132843
0.702492 0.622410 0.136994
0.727023 0.626467 0.141146
0.751555 0.630524 0.145297
0.776086 0.634581 0.149449
0.800617 0.638639 0.153600
0.825148 0.642696 0.157752
0.124923 0.631159 0.124923
0.146595 0.631159 0.124923
0.168347 0.631159 0.124923
0.190128 0.631159 0.124923
0.211909 0.631159 0.124923
0.233690 0.631159 0.124923
0.255470 0.631159 0.124923
0.277251 0.631159 0.124923
0.299032 0.631159 0.124923
0.320813 0.631159 0.124923
0.342594 0.631159 0.124923
0.364374 0.631159 0.124923
0.386155 0.631159 0.124923
0.407936 0.631159 0.124923
0.429717 0.631159 0.124923
0.451498 0.631159 0.124923
0.473105 0.631159 0.124923
0.485955 0.631159 0.124923
0.506428 0.631159 0.124923
0.526902 0.631159 0.124923
0.547376 0.631159 0.124923
0.567850 0.631159 0.124923
0.588324 0.631159 0.124923
0.608798 0.631159 0.124923
0.629272 0.631159 0.124923
0.653430 0.634842 0.128691
0.677961 0.638900 0.132843
0.702492 0.642957 0.136994
0.727023 0.647014 0.141146
0.751555 0.651071 0.145297
0.776086 0.655129 0.149449
0.800617 0.659186 0.153600
0.825148 0.663243 0.157752
0.129089 0.655778 0.129089
0.150761 0.655778 0.129089
0.172513 0.655778 0.129089
0.194294 0.655778 0.129089
0.216075 0.655778 0.129089
0.237856 0.655778 0.129089
0.259637 0.655778 0.129089
0.281417 0.655778 0.129089
0.303198 0.655778 0.129089
0.324979 0.655778 0.129089
0.346760 0.655778 0.129089
0.368541 0.655778 0.129089
0.390322 0.655778 0.129089
0.412102 0.655778 0.129089
0.433883 0.655778 0.129089
0.455664 0.655778 0.129089
0.477272 0.655778 0.129089
0.490026 0.655778 0.129089
0.510500 0.655778 0.129089
0.530974 0.655778 0.129089
0.551448 0.655778 0.129089
0.571922 0.655778 0.129089
0.592396 0.655778 0.129089
0.612870 0.655778 0.129089
0.633344 0.655778 0.129089
0.653818 0.655778 0.129089
0.677961 0.659447 0.132843
0.702492 0.663504 0.136994
0.727023 0.667561 0.141146
0.751555 0.671619 0.145297
0.776086 0.675676 0.149449
0.800617 0.679733 0.153600
0.825148 0.683790 0.157752
0.133255 0.680397 0.133255
0.154927 0.680397 0.133255
0.176680 0.680397 0.133255
0.198460 0.680397 0.133255
0.220241 0.680397 0.133255
0.242022 0.680397 0.133255
0.263803 0.680397 0.133255
0.285584 0.680397 0.133255
0.307365 0.680397 0.133255
0.329145 0.680397 0.133255
0.350926 0.680397 0.133255
0.372707 0.680397 0.133255
0.394488 0.680397 0.133255
0.416269 0.680397 0.133255
0.438050 0.680397 0.133255
0.459830 0.680397 0.133255
0.481438 0.680397 0.133255
0.494098 0.680397 0.133255
0.514572 0.680397 0.133255
0.535046 0.680397 0.133255
0.555520 0.680397 0.133255
0.575994 0.680397 0.133255
0.596468 0.680397 0.133255
0.616942 0.680397 0.133255
