docs/luts/fuji_recipes/Astia_GB_Portrait.cube
TITLE "Fujifilm Recipe: GB Portrait (Astia)"
# FilmSim=Astia HL=2 SH=2 Col=0 WB=Auto WBR=0 WBB=0
LUT_3D_SIZE 9
DOMAIN_MIN 0.0 0.0 0.0
DOMAIN_MAX 1.0 1.0 1.0
0.022080 0.022080 0.022080
0.127878 0.029193 0.029193
0.233484 0.036294 0.036294
0.339090 0.043394 0.043394
0.434351 0.049799 0.049799
0.593862 0.056900 0.056900
0.717834 0.064000 0.064000
0.841806 0.071101 0.071101
0.961449 0.077953 0.077953
0.029151 0.127249 0.029151
0.127878 0.127291 0.029193
0.233484 0.134392 0.036294
0.339090 0.141492 0.043394
0.434351 0.147897 0.049799
0.593862 0.154998 0.056900
0.717834 0.162098 0.064000
0.841806 0.169199 0.071101
0.961449 0.176051 0.077953
0.036222 0.232418 0.036222
0.134907 0.232418 0.036222
0.233484 0.232489 0.036294
0.339090 0.239590 0.043394
0.434351 0.245995 0.049799
0.593862 0.253095 0.056900
0.717834 0.260196 0.064000
0.841806 0.267296 0.071101
0.961449 0.274149 0.077953
0.043293 0.337587 0.043293
0.141978 0.337587 0.043293
0.240483 0.337587 0.043293
0.339090 0.337688 0.043394
0.434351 0.344093 0.049799
0.593862 0.351193 0.056900
0.717834 0.358294 0.064000
0.841806 0.365394 0.071101
0.961449 0.372247 0.077953
0.050348 0.442507 0.050348
0.149032 0.442507 0.050348
0.247538 0.442507 0.050348
0.346043 0.442507 0.050348
0.434899 0.442507 0.050348
0.593862 0.449059 0.056900
0.717834 0.456160 0.064000
0.841806 0.503827 0.071101
0.961449 0.511872 0.077953
0.056740 0.591072 0.056740
0.155425 0.591072 0.056740
0.253930 0.591072 0.056740
0.352435 0.591072 0.056740
0.441292 0.591072 0.056740
0.593862 0.591260 0.056900
0.717834 0.599595 0.064000
0.841806 0.607930 0.071101
0.961449 0.615975 0.077953
0.063811 0.714531 0.063811
0.162496 0.714531 0.063811
0.261001 0.714531 0.063811
0.359506 0.714531 0.063811
0.448363 0.714531 0.063811
0.601976 0.714531 0.063811
0.717834 0.714753 0.064000
0.841806 0.723089 0.071101
0.961449 0.731133 0.077953
0.070882 0.837990 0.070882
0.169567 0.837990 0.070882
0.268072 0.837990 0.070882
0.366578 0.837990 0.070882
0.455434 0.837990 0.070882
0.610277 0.837990 0.070882
0.725913 0.837990 0.070882
0.841806 0.838247 0.071101
0.961449 0.846291 0.077953
0.077953 0.961449 0.077953
0.176638 0.961449 0.077953
0.275143 0.961449 0.077953
0.373649 0.961449 0.077953
0.502941 0.961449 0.077953
0.618577 0.961449 0.077953
0.734214 0.961449 0.077953
0.849851 0.961449 0.077953
0.961449 0.961449 0.077953
0.029151 0.029151 0.127249
0.127878 0.029193 0.127291
0.233484 0.036294 0.134392
0.339090 0.043394 0.141492
0.434351 0.049799 0.147897
0.593862 0.056900 0.154998
0.717834 0.064000 0.162098
0.841806 0.071101 0.169199
0.961449 0.077953 0.176051
0.029151 0.127249 0.127249
0.134949 0.134362 0.134362
0.240555 0.141463 0.141463
0.346161 0.148563 0.148563
0.441422 0.154968 0.154968
0.602163 0.162069 0.162069
0.726135 0.169169 0.169169
0.850107 0.176270 0.176270
0.969750 0.183122 0.183122
0.036222 0.232418 0.134320
0.141978 0.239489 0.141391
0.240555 0.239561 0.141463
0.346161 0.246661 0.148563
0.441422 0.253066 0.154968
0.602163 0.260167 0.162069
0.726135 0.267267 0.169169
0.850107 0.274368 0.176270
0.969750 0.281220 0.183122
0.043293 0.337587 0.141391
0.149049 0.344658 0.148462
0.247554 0.344658 0.148462
0.346161 0.344759 0.148563
0.441422 0.351164 0.154968
0.602163 0.358264 0.162069
0.726135 0.365365 0.169169
0.850107 0.372465 0.176270
0.969750 0.379318 0.183122
0.050348 0.442507 0.148446
0.156104 0.449578 0.155517
0.254609 0.449578 0.155517
0.353114 0.449578 0.155517
0.441971 0.449578 0.155517
0.602163 0.456130 0.162069
0.726135 0.503793 0.169169
0.850107 0.512128 0.176270
0.969750 0.520173 0.183122
0.056740 0.591072 0.154838
0.162496 0.599373 0.161909
0.261001 0.599373 0.161909
0.359506 0.599373 0.161909
0.448363 0.599373 0.161909
0.602163 0.599561 0.162069
0.726135 0.607896 0.169169
0.850107 0.616231 0.176270
0.969750 0.624276 0.183122
0.063811 0.714531 0.161909
0.169567 0.722832 0.168980
0.268072 0.722832 0.168980
0.366578 0.722832 0.168980
0.455434 0.722832 0.168980
0.610277 0.722832 0.168980
0.726135 0.723054 0.169169
0.850107 0.731390 0.176270
0.969750 0.739434 0.183122
0.070882 0.837990 0.168980
0.176638 0.846291 0.176051
0.275143 0.846291 0.176051
0.373649 0.846291 0.176051
0.502941 0.846291 0.176051
0.618577 0.846291 0.176051
0.734214 0.846291 0.176051
0.850107 0.846548 0.176270
0.969750 0.854592 0.183122
0.077953 0.961449 0.176051
0.183709 0.969750 0.183122
0.282215 0.969750 0.183122
0.380720 0.969750 0.183122
0.511242 0.969750 0.183122
0.626878 0.969750 0.183122
0.742515 0.969750 0.183122
0.858152 0.969750 0.183122
0.969750 0.969750 0.183122
0.036222 0.036222 0.232418
0.134907 0.036222 0.232418
0.233484 0.036294 0.232489
0.339090 0.043394 0.239590
0.434351 0.049799 0.245995
0.593862 0.056900 0.253095
0.717834 0.064000 0.260196
0.841806 0.071101 0.267296
0.961449 0.077953 0.274149
0.036222 0.134320 0.232418
0.141978 0.141391 0.239489
0.240555 0.141463 0.239561
0.346161 0.148563 0.246661
0.441422 0.154968 0.253066
0.602163 0.162069 0.260167
0.726135 0.169169 0.267267
0.850107 0.176270 0.274368
0.969750 0.183122 0.281220
0.036222 0.232418 0.232418
0.142020 0.239531 0.239531
0.247626 0.246632 0.246632
0.353232 0.253732 0.253732
0.448493 0.260137 0.260137
0.610464 0.267238 0.267238
0.734436 0.274338 0.274338
0.858408 0.281439 0.281439
0.978051 0.288291 0.288291
0.043293 0.337587 0.239489
0.149091 0.344700 0.246602
0.254626 0.351729 0.253631
0.353232 0.351830 0.253732
0.448493 0.358235 0.260137
0.610464 0.365335 0.267238
0.734436 0.372436 0.274338
0.858408 0.379536 0.281439
0.978051 0.386389 0.288291
0.050348 0.442507 0.246543
0.156146 0.449621 0.253657
0.261680 0.456649 0.260686
0.360185 0.456649 0.260686
0.449042 0.456649 0.260686
0.610464 0.503758 0.267238
0.734436 0.512094 0.274338
0.858408 0.520429 0.281439
0.978051 0.528473 0.288291
0.056740 0.591072 0.252936
0.162538 0.599423 0.260049
0.268072 0.607674 0.267078
0.366578 0.607674 0.267078
0.455434 0.607674 0.267078
0.610464 0.607861 0.267238
0.734436 0.616197 0.274338
0.858408 0.624532 0.281439
0.978051 0.632576 0.288291
0.063811 0.714531 0.260007
0.169609 0.722882 0.267120
0.275143 0.731133 0.274149
0.373649 0.731133 0.274149
0.502941 0.731133 0.274149
0.618577 0.731133 0.274149
0.734436 0.731355 0.274338
0.858408 0.739690 0.281439
0.978051 0.747735 0.288291
0.070882 0.837990 0.267078
0.176680 0.846341 0.274191
0.282215 0.854592 0.281220
0.380720 0.854592 0.281220
0.511242 0.854592 0.281220
0.626878 0.854592 0.281220
0.742515 0.854592 0.281220
0.858408 0.854849 0.281439
0.978051 0.862893 0.288291
0.077953 0.961449 0.274149
0.183752 0.969800 0.281262
0.289286 0.978051 0.288291
0.387791 0.978051 0.288291
0.519542 0.978051 0.288291
0.635179 0.978051 0.288291
0.750816 0.978051 0.288291
0.866453 0.978051 0.288291
0.978051 0.978051 0.288291
0.043293 0.043293 0.337587
0.141978 0.043293 0.337587
0.240483 0.043293 0.337587
0.339090 0.043394 0.337688
0.434351 0.049799 0.344093
0.593862 0.056900 0.351193
0.717834 0.064000 0.358294
0.841806 0.071101 0.365394
0.961449 0.077953 0.372247
0.043293 0.141391 0.337587
0.149049 0.148462 0.344658
0.247554 0.148462 0.344658
0.346161 0.148563 0.344759
0.441422 0.154968 0.351164
0.602163 0.162069 0.358264
0.726135 0.169169 0.365365
0.850107 0.176270 0.372465
0.969750 0.183122 0.379318
0.043293 0.239489 0.337587
0.149091 0.246602 0.344700
0.254626 0.253631 0.351729
0.353232 0.253732 0.351830
0.448493 0.260137 0.358235
0.610464 0.267238 0.365335
0.734436 0.274338 0.372436
0.858408 0.281439 0.379536
0.978051 0.288291 0.386389
0.043293 0.337587 0.337587
0.149091 0.344700 0.344700
0.254697 0.351801 0.351801
0.360303 0.358901 0.358901
0.455564 0.365306 0.365306
0.618765 0.372407 0.372407
0.742737 0.379507 0.379507
0.866709 0.386608 0.386608
0.986352 0.393460 0.393460
0.050348 0.442507 0.344641
0.156146 0.449621 0.351754
0.261752 0.456721 0.358855
0.367256 0.504368 0.365854
0.456113 0.504368 0.365854
0.618765 0.512059 0.372407
0.742737 0.520395 0.379507
0.866709 0.528730 0.386608
0.986352 0.536774 0.393460
0.056740 0.591072 0.351033
0.162538 0.599423 0.358147
0.268144 0.607758 0.365247
0.373649 0.615975 0.372247
0.502941 0.615975 0.372247
0.618765 0.616162 0.372407
0.742737 0.624498 0.379507
0.866709 0.632833 0.386608
0.986352 0.640877 0.393460
0.063811 0.714531 0.358104
0.169609 0.722882 0.365218
0.275215 0.731217 0.372318
0.380720 0.739434 0.379318
0.511242 0.739434 0.379318
0.626878 0.739434 0.379318
0.742737 0.739656 0.379507
0.866709 0.747991 0.386608
0.986352 0.756036 0.393460
0.070882 0.837990 0.365176
0.176680 0.846341 0.372289
0.282286 0.854676 0.379390
0.387791 0.862893 0.386389
0.519542 0.862893 0.386389
0.635179 0.862893 0.386389
0.750816 0.862893 0.386389
0.866709 0.863150 0.386608
0.986352 0.871194 0.393460
0.077953 0.961449 0.372247
0.183752 0.969800 0.379360
0.289357 0.978135 0.386461
0.394862 0.986352 0.393460
0.527843 0.986352 0.393460
0.643480 0.986352 0.393460
0.759117 0.986352 0.393460
0.874753 0.986352 0.393460
0.986352 0.986352 0.393460
0.050348 0.050348 0.442507
0.149032 0.050348 0.442507
0.247538 0.050348 0.442507
0.346043 0.050348 0.442507
0.434899 0.050348 0.442507
0.593862 0.056900 0.449059
0.717834 0.064000 0.456160
0.841806 0.071101 0.503827
0.961449 0.077953 0.511872
0.050348 0.148446 0.442507
0.156104 0.155517 0.449578
0.254609 0.155517 0.449578
0.353114 0.155517 0.449578
0.441971 0.155517 0.449578
0.602163 0.162069 0.456130
0.726135 0.169169 0.503793
0.850107 0.176270 0.512128
0.969750 0.183122 0.520173
0.050348 0.246543 0.442507
0.156146 0.253657 0.449621
0.261680 0.260686 0.456649
0.360185 0.260686 0.456649
0.449042 0.260686 0.456649
0.610464 0.267238 0.503758
0.734436 0.274338 0.512094
0.858408 0.281439 0.520429
0.978051 0.288291 0.528473
0.050348 0.344641 0.442507
0.156146 0.351754 0.449621
0.261752 0.358855 0.456721
0.367256 0.365854 0.504368
0.456113 0.365854 0.504368
0.618765 0.372407 0.512059
0.742737 0.379507 0.520395
0.866709 0.386608 0.528730
0.986352 0.393460 0.536774
0.050348 0.442507 0.442507
0.156146 0.449621 0.449621
0.261752 0.456721 0.456721
0.367357 0.504486 0.504486
0.503074 0.512005 0.512005
0.627046 0.520341 0.520341
0.751018 0.528676 0.528676
0.874990 0.537011 0.537011
0.994633 0.545056 0.545056
0.056740 0.591072 0.448900
0.162538 0.599423 0.456013
0.268144 0.607758 0.503655
0.373750 0.616093 0.511990
0.510578 0.623612 0.519509
0.627046 0.624444 0.520341
0.751018 0.632779 0.528676
0.874990 0.641114 0.537011
0.994633 0.649159 0.545056
0.063811 0.714531 0.455971
0.169609 0.722882 0.503620
0.275215 0.731217 0.511956
0.380821 0.739552 0.520291
0.518879 0.747071 0.527810
0.635160 0.747715 0.528454
0.751018 0.747937 0.528676
0.874990 0.756273 0.537011
0.994633 0.764317 0.545056
0.070882 0.837990 0.503571
0.176680 0.846341 0.511921
0.282286 0.854676 0.520257
0.387892 0.863012 0.528592
0.527180 0.870530 0.536111
0.643460 0.871174 0.536755
0.759097 0.871174 0.536755
0.874990 0.871431 0.537011
0.994633 0.879475 0.545056
0.077953 0.961449 0.511872
0.183752 0.969800 0.520222
0.289357 0.978135 0.528558
0.394963 0.986471 0.536893
0.535481 0.993990 0.544412
0.651761 0.994633 0.545056
0.767398 0.994633 0.545056
0.883035 0.994633 0.545056
0.994633 0.994633 0.545056
0.056740 0.056740 0.591072
0.155425 0.056740 0.591072
0.253930 0.056740 0.591072
0.352435 0.056740 0.591072
0.441292 0.056740 0.591072
0.593862 0.056900 0.591260
0.717834 0.064000 0.599595
0.841806 0.071101 0.607930
0.961449 0.077953 0.615975
0.056740 0.154838 0.591072
0.162496 0.161909 0.599373
0.261001 0.161909 0.599373
0.359506 0.161909 0.599373
0.448363 0.161909 0.599373
0.602163 0.162069 0.599561
0.726135 0.169169 0.607896
0.850107 0.176270 0.616231
0.969750 0.183122 0.624276
0.056740 0.252936 0.591072
0.162538 0.260049 0.599423
0.268072 0.267078 0.607674
0.366578 0.267078 0.607674
0.455434 0.267078 0.607674
0.610464 0.267238 0.607861
0.734436 0.274338 0.616197
0.858408 0.281439 0.624532
0.978051 0.288291 0.632576
0.056740 0.351033 0.591072
0.162538 0.358147 0.599423
0.268144 0.365247 0.607758
0.373649 0.372247 0.615975
0.502941 0.372247 0.615975
0.618765 0.372407 0.616162
0.742737 0.379507 0.624498
0.866709 0.386608 0.632833
0.986352 0.393460 0.640877
0.056740 0.448900 0.591072
0.162538 0.456013 0.599423
0.268144 0.503655 0.607758
0.373750 0.511990 0.616093
0.510578 0.519509 0.623612
0.627046 0.520341 0.624444
0.751018 0.528676 0.632779
0.874990 0.537011 0.641114
0.994633 0.545056 0.649159
0.056740 0.591072 0.591072
0.162538 0.599423 0.599423
0.268144 0.607758 0.607758
0.373750 0.616093 0.616093
0.510578 0.623612 0.623612
0.634550 0.631948 0.631948
0.758522 0.640283 0.640283
0.882494 0.648618 0.648618
1.000000 0.656663 0.656663
0.063811 0.714531 0.599373
0.169609 0.722882 0.607724
0.275215 0.731217 0.616059
0.380821 0.739552 0.624394
0.518879 0.747071 0.631913
0.642664 0.755219 0.640061
0.758522 0.755441 0.640283
0.882494 0.763777 0.648618
1.000000 0.771821 0.656663
0.070882 0.837990 0.607674
0.176680 0.846341 0.616024
0.282286 0.854676 0.624360
0.387892 0.863012 0.632695
0.527180 0.870530 0.640214
0.650964 0.878678 0.648362
0.766601 0.878678 0.648362
0.882494 0.878935 0.648618
1.000000 0.886979 0.656663
0.077953 0.961449 0.615975
0.183752 0.969800 0.624325
0.289357 0.978135 0.632661
0.394963 0.986471 0.640996
0.535481 0.993990 0.648515
0.659265 1.000000 0.656663
0.774902 1.000000 0.656663
0.890539 1.000000 0.656663
1.000000 1.000000 0.656663
0.063811 0.063811 0.714531
0.162496 0.063811 0.714531
0.261001 0.063811 0.714531
0.359506 0.063811 0.714531
0.448363 0.063811 0.714531
0.601976 0.063811 0.714531
0.717834 0.064000 0.714753
0.841806 0.071101 0.723089
0.961449 0.077953 0.731133
0.063811 0.161909 0.714531
0.169567 0.168980 0.722832
0.268072 0.168980 0.722832
0.366578 0.168980 0.722832
0.455434 0.168980 0.722832
0.610277 0.168980 0.722832
0.726135 0.169169 0.723054
0.850107 0.176270 0.731390
0.969750 0.183122 0.739434
0.063811 0.260007 0.714531
0.169609 0.267120 0.722882
0.275143 0.274149 0.731133
0.373649 0.274149 0.731133
0.502941 0.274149 0.731133
0.618577 0.274149 0.731133
0.734436 0.274338 0.731355
0.858408 0.281439 0.739690
0.978051 0.288291 0.747735
0.063811 0.358104 0.714531
0.169609 0.365218 0.722882
0.275215 0.372318 0.731217
0.380720 0.379318 0.739434
0.511242 0.379318 0.739434
0.626878 0.379318 0.739434
0.742737 0.379507 0.739656
0.866709 0.386608 0.747991
0.986352 0.393460 0.756036
0.063811 0.455971 0.714531
0.169609 0.503620 0.722882
0.275215 0.511956 0.731217
0.380821 0.520291 0.739552
0.518879 0.527810 0.747071
0.635160 0.528454 0.747715
0.751018 0.528676 0.747937
0.874990 0.537011 0.756273
0.994633 0.545056 0.764317
0.063811 0.599373 0.714531
0.169609 0.607724 0.722882
0.275215 0.616059 0.731217
0.380821 0.624394 0.739552
0.518879 0.631913 0.747071
0.642664 0.640061 0.755219
0.758522 0.640283 0.755441
0.882494 0.648618 0.763777
1.000000 0.656663 0.771821
0.063811 0.714531 0.714531
0.169609 0.722882 0.722882
0.275215 0.731217 0.731217
0.380821 0.739552 0.739552
0.518879 0.747071 0.747071
0.642851 0.755407 0.755407
0.766823 0.763742 0.763742
0.890795 0.772077 0.772077
1.000000 0.780122 0.780122
0.070882 0.837990 0.722832
0.176680 0.846341 0.731183
0.282286 0.854676 0.739518
0.387892 0.863012 0.747853
0.527180 0.870530 0.755372
0.651152 0.878866 0.763708
0.774902 0.886979 0.771821
0.890795 0.887236 0.772077
1.000000 0.895280 0.780122
0.077953 0.961449 0.731133
0.183752 0.969800 0.739484
0.289357 0.978135 0.747819
0.394963 0.986471 0.756154
0.535481 0.993990 0.763673
0.659453 1.000000 0.772008
0.783203 1.000000 0.780122
0.898840 1.000000 0.780122
1.000000 1.000000 0.780122
0.070882 0.070882 0.837990
0.169567 0.070882 0.837990
0.268072 0.070882 0.837990
0.366578 0.070882 0.837990
0.455434 0.070882 0.837990
0.610277 0.070882 0.837990
0.725913 0.070882 0.837990
0.841806 0.071101 0.838247
0.961449 0.077953 0.846291
0.070882 0.168980 0.837990
0.176638 0.176051 0.846291
0.275143 0.176051 0.846291
0.373649 0.176051 0.846291
0.502941 0.176051 0.846291
0.618577 0.176051 0.846291
0.734214 0.176051 0.846291
0.850107 0.176270 0.846548
0.969750 0.183122 0.854592
0.070882 0.267078 0.837990
0.176680 0.274191 0.846341
0.282215 0.281220 0.854592
0.380720 0.281220 0.854592
0.511242 0.281220 0.854592
0.626878 0.281220 0.854592
0.742515 0.281220 0.854592
0.858408 0.281439 0.854849
0.978051 0.288291 0.862893
0.070882 0.365176 0.837990
0.176680 0.372289 0.846341
0.282286 0.379390 0.854676
0.387791 0.386389 0.862893
0.519542 0.386389 0.862893
0.635179 0.386389 0.862893
0.750816 0.386389 0.862893
0.866709 0.386608 0.863150
0.986352 0.393460 0.871194
0.070882 0.503571 0.837990
0.176680 0.511921 0.846341
0.282286 0.520257 0.854676
0.387892 0.528592 0.863012
0.527180 0.536111 0.870530
0.643460 0.536755 0.871174
0.759097 0.536755 0.871174
0.874990 0.537011 0.871431
0.994633 0.545056 0.879475
0.070882 0.607674 0.837990
0.176680 0.616024 0.846341
0.282286 0.624360 0.854676
0.387892 0.632695 0.863012
0.527180 0.640214 0.870530
0.650964 0.648362 0.878678
0.766601 0.648362 0.878678
0.882494 0.648618 0.878935
1.000000 0.656663 0.886979
0.070882 0.722832 0.837990
0.176680 0.731183 0.846341
0.282286 0.739518 0.854676
0.387892 0.747853 0.863012
0.527180 0.755372 0.870530
0.651152 0.763708 0.878866
0.774902 0.771821 0.886979
0.890795 0.772077 0.887236
1.000000 0.780122 0.895280
0.070882 0.837990 0.837990
0.176680 0.846341 0.846341
0.282286 0.854676 0.854676
0.387892 0.863012 0.863012
0.527180 0.870530 0.870530
0.651152 0.878866 0.878866
0.775124 0.887201 0.887201
0.899096 0.895537 0.895537
1.000000 0.903581 0.903581
0.077953 0.961449 0.846291
0.183752 0.969800 0.854642
0.289357 0.978135 0.862977
0.394963 0.986471 0.871312
0.535481 0.993990 0.878831
0.659453 1.000000 0.887167
0.783425 1.000000 0.895502
0.907140 1.000000 0.903581
1.000000 1.000000 0.903581
0.077953 0.077953 0.961449
0.176638 0.077953 0.961449
0.275143 0.077953 0.961449
0.373649 0.077953 0.961449
0.502941 0.077953 0.961449
0.618577 0.077953 0.961449
0.734214 0.077953 0.961449
0.849851 0.077953 0.961449
0.961449 0.077953 0.961449
0.077953 0.176051 0.961449
0.183709 0.183122 0.969750
0.282215 0.183122 0.969750
0.380720 0.183122 0.969750
0.511242 0.183122 0.969750
0.626878 0.183122 0.969750
0.742515 0.183122 0.969750
0.858152 0.183122 0.969750
0.969750 0.183122 0.969750
0.077953 0.274149 0.961449
0.183752 0.281262 0.969800
0.289286 0.288291 0.978051
0.387791 0.288291 0.978051
0.519542 0.288291 0.978051
0.635179 0.288291 0.978051
0.750816 0.288291 0.978051
0.866453 0.288291 0.978051
0.978051 0.288291 0.978051
0.077953 0.372247 0.961449
0.183752 0.379360 0.969800
0.289357 0.386461 0.978135
0.394862 0.393460 0.986352
0.527843 0.393460 0.986352
0.643480 0.393460 0.986352
0.759117 0.393460 0.986352
0.874753 0.393460 0.986352
0.986352 0.393460 0.986352
0.077953 0.511872 0.961449
0.183752 0.520222 0.969800
0.289357 0.528558 0.978135
0.394963 0.536893 0.986471
0.535481 0.544412 0.993990
0.651761 0.545056 0.994633
0.767398 0.545056 0.994633
0.883035 0.545056 0.994633
0.994633 0.545056 0.994633
0.077953 0.615975 0.961449
0.183752 0.624325 0.969800
0.289357 0.632661 0.978135
0.394963 0.640996 0.986471
0.535481 0.648515 0.993990
0.659265 0.656663 1.000000
0.774902 0.656663 1.000000
0.890539 0.656663 1.000000
1.000000 0.656663 1.000000
0.077953 0.731133 0.961449
0.183752 0.739484 0.969800
0.289357 0.747819 0.978135
0.394963 0.756154 0.986471
0.535481 0.763673 0.993990
0.659453 0.772008 1.000000
0.783203 0.780122 1.000000
0.898840 0.780122 1.000000
1.000000 0.780122 1.000000
0.077953 0.846291 0.961449
0.183752 0.854642 0.969800
0.289357 0.862977 0.978135
0.394963 0.871312 0.986471
0.535481 0.878831 0.993990
0.659453 0.887167 1.000000
0.783425 0.895502 1.000000
0.907140 0.903581 1.000000
1.000000 0.903581 1.000000
0.077953 0.961449 0.961449
0.183752 0.969800 0.969800
0.289357 0.978135 0.978135
0.394963 0.986471 0.986471
0.535481 0.993990 0.993990
0.659453 1.000000 1.000000
0.783425 1.000000 1.000000
0.907397 1.000000 1.000000
1.000000 1.000000 1.000000
