docs/luts/fuji_recipes/Astia_RR_Kodak_Ektar_100.cube
TITLE "Fujifilm Recipe: RR Kodak Ektar 100 (Astia)"
# FilmSim=Astia HL=1 SH=3 Col=4 WB=Auto WBR=3 WBB=-2
LUT_3D_SIZE 9
DOMAIN_MIN 0.0 0.0 0.0
DOMAIN_MAX 1.0 1.0 1.0
0.021120 0.021120 0.021120
0.158328 0.000000 0.000000
0.274219 0.000000 0.000000
0.390111 0.000000 0.000000
0.556491 0.000000 0.000000
0.692127 0.000000 0.000000
0.827762 0.000000 0.000000
0.963397 0.000000 0.000000
1.000000 0.018923 0.018923
0.000000 0.149600 0.000000
0.158328 0.146424 0.000000
0.274219 0.126909 0.000000
0.390111 0.120396 0.000000
0.556491 0.114224 0.000000
0.692127 0.112325 0.000000
0.827762 0.111083 0.000000
0.963397 0.110208 0.000000
1.000000 0.124761 0.018923
0.000000 0.256960 0.000000
0.138925 0.256960 0.000000
0.274219 0.253817 0.000000
0.390111 0.240792 0.000000
0.556491 0.228447 0.000000
0.692127 0.224650 0.000000
0.827762 0.222167 0.000000
0.963397 0.220417 0.000000
1.000000 0.230598 0.018923
0.000000 0.364320 0.000000
0.131312 0.364320 0.000000
0.262403 0.364320 0.000000
0.390111 0.361188 0.000000
0.556491 0.342671 0.000000
0.692127 0.336975 0.000000
0.827762 0.333250 0.000000
0.963397 0.330625 0.000000
1.000000 0.336436 0.018923
0.000000 0.471427 0.000000
0.127513 0.471427 0.000000
0.254810 0.471427 0.000000
0.382108 0.471427 0.000000
0.556491 0.456625 0.000000
0.692127 0.449034 0.000000
0.827762 0.444072 0.000000
0.963397 0.512472 0.000000
1.000000 0.511684 0.018923
0.000000 0.641972 0.000000
0.122107 0.641972 0.000000
0.244007 0.641972 0.000000
0.365908 0.641972 0.000000
0.551179 0.641972 0.000000
0.692127 0.639139 0.000000
0.827762 0.633647 0.000000
0.963397 0.630215 0.000000
1.000000 0.624757 0.018923
0.000000 0.767622 0.000000
0.120647 0.767622 0.000000
0.241090 0.767622 0.000000
0.361533 0.767622 0.000000
0.546052 0.767622 0.000000
0.688394 0.767622 0.000000
0.827762 0.764928 0.000000
0.963397 0.760461 0.000000
1.000000 0.749838 0.018923
0.000000 0.893273 0.000000
0.119619 0.893273 0.000000
0.239036 0.893273 0.000000
0.358453 0.893273 0.000000
0.542850 0.893273 0.000000
0.683979 0.893273 0.000000
0.825108 0.893273 0.000000
0.963397 0.890708 0.000000
1.000000 0.874919 0.018923
0.018923 1.000000 0.018923
0.133365 1.000000 0.018923
0.247613 1.000000 0.018923
0.361861 1.000000 0.018923
0.539664 1.000000 0.018923
0.674684 1.000000 0.018923
0.809705 1.000000 0.018923
0.944726 1.000000 0.018923
1.000000 1.000000 0.018923
0.000000 0.000000 0.144232
0.158328 0.000000 0.139103
0.274219 0.000000 0.120563
0.390111 0.000000 0.114376
0.556491 0.000000 0.108512
0.692127 0.000000 0.106709
0.827762 0.000000 0.105529
0.963397 0.000000 0.104698
1.000000 0.018923 0.119469
0.000000 0.149600 0.142120
0.140755 0.127635 0.119565
0.285809 0.098472 0.090402
0.430864 0.069309 0.061239
0.647316 0.020405 0.012335
0.795287 0.007611 0.000000
0.930922 0.007145 0.000000
1.000000 0.072538 0.066557
1.000000 0.127351 0.122083
0.000000 0.256960 0.122056
0.115935 0.264207 0.094745
0.285809 0.259864 0.090402
0.430864 0.230701 0.061239
0.647316 0.181797 0.012335
0.795287 0.159840 0.000000
0.930922 0.150053 0.000000
1.000000 0.192148 0.066557
1.000000 0.232717 0.122083
0.000000 0.364320 0.115368
0.088919 0.398583 0.067729
0.263136 0.398583 0.067729
0.430864 0.392093 0.061239
0.647316 0.343189 0.012335
0.795287 0.312069 0.000000
0.930922 0.292960 0.000000
1.000000 0.311758 0.066557
1.000000 0.338083 0.122083
0.000000 0.471427 0.112030
0.061967 0.532642 0.040777
0.236184 0.532642 0.040777
0.410401 0.532642 0.040777
0.647316 0.504200 0.012335
0.795287 0.463939 0.000000
0.930922 0.528519 0.000000
1.000000 0.510607 0.066557
1.000000 0.513862 0.122083
0.000000 0.641972 0.107280
0.020608 0.745132 0.000000
0.190039 0.745132 0.000000
0.359471 0.745132 0.000000
0.618938 0.745132 0.000000
0.795287 0.723475 0.000000
0.930922 0.681196 0.000000
1.000000 0.638395 0.066557
1.000000 0.626430 0.122083
0.000000 0.767622 0.105998
0.019240 0.870783 0.000000
0.177426 0.870783 0.000000
0.335612 0.870783 0.000000
0.579779 0.870783 0.000000
0.766726 0.870783 0.000000
0.930922 0.850087 0.000000
1.000000 0.779752 0.066557
1.000000 0.750954 0.122083
0.000000 0.893273 0.105095
0.018330 0.996433 0.000000
0.169037 0.996433 0.000000
0.319743 0.996433 0.000000
0.554193 0.996433 0.000000
0.732301 0.996433 0.000000
0.910408 0.996433 0.000000
1.000000 0.921110 0.066557
1.000000 0.875477 0.122083
0.018923 1.000000 0.119469
0.135917 1.000000 0.122083
0.249656 1.000000 0.122083
0.363395 1.000000 0.122083
0.541716 1.000000 0.122083
0.676135 1.000000 0.122083
0.810554 1.000000 0.122083
0.944972 1.000000 0.122083
1.000000 1.000000 0.122083
0.000000 0.000000 0.246224
0.140127 0.000000 0.246224
0.274219 0.000000 0.241126
0.390111 0.000000 0.228753
0.556491 0.000000 0.217025
0.692127 0.000000 0.213417
0.827762 0.000000 0.211059
0.963397 0.000000 0.209396
1.000000 0.018923 0.220015
0.000000 0.129592 0.246224
0.117286 0.104166 0.249418
0.284458 0.097121 0.242374
0.429513 0.067958 0.213211
0.646049 0.019032 0.164285
0.800716 0.000000 0.139257
0.936352 0.000000 0.130354
1.000000 0.071987 0.179691
1.000000 0.127513 0.222317
0.000000 0.256960 0.244112
0.112388 0.260660 0.244521
0.260144 0.234198 0.218059
0.405198 0.205036 0.188896
0.623240 0.155711 0.139572
0.795146 0.119440 0.103301
0.967052 0.083170 0.067031
1.000000 0.181809 0.169717
1.000000 0.235721 0.225243
0.000000 0.364320 0.230736
0.085372 0.395036 0.217505
0.237471 0.372918 0.195386
0.405198 0.366428 0.188896
0.623240 0.317103 0.139572
0.795146 0.280833 0.103301
0.967052 0.244562 0.067031
1.000000 0.302727 0.169717
1.000000 0.340495 0.225243
0.000000 0.471427 0.224060
0.058420 0.529095 0.190552
0.210519 0.506977 0.168434
0.384736 0.506977 0.168434
0.623240 0.478114 0.139572
0.795146 0.546586 0.103301
0.967052 0.512599 0.067031
1.000000 0.505256 0.169717
1.000000 0.516591 0.225243
0.000000 0.641972 0.214560
0.007061 0.752328 0.139194
0.158798 0.731580 0.116713
0.333015 0.731580 0.116713
0.601820 0.731580 0.116713
0.795146 0.719012 0.103301
0.967052 0.685024 0.067031
1.000000 0.634441 0.169717
1.000000 0.628528 0.225243
0.000000 0.767622 0.211995
0.000000 0.885040 0.124657
0.125197 0.890830 0.083113
0.299415 0.890830 0.083113
0.570335 0.890830 0.083113
0.776228 0.890830 0.083113
0.967052 0.875761 0.067031
1.000000 0.777344 0.169717
1.000000 0.752352 0.225243
0.000000 0.893273 0.210189
0.010690 1.000000 0.126272
0.137465 1.000000 0.099593
0.294242 1.000000 0.099593
0.539945 1.000000 0.099593
0.725228 1.000000 0.099593
0.910510 1.000000 0.099593
1.000000 0.920247 0.169717
1.000000 0.876176 0.225243
0.018923 1.000000 0.220015
0.136340 1.000000 0.222544
0.252564 1.000000 0.225243
0.365665 1.000000 0.225243
0.544290 1.000000 0.225243
0.677953 1.000000 0.225243
0.811617 1.000000 0.225243
0.945281 1.000000 0.225243
1.000000 1.000000 0.225243
0.000000 0.000000 0.348216
0.132114 0.000000 0.348216
0.264004 0.000000 0.348216
0.390111 0.000000 0.343129
0.556491 0.000000 0.325537
0.692127 0.000000 0.320126
0.827762 0.000000 0.316588
0.963397 0.000000 0.314094
1.000000 0.018923 0.320560
0.000000 0.122181 0.348216
0.091621 0.078500 0.377076
0.265838 0.078500 0.377076
0.429513 0.067958 0.366533
0.646049 0.019032 0.317607
0.800716 0.000000 0.286250
0.936352 0.000000 0.267950
1.000000 0.071987 0.293378
1.000000 0.127513 0.322388
0.000000 0.244362 0.348216
0.089424 0.237696 0.374879
0.238822 0.212876 0.350060
0.402497 0.202334 0.339517
0.620706 0.152965 0.290149
0.792612 0.116695 0.253878
0.964517 0.080424 0.217607
1.000000 0.180576 0.283492
1.000000 0.236102 0.325100
0.000000 0.364320 0.346104
0.085372 0.395036 0.370827
0.230426 0.365873 0.341664
0.379533 0.340762 0.316554
0.599164 0.291017 0.266809
0.771069 0.254747 0.230538
0.942975 0.218476 0.194267
1.000000 0.291274 0.272878
1.000000 0.344005 0.328404
0.000000 0.471427 0.336090
0.058420 0.529095 0.343875
0.203474 0.499932 0.314712
0.337304 0.563540 0.274325
0.599164 0.556497 0.266809
0.771069 0.522510 0.230538
0.942975 0.488523 0.194267
1.000000 0.498213 0.272878
1.000000 0.520113 0.328404
0.000000 0.641972 0.321841
0.007061 0.752328 0.292516
0.151638 0.724971 0.262876
0.306929 0.707503 0.243950
0.577744 0.707503 0.243950
0.771069 0.694935 0.230538
0.942975 0.660948 0.194267
1.000000 0.629237 0.272878
1.000000 0.631235 0.328404
0.000000 0.767622 0.317993
0.000000 0.885040 0.269304
0.118037 0.884222 0.229275
0.273329 0.866754 0.210349
0.546259 0.866754 0.210349
0.752152 0.866754 0.210349
0.942975 0.851684 0.194267
1.000000 0.774174 0.272878
1.000000 0.754156 0.328404
0.000000 0.893273 0.315284
0.010690 1.000000 0.260391
0.127909 1.000000 0.229062
0.261876 1.000000 0.202753
0.520077 1.000000 0.202753
0.713361 1.000000 0.202753
0.906645 1.000000 0.202753
1.000000 0.919112 0.272878
1.000000 0.877078 0.328404
0.018923 1.000000 0.320560
0.136340 1.000000 0.322571
0.253559 1.000000 0.325643
0.368991 1.000000 0.328404
0.547610 1.000000 0.328404
0.680300 1.000000 0.328404
0.812990 1.000000 0.328404
0.945680 1.000000 0.328404
1.000000 1.000000 0.328404
0.000000 0.000000 0.450208
0.128107 0.000000 0.450208
0.255998 0.000000 0.450208
0.383888 0.000000 0.450208
0.556491 0.000000 0.434049
0.692127 0.000000 0.426834
0.827762 0.000000 0.422117
0.963397 0.000000 0.418792
1.000000 0.018923 0.421106
0.000000 0.118476 0.450208
0.065955 0.052835 0.504733
0.240173 0.052835 0.504733
0.414390 0.052835 0.504733
0.646049 0.019032 0.470930
0.800716 0.000000 0.433243
0.936352 0.000000 0.405547
1.000000 0.071987 0.407066
1.000000 0.127513 0.422459
0.000000 0.236952 0.450208
0.063759 0.212031 0.502537
0.213157 0.187211 0.477717
0.387374 0.187211 0.477717
0.620706 0.152965 0.443471
0.792612 0.116695 0.407200
0.964517 0.080424 0.370930
1.000000 0.180576 0.476327
1.000000 0.236102 0.492463
0.000000 0.355427 0.450208
0.063759 0.373423 0.502537
0.208813 0.344260 0.473374
0.360358 0.321587 0.450701
0.595362 0.286899 0.416012
0.767268 0.250628 0.379742
0.939174 0.214357 0.447024
1.000000 0.289166 0.468171
1.000000 0.344692 0.496504
0.000000 0.471427 0.448120
0.058420 0.529095 0.497197
0.203474 0.499932 0.468034
0.326589 0.553651 0.416932
0.575087 0.532421 0.394045
0.746993 0.498434 0.357775
0.896871 0.442418 0.404721
1.000000 0.468875 0.438555
1.000000 0.518976 0.494624
0.000000 0.641972 0.429121
0.007061 0.752328 0.445839
0.151638 0.724971 0.416198
0.296214 0.697613 0.386557
0.553667 0.683427 0.371187
0.746993 0.670859 0.357775
0.896871 0.614844 0.404721
1.000000 0.607559 0.438555
1.000000 0.630360 0.494624
0.000000 0.767622 0.423990
0.000000 0.885040 0.413952
0.118037 0.884222 0.382598
0.262614 0.856864 0.352957
0.500366 0.820861 0.420003
0.706259 0.820861 0.420003
0.896871 0.805580 0.404721
1.000000 0.760971 0.438555
1.000000 0.753574 0.494624
0.000000 0.893273 0.420379
0.010690 1.000000 0.394509
0.127909 1.000000 0.368485
0.245128 1.000000 0.432630
0.468438 0.979669 0.388075
0.674331 0.979669 0.388075
0.880224 0.979669 0.388075
1.000000 0.914382 0.438555
1.000000 0.876787 0.494624
0.018923 1.000000 0.421106
0.136340 1.000000 0.422598
0.253559 1.000000 0.493038
0.370778 1.000000 0.497670
0.546538 1.000000 0.494624
0.679542 1.000000 0.494624
0.812547 1.000000 0.494624
0.945551 1.000000 0.494624
1.000000 1.000000 0.494624
0.000000 0.000000 0.610560
0.122573 0.000000 0.610560
0.244939 0.000000 0.610560
0.367305 0.000000 0.610560
0.552912 0.000000 0.610560
0.692127 0.000000 0.605952
0.827762 0.000000 0.600827
0.963397 0.000000 0.597653
1.000000 0.018923 0.593487
0.000000 0.113358 0.610560
0.017694 0.004573 0.714576
0.191911 0.004573 0.714576
0.366128 0.004573 0.714576
0.632501 0.004573 0.714576
0.800716 0.000000 0.682010
0.936352 0.000000 0.640459
1.000000 0.071987 0.602853
1.000000 0.127513 0.595406
0.000000 0.226715 0.610560
0.015461 0.163733 0.712516
0.164452 0.138507 0.689232
0.338669 0.138507 0.689232
0.607157 0.138507 0.689232
0.792612 0.116695 0.668793
0.964517 0.080424 0.634806
1.000000 0.180576 0.598188
1.000000 0.236102 0.597845
0.000000 0.340073 0.610560
0.015461 0.325125 0.712516
0.160038 0.295484 0.685158
0.311211 0.272440 0.663889
0.581814 0.272440 0.663889
0.767268 0.250628 0.643450
0.939174 0.214357 0.609462
1.000000 0.289166 0.591931
1.000000 0.344692 0.601047
0.000000 0.453163 0.610560
0.015461 0.486136 0.712516
0.160038 0.560417 0.685158
0.304614 0.533059 0.657801
0.533966 0.491300 0.616041
0.719133 0.470573 0.595315
0.890561 0.436108 0.560849
1.000000 0.463631 0.564953
1.000000 0.519700 0.600160
0.000000 0.641972 0.608608
0.007061 0.752328 0.704644
0.151638 0.724971 0.677287
0.296214 0.697613 0.649929
0.518842 0.648601 0.600917
0.698252 0.622118 0.574434
0.869680 0.587652 0.539968
1.000000 0.586975 0.546611
1.000000 0.633243 0.602680
0.000000 0.767622 0.602794
0.000000 0.885040 0.660109
0.118037 0.884222 0.645802
0.262614 0.856864 0.618444
0.486914 0.807409 0.568989
0.679068 0.793670 0.555250
0.869680 0.778389 0.539968
1.000000 0.748433 0.546611
1.000000 0.755495 0.602680
0.000000 0.893273 0.599108
0.010690 1.000000 0.624598
0.127909 1.000000 0.609750
0.245128 1.000000 0.588417
0.454986 0.966217 0.537061
0.647140 0.952478 0.523322
0.853033 0.952478 0.523322
1.000000 0.909892 0.546611
1.000000 0.877748 0.602680
0.018923 1.000000 0.593487
0.136340 1.000000 0.595583
0.253559 1.000000 0.598300
0.370778 1.000000 0.601971
0.548083 1.000000 0.600921
0.682041 1.000000 0.602680
0.814008 1.000000 0.602680
0.945976 1.000000 0.602680
1.000000 1.000000 0.602680
0.000000 0.000000 0.729927
0.121029 0.000000 0.729927
0.241853 0.000000 0.729927
0.362677 0.000000 0.729927
0.547340 0.000000 0.729927
0.690132 0.000000 0.729927
0.827762 0.000000 0.725544
0.963397 0.000000 0.721387
1.000000 0.018923 0.712314
0.000000 0.111930 0.729927
0.012317 0.000000 0.838517
0.175866 0.000000 0.838517
0.339416 0.000000 0.838517
0.591364 0.000000 0.838517
0.784649 0.000000 0.838517
0.936352 0.000000 0.803072
1.000000 0.071987 0.737211
1.000000 0.127513 0.713672
0.000000 0.223859 0.729927
0.000000 0.142727 0.847345
0.132532 0.106586 0.840521
0.306749 0.106586 0.840521
0.577246 0.106586 0.840521
0.783139 0.106586 0.840521
0.964517 0.080424 0.816005
1.000000 0.180576 0.734124
1.000000 0.236102 0.715398
0.000000 0.335789 0.729927
0.000000 0.298084 0.847345
0.128117 0.263564 0.836446
0.279290 0.240519 0.815177
0.551903 0.240519 0.815177
0.757796 0.240519 0.815177
0.939174 0.214357 0.790662
1.000000 0.289166 0.729984
1.000000 0.344692 0.717664
0.000000 0.447454 0.729927
0.000000 0.552845 0.847345
0.128117 0.530506 0.836446
0.272694 0.503148 0.809089
0.503634 0.460968 0.766909
0.709527 0.460968 0.766909
0.890561 0.436108 0.742049
1.000000 0.463631 0.712133
1.000000 0.519700 0.717037
0.000000 0.637331 0.729927
0.000000 0.718822 0.847345
0.128117 0.702931 0.836446
0.272694 0.675574 0.809089
0.496492 0.626251 0.759767
0.680664 0.604530 0.738046
0.861698 0.579670 0.713186
1.000000 0.578331 0.693717
1.000000 0.634400 0.719707
0.000000 0.767622 0.728063
0.000000 0.885040 0.831057
0.118037 0.884222 0.827001
0.262614 0.856864 0.799643
0.486914 0.807409 0.750188
0.658342 0.772944 0.715723
0.839348 0.748057 0.690836
1.000000 0.720888 0.667147
1.000000 0.759318 0.723216
0.000000 0.893273 0.723311
0.010690 1.000000 0.783101
0.127909 1.000000 0.774522
0.245128 1.000000 0.762196
0.454986 0.966217 0.718260
0.626413 0.931752 0.683795
0.822701 0.922147 0.674189
1.000000 0.900025 0.667147
1.000000 0.879659 0.723216
0.018923 1.000000 0.712314
0.136340 1.000000 0.713797
0.253559 1.000000 0.715720
0.370778 1.000000 0.718318
0.548083 1.000000 0.717575
0.685045 1.000000 0.721476
0.816916 1.000000 0.723216
0.946820 1.000000 0.723216
1.000000 1.000000 0.723216
0.000000 0.000000 0.849295
0.119942 0.000000 0.849295
0.239682 0.000000 0.849295
0.359422 0.000000 0.849295
0.543808 0.000000 0.849295
0.685319 0.000000 0.849295
0.826829 0.000000 0.849295
0.963397 0.000000 0.845121
1.000000 0.018923 0.831141
0.000000 0.110925 0.849295
0.011675 0.000000 0.957885
0.166708 0.000000 0.957885
0.321740 0.000000 0.957885
0.562356 0.000000 0.957885
0.745577 0.000000 0.957885
0.928797 0.000000 0.957885
1.000000 0.071987 0.871569
1.000000 0.127513 0.831938
0.000000 0.221850 0.849295
0.000000 0.134781 0.966713
0.100611 0.074666 0.991809
0.274828 0.074666 0.991809
0.547335 0.074666 0.991809
0.753228 0.074666 0.991809
0.959122 0.074666 0.991809
1.000000 0.180576 0.870061
1.000000 0.236102 0.832951
0.000000 0.332775 0.849295
0.000000 0.281489 0.966713
0.096197 0.231643 0.987735
0.247370 0.208599 0.966465
0.521992 0.208599 0.966465
0.727885 0.208599 0.966465
0.933778 0.208599 0.966465
1.000000 0.289166 0.868037
1.000000 0.344692 0.834281
0.000000 0.514484 0.849295
0.000000 0.523895 0.966713
0.096197 0.500595 0.987735
0.240773 0.473237 0.960377
0.473302 0.430636 0.917776
0.679196 0.430636 0.917776
0.885089 0.430636 0.917776
1.000000 0.463631 0.859313
1.000000 0.519700 0.833913
0.000000 0.632992 0.849295
0.000000 0.680632 0.966713
0.096197 0.673020 0.987735
0.240773 0.645663 0.960377
0.466160 0.595920 0.910634
0.650333 0.574199 0.888913
0.856226 0.574199 0.888913
1.000000 0.578331 0.850313
1.000000 0.634400 0.835480
0.000000 0.764085 0.849295
0.000000 0.854014 0.966713
0.096197 0.863756 0.987735
0.240773 0.836399 0.960377
0.466160 0.786656 0.910634
0.637588 0.752190 0.876169
0.824298 0.733007 0.856985
1.000000 0.705211 0.828190
1.000000 0.761280 0.838864
0.000000 0.893273 0.847514
0.010690 1.000000 0.941604
0.127909 1.000000 0.939295
0.245128 1.000000 0.935976
0.454986 0.966217 0.899459
0.626413 0.931752 0.864994
0.797841 0.897287 0.830529
0.980444 0.873996 0.807238
1.000000 0.884261 0.843752
0.018923 1.000000 0.831141
0.136340 1.000000 0.832011
0.253559 1.000000 0.833140
0.370778 1.000000 0.834665
0.548083 1.000000 0.834229
0.685045 1.000000 0.836519
0.822008 1.000000 0.842058
0.948854 1.000000 0.843752
1.000000 1.000000 0.843752
0.000000 0.000000 0.968663
0.119137 0.000000 0.968663
0.238072 0.000000 0.968663
0.357007 0.000000 0.968663
0.541526 0.000000 0.968663
0.682086 0.000000 0.968663
0.822646 0.000000 0.968663
0.963206 0.000000 0.968663
1.000000 0.018923 0.949968
0.000000 0.110180 0.968663
0.086864 0.077253 1.000000
0.214488 0.077253 1.000000
0.342111 0.077253 1.000000
0.541660 0.077253 1.000000
0.692488 0.077253 1.000000
0.843316 0.077253 1.000000
0.994144 0.077253 1.000000
1.000000 0.127513 0.950204
0.000000 0.220359 0.968663
0.086080 0.194776 1.000000
0.205040 0.185842 1.000000
0.333944 0.185842 1.000000
0.537060 0.185842 1.000000
0.689402 0.185842 1.000000
0.841744 0.185842 1.000000
0.994086 0.185842 1.000000
1.000000 0.236102 0.950504
0.000000 0.330539 0.968663
0.086080 0.313090 1.000000
0.203299 0.303705 1.000000
0.323500 0.294432 1.000000
0.530904 0.294432 1.000000
0.685271 0.294432 1.000000
0.839639 0.294432 1.000000
0.994007 0.294432 1.000000
1.000000 0.344692 0.950898
0.000000 0.512399 0.968663
0.086080 0.510052 1.000000
0.203299 0.504566 1.000000
0.320518 0.496989 1.000000
0.502850 0.468948 1.000000
0.666450 0.468948 1.000000
0.830049 0.468948 1.000000
0.993648 0.468948 1.000000
1.000000 0.519700 0.950789
0.000000 0.630111 0.968663
0.086080 0.636454 1.000000
0.203299 0.632383 1.000000
0.320518 0.626761 1.000000
0.497331 0.601580 1.000000
0.647567 0.583648 1.000000
0.820428 0.583648 1.000000
0.993289 0.583648 1.000000
1.000000 0.634400 0.951253
0.000000 0.760323 0.968663
0.086080 0.776279 1.000000
0.203299 0.773774 1.000000
0.320518 0.770315 1.000000
0.497331 0.754818 1.000000
0.634293 0.734133 1.000000
0.797121 0.710528 1.000000
0.992418 0.710528 1.000000
1.000000 0.761280 0.952256
0.000000 0.890535 0.968663
0.086080 0.916105 1.000000
0.203299 0.915165 1.000000
0.320518 0.913868 1.000000
0.497331 0.908057 1.000000
0.634293 0.900300 1.000000
0.778685 0.878130 0.992571
0.967931 0.861483 0.975925
1.000000 0.888160 0.955264
0.018923 1.000000 0.949968
0.136340 1.000000 0.950226
0.253559 1.000000 0.950560
0.370778 1.000000 0.951012
0.548083 1.000000 0.950883
0.685045 1.000000 0.951561
0.822008 1.000000 0.953202
0.954983 1.000000 0.959630
1.000000 1.000000 0.959965
