docs/luts/fuji_recipes/Astia_MT_Astia.cube
TITLE "Fujifilm Recipe: MT Astia (Astia)"
# FilmSim=Astia HL=0 SH=0 Col=-4 WB=Auto WBR=2 WBB=0
LUT_3D_SIZE 9
DOMAIN_MIN 0.0 0.0 0.0
DOMAIN_MAX 1.0 1.0 1.0
0.024000 0.024000 0.024000
0.104194 0.072661 0.072661
0.184250 0.121238 0.121238
0.264305 0.169814 0.169814
0.336893 0.213859 0.213859
0.416948 0.262436 0.262436
0.497004 0.311013 0.311013
0.577059 0.359589 0.359589
0.623955 0.388045 0.388045
0.070072 0.099928 0.070072
0.104194 0.102517 0.072661
0.184250 0.151093 0.121238
0.264305 0.199670 0.169814
0.336893 0.243715 0.213859
0.416948 0.292292 0.262436
0.497004 0.340868 0.311013
0.577059 0.389445 0.359589
0.623955 0.417901 0.388045
0.116144 0.175856 0.116144
0.147678 0.175856 0.116144
0.184250 0.180949 0.121238
0.264305 0.229526 0.169814
0.336893 0.273571 0.213859
0.416948 0.322148 0.262436
0.497004 0.370724 0.311013
0.577059 0.419301 0.359589
0.623955 0.447757 0.388045
0.162216 0.251784 0.162216
0.193750 0.251784 0.162216
0.225229 0.251784 0.162216
0.264305 0.259382 0.169814
0.336893 0.303427 0.213859
0.416948 0.352003 0.262436
0.497004 0.400580 0.311013
0.577059 0.449157 0.359589
0.623955 0.477612 0.388045
0.208180 0.327532 0.208180
0.239713 0.327532 0.208180
0.271192 0.327532 0.208180
0.302671 0.327532 0.208180
0.336893 0.333212 0.213859
0.416948 0.381789 0.262436
0.497004 0.430365 0.311013
0.577059 0.478942 0.359589
0.623955 0.507398 0.388045
0.249829 0.396171 0.249829
0.281362 0.396171 0.249829
0.312841 0.396171 0.249829
0.344320 0.396171 0.249829
0.372862 0.396171 0.249829
0.416948 0.408778 0.262436
0.497004 0.457355 0.311013
0.577059 0.505932 0.359589
0.623955 0.534388 0.388045
0.295901 0.472099 0.295901
0.327434 0.472099 0.295901
0.358913 0.472099 0.295901
0.390392 0.472099 0.295901
0.418934 0.472099 0.295901
0.450413 0.472099 0.295901
0.497004 0.487211 0.311013
0.577059 0.535788 0.359589
0.623955 0.564243 0.388045
0.341973 0.548027 0.341973
0.373506 0.548027 0.341973
0.404985 0.548027 0.341973
0.436464 0.548027 0.341973
0.465006 0.548027 0.341973
0.496485 0.548027 0.341973
0.527964 0.548027 0.341973
0.577059 0.565643 0.359589
0.623955 0.594099 0.388045
0.388045 0.623955 0.388045
0.419578 0.623955 0.388045
0.451057 0.623955 0.388045
0.482536 0.623955 0.388045
0.511078 0.623955 0.388045
0.542557 0.623955 0.388045
0.574036 0.623955 0.388045
0.605515 0.623955 0.388045
0.623955 0.623955 0.388045
0.070072 0.070072 0.099928
0.104194 0.072661 0.102517
0.184250 0.121238 0.151093
0.264305 0.169814 0.199670
0.336893 0.213859 0.243715
0.416948 0.262436 0.292292
0.497004 0.311013 0.340868
0.577059 0.359589 0.389445
0.623955 0.388045 0.417901
0.070072 0.099928 0.099928
0.150266 0.148589 0.148589
0.230322 0.197165 0.197165
0.310377 0.245742 0.245742
0.382965 0.289787 0.289787
0.463020 0.338364 0.338364
0.543076 0.386940 0.386940
0.623131 0.435517 0.435517
0.670027 0.463973 0.463973
0.116144 0.175856 0.146000
0.193750 0.221928 0.192072
0.230322 0.227021 0.197165
0.310377 0.275598 0.245742
0.382965 0.319643 0.289787
0.463020 0.368220 0.338364
0.543076 0.416796 0.386940
0.623131 0.465373 0.435517
0.670027 0.493829 0.463973
0.162216 0.251784 0.192072
0.239822 0.297856 0.238144
0.271301 0.297856 0.238144
0.310377 0.305454 0.245742
0.382965 0.349499 0.289787
0.463020 0.398075 0.338364
0.543076 0.446652 0.386940
0.623131 0.495229 0.435517
0.670027 0.523685 0.463973
0.208180 0.327532 0.238035
0.285785 0.373605 0.284107
0.317264 0.373605 0.284107
0.348743 0.373605 0.284107
0.382965 0.379284 0.289787
0.463020 0.427861 0.338364
0.543076 0.476437 0.386940
0.623131 0.525014 0.435517
0.670027 0.553470 0.463973
0.249829 0.396171 0.279685
0.327434 0.442243 0.325757
0.358913 0.442243 0.325757
0.390392 0.442243 0.325757
0.418934 0.442243 0.325757
0.463020 0.454851 0.338364
0.543076 0.503427 0.386940
0.623131 0.552004 0.435517
0.670027 0.580460 0.463973
0.295901 0.472099 0.325757
0.373506 0.518171 0.371829
0.404985 0.518171 0.371829
0.436464 0.518171 0.371829
0.465006 0.518171 0.371829
0.496485 0.518171 0.371829
0.543076 0.533283 0.386940
0.623131 0.581860 0.435517
0.670027 0.610315 0.463973
0.341973 0.548027 0.371829
0.419578 0.594099 0.417901
0.451057 0.594099 0.417901
0.482536 0.594099 0.417901
0.511078 0.594099 0.417901
0.542557 0.594099 0.417901
0.574036 0.594099 0.417901
0.623131 0.611716 0.435517
0.670027 0.640171 0.463973
0.388045 0.623955 0.417901
0.465650 0.670027 0.463973
0.497129 0.670027 0.463973
0.528608 0.670027 0.463973
0.557150 0.670027 0.463973
0.588629 0.670027 0.463973
0.620108 0.670027 0.463973
0.651587 0.670027 0.463973
0.670027 0.670027 0.463973
0.116144 0.116144 0.175856
0.147678 0.116144 0.175856
0.184250 0.121238 0.180949
0.264305 0.169814 0.229526
0.336893 0.213859 0.273571
0.416948 0.262436 0.322148
0.497004 0.311013 0.370724
0.577059 0.359589 0.419301
0.623955 0.388045 0.447757
0.116144 0.146000 0.175856
0.193750 0.192072 0.221928
0.230322 0.197165 0.227021
0.310377 0.245742 0.275598
0.382965 0.289787 0.319643
0.463020 0.338364 0.368220
0.543076 0.386940 0.416796
0.623131 0.435517 0.465373
0.670027 0.463973 0.493829
0.116144 0.175856 0.175856
0.196338 0.224517 0.224517
0.276394 0.273093 0.273093
0.356450 0.321670 0.321670
0.429037 0.365715 0.365715
0.509092 0.414292 0.414292
0.589148 0.462868 0.462868
0.669203 0.511445 0.511445
0.716099 0.539901 0.539901
0.162216 0.251784 0.221928
0.242411 0.300445 0.270589
0.317373 0.343928 0.314072
0.356450 0.351526 0.321670
0.429037 0.395571 0.365715
0.509092 0.444148 0.414292
0.589148 0.492724 0.462868
0.669203 0.541301 0.511445
0.716099 0.569757 0.539901
0.208180 0.327532 0.267891
0.288374 0.376193 0.316552
0.363336 0.419677 0.360035
0.394815 0.419677 0.360035
0.429037 0.425356 0.365715
0.509092 0.473933 0.414292
0.589148 0.522510 0.462868
0.669203 0.571086 0.511445
0.716099 0.599542 0.539901
0.249829 0.396171 0.309540
0.330023 0.444832 0.358201
0.404985 0.488315 0.401685
0.436464 0.488315 0.401685
0.465006 0.488315 0.401685
0.509092 0.500923 0.414292
0.589148 0.549499 0.462868
0.669203 0.598076 0.511445
0.716099 0.626532 0.539901
0.295901 0.472099 0.355612
0.376095 0.520760 0.404273
0.451057 0.564243 0.447757
0.482536 0.564243 0.447757
0.511078 0.564243 0.447757
0.542557 0.564243 0.447757
0.589148 0.579355 0.462868
0.669203 0.627932 0.511445
0.716099 0.656388 0.539901
0.341973 0.548027 0.401685
0.422167 0.596688 0.450345
0.497129 0.640171 0.493829
0.528608 0.640171 0.493829
0.557150 0.640171 0.493829
0.588629 0.640171 0.493829
0.620108 0.640171 0.493829
0.669203 0.657788 0.511445
0.716099 0.686243 0.539901
0.388045 0.623955 0.447757
0.468239 0.672616 0.496418
0.543201 0.716099 0.539901
0.574680 0.716099 0.539901
0.603223 0.716099 0.539901
0.634701 0.716099 0.539901
0.666180 0.716099 0.539901
0.697659 0.716099 0.539901
0.716099 0.716099 0.539901
0.162216 0.162216 0.251784
0.193750 0.162216 0.251784
0.225229 0.162216 0.251784
0.264305 0.169814 0.259382
0.336893 0.213859 0.303427
0.416948 0.262436 0.352003
0.497004 0.311013 0.400580
0.577059 0.359589 0.449157
0.623955 0.388045 0.477612
0.162216 0.192072 0.251784
0.239822 0.238144 0.297856
0.271301 0.238144 0.297856
0.310377 0.245742 0.305454
0.382965 0.289787 0.349499
0.463020 0.338364 0.398075
0.543076 0.386940 0.446652
0.623131 0.435517 0.495229
0.670027 0.463973 0.523685
0.162216 0.221928 0.251784
0.242411 0.270589 0.300445
0.317373 0.314072 0.343928
0.356450 0.321670 0.351526
0.429037 0.365715 0.395571
0.509092 0.414292 0.444148
0.589148 0.462868 0.492724
0.669203 0.511445 0.541301
0.716099 0.539901 0.569757
0.162216 0.251784 0.251784
0.242411 0.300445 0.300445
0.322466 0.349021 0.349021
0.402522 0.397598 0.397598
0.475109 0.441643 0.441643
0.555164 0.490220 0.490220
0.635220 0.538796 0.538796
0.715275 0.587373 0.587373
0.762171 0.615829 0.615829
0.208180 0.327532 0.297747
0.288374 0.376193 0.346408
0.368429 0.424770 0.394985
0.440887 0.465749 0.435963
0.475109 0.471428 0.441643
0.555164 0.520005 0.490220
0.635220 0.568582 0.538796
0.715275 0.617158 0.587373
0.762171 0.645614 0.615829
0.249829 0.396171 0.339396
0.330023 0.444832 0.388057
0.410079 0.493409 0.436634
0.482536 0.534388 0.477612
0.511078 0.534388 0.477612
0.555164 0.546995 0.490220
0.635220 0.595571 0.538796
0.715275 0.644148 0.587373
0.762171 0.672604 0.615829
0.295901 0.472099 0.385468
0.376095 0.520760 0.434129
0.456151 0.569337 0.482706
0.528608 0.610315 0.523685
0.557150 0.610315 0.523685
0.588629 0.610315 0.523685
0.635220 0.625427 0.538796
0.715275 0.674004 0.587373
0.762171 0.702460 0.615829
0.341973 0.548027 0.431540
0.422167 0.596688 0.480201
0.502223 0.645265 0.528778
0.574680 0.686243 0.569757
0.603223 0.686243 0.569757
0.634701 0.686243 0.569757
0.666180 0.686243 0.569757
0.715275 0.703860 0.587373
0.762171 0.732315 0.615829
0.388045 0.623955 0.477612
0.468239 0.672616 0.526273
0.548295 0.721193 0.574850
0.620752 0.762171 0.615829
0.649295 0.762171 0.615829
0.680773 0.762171 0.615829
0.712252 0.762171 0.615829
0.743731 0.762171 0.615829
0.762171 0.762171 0.615829
0.208180 0.208180 0.327532
0.239713 0.208180 0.327532
0.271192 0.208180 0.327532
0.302671 0.208180 0.327532
0.336893 0.213859 0.333212
0.416948 0.262436 0.381789
0.497004 0.311013 0.430365
0.577059 0.359589 0.478942
0.623955 0.388045 0.507398
0.208180 0.238035 0.327532
0.285785 0.284107 0.373605
0.317264 0.284107 0.373605
0.348743 0.284107 0.373605
0.382965 0.289787 0.379284
0.463020 0.338364 0.427861
0.543076 0.386940 0.476437
0.623131 0.435517 0.525014
0.670027 0.463973 0.553470
0.208180 0.267891 0.327532
0.288374 0.316552 0.376193
0.363336 0.360035 0.419677
0.394815 0.360035 0.419677
0.429037 0.365715 0.425356
0.509092 0.414292 0.473933
0.589148 0.462868 0.522510
0.669203 0.511445 0.571086
0.716099 0.539901 0.599542
0.208180 0.297747 0.327532
0.288374 0.346408 0.376193
0.368429 0.394985 0.424770
0.440887 0.435963 0.465749
0.475109 0.441643 0.471428
0.555164 0.490220 0.520005
0.635220 0.538796 0.568582
0.715275 0.587373 0.617158
0.762171 0.615829 0.645614
0.208180 0.327532 0.327532
0.288374 0.376193 0.376193
0.368429 0.424770 0.424770
0.448485 0.473347 0.473347
0.521072 0.517392 0.517392
0.601128 0.565968 0.565968
0.681183 0.614545 0.614545
0.761239 0.663122 0.663122
0.808135 0.691577 0.691577
0.249829 0.396171 0.369182
0.330023 0.444832 0.417842
0.410079 0.493409 0.466419
0.490134 0.541985 0.514996
0.557042 0.580351 0.553361
0.601128 0.592958 0.565968
0.681183 0.641535 0.614545
0.761239 0.690111 0.663122
0.808135 0.718567 0.691577
0.295901 0.472099 0.415254
0.376095 0.520760 0.463915
0.456151 0.569337 0.512491
0.536206 0.617913 0.561068
0.603114 0.656279 0.599433
0.634593 0.656279 0.599433
0.681183 0.671390 0.614545
0.761239 0.719967 0.663122
0.808135 0.748423 0.691577
0.341973 0.548027 0.461326
0.422167 0.596688 0.509987
0.502223 0.645265 0.558563
0.582278 0.693841 0.607140
0.649186 0.732207 0.645505
0.680665 0.732207 0.645505
0.712144 0.732207 0.645505
0.761239 0.749823 0.663122
0.808135 0.778279 0.691577
0.388045 0.623955 0.507398
0.468239 0.672616 0.556059
0.548295 0.721193 0.604635
0.628350 0.769769 0.653212
0.695258 0.808135 0.691577
0.726737 0.808135 0.691577
0.758216 0.808135 0.691577
0.789695 0.808135 0.691577
0.808135 0.808135 0.691577
0.249829 0.249829 0.396171
0.281362 0.249829 0.396171
0.312841 0.249829 0.396171
0.344320 0.249829 0.396171
0.372862 0.249829 0.396171
0.416948 0.262436 0.408778
0.497004 0.311013 0.457355
0.577059 0.359589 0.505932
0.623955 0.388045 0.534388
0.249829 0.279685 0.396171
0.327434 0.325757 0.442243
0.358913 0.325757 0.442243
0.390392 0.325757 0.442243
0.418934 0.325757 0.442243
0.463020 0.338364 0.454851
0.543076 0.386940 0.503427
0.623131 0.435517 0.552004
0.670027 0.463973 0.580460
0.249829 0.309540 0.396171
0.330023 0.358201 0.444832
0.404985 0.401685 0.488315
0.436464 0.401685 0.488315
0.465006 0.401685 0.488315
0.509092 0.414292 0.500923
0.589148 0.462868 0.549499
0.669203 0.511445 0.598076
0.716099 0.539901 0.626532
0.249829 0.339396 0.396171
0.330023 0.388057 0.444832
0.410079 0.436634 0.493409
0.482536 0.477612 0.534388
0.511078 0.477612 0.534388
0.555164 0.490220 0.546995
0.635220 0.538796 0.595571
0.715275 0.587373 0.644148
0.762171 0.615829 0.672604
0.249829 0.369182 0.396171
0.330023 0.417842 0.444832
0.410079 0.466419 0.493409
0.490134 0.514996 0.541985
0.557042 0.553361 0.580351
0.601128 0.565968 0.592958
0.681183 0.614545 0.641535
0.761239 0.663122 0.690111
0.808135 0.691577 0.718567
0.249829 0.396171 0.396171
0.330023 0.444832 0.444832
0.410079 0.493409 0.493409
0.490134 0.541985 0.541985
0.562721 0.586030 0.586030
0.642777 0.634607 0.634607
0.722832 0.683184 0.683184
0.802888 0.731760 0.731760
0.849784 0.760216 0.760216
0.295901 0.472099 0.442243
0.376095 0.520760 0.490904
0.456151 0.569337 0.539481
0.536206 0.617913 0.588058
0.608793 0.661958 0.632103
0.676242 0.697928 0.668072
0.722832 0.713040 0.683184
0.802888 0.761616 0.731760
0.849784 0.790072 0.760216
0.341973 0.548027 0.488315
0.422167 0.596688 0.536976
0.502223 0.645265 0.585553
0.582278 0.693841 0.634130
0.654866 0.737886 0.678175
0.722314 0.773856 0.714144
0.753793 0.773856 0.714144
0.802888 0.791472 0.731760
0.849784 0.819928 0.760216
0.388045 0.623955 0.534388
0.468239 0.672616 0.583048
0.548295 0.721193 0.631625
0.628350 0.769769 0.680202
0.700938 0.813814 0.724247
0.768386 0.849784 0.760216
0.799865 0.849784 0.760216
0.831344 0.849784 0.760216
0.849784 0.849784 0.760216
0.295901 0.295901 0.472099
0.327434 0.295901 0.472099
0.358913 0.295901 0.472099
0.390392 0.295901 0.472099
0.418934 0.295901 0.472099
0.450413 0.295901 0.472099
0.497004 0.311013 0.487211
0.577059 0.359589 0.535788
0.623955 0.388045 0.564243
0.295901 0.325757 0.472099
0.373506 0.371829 0.518171
0.404985 0.371829 0.518171
0.436464 0.371829 0.518171
0.465006 0.371829 0.518171
0.496485 0.371829 0.518171
0.543076 0.386940 0.533283
0.623131 0.435517 0.581860
0.670027 0.463973 0.610315
0.295901 0.355612 0.472099
0.376095 0.404273 0.520760
0.451057 0.447757 0.564243
0.482536 0.447757 0.564243
0.511078 0.447757 0.564243
0.542557 0.447757 0.564243
0.589148 0.462868 0.579355
0.669203 0.511445 0.627932
0.716099 0.539901 0.656388
0.295901 0.385468 0.472099
0.376095 0.434129 0.520760
0.456151 0.482706 0.569337
0.528608 0.523685 0.610315
0.557150 0.523685 0.610315
0.588629 0.523685 0.610315
0.635220 0.538796 0.625427
0.715275 0.587373 0.674004
0.762171 0.615829 0.702460
0.295901 0.415254 0.472099
0.376095 0.463915 0.520760
0.456151 0.512491 0.569337
0.536206 0.561068 0.617913
0.603114 0.599433 0.656279
0.634593 0.599433 0.656279
0.681183 0.614545 0.671390
0.761239 0.663122 0.719967
0.808135 0.691577 0.748423
0.295901 0.442243 0.472099
0.376095 0.490904 0.520760
0.456151 0.539481 0.569337
0.536206 0.588058 0.617913
0.608793 0.632103 0.661958
0.676242 0.668072 0.697928
0.722832 0.683184 0.713040
0.802888 0.731760 0.761616
0.849784 0.760216 0.790072
0.295901 0.472099 0.472099
0.376095 0.520760 0.520760
0.456151 0.569337 0.569337
0.536206 0.617913 0.617913
0.608793 0.661958 0.661958
0.688849 0.710535 0.710535
0.768904 0.759112 0.759112
0.848960 0.807688 0.807688
0.895856 0.836144 0.836144
0.341973 0.548027 0.518171
0.422167 0.596688 0.566832
0.502223 0.645265 0.615409
0.582278 0.693841 0.663985
0.654866 0.737886 0.708030
0.734921 0.786463 0.756607
0.799865 0.819928 0.790072
0.848960 0.837544 0.807688
0.895856 0.866000 0.836144
0.388045 0.623955 0.564243
0.468239 0.672616 0.612904
0.548295 0.721193 0.661481
0.628350 0.769769 0.710058
0.700938 0.813814 0.754103
0.780993 0.862391 0.802679
0.845937 0.895856 0.836144
0.877416 0.895856 0.836144
0.895856 0.895856 0.836144
0.341973 0.341973 0.548027
0.373506 0.341973 0.548027
0.404985 0.341973 0.548027
0.436464 0.341973 0.548027
0.465006 0.341973 0.548027
0.496485 0.341973 0.548027
0.527964 0.341973 0.548027
0.577059 0.359589 0.565643
0.623955 0.388045 0.594099
0.341973 0.371829 0.548027
0.419578 0.417901 0.594099
0.451057 0.417901 0.594099
0.482536 0.417901 0.594099
0.511078 0.417901 0.594099
0.542557 0.417901 0.594099
0.574036 0.417901 0.594099
0.623131 0.435517 0.611716
0.670027 0.463973 0.640171
0.341973 0.401685 0.548027
0.422167 0.450345 0.596688
0.497129 0.493829 0.640171
0.528608 0.493829 0.640171
0.557150 0.493829 0.640171
0.588629 0.493829 0.640171
0.620108 0.493829 0.640171
0.669203 0.511445 0.657788
0.716099 0.539901 0.686243
0.341973 0.431540 0.548027
0.422167 0.480201 0.596688
0.502223 0.528778 0.645265
0.574680 0.569757 0.686243
0.603223 0.569757 0.686243
0.634701 0.569757 0.686243
0.666180 0.569757 0.686243
0.715275 0.587373 0.703860
0.762171 0.615829 0.732315
0.341973 0.461326 0.548027
0.422167 0.509987 0.596688
0.502223 0.558563 0.645265
0.582278 0.607140 0.693841
0.649186 0.645505 0.732207
0.680665 0.645505 0.732207
0.712144 0.645505 0.732207
0.761239 0.663122 0.749823
0.808135 0.691577 0.778279
0.341973 0.488315 0.548027
0.422167 0.536976 0.596688
0.502223 0.585553 0.645265
0.582278 0.634130 0.693841
0.654866 0.678175 0.737886
0.722314 0.714144 0.773856
0.753793 0.714144 0.773856
0.802888 0.731760 0.791472
0.849784 0.760216 0.819928
0.341973 0.518171 0.548027
0.422167 0.566832 0.596688
0.502223 0.615409 0.645265
0.582278 0.663985 0.693841
0.654866 0.708030 0.737886
0.734921 0.756607 0.786463
0.799865 0.790072 0.819928
0.848960 0.807688 0.837544
0.895856 0.836144 0.866000
0.341973 0.548027 0.548027
0.422167 0.596688 0.596688
0.502223 0.645265 0.645265
0.582278 0.693841 0.693841
0.654866 0.737886 0.737886
0.734921 0.786463 0.786463
0.814977 0.835040 0.835040
0.895032 0.883616 0.883616
0.941928 0.912072 0.912072
0.388045 0.623955 0.594099
0.468239 0.672616 0.642760
0.548295 0.721193 0.691337
0.628350 0.769769 0.739913
0.700938 0.813814 0.783958
0.780993 0.862391 0.832535
0.861049 0.910968 0.881112
0.923488 0.941928 0.912072
0.941928 0.941928 0.912072
0.388045 0.388045 0.623955
0.419578 0.388045 0.623955
0.451057 0.388045 0.623955
0.482536 0.388045 0.623955
0.511078 0.388045 0.623955
0.542557 0.388045 0.623955
0.574036 0.388045 0.623955
0.605515 0.388045 0.623955
0.623955 0.388045 0.623955
0.388045 0.417901 0.623955
0.465650 0.463973 0.670027
0.497129 0.463973 0.670027
0.528608 0.463973 0.670027
0.557150 0.463973 0.670027
0.588629 0.463973 0.670027
0.620108 0.463973 0.670027
0.651587 0.463973 0.670027
0.670027 0.463973 0.670027
0.388045 0.447757 0.623955
0.468239 0.496418 0.672616
0.543201 0.539901 0.716099
0.574680 0.539901 0.716099
0.603223 0.539901 0.716099
0.634701 0.539901 0.716099
0.666180 0.539901 0.716099
0.697659 0.539901 0.716099
0.716099 0.539901 0.716099
0.388045 0.477612 0.623955
0.468239 0.526273 0.672616
0.548295 0.574850 0.721193
0.620752 0.615829 0.762171
0.649295 0.615829 0.762171
0.680773 0.615829 0.762171
0.712252 0.615829 0.762171
0.743731 0.615829 0.762171
0.762171 0.615829 0.762171
0.388045 0.507398 0.623955
0.468239 0.556059 0.672616
0.548295 0.604635 0.721193
0.628350 0.653212 0.769769
0.695258 0.691577 0.808135
0.726737 0.691577 0.808135
0.758216 0.691577 0.808135
0.789695 0.691577 0.808135
0.808135 0.691577 0.808135
0.388045 0.534388 0.623955
0.468239 0.583048 0.672616
0.548295 0.631625 0.721193
0.628350 0.680202 0.769769
0.700938 0.724247 0.813814
0.768386 0.760216 0.849784
0.799865 0.760216 0.849784
0.831344 0.760216 0.849784
0.849784 0.760216 0.849784
0.388045 0.564243 0.623955
0.468239 0.612904 0.672616
0.548295 0.661481 0.721193
0.628350 0.710058 0.769769
0.700938 0.754103 0.813814
0.780993 0.802679 0.862391
0.845937 0.836144 0.895856
0.877416 0.836144 0.895856
0.895856 0.836144 0.895856
0.388045 0.594099 0.623955
0.468239 0.642760 0.672616
0.548295 0.691337 0.721193
0.628350 0.739913 0.769769
0.700938 0.783958 0.813814
0.780993 0.832535 0.862391
0.861049 0.881112 0.910968
0.923488 0.912072 0.941928
0.941928 0.912072 0.941928
0.388045 0.623955 0.623955
0.468239 0.672616 0.672616
0.548295 0.721193 0.721193
0.628350 0.769769 0.769769
0.700938 0.813814 0.813814
0.780993 0.862391 0.862391
0.861049 0.910968 0.910968
0.941104 0.959544 0.959544
0.988000 0.988000 0.988000
