docs/luts/fuji_recipes/Astia_RR_Astia.cube
TITLE "Fujifilm Recipe: RR Astia (Astia)"
# FilmSim=Astia HL=-1 SH=-2 Col=1 WB=Auto WBR=0 WBB=0
LUT_3D_SIZE 9
DOMAIN_MIN 0.0 0.0 0.0
DOMAIN_MAX 1.0 1.0 1.0
0.102080 0.102080 0.102080
0.233243 0.100058 0.100058
0.359161 0.098116 0.098116
0.485079 0.096175 0.096175
0.556688 0.097965 0.097965
0.685359 0.095796 0.095796
0.814029 0.093627 0.093627
0.942700 0.091458 0.091458
0.968563 0.091022 0.091022
0.100069 0.232493 0.100069
0.233243 0.232481 0.100058
0.359161 0.230540 0.098116
0.485079 0.228598 0.096175
0.556688 0.230388 0.097965
0.685359 0.228219 0.095796
0.814029 0.226051 0.093627
0.942700 0.223882 0.091458
0.968563 0.223446 0.091022
0.098136 0.357890 0.098136
0.231321 0.357890 0.098136
0.359161 0.357870 0.098116
0.485079 0.355929 0.096175
0.556688 0.357719 0.097965
0.685359 0.355550 0.095796
0.814029 0.353381 0.093627
0.942700 0.351213 0.091458
0.968563 0.350777 0.091022
0.096202 0.483287 0.096202
0.229388 0.483287 0.096202
0.357247 0.483287 0.096202
0.485079 0.483260 0.096175
0.556688 0.485049 0.097965
0.685359 0.482881 0.095796
0.814029 0.480712 0.093627
0.942700 0.478543 0.091458
0.968563 0.478107 0.091022
0.098004 0.554324 0.098004
0.231190 0.554324 0.098004
0.359049 0.554324 0.098004
0.486909 0.554324 0.098004
0.556688 0.554288 0.097965
0.685359 0.552320 0.095796
0.814029 0.550351 0.093627
0.942700 0.548383 0.091458
0.968563 0.547987 0.091022
0.095845 0.682463 0.095845
0.229030 0.682463 0.095845
0.356890 0.682463 0.095845
0.484749 0.682463 0.095845
0.554764 0.682463 0.095845
0.685359 0.682418 0.095796
0.814029 0.680450 0.093627
0.942700 0.678481 0.091458
0.968563 0.678086 0.091022
0.093685 0.810601 0.093685
0.226870 0.810601 0.093685
0.354730 0.810601 0.093685
0.482589 0.810601 0.093685
0.552803 0.810601 0.093685
0.683443 0.810601 0.093685
0.814029 0.810548 0.093627
0.942700 0.808580 0.091458
0.968563 0.808184 0.091022
0.091525 0.938739 0.091525
0.224711 0.938739 0.091525
0.352570 0.938739 0.091525
0.480430 0.938739 0.091525
0.550843 0.938739 0.091525
0.681482 0.938739 0.091525
0.812121 0.938739 0.091525
0.942700 0.938679 0.091458
0.968563 0.938283 0.091022
0.091022 0.968563 0.091022
0.224208 0.968563 0.091022
0.352067 0.968563 0.091022
0.479927 0.968563 0.091022
0.550387 0.968563 0.091022
0.681026 0.968563 0.091022
0.811665 0.968563 0.091022
0.942304 0.968563 0.091022
0.968563 0.968563 0.091022
0.100069 0.100069 0.232493
0.233243 0.100058 0.232481
0.359161 0.098116 0.230540
0.485079 0.096175 0.228598
0.556688 0.097965 0.230388
0.685359 0.095796 0.228219
0.814029 0.093627 0.226051
0.942700 0.091458 0.223882
0.968563 0.091022 0.223446
0.100069 0.232493 0.232493
0.231232 0.230471 0.230471
0.357150 0.228529 0.228529
0.483069 0.226588 0.226588
0.554869 0.228362 0.228362
0.683539 0.226193 0.226193
0.812210 0.224024 0.224024
0.940881 0.221855 0.221855
0.966744 0.221419 0.221419
0.098136 0.357890 0.230559
0.229310 0.355879 0.228549
0.357150 0.355860 0.228529
0.483069 0.353918 0.226588
0.554869 0.355692 0.228362
0.683539 0.353523 0.226193
0.812210 0.351355 0.224024
0.940881 0.349186 0.221855
0.966744 0.348750 0.221419
0.096202 0.483287 0.228626
0.227377 0.481276 0.226615
0.355237 0.481276 0.226615
0.483069 0.481249 0.226588
0.554869 0.483023 0.228362
0.683539 0.480854 0.226193
0.812210 0.478685 0.224024
0.940881 0.476517 0.221855
0.966744 0.476081 0.221419
0.098004 0.554324 0.230428
0.229163 0.552505 0.228401
0.357023 0.552505 0.228401
0.484882 0.552505 0.228401
0.554869 0.552469 0.228362
0.683539 0.550500 0.226193
0.812210 0.548532 0.224024
0.940881 0.546564 0.221855
0.966744 0.546168 0.221419
0.095845 0.682463 0.228268
0.227003 0.680643 0.226242
0.354863 0.680643 0.226242
0.482723 0.680643 0.226242
0.552945 0.680643 0.226242
0.683539 0.680599 0.226193
0.812210 0.678631 0.224024
0.940881 0.676662 0.221855
0.966744 0.676267 0.221419
0.093685 0.810601 0.226109
0.224844 0.808782 0.224082
0.352703 0.808782 0.224082
0.480563 0.808782 0.224082
0.550984 0.808782 0.224082
0.681624 0.808782 0.224082
0.812210 0.808729 0.224024
0.940881 0.806761 0.221855
0.966744 0.806365 0.221419
0.091525 0.938739 0.223949
0.222684 0.936920 0.221922
0.350543 0.936920 0.221922
0.478403 0.936920 0.221922
0.549024 0.936920 0.221922
0.679663 0.936920 0.221922
0.810302 0.936920 0.221922
0.940881 0.936860 0.221855
0.966744 0.936464 0.221419
0.091022 0.968563 0.223446
0.222181 0.966744 0.221419
0.350041 0.966744 0.221419
0.477900 0.966744 0.221419
0.548568 0.966744 0.221419
0.679207 0.966744 0.221419
0.809846 0.966744 0.221419
0.940485 0.966744 0.221419
0.966744 0.966744 0.221419
0.098136 0.098136 0.357890
0.231321 0.098136 0.357890
0.359161 0.098116 0.357870
0.485079 0.096175 0.355929
0.556688 0.097965 0.357719
0.685359 0.095796 0.355550
0.814029 0.093627 0.353381
0.942700 0.091458 0.351213
0.968563 0.091022 0.350777
0.098136 0.230559 0.357890
0.229310 0.228549 0.355879
0.357150 0.228529 0.355860
0.483069 0.226588 0.353918
0.554869 0.228362 0.355692
0.683539 0.226193 0.353523
0.812210 0.224024 0.351355
0.940881 0.221855 0.349186
0.966744 0.221419 0.348750
0.098136 0.357890 0.357890
0.229299 0.355868 0.355868
0.355217 0.353926 0.353926
0.481135 0.351985 0.351985
0.553120 0.353744 0.353744
0.681790 0.351575 0.351575
0.810461 0.349406 0.349406
0.939132 0.347237 0.347237
0.964995 0.346801 0.346801
0.096202 0.483287 0.355957
0.227365 0.481265 0.353934
0.353303 0.479343 0.352012
0.481135 0.479315 0.351985
0.553120 0.481074 0.353744
0.681790 0.478905 0.351575
0.810461 0.476737 0.349406
0.939132 0.474568 0.347237
0.964995 0.474132 0.346801
0.098004 0.554324 0.357759
0.229152 0.552495 0.355720
0.355074 0.550756 0.353783
0.482934 0.550756 0.353783
0.553120 0.550720 0.353744
0.681790 0.548751 0.351575
0.810461 0.546783 0.349406
0.939132 0.544815 0.347237
0.964995 0.544419 0.346801
0.095845 0.682463 0.355599
0.226992 0.680633 0.353561
0.352914 0.678894 0.351624
0.480774 0.678894 0.351624
0.551195 0.678894 0.351624
0.681790 0.678850 0.351575
0.810461 0.676882 0.349406
0.939132 0.674913 0.347237
0.964995 0.674518 0.346801
0.093685 0.810601 0.353439
0.224832 0.808771 0.351401
0.350755 0.807033 0.349464
0.478614 0.807033 0.349464
0.549235 0.807033 0.349464
0.679874 0.807033 0.349464
0.810461 0.806980 0.349406
0.939132 0.805012 0.347237
0.964995 0.804616 0.346801
0.091525 0.938739 0.351279
0.222672 0.936910 0.349241
0.348595 0.935171 0.347304
0.476454 0.935171 0.347304
0.547275 0.935171 0.347304
0.677914 0.935171 0.347304
0.808553 0.935171 0.347304
0.939132 0.935110 0.347237
0.964995 0.934715 0.346801
0.091022 0.968563 0.350777
0.222170 0.966733 0.348738
0.348092 0.964995 0.346801
0.475952 0.964995 0.346801
0.546819 0.964995 0.346801
0.677458 0.964995 0.346801
0.808097 0.964995 0.346801
0.938736 0.964995 0.346801
0.964995 0.964995 0.346801
0.096202 0.096202 0.483287
0.229388 0.096202 0.483287
0.357247 0.096202 0.483287
0.485079 0.096175 0.483260
0.556688 0.097965 0.485049
0.685359 0.095796 0.482881
0.814029 0.093627 0.480712
0.942700 0.091458 0.478543
0.968563 0.091022 0.478107
0.096202 0.228626 0.483287
0.227377 0.226615 0.481276
0.355237 0.226615 0.481276
0.483069 0.226588 0.481249
0.554869 0.228362 0.483023
0.683539 0.226193 0.480854
0.812210 0.224024 0.478685
0.940881 0.221855 0.476517
0.966744 0.221419 0.476081
0.096202 0.355957 0.483287
0.227365 0.353934 0.481265
0.353303 0.352012 0.479343
0.481135 0.351985 0.479315
0.553120 0.353744 0.481074
0.681790 0.351575 0.478905
0.810461 0.349406 0.476737
0.939132 0.347237 0.474568
0.964995 0.346801 0.474132
0.096202 0.483287 0.483287
0.227365 0.481265 0.481265
0.353284 0.479323 0.479323
0.479202 0.477382 0.477382
0.551370 0.479125 0.479125
0.680041 0.476957 0.476957
0.808712 0.474788 0.474788
0.937383 0.472619 0.472619
0.963246 0.472183 0.472183
0.098004 0.554324 0.485089
0.229152 0.552495 0.483051
0.355054 0.550738 0.481094
0.480985 0.549007 0.479165
0.551370 0.548971 0.479125
0.680041 0.547002 0.476957
0.808712 0.545034 0.474788
0.937383 0.543065 0.472619
0.963246 0.542670 0.472183
0.095845 0.682463 0.482929
0.226992 0.680633 0.480891
0.352895 0.678877 0.478934
0.478825 0.677145 0.477006
0.549446 0.677145 0.477006
0.680041 0.677101 0.476957
0.808712 0.675132 0.474788
0.937383 0.673164 0.472619
0.963246 0.672768 0.472183
0.093685 0.810601 0.480770
0.224832 0.808771 0.478731
0.350735 0.807015 0.476775
0.476666 0.805284 0.474846
0.547486 0.805284 0.474846
0.678125 0.805284 0.474846
0.808712 0.805231 0.474788
0.937383 0.803263 0.472619
0.963246 0.802867 0.472183
0.091525 0.938739 0.478610
0.222672 0.936910 0.476572
0.348575 0.935153 0.474615
0.474506 0.933422 0.472686
0.545526 0.933422 0.472686
0.676165 0.933422 0.472686
0.806804 0.933422 0.472686
0.937383 0.933361 0.472619
0.963246 0.932966 0.472183
0.091022 0.968563 0.478107
0.222170 0.966733 0.476069
0.348072 0.964977 0.474112
0.474003 0.963246 0.472183
0.545070 0.963246 0.472183
0.675709 0.963246 0.472183
0.806348 0.963246 0.472183
0.936987 0.963246 0.472183
0.963246 0.963246 0.472183
0.098004 0.098004 0.554324
0.231190 0.098004 0.554324
0.359049 0.098004 0.554324
0.486909 0.098004 0.554324
0.556688 0.097965 0.554288
0.685359 0.095796 0.552320
0.814029 0.093627 0.550351
0.942700 0.091458 0.548383
0.968563 0.091022 0.547987
0.098004 0.230428 0.554324
0.229163 0.228401 0.552505
0.357023 0.228401 0.552505
0.484882 0.228401 0.552505
0.554869 0.228362 0.552469
0.683539 0.226193 0.550500
0.812210 0.224024 0.548532
0.940881 0.221855 0.546564
0.966744 0.221419 0.546168
0.098004 0.357759 0.554324
0.229152 0.355720 0.552495
0.355074 0.353783 0.550756
0.482934 0.353783 0.550756
0.553120 0.353744 0.550720
0.681790 0.351575 0.548751
0.810461 0.349406 0.546783
0.939132 0.347237 0.544815
0.964995 0.346801 0.544419
0.098004 0.485089 0.554324
0.229152 0.483051 0.552495
0.355054 0.481094 0.550738
0.480985 0.479165 0.549007
0.551370 0.479125 0.548971
0.680041 0.476957 0.547002
0.808712 0.474788 0.545034
0.937383 0.472619 0.543065
0.963246 0.472183 0.542670
0.098004 0.554324 0.554324
0.229152 0.552495 0.552495
0.355054 0.550738 0.550738
0.480957 0.548982 0.548982
0.553280 0.550880 0.550880
0.681935 0.548896 0.548896
0.810591 0.546913 0.546913
0.939246 0.544929 0.544929
0.965106 0.544530 0.544530
0.095845 0.682463 0.552364
0.226992 0.680633 0.550534
0.352895 0.678877 0.548778
0.478797 0.677120 0.547022
0.551341 0.679040 0.548941
0.681935 0.678995 0.548896
0.810591 0.677011 0.546913
0.939246 0.675028 0.544929
0.965106 0.674629 0.544530
0.093685 0.810601 0.550404
0.224832 0.808771 0.548574
0.350735 0.807015 0.546818
0.476638 0.805259 0.545061
0.549365 0.807163 0.546966
0.680005 0.807163 0.546966
0.810591 0.807110 0.546913
0.939246 0.805126 0.544929
0.965106 0.804728 0.544530
0.091525 0.938739 0.548443
0.222672 0.936910 0.546614
0.348575 0.935153 0.544857
0.474478 0.933397 0.543101
0.547390 0.935286 0.544990
0.678029 0.935286 0.544990
0.808668 0.935286 0.544990
0.939246 0.935225 0.544929
0.965106 0.934826 0.544530
0.091022 0.968563 0.547987
0.222170 0.966733 0.546158
0.348072 0.964977 0.544401
0.473975 0.963221 0.542645
0.546930 0.965106 0.544530
0.677569 0.965106 0.544530
0.808208 0.965106 0.544530
0.938848 0.965106 0.544530
0.965106 0.965106 0.544530
0.095845 0.095845 0.682463
0.229030 0.095845 0.682463
0.356890 0.095845 0.682463
0.484749 0.095845 0.682463
0.554764 0.095845 0.682463
0.685359 0.095796 0.682418
0.814029 0.093627 0.680450
0.942700 0.091458 0.678481
0.968563 0.091022 0.678086
0.095845 0.228268 0.682463
0.227003 0.226242 0.680643
0.354863 0.226242 0.680643
0.482723 0.226242 0.680643
0.552945 0.226242 0.680643
0.683539 0.226193 0.680599
0.812210 0.224024 0.678631
0.940881 0.221855 0.676662
0.966744 0.221419 0.676267
0.095845 0.355599 0.682463
0.226992 0.353561 0.680633
0.352914 0.351624 0.678894
0.480774 0.351624 0.678894
0.551195 0.351624 0.678894
0.681790 0.351575 0.678850
0.810461 0.349406 0.676882
0.939132 0.347237 0.674913
0.964995 0.346801 0.674518
0.095845 0.482929 0.682463
0.226992 0.480891 0.680633
0.352895 0.478934 0.678877
0.478825 0.477006 0.677145
0.549446 0.477006 0.677145
0.680041 0.476957 0.677101
0.808712 0.474788 0.675132
0.937383 0.472619 0.673164
0.963246 0.472183 0.672768
0.095845 0.552364 0.682463
0.226992 0.550534 0.680633
0.352895 0.548778 0.678877
0.478797 0.547022 0.677120
0.551341 0.548941 0.679040
0.681935 0.548896 0.678995
0.810591 0.546913 0.677011
0.939246 0.544929 0.675028
0.965106 0.544530 0.674629
0.095845 0.682463 0.682463
0.226992 0.680633 0.680633
0.352895 0.678877 0.678877
0.478797 0.677120 0.677120
0.551304 0.679003 0.679003
0.679960 0.677020 0.677020
0.808615 0.675036 0.675036
0.937271 0.673052 0.673052
0.963131 0.672654 0.672654
0.093685 0.810601 0.680502
0.224832 0.808771 0.678673
0.350735 0.807015 0.676916
0.476638 0.805259 0.675160
0.549329 0.807126 0.677028
0.678029 0.805187 0.675089
0.808615 0.805135 0.675036
0.937271 0.803151 0.673052
0.963131 0.802752 0.672654
0.091525 0.938739 0.678542
0.222672 0.936910 0.676712
0.348575 0.935153 0.674956
0.474478 0.933397 0.673200
0.547354 0.935250 0.675052
0.676054 0.933311 0.673113
0.806693 0.933311 0.673113
0.937271 0.933250 0.673052
0.963131 0.932851 0.672654
0.091022 0.968563 0.678086
0.222170 0.966733 0.676256
0.348072 0.964977 0.674500
0.473975 0.963221 0.672743
0.546894 0.965070 0.674593
0.675594 0.963131 0.672654
0.806233 0.963131 0.672654
0.936872 0.963131 0.672654
0.963131 0.963131 0.672654
0.093685 0.093685 0.810601
0.226870 0.093685 0.810601
0.354730 0.093685 0.810601
0.482589 0.093685 0.810601
0.552803 0.093685 0.810601
0.683443 0.093685 0.810601
0.814029 0.093627 0.810548
0.942700 0.091458 0.808580
0.968563 0.091022 0.808184
0.093685 0.226109 0.810601
0.224844 0.224082 0.808782
0.352703 0.224082 0.808782
0.480563 0.224082 0.808782
0.550984 0.224082 0.808782
0.681624 0.224082 0.808782
0.812210 0.224024 0.808729
0.940881 0.221855 0.806761
0.966744 0.221419 0.806365
0.093685 0.353439 0.810601
0.224832 0.351401 0.808771
0.350755 0.349464 0.807033
0.478614 0.349464 0.807033
0.549235 0.349464 0.807033
0.679874 0.349464 0.807033
0.810461 0.349406 0.806980
0.939132 0.347237 0.805012
0.964995 0.346801 0.804616
0.093685 0.480770 0.810601
0.224832 0.478731 0.808771
0.350735 0.476775 0.807015
0.476666 0.474846 0.805284
0.547486 0.474846 0.805284
0.678125 0.474846 0.805284
0.808712 0.474788 0.805231
0.937383 0.472619 0.803263
0.963246 0.472183 0.802867
0.093685 0.550404 0.810601
0.224832 0.548574 0.808771
0.350735 0.546818 0.807015
0.476638 0.545061 0.805259
0.549365 0.546966 0.807163
0.680005 0.546966 0.807163
0.810591 0.546913 0.807110
0.939246 0.544929 0.805126
0.965106 0.544530 0.804728
0.093685 0.680502 0.810601
0.224832 0.678673 0.808771
0.350735 0.676916 0.807015
0.476638 0.675160 0.805259
0.549329 0.677028 0.807126
0.678029 0.675089 0.805187
0.808615 0.675036 0.805135
0.937271 0.673052 0.803151
0.963131 0.672654 0.802752
0.093685 0.810601 0.810601
0.224832 0.808771 0.808771
0.350735 0.807015 0.807015
0.476638 0.805259 0.805259
0.549329 0.807126 0.807126
0.677984 0.805143 0.805143
0.806640 0.803159 0.803159
0.935295 0.801175 0.801175
0.961155 0.800777 0.800777
0.091525 0.938739 0.808641
0.222672 0.936910 0.806811
0.348575 0.935153 0.805055
0.474478 0.933397 0.803298
0.547354 0.935250 0.805151
0.676009 0.933266 0.803167
0.804717 0.931335 0.801236
0.935295 0.931274 0.801175
0.961155 0.930875 0.800777
0.091022 0.968563 0.808184
0.222170 0.966733 0.806355
0.348072 0.964977 0.804598
0.473975 0.963221 0.802842
0.546894 0.965070 0.804691
0.675549 0.963086 0.802708
0.804258 0.961155 0.800777
0.934897 0.961155 0.800777
0.961155 0.961155 0.800777
0.091525 0.091525 0.938739
0.224711 0.091525 0.938739
0.352570 0.091525 0.938739
0.480430 0.091525 0.938739
0.550843 0.091525 0.938739
0.681482 0.091525 0.938739
0.812121 0.091525 0.938739
0.942700 0.091458 0.938679
0.968563 0.091022 0.938283
0.091525 0.223949 0.938739
0.222684 0.221922 0.936920
0.350543 0.221922 0.936920
0.478403 0.221922 0.936920
0.549024 0.221922 0.936920
0.679663 0.221922 0.936920
0.810302 0.221922 0.936920
0.940881 0.221855 0.936860
0.966744 0.221419 0.936464
0.091525 0.351279 0.938739
0.222672 0.349241 0.936910
0.348595 0.347304 0.935171
0.476454 0.347304 0.935171
0.547275 0.347304 0.935171
0.677914 0.347304 0.935171
0.808553 0.347304 0.935171
0.939132 0.347237 0.935110
0.964995 0.346801 0.934715
0.091525 0.478610 0.938739
0.222672 0.476572 0.936910
0.348575 0.474615 0.935153
0.474506 0.472686 0.933422
0.545526 0.472686 0.933422
0.676165 0.472686 0.933422
0.806804 0.472686 0.933422
0.937383 0.472619 0.933361
0.963246 0.472183 0.932966
0.091525 0.548443 0.938739
0.222672 0.546614 0.936910
0.348575 0.544857 0.935153
0.474478 0.543101 0.933397
0.547390 0.544990 0.935286
0.678029 0.544990 0.935286
0.808668 0.544990 0.935286
0.939246 0.544929 0.935225
0.965106 0.544530 0.934826
0.091525 0.678542 0.938739
0.222672 0.676712 0.936910
0.348575 0.674956 0.935153
0.474478 0.673200 0.933397
0.547354 0.675052 0.935250
0.676054 0.673113 0.933311
0.806693 0.673113 0.933311
0.937271 0.673052 0.933250
0.963131 0.672654 0.932851
0.091525 0.808641 0.938739
0.222672 0.806811 0.936910
0.348575 0.805055 0.935153
0.474478 0.803298 0.933397
0.547354 0.805151 0.935250
0.676009 0.803167 0.933266
0.804717 0.801236 0.931335
0.935295 0.801175 0.931274
0.961155 0.800777 0.930875
0.091525 0.938739 0.938739
0.222672 0.936910 0.936910
0.348575 0.935153 0.935153
0.474478 0.933397 0.933397
0.547354 0.935250 0.935250
0.676009 0.933266 0.933266
0.804664 0.931282 0.931282
0.933320 0.929299 0.929299
0.959180 0.928900 0.928900
0.091022 0.968563 0.938283
0.222170 0.966733 0.936453
0.348072 0.964977 0.934697
0.473975 0.963221 0.932941
0.546894 0.965070 0.934790
0.675549 0.963086 0.932806
0.804205 0.961102 0.930822
0.932921 0.959180 0.928900
0.959180 0.959180 0.928900
0.091022 0.091022 0.968563
0.224208 0.091022 0.968563
0.352067 0.091022 0.968563
0.479927 0.091022 0.968563
0.550387 0.091022 0.968563
0.681026 0.091022 0.968563
0.811665 0.091022 0.968563
0.942304 0.091022 0.968563
0.968563 0.091022 0.968563
0.091022 0.223446 0.968563
0.222181 0.221419 0.966744
0.350041 0.221419 0.966744
0.477900 0.221419 0.966744
0.548568 0.221419 0.966744
0.679207 0.221419 0.966744
0.809846 0.221419 0.966744
0.940485 0.221419 0.966744
0.966744 0.221419 0.966744
0.091022 0.350777 0.968563
0.222170 0.348738 0.966733
0.348092 0.346801 0.964995
0.475952 0.346801 0.964995
0.546819 0.346801 0.964995
0.677458 0.346801 0.964995
0.808097 0.346801 0.964995
0.938736 0.346801 0.964995
0.964995 0.346801 0.964995
0.091022 0.478107 0.968563
0.222170 0.476069 0.966733
0.348072 0.474112 0.964977
0.474003 0.472183 0.963246
0.545070 0.472183 0.963246
0.675709 0.472183 0.963246
0.806348 0.472183 0.963246
0.936987 0.472183 0.963246
0.963246 0.472183 0.963246
0.091022 0.547987 0.968563
0.222170 0.546158 0.966733
0.348072 0.544401 0.964977
0.473975 0.542645 0.963221
0.546930 0.544530 0.965106
0.677569 0.544530 0.965106
0.808208 0.544530 0.965106
0.938848 0.544530 0.965106
0.965106 0.544530 0.965106
0.091022 0.678086 0.968563
0.222170 0.676256 0.966733
0.348072 0.674500 0.964977
0.473975 0.672743 0.963221
0.546894 0.674593 0.965070
0.675594 0.672654 0.963131
0.806233 0.672654 0.963131
0.936872 0.672654 0.963131
0.963131 0.672654 0.963131
0.091022 0.808184 0.968563
0.222170 0.806355 0.966733
0.348072 0.804598 0.964977
0.473975 0.802842 0.963221
0.546894 0.804691 0.965070
0.675549 0.802708 0.963086
0.804258 0.800777 0.961155
0.934897 0.800777 0.961155
0.961155 0.800777 0.961155
0.091022 0.938283 0.968563
0.222170 0.936453 0.966733
0.348072 0.934697 0.964977
0.473975 0.932941 0.963221
0.546894 0.934790 0.965070
0.675549 0.932806 0.963086
0.804205 0.930822 0.961102
0.932921 0.928900 0.959180
0.959180 0.928900 0.959180
0.091022 0.968563 0.968563
0.222170 0.966733 0.966733
0.348072 0.964977 0.964977
0.473975 0.963221 0.963221
0.546894 0.965070 0.965070
0.675549 0.963086 0.963086
0.804205 0.961102 0.961102
0.932860 0.959119 0.959119
0.958720 0.958720 0.958720
