docs/luts/fuji_recipes/Astia_NZD_Ektar_100.cube
TITLE "Fujifilm Recipe: NZD Ektar 100 (Astia)"
# FilmSim=Astia HL=1 SH=1 Col=2 WB=Auto WBR=0 WBB=0
LUT_3D_SIZE 5
DOMAIN_MIN 0.0 0.0 0.0
DOMAIN_MAX 1.0 1.0 1.0
0.023040 0.023040 0.023040
0.280673 0.000835 0.000835
0.505200 0.000000 0.000000
0.776549 0.000000 0.000000
1.000000 0.025701 0.025701
0.000946 0.279374 0.000946
0.280673 0.279262 0.000835
0.505200 0.257750 0.000000
0.776549 0.247253 0.000000
1.000000 0.256826 0.025701
0.000000 0.514284 0.000000
0.258598 0.514284 0.000000
0.504306 0.514284 0.000000
0.776549 0.494214 0.000000
1.000000 0.511249 0.025701
0.000000 0.773171 0.000000
0.248579 0.773171 0.000000
0.484768 0.773171 0.000000
0.776549 0.772966 0.000000
1.000000 0.749615 0.025701
0.025701 1.000000 0.025701
0.257997 1.000000 0.025701
0.501540 1.000000 0.025701
0.752965 1.000000 0.025701
1.000000 1.000000 0.025701
0.000946 0.000946 0.279374
0.280673 0.000835 0.279262
0.505200 0.000000 0.257750
0.776549 0.000000 0.247253
1.000000 0.025701 0.256826
0.000946 0.279374 0.279374
0.258579 0.257168 0.257168
0.503371 0.236069 0.236069
0.804861 0.207158 0.207158
1.000000 0.261171 0.261171
0.000000 0.514284 0.257294
0.236624 0.513311 0.235213
0.502514 0.513311 0.235213
0.804861 0.513675 0.207158
1.000000 0.515013 0.261171
0.000000 0.773171 0.247325
0.208909 0.801143 0.207498
0.502296 0.801143 0.207498
0.804861 0.800826 0.207158
1.000000 0.751543 0.261171
0.025701 1.000000 0.256826
0.262334 1.000000 0.261171
0.505378 1.000000 0.261171
0.754867 1.000000 0.261171
1.000000 1.000000 0.261171
0.000000 0.000000 0.514284
0.258598 0.000000 0.514284
0.504306 0.000000 0.514284
0.776549 0.000000 0.494214
1.000000 0.025701 0.511249
0.000000 0.257294 0.514284
0.236624 0.235213 0.513311
0.502514 0.235213 0.513311
0.804861 0.207158 0.513675
1.000000 0.261171 0.515013
0.000000 0.514284 0.514284
0.236512 0.513199 0.513199
0.501412 0.513109 0.513109
0.780261 0.489075 0.489075
1.000000 0.519700 0.519700
0.000000 0.773171 0.494358
0.208796 0.801039 0.513887
0.478627 0.777474 0.490323
0.780261 0.776226 0.489075
1.000000 0.753945 0.519700
0.025701 1.000000 0.511249
0.262365 1.000000 0.515038
0.509860 1.000000 0.519408
0.757237 1.000000 0.519700
1.000000 1.000000 0.519700
0.000000 0.000000 0.773171
0.248579 0.000000 0.773171
0.484768 0.000000 0.773171
0.776549 0.000000 0.772966
1.000000 0.025701 0.749615
0.000000 0.247325 0.773171
0.208909 0.207498 0.801143
0.502296 0.207498 0.801143
0.804861 0.207158 0.800826
1.000000 0.261171 0.751543
0.000000 0.494358 0.773171
0.208796 0.513887 0.801039
0.478627 0.490323 0.777474
0.780261 0.489075 0.776226
1.000000 0.519700 0.753945
0.000000 0.773171 0.773171
0.208796 0.801039 0.801039
0.478627 0.777474 0.777474
0.757475 0.753440 0.753440
1.000000 0.761280 0.761280
0.025701 1.000000 0.749615
0.262365 1.000000 0.751556
0.509860 1.000000 0.753795
0.764474 1.000000 0.761280
1.000000 1.000000 0.761280
0.025701 0.025701 1.000000
0.257997 0.025701 1.000000
0.501540 0.025701 1.000000
0.752965 0.025701 1.000000
1.000000 0.025701 1.000000
0.025701 0.256826 1.000000
0.262334 0.261171 1.000000
0.505378 0.261171 1.000000
0.754867 0.261171 1.000000
1.000000 0.261171 1.000000
0.025701 0.511249 1.000000
0.262365 0.515038 1.000000
0.509860 0.519408 1.000000
0.757237 0.519700 1.000000
1.000000 0.519700 1.000000
0.025701 0.749615 1.000000
0.262365 0.751556 1.000000
0.509860 0.753795 1.000000
0.764474 0.761280 1.000000
1.000000 0.761280 1.000000
0.025701 1.000000 1.000000
0.262365 1.000000 1.000000
0.509860 1.000000 1.000000
0.764675 1.000000 1.000000
1.000000 1.000000 1.000000
