docs/luts/fuji_recipes/Astia_VM_P160.cube
TITLE "Fujifilm Recipe: VM P160 (Astia)"
# FilmSim=Astia HL=-2 SH=-1 Col=-3 WB=Auto WBR=6 WBB=-3
LUT_3D_SIZE 9
DOMAIN_MIN 0.0 0.0 0.0
DOMAIN_MAX 1.0 1.0 1.0
0.063040 0.063040 0.063040
0.171654 0.109363 0.109363
0.275946 0.153843 0.153843
0.380238 0.198323 0.198323
0.456038 0.231807 0.231807
0.551850 0.273150 0.273150
0.647662 0.314494 0.314494
0.672239 0.325099 0.325099
0.672239 0.325099 0.325099
0.103099 0.156966 0.103099
0.171654 0.163230 0.109363
0.275946 0.207710 0.153843
0.380238 0.252190 0.198323
0.456038 0.285674 0.231807
0.551850 0.327017 0.273150
0.647662 0.368361 0.314494
0.672239 0.378966 0.325099
0.672239 0.378966 0.325099
0.141617 0.247280 0.141617
0.203908 0.247280 0.141617
0.275946 0.259506 0.153843
0.380238 0.303985 0.198323
0.456038 0.337470 0.231807
0.551850 0.378813 0.273150
0.647662 0.420156 0.314494
0.672239 0.430762 0.325099
0.672239 0.430762 0.325099
0.180135 0.337593 0.180135
0.242426 0.337593 0.180135
0.302238 0.337593 0.180135
0.380238 0.355781 0.198323
0.456038 0.389265 0.231807
0.551850 0.430608 0.273150
0.647662 0.471952 0.314494
0.672239 0.482557 0.325099
0.672239 0.482557 0.325099
0.209360 0.404018 0.209360
0.271651 0.404018 0.209360
0.331463 0.404018 0.209360
0.391276 0.404018 0.209360
0.456038 0.426270 0.231807
0.551850 0.467254 0.273150
0.647662 0.508238 0.314494
0.672239 0.518751 0.325099
0.672239 0.518751 0.325099
0.245162 0.486988 0.245162
0.307453 0.486988 0.245162
0.367265 0.486988 0.245162
0.427078 0.486988 0.245162
0.469277 0.486988 0.245162
0.551850 0.514733 0.273150
0.647662 0.555717 0.314494
0.672239 0.566231 0.325099
0.672239 0.566231 0.325099
0.280964 0.569958 0.280964
0.343255 0.569958 0.280964
0.403067 0.569958 0.280964
0.462880 0.569958 0.280964
0.504768 0.569958 0.280964
0.559596 0.569958 0.280964
0.647662 0.603196 0.314494
0.672239 0.613710 0.325099
0.672239 0.613710 0.325099
0.316766 0.652929 0.316766
0.379057 0.652929 0.316766
0.438869 0.652929 0.316766
0.498682 0.652929 0.316766
0.540259 0.652929 0.316766
0.595087 0.652929 0.316766
0.649915 0.652929 0.316766
0.672239 0.661189 0.325099
0.672239 0.661189 0.325099
0.325099 0.672239 0.325099
0.387390 0.672239 0.325099
0.447202 0.672239 0.325099
0.507014 0.672239 0.325099
0.548519 0.672239 0.325099
0.603347 0.672239 0.325099
0.658175 0.672239 0.325099
0.672239 0.672239 0.325099
0.672239 0.672239 0.325099
0.100094 0.100094 0.149922
0.171654 0.109363 0.159190
0.275946 0.153843 0.203670
0.380238 0.198323 0.248150
0.456038 0.231807 0.281634
0.551850 0.273150 0.322977
0.647662 0.314494 0.364321
0.672239 0.325099 0.374926
0.672239 0.325099 0.374926
0.103099 0.156966 0.152926
0.208708 0.200285 0.196245
0.313000 0.244764 0.240724
0.417292 0.289244 0.285204
0.492617 0.322553 0.318513
0.588429 0.363896 0.359856
0.684241 0.405240 0.401199
0.708819 0.415845 0.411805
0.708819 0.415845 0.411805
0.141617 0.247280 0.191444
0.240962 0.284334 0.228498
0.313000 0.296560 0.240724
0.417292 0.341040 0.285204
0.492617 0.374348 0.318513
0.588429 0.415692 0.359856
0.684241 0.457035 0.401199
0.708819 0.467641 0.411805
0.708819 0.467641 0.411805
0.180135 0.337593 0.229962
0.279480 0.374648 0.267017
0.339292 0.374648 0.267017
0.417292 0.392835 0.285204
0.492617 0.426144 0.318513
0.588429 0.467487 0.359856
0.684241 0.508830 0.401199
0.708819 0.519436 0.411805
0.708819 0.519436 0.411805
0.209360 0.404018 0.259187
0.308530 0.440598 0.296066
0.368342 0.440598 0.296066
0.428154 0.440598 0.296066
0.492617 0.462849 0.318513
0.588429 0.503833 0.359856
0.684241 0.544817 0.401199
0.708819 0.555331 0.411805
0.708819 0.555331 0.411805
0.245162 0.486988 0.294989
0.344332 0.523568 0.331868
0.404144 0.523568 0.331868
0.463956 0.523568 0.331868
0.505856 0.523568 0.331868
0.588429 0.551312 0.359856
0.684241 0.592297 0.401199
0.708819 0.602810 0.411805
0.708819 0.602810 0.411805
0.280964 0.569958 0.330792
0.380134 0.606538 0.367670
0.439946 0.606538 0.367670
0.499758 0.606538 0.367670
0.541347 0.606538 0.367670
0.596175 0.606538 0.367670
0.684241 0.639776 0.401199
0.708819 0.650289 0.411805
0.708819 0.650289 0.411805
0.316766 0.652929 0.366594
0.415936 0.689508 0.403472
0.475748 0.689508 0.403472
0.526256 0.689508 0.403472
0.576838 0.689508 0.403472
0.631666 0.689508 0.403472
0.686494 0.689508 0.403472
0.708819 0.697768 0.411805
0.708819 0.697768 0.411805
0.325099 0.672239 0.374926
0.424269 0.708819 0.411805
0.484081 0.708819 0.411805
0.534516 0.708819 0.411805
0.585098 0.708819 0.411805
0.639926 0.708819 0.411805
0.694754 0.708819 0.411805
0.708819 0.708819 0.411805
0.708819 0.708819 0.411805
0.135724 0.135724 0.233462
0.198014 0.135724 0.233462
0.275946 0.153843 0.251581
0.380238 0.198323 0.296061
0.456038 0.231807 0.329545
0.551850 0.273150 0.370888
0.647662 0.314494 0.412232
0.672239 0.325099 0.422837
0.672239 0.325099 0.422837
0.135724 0.189591 0.233462
0.238073 0.229650 0.273520
0.316005 0.247769 0.291640
0.420297 0.292249 0.336120
0.495583 0.325543 0.369414
0.591395 0.366886 0.410757
0.687207 0.408230 0.452100
0.711785 0.418835 0.462706
0.711785 0.418835 0.462706
0.141617 0.247280 0.239355
0.250231 0.293603 0.285678
0.348630 0.332189 0.324265
0.452922 0.376669 0.368744
0.527789 0.409809 0.401884
0.623601 0.451152 0.443227
0.719413 0.492495 0.484571
0.743991 0.503101 0.495176
0.743991 0.503101 0.495176
0.180135 0.337593 0.277873
0.288749 0.383916 0.324196
0.374922 0.410277 0.350557
0.452922 0.428465 0.368744
0.527789 0.461604 0.401884
0.623601 0.502947 0.443227
0.719413 0.544291 0.484571
0.743991 0.554896 0.495176
0.743991 0.554896 0.495176
0.209360 0.404018 0.307098
0.317754 0.449748 0.353202
0.403802 0.475770 0.379437
0.463615 0.475770 0.379437
0.527789 0.498022 0.401884
0.623601 0.539006 0.443227
0.719413 0.579990 0.484571
0.743991 0.590503 0.495176
0.743991 0.590503 0.495176
0.245162 0.486988 0.342900
0.353556 0.532718 0.389004
0.439604 0.558740 0.415239
0.499417 0.558740 0.415239
0.541029 0.558740 0.415239
0.623601 0.586485 0.443227
0.719413 0.627469 0.484571
0.743991 0.637982 0.495176
0.743991 0.637982 0.495176
0.280964 0.569958 0.378702
0.389358 0.615688 0.424806
0.475406 0.641710 0.451041
0.525937 0.641710 0.451041
0.576520 0.641710 0.451041
0.631348 0.641710 0.451041
0.719413 0.674948 0.484571
0.743991 0.685462 0.495176
0.743991 0.685462 0.495176
0.316766 0.652929 0.414504
0.425160 0.698658 0.460608
0.511208 0.724680 0.486843
0.561428 0.724680 0.486843
0.612011 0.724680 0.486843
0.666839 0.724680 0.486843
0.721666 0.724680 0.486843
0.743991 0.732941 0.495176
0.743991 0.732941 0.495176
0.325099 0.672239 0.422837
0.433493 0.717969 0.468940
0.519541 0.743991 0.495176
0.569689 0.743991 0.495176
0.620271 0.743991 0.495176
0.675099 0.743991 0.495176
0.729927 0.743991 0.495176
0.743991 0.743991 0.495176
0.743991 0.743991 0.495176
0.171353 0.171353 0.317002
0.233644 0.171353 0.317002
0.293456 0.171353 0.317002
0.380238 0.198323 0.343972
0.456038 0.231807 0.377456
0.551850 0.273150 0.418799
0.647662 0.314494 0.460142
0.672239 0.325099 0.470748
0.672239 0.325099 0.470748
0.171353 0.225220 0.317002
0.273702 0.265279 0.357061
0.333515 0.265279 0.357061
0.420297 0.292249 0.384030
0.495583 0.325543 0.417325
0.591395 0.366886 0.458668
0.687207 0.408230 0.500011
0.711785 0.418835 0.510617
0.711785 0.418835 0.510617
0.171353 0.277016 0.317002
0.279967 0.323339 0.363325
0.372033 0.355592 0.395579
0.458815 0.382562 0.422548
0.533607 0.415674 0.455660
0.629419 0.457017 0.497003
0.725231 0.498361 0.538347
0.749809 0.508966 0.548952
0.749809 0.508966 0.548952
0.180135 0.337593 0.325784
0.288749 0.383916 0.372107
0.393041 0.428396 0.416587
0.488551 0.464094 0.452284
0.562962 0.497064 0.485255
0.658774 0.538408 0.526598
0.754586 0.579751 0.567942
0.779164 0.590357 0.578547
0.779164 0.590357 0.578547
0.209360 0.404018 0.355009
0.317754 0.449748 0.401113
0.421836 0.493657 0.445381
0.499075 0.510943 0.462808
0.562962 0.533194 0.485255
0.658774 0.574178 0.526598
0.754586 0.615162 0.567942
0.779164 0.625676 0.578547
0.779164 0.625676 0.578547
0.245162 0.486988 0.390811
0.353556 0.532718 0.436915
0.457638 0.576627 0.481183
0.525619 0.593913 0.498610
0.576201 0.593913 0.498610
0.658774 0.621658 0.526598
0.754586 0.662642 0.567942
0.779164 0.673155 0.578547
0.779164 0.673155 0.578547
0.280964 0.569958 0.426613
0.389358 0.615688 0.472717
0.493440 0.659597 0.516985
0.561110 0.676883 0.534412
0.611692 0.676883 0.534412
0.666520 0.676883 0.534412
0.754586 0.710121 0.567942
0.779164 0.720634 0.578547
0.779164 0.720634 0.578547
0.316766 0.652929 0.462415
0.425160 0.698658 0.508519
0.529242 0.742567 0.552788
0.596601 0.759853 0.570214
0.647183 0.759853 0.570214
0.702011 0.759853 0.570214
0.756839 0.759853 0.570214
0.779164 0.768113 0.578547
0.779164 0.768113 0.578547
0.325099 0.672239 0.470748
0.433493 0.717969 0.516851
0.537574 0.761878 0.561120
0.604861 0.779164 0.578547
0.655443 0.779164 0.578547
0.710271 0.779164 0.578547
0.765099 0.779164 0.578547
0.779164 0.779164 0.578547
0.779164 0.779164 0.578547
0.203538 0.203538 0.392466
0.265829 0.203538 0.392466
0.325641 0.203538 0.392466
0.385453 0.203538 0.392466
0.456038 0.231807 0.420735
0.551850 0.273150 0.452868
0.647662 0.314494 0.493852
0.672239 0.325099 0.504365
0.672239 0.325099 0.504365
0.203538 0.257405 0.392466
0.305887 0.297464 0.432525
0.365700 0.297464 0.432525
0.425512 0.297464 0.432525
0.495583 0.325543 0.460604
0.591395 0.366886 0.492413
0.687207 0.408230 0.533397
0.711785 0.418835 0.543910
0.711785 0.418835 0.543910
0.203538 0.309201 0.392466
0.312152 0.355524 0.438789
0.404218 0.387777 0.471043
0.464030 0.387777 0.471043
0.533607 0.415674 0.489453
0.629419 0.457017 0.530437
0.725231 0.498361 0.571421
0.749809 0.508966 0.581935
0.749809 0.508966 0.581935
0.203538 0.360996 0.392466
0.312152 0.407319 0.438789
0.410988 0.446343 0.468517
0.498432 0.473975 0.495937
0.571632 0.505805 0.527478
0.667444 0.547148 0.568462
0.763256 0.588492 0.609446
0.787833 0.599097 0.619959
0.787833 0.599097 0.619959
0.209360 0.404018 0.398288
0.317754 0.449748 0.444392
0.421836 0.493657 0.479271
0.524311 0.535961 0.521575
0.588873 0.559105 0.544719
0.684474 0.599878 0.585492
0.780075 0.640652 0.626265
0.804599 0.651111 0.636725
0.804599 0.651111 0.636725
0.245162 0.486988 0.434090
0.353556 0.532718 0.470852
0.457638 0.576627 0.514762
0.546681 0.614975 0.553110
0.602044 0.619756 0.557890
0.684474 0.647358 0.585492
0.780075 0.688131 0.626265
0.804599 0.698590 0.636725
0.804599 0.698590 0.636725
0.280964 0.569958 0.460614
0.389358 0.615688 0.506343
0.493440 0.659597 0.550253
0.581989 0.697763 0.588418
0.637352 0.702543 0.593198
0.692180 0.702543 0.593198
0.780075 0.735610 0.626265
0.804599 0.746069 0.636725
0.804599 0.746069 0.636725
0.316766 0.652929 0.496105
0.425160 0.698658 0.541834
0.529242 0.742567 0.585744
0.617298 0.780550 0.623726
0.672661 0.785331 0.628507
0.727489 0.785331 0.628507
0.782317 0.785331 0.628507
0.804599 0.793548 0.636725
0.804599 0.793548 0.636725
0.325099 0.672239 0.504365
0.433493 0.717969 0.550094
0.537574 0.761878 0.594004
0.625516 0.799818 0.631944
0.680879 0.804599 0.636725
0.735706 0.804599 0.636725
0.790534 0.804599 0.636725
0.804599 0.804599 0.636725
0.804599 0.804599 0.636725
0.231629 0.231629 0.455626
0.293920 0.231629 0.455626
0.353732 0.231629 0.455626
0.413544 0.231629 0.455626
0.456038 0.231807 0.455802
0.551850 0.273150 0.496786
0.647662 0.314494 0.537770
0.672239 0.325099 0.548283
0.672239 0.325099 0.548283
0.231629 0.285496 0.455626
0.333789 0.325365 0.495171
0.393601 0.325365 0.495171
0.453413 0.325365 0.495171
0.495583 0.325543 0.495347
0.591395 0.366886 0.536331
0.687207 0.408230 0.577315
0.711785 0.418835 0.587829
0.711785 0.418835 0.587829
0.231629 0.337292 0.455626
0.340023 0.383395 0.501355
0.431937 0.415496 0.533195
0.491749 0.415496 0.533195
0.533607 0.415674 0.533372
0.629419 0.457017 0.574356
0.725231 0.498361 0.615340
0.749809 0.508966 0.625853
0.749809 0.508966 0.625853
0.231629 0.389087 0.455626
0.340023 0.435191 0.501355
0.444105 0.479460 0.545265
0.520873 0.505627 0.571220
0.571632 0.505805 0.571396
0.667444 0.547148 0.612380
0.763256 0.588492 0.653364
0.787833 0.599097 0.663877
0.787833 0.599097 0.663877
0.231629 0.426094 0.455626
0.340023 0.471823 0.501355
0.444105 0.515733 0.545265
0.533335 0.554149 0.583681
0.599571 0.569804 0.599336
0.695172 0.610577 0.640109
0.790774 0.651350 0.680882
0.815297 0.661809 0.691341
0.815297 0.661809 0.691341
0.245162 0.486988 0.469041
0.353556 0.532718 0.514770
0.457638 0.576627 0.558680
0.546681 0.614975 0.597028
0.634704 0.652416 0.634469
0.717134 0.680018 0.662071
0.812735 0.720791 0.702844
0.837259 0.731250 0.713303
0.837259 0.731250 0.713303
0.280964 0.569958 0.504532
0.389358 0.615688 0.550261
0.493440 0.659597 0.594171
0.581989 0.697763 0.632336
0.670013 0.735203 0.669777
0.724840 0.735203 0.669777
0.812735 0.768270 0.702844
0.837259 0.778729 0.713303
0.837259 0.778729 0.713303
0.316766 0.652929 0.540023
0.425160 0.698658 0.585752
0.529242 0.742567 0.629662
0.617298 0.780550 0.667644
0.705321 0.817991 0.705085
0.760149 0.817991 0.705085
0.814977 0.817991 0.705085
0.837259 0.826209 0.713303
0.837259 0.826209 0.713303
0.325099 0.672239 0.548283
0.433493 0.717969 0.594013
0.537574 0.761878 0.637922
0.625516 0.799818 0.675862
0.713539 0.837259 0.713303
0.768367 0.837259 0.713303
0.823195 0.837259 0.713303
0.837259 0.837259 0.713303
0.837259 0.837259 0.713303
0.264746 0.264746 0.532373
0.327037 0.264746 0.532373
0.386849 0.264746 0.532373
0.446661 0.264746 0.532373
0.488690 0.264746 0.532373
0.551850 0.273150 0.540704
0.647662 0.314494 0.581688
0.672239 0.325099 0.592202
0.672239 0.325099 0.592202
0.264746 0.318613 0.532373
0.366906 0.358482 0.571918
0.426718 0.358482 0.571918
0.486530 0.358482 0.571918
0.528236 0.358482 0.571918
0.591395 0.366886 0.580250
0.687207 0.408230 0.621234
0.711785 0.418835 0.631747
0.711785 0.418835 0.631747
0.264746 0.370409 0.532373
0.373140 0.416512 0.578102
0.465053 0.448613 0.609943
0.524866 0.448613 0.609943
0.566260 0.448613 0.609943
0.629419 0.457017 0.618274
0.725231 0.498361 0.659258
0.749809 0.508966 0.669771
0.749809 0.508966 0.669771
0.264746 0.422204 0.532373
0.373140 0.468308 0.578102
0.477221 0.512577 0.622012
0.553702 0.538744 0.647967
0.604284 0.538744 0.647967
0.667444 0.547148 0.656298
0.763256 0.588492 0.697282
0.787833 0.599097 0.707796
0.787833 0.599097 0.707796
0.264746 0.458923 0.532373
0.373140 0.504652 0.578102
0.477221 0.548562 0.622012
0.565995 0.586809 0.660260
0.632056 0.602288 0.675739
0.695172 0.610577 0.684027
0.790774 0.651350 0.724800
0.815297 0.661809 0.735260
0.815297 0.661809 0.735260
0.264746 0.506402 0.532373
0.373140 0.552131 0.578102
0.477221 0.596041 0.622012
0.565995 0.634289 0.660260
0.654193 0.671905 0.697876
0.730481 0.693364 0.719335
0.826082 0.734137 0.760109
0.850606 0.744597 0.770568
0.850606 0.744597 0.770568
0.280964 0.569958 0.548450
0.389358 0.615688 0.594180
0.493440 0.659597 0.638089
0.581989 0.697763 0.676254
0.670188 0.735378 0.713870
0.757501 0.767863 0.746355
0.845395 0.800930 0.779422
0.869919 0.811389 0.789881
0.869919 0.811389 0.789881
0.316766 0.652929 0.583941
0.425160 0.698658 0.629670
0.529242 0.742567 0.673580
0.617298 0.780550 0.711563
0.705496 0.818166 0.749179
0.792809 0.850651 0.781664
0.847637 0.850651 0.781664
0.869919 0.858869 0.789881
0.869919 0.858869 0.789881
0.325099 0.672239 0.592202
0.433493 0.717969 0.637931
0.537574 0.761878 0.681841
0.625516 0.799818 0.719781
0.713714 0.837434 0.757397
0.801027 0.869919 0.789881
0.855855 0.869919 0.789881
0.869919 0.869919 0.789881
0.869919 0.869919 0.789881
0.297863 0.297863 0.609120
0.360154 0.297863 0.609120
0.419966 0.297863 0.609120
0.479778 0.297863 0.609120
0.521520 0.297863 0.609120
0.576347 0.297863 0.609120
0.647662 0.314494 0.625607
0.672239 0.325099 0.636120
0.672239 0.325099 0.636120
0.297863 0.351730 0.609120
0.400022 0.391599 0.648666
0.459835 0.391599 0.648666
0.519647 0.391599 0.648666
0.561065 0.391599 0.648666
0.615893 0.391599 0.648666
0.687207 0.408230 0.665152
0.711785 0.418835 0.675665
0.711785 0.418835 0.675665
0.297863 0.403526 0.609120
0.406257 0.449629 0.654850
0.498170 0.481730 0.686690
0.548507 0.481730 0.686690
0.599089 0.481730 0.686690
0.653917 0.481730 0.686690
0.725231 0.498361 0.703176
0.749809 0.508966 0.713690
0.749809 0.508966 0.713690
0.297863 0.455321 0.609120
0.406257 0.501424 0.654850
0.510338 0.545693 0.698759
0.586531 0.571861 0.724714
0.637113 0.571861 0.724714
0.691941 0.571861 0.724714
0.763256 0.588492 0.741201
0.787833 0.599097 0.751714
0.787833 0.599097 0.751714
0.297863 0.491752 0.609120
0.406257 0.537481 0.654850
0.510338 0.581391 0.698759
0.598655 0.619470 0.736838
0.664716 0.634949 0.752317
0.719544 0.634949 0.752317
0.790774 0.651350 0.768719
0.815297 0.661809 0.779178
0.815297 0.661809 0.779178
0.297863 0.539231 0.609120
0.406257 0.584960 0.654850
0.510338 0.628870 0.698759
0.598655 0.666949 0.736838
0.686853 0.704565 0.774454
0.754852 0.717736 0.787625
0.826082 0.734137 0.804027
0.850606 0.744597 0.814486
0.850606 0.744597 0.814486
0.297863 0.586710 0.609120
0.406257 0.632439 0.654850
0.510338 0.676349 0.698759
0.598655 0.714428 0.736838
0.686853 0.752044 0.774454
0.782454 0.792817 0.815227
0.861390 0.816925 0.839335
0.885914 0.827384 0.849794
0.885914 0.827384 0.849794
0.316766 0.652929 0.627860
0.425160 0.698658 0.673589
0.529242 0.742567 0.717498
0.617298 0.780550 0.755481
0.705496 0.818166 0.793097
0.801097 0.858939 0.833870
0.880297 0.883311 0.858242
0.902579 0.891529 0.866460
0.902579 0.891529 0.866460
0.325099 0.672239 0.636120
0.433493 0.717969 0.681849
0.537574 0.761878 0.725759
0.625516 0.799818 0.763699
0.713714 0.837434 0.801315
0.809315 0.878208 0.842088
0.888515 0.902579 0.866460
0.902579 0.902579 0.866460
0.902579 0.902579 0.866460
0.305571 0.305571 0.626983
0.367861 0.305571 0.626983
0.427674 0.305571 0.626983
0.487486 0.305571 0.626983
0.529160 0.305571 0.626983
0.583988 0.305571 0.626983
0.647662 0.314494 0.635828
0.672239 0.325099 0.646342
0.672239 0.325099 0.646342
0.305571 0.359438 0.626983
0.407730 0.399307 0.666528
0.467543 0.399307 0.666528
0.518123 0.399307 0.666528
0.568706 0.399307 0.666528
0.623534 0.399307 0.666528
0.687207 0.408230 0.675374
0.711785 0.418835 0.685887
0.711785 0.418835 0.685887
0.305571 0.411233 0.626983
0.413965 0.457337 0.672712
0.505878 0.489438 0.704553
0.556148 0.489438 0.704553
0.606730 0.489438 0.704553
0.661558 0.489438 0.704553
0.725231 0.498361 0.713398
0.749809 0.508966 0.723911
0.749809 0.508966 0.723911
0.305571 0.463029 0.626983
0.413965 0.509132 0.672712
0.518046 0.553401 0.716622
0.594172 0.579569 0.742577
0.644754 0.579569 0.742577
0.699582 0.579569 0.742577
0.763256 0.588492 0.751422
0.787833 0.599097 0.761936
0.787833 0.599097 0.761936
0.305571 0.499393 0.626983
0.413965 0.545122 0.672712
0.518046 0.589031 0.716622
0.606256 0.627071 0.754662
0.672318 0.642550 0.770140
0.727146 0.642550 0.770140
0.790774 0.651350 0.778940
0.815297 0.661809 0.789400
0.815297 0.661809 0.789400
0.305571 0.546872 0.626983
0.413965 0.592601 0.672712
0.518046 0.636511 0.716622
0.606256 0.674550 0.754662
0.694455 0.712166 0.792277
0.762454 0.725338 0.805449
0.826082 0.734137 0.814249
0.850606 0.744597 0.824708
0.850606 0.744597 0.824708
0.305571 0.594351 0.626983
0.413965 0.640080 0.672712
0.518046 0.683990 0.716622
0.606256 0.722030 0.754662
0.694455 0.759645 0.792277
0.790056 0.800419 0.833051
0.861390 0.816925 0.849557
0.885914 0.827384 0.860016
0.885914 0.827384 0.860016
0.316766 0.652929 0.638081
0.425160 0.698658 0.683811
0.529242 0.742567 0.727720
0.617298 0.780550 0.765703
0.705496 0.818166 0.803319
0.801097 0.858939 0.844092
0.887898 0.890912 0.876065
0.910181 0.899130 0.884283
0.910181 0.899130 0.884283
0.325099 0.672239 0.646342
0.433493 0.717969 0.692071
0.537574 0.761878 0.735981
0.625516 0.799818 0.773921
0.713714 0.837434 0.811537
0.809315 0.878208 0.852310
0.896116 0.910181 0.884283
0.910181 0.910181 0.884283
0.910181 0.910181 0.884283
