docs/luts/fuji_recipes/Astia_RR_Redscale.cube
TITLE "Fujifilm Recipe: RR Redscale (Astia)"
# FilmSim=Astia HL=1 SH=2 Col=-2 WB=10000K WBR=9 WBB=0
LUT_3D_SIZE 5
DOMAIN_MIN 0.0 0.0 0.0
DOMAIN_MAX 1.0 1.0 1.0
0.022080 0.022080 0.022080
0.256596 0.074601 0.074601
0.521102 0.132301 0.132301
0.763311 0.170282 0.170282
0.763311 0.170282 0.170282
0.059217 0.189333 0.059217
0.256596 0.204194 0.074601
0.521102 0.260979 0.132301
0.763311 0.304572 0.170282
0.763311 0.304572 0.170282
0.097251 0.355447 0.097251
0.278658 0.355447 0.097251
0.521102 0.389506 0.132301
0.763311 0.466985 0.170282
0.763311 0.466985 0.170282
0.141600 0.562977 0.141600
0.322226 0.562977 0.141600
0.530488 0.562977 0.141600
0.763311 0.611505 0.170282
0.763311 0.611505 0.170282
0.170282 0.763311 0.170282
0.358873 0.763311 0.170282
0.577583 0.763311 0.170282
0.763311 0.763311 0.170282
0.763311 0.763311 0.170282
0.053791 0.053791 0.165558
0.256596 0.074601 0.185679
0.521102 0.132301 0.242595
0.763311 0.170282 0.285386
0.763311 0.170282 0.285386
0.059217 0.189333 0.170743
0.308126 0.252392 0.232700
0.577641 0.305937 0.286810
0.846071 0.320499 0.298570
0.846071 0.320499 0.298570
0.097251 0.355447 0.207970
0.327954 0.408756 0.253571
0.577641 0.467385 0.286810
0.846071 0.507373 0.298570
0.846071 0.507373 0.298570
0.141600 0.562977 0.251842
0.368843 0.619850 0.295775
0.586122 0.619850 0.295775
0.846071 0.672558 0.298570
0.846071 0.672558 0.298570
0.170282 0.763311 0.285386
0.382565 0.846071 0.298570
0.633786 0.846071 0.298570
0.846071 0.846071 0.298570
0.846071 0.846071 0.298570
0.087387 0.087387 0.312416
0.269006 0.087387 0.312416
0.521102 0.132301 0.356205
0.763311 0.170282 0.403950
0.763311 0.170282 0.403950
0.087387 0.216712 0.312416
0.326908 0.271324 0.373049
0.586424 0.313205 0.412762
0.852835 0.326984 0.440588
0.852835 0.326984 0.440588
0.097251 0.355447 0.322018
0.360991 0.471354 0.407302
0.634847 0.515640 0.446995
0.887872 0.548802 0.474160
0.887872 0.548802 0.474160
0.141600 0.562977 0.365398
0.387129 0.663238 0.436295
0.642901 0.679751 0.453266
0.887872 0.714168 0.474160
0.887872 0.714168 0.474160
0.170282 0.763311 0.403950
0.407404 0.871979 0.458957
0.675354 0.887872 0.474160
0.887872 0.887872 0.474160
0.887872 0.887872 0.474160
0.125908 0.125908 0.492311
0.306686 0.125908 0.492311
0.521102 0.132301 0.498755
0.763311 0.170282 0.554262
0.763311 0.170282 0.554262
0.125908 0.254634 0.492311
0.361641 0.307126 0.557320
0.586424 0.313205 0.563061
0.852835 0.326984 0.613860
0.852835 0.326984 0.613860
0.125908 0.383208 0.492311
0.382691 0.492611 0.581320
0.655468 0.537223 0.630534
0.907167 0.568202 0.668037
0.907167 0.568202 0.668037
0.141600 0.562977 0.508152
0.387129 0.663238 0.600802
0.700961 0.732678 0.679154
0.936858 0.763013 0.697460
0.936858 0.763013 0.697460
0.170282 0.763311 0.554262
0.407404 0.871979 0.632893
0.724167 0.936858 0.697460
0.936858 0.936858 0.697460
0.936858 0.936858 0.697460
0.162653 0.162653 0.657763
0.343126 0.162653 0.657763
0.551822 0.162653 0.657763
0.763311 0.170282 0.688290
0.763311 0.170282 0.688290
0.162653 0.291162 0.657763
0.379453 0.318853 0.747790
0.624242 0.318853 0.747790
0.852835 0.326984 0.767075
0.852835 0.326984 0.767075
0.162653 0.445986 0.657763
0.399100 0.520736 0.767107
0.680534 0.558381 0.802807
0.907167 0.568202 0.821352
0.907167 0.568202 0.821352
0.162653 0.584283 0.657763
0.399100 0.681624 0.767107
0.721055 0.757977 0.841555
0.956335 0.782234 0.870297
0.956335 0.782234 0.870297
0.170282 0.763311 0.688290
0.407404 0.871979 0.786180
0.731999 0.944792 0.858839
0.982483 0.982483 0.895930
0.982483 0.982483 0.895930
