docs/luts/fuji_recipes/Astia_PS_Kodak_Ektar_100.cube
TITLE "Fujifilm Recipe: PS Kodak Ektar 100 (Astia)"
# FilmSim=Astia HL=0 SH=1 Col=3 WB=5900K WBR=-1 WBB=3
LUT_3D_SIZE 9
DOMAIN_MIN 0.0 0.0 0.0
DOMAIN_MAX 1.0 1.0 1.0
0.023040 0.023040 0.023040
0.160646 0.002747 0.002747
0.279749 0.000000 0.000000
0.396105 0.000000 0.000000
0.512235 0.000000 0.000000
0.640558 0.000000 0.000000
0.761456 0.000000 0.000000
0.882355 0.000000 0.000000
0.988438 0.000000 0.000000
0.002781 0.160419 0.002781
0.160646 0.160386 0.002747
0.279749 0.140216 0.000000
0.396105 0.132539 0.000000
0.512235 0.128697 0.000000
0.640558 0.125490 0.000000
0.761456 0.123970 0.000000
0.882355 0.122888 0.000000
0.988438 0.122168 0.000000
0.000000 0.280320 0.000000
0.140391 0.280320 0.000000
0.279637 0.280320 0.000000
0.396105 0.265077 0.000000
0.512235 0.257395 0.000000
0.640558 0.250981 0.000000
0.761456 0.247939 0.000000
0.882355 0.245776 0.000000
0.988438 0.244336 0.000000
0.000000 0.397440 0.000000
0.132699 0.397440 0.000000
0.264314 0.397440 0.000000
0.395930 0.397440 0.000000
0.512235 0.386092 0.000000
0.640558 0.376471 0.000000
0.761456 0.371909 0.000000
0.882355 0.368665 0.000000
0.988438 0.366504 0.000000
0.000000 0.514284 0.000000
0.128859 0.514284 0.000000
0.256667 0.514284 0.000000
0.384474 0.514284 0.000000
0.512033 0.514284 0.000000
0.640558 0.501666 0.000000
0.761456 0.495585 0.000000
0.882355 0.515418 0.000000
0.988438 0.512717 0.000000
0.000000 0.643533 0.000000
0.125653 0.643533 0.000000
0.250280 0.643533 0.000000
0.374907 0.643533 0.000000
0.499292 0.643533 0.000000
0.640338 0.643533 0.000000
0.761456 0.636321 0.000000
0.882355 0.631138 0.000000
0.988438 0.627758 0.000000
0.000000 0.765226 0.000000
0.124135 0.765226 0.000000
0.247257 0.765226 0.000000
0.370378 0.765226 0.000000
0.493261 0.765226 0.000000
0.632975 0.765226 0.000000
0.761227 0.765226 0.000000
0.882355 0.759146 0.000000
0.988438 0.755017 0.000000
0.000000 0.886918 0.000000
0.123056 0.886918 0.000000
0.245108 0.886918 0.000000
0.367160 0.886918 0.000000
0.513048 0.886918 0.000000
0.627845 0.886918 0.000000
0.754982 0.886918 0.000000
0.882120 0.886918 0.000000
0.988438 0.882275 0.000000
0.008611 1.000000 0.008611
0.128774 1.000000 0.008611
0.247956 1.000000 0.008611
0.367138 1.000000 0.008611
0.509956 1.000000 0.008611
0.622054 1.000000 0.008611
0.746202 1.000000 0.008611
0.870351 1.000000 0.008611
0.979285 1.000000 0.008611
0.001716 0.001716 0.167635
0.159615 0.001716 0.167635
0.279749 0.000000 0.147581
0.396105 0.000000 0.139500
0.512235 0.000000 0.135457
0.640558 0.000000 0.132082
0.761456 0.000000 0.130481
0.882355 0.000000 0.129343
0.988438 0.000000 0.128585
0.001716 0.159355 0.167635
0.139356 0.139096 0.147376
0.276870 0.119999 0.128279
0.413353 0.099872 0.108152
0.549571 0.079784 0.088064
0.702739 0.055247 0.063527
0.844991 0.033893 0.042173
0.987243 0.012539 0.020819
1.000000 0.105866 0.112486
0.000000 0.280320 0.147522
0.120127 0.277506 0.128147
0.275707 0.276475 0.127116
0.412289 0.256447 0.107088
0.548507 0.236359 0.087000
0.701695 0.211817 0.062458
0.843947 0.190463 0.041104
0.986200 0.169110 0.019751
1.000000 0.231515 0.112033
0.000000 0.397440 0.139438
0.099868 0.414885 0.107888
0.255448 0.413855 0.106857
0.412058 0.413855 0.106857
0.548507 0.393998 0.087000
0.701695 0.369456 0.062458
0.843947 0.348102 0.041104
0.986200 0.326748 0.019751
1.000000 0.357621 0.112033
0.000000 0.514284 0.135404
0.079656 0.551941 0.087676
0.235236 0.550910 0.086645
0.391846 0.550910 0.086645
0.548152 0.550910 0.086645
0.701695 0.526723 0.062458
0.843947 0.536383 0.041104
0.986200 0.515499 0.019751
1.000000 0.508945 0.112033
0.000000 0.643533 0.132035
0.054948 0.706206 0.062968
0.210523 0.705196 0.061933
0.367134 0.705196 0.061933
0.523440 0.705196 0.061933
0.701181 0.705196 0.061933
0.843947 0.684826 0.041104
0.986200 0.663943 0.019751
1.000000 0.627695 0.112033
0.000000 0.765226 0.130440
0.033454 0.849393 0.041474
0.189029 0.848382 0.040439
0.345640 0.848382 0.040439
0.532859 0.848382 0.040439
0.680160 0.848382 0.040439
0.843296 0.848382 0.040439
0.986200 0.828150 0.019751
1.000000 0.759055 0.112033
0.000000 0.886918 0.129306
0.011960 0.992579 0.019980
0.167535 0.991569 0.018945
0.324146 0.991569 0.018945
0.511839 0.991569 0.018945
0.659140 0.991569 0.018945
0.822276 0.991569 0.018945
0.985411 0.991569 0.018945
1.000000 0.890415 0.112033
0.008611 1.000000 0.134877
0.126232 1.000000 0.132350
0.245585 1.000000 0.132206
0.365082 1.000000 0.132206
0.508659 1.000000 0.132206
0.621053 1.000000 0.132206
0.745530 1.000000 0.132206
0.870007 1.000000 0.132206
0.979230 1.000000 0.132206
0.000000 0.000000 0.293428
0.139168 0.000000 0.293428
0.277201 0.000000 0.293428
0.396105 0.000000 0.279910
0.512235 0.000000 0.271798
0.640558 0.000000 0.265025
0.761456 0.000000 0.261813
0.882355 0.000000 0.259530
0.988438 0.000000 0.258008
0.000000 0.138939 0.293428
0.117893 0.117633 0.292914
0.274504 0.117633 0.292914
0.413353 0.099872 0.275153
0.549571 0.079784 0.255065
0.702739 0.055247 0.230528
0.844991 0.033893 0.209174
0.987243 0.012539 0.187820
1.000000 0.105866 0.246016
0.000000 0.277878 0.293428
0.117860 0.275239 0.292881
0.254343 0.255111 0.272754
0.393093 0.237252 0.254894
0.529311 0.217163 0.234806
0.682870 0.192543 0.210185
0.825122 0.171189 0.188832
0.967374 0.149836 0.167478
1.000000 0.223293 0.237551
0.000000 0.397440 0.279787
0.099868 0.414885 0.274889
0.236351 0.394758 0.254762
0.390595 0.392392 0.252395
0.527044 0.372535 0.232538
0.680646 0.347905 0.207909
0.822898 0.326552 0.186555
0.965151 0.305198 0.165201
1.000000 0.349732 0.236435
0.000000 0.514284 0.271691
0.079656 0.551941 0.254677
0.216139 0.531813 0.234550
0.370384 0.529447 0.232184
0.526690 0.529447 0.232184
0.680646 0.536217 0.207909
0.822898 0.515334 0.186555
0.965151 0.494450 0.165201
1.000000 0.503225 0.236435
0.000000 0.643533 0.264931
0.054948 0.706206 0.229969
0.191349 0.686467 0.209759
0.345583 0.684147 0.207383
0.532831 0.684147 0.207383
0.680132 0.684147 0.207383
0.822898 0.663777 0.186555
0.965151 0.642894 0.165201
1.000000 0.623358 0.236435
0.000000 0.765226 0.261730
0.033454 0.849393 0.208475
0.169855 0.829654 0.188265
0.324089 0.827333 0.185889
0.511810 0.827333 0.185889
0.659111 0.827333 0.185889
0.822247 0.827333 0.185889
0.965151 0.807101 0.165201
1.000000 0.756248 0.236435
0.000000 0.886918 0.259456
0.011960 0.992579 0.186981
0.148361 0.972840 0.166771
0.302595 0.970520 0.164395
0.490790 0.970520 0.164395
0.638091 0.970520 0.164395
0.801227 0.970520 0.164395
0.964362 0.970520 0.164395
1.000000 0.889138 0.236435
0.008611 1.000000 0.261967
0.126232 1.000000 0.259758
0.242893 1.000000 0.256985
0.362434 1.000000 0.256608
0.506906 1.000000 0.256608
0.619702 1.000000 0.256608
0.744623 1.000000 0.256608
0.869544 1.000000 0.256608
0.979156 1.000000 0.256608
0.000000 0.000000 0.417503
0.131868 0.000000 0.417503
0.262659 0.000000 0.417503
0.393450 0.000000 0.417503
0.512235 0.000000 0.408139
0.640558 0.000000 0.397969
0.761456 0.000000 0.393145
0.882355 0.000000 0.389716
0.988438 0.000000 0.387432
0.000000 0.131650 0.417503
0.096431 0.096171 0.438453
0.253041 0.096171 0.438453
0.409651 0.096171 0.438453
0.549571 0.079784 0.422066
0.702739 0.055247 0.397529
0.844991 0.033893 0.376175
0.987243 0.012539 0.354822
1.000000 0.105866 0.379546
0.000000 0.263301 0.417503
0.096397 0.253776 0.438419
0.232880 0.233649 0.418292
0.389392 0.233550 0.418193
0.529311 0.217163 0.401807
0.682870 0.192543 0.377187
0.825122 0.171189 0.355833
0.967374 0.149836 0.334479
1.000000 0.223293 0.372512
0.000000 0.394951 0.417503
0.096397 0.411415 0.438419
0.232880 0.391288 0.418292
0.369363 0.371160 0.398165
0.534556 0.349121 0.376125
0.663001 0.329840 0.356844
0.805253 0.308486 0.335491
0.947505 0.287132 0.314137
1.000000 0.340721 0.362866
0.000000 0.514284 0.407979
0.079656 0.551941 0.421678
0.216139 0.531813 0.401551
0.347180 0.537287 0.375981
0.530784 0.533657 0.372265
0.659597 0.515168 0.353359
0.801849 0.494285 0.332006
0.944102 0.473401 0.310652
1.000000 0.495053 0.360837
0.000000 0.643533 0.397827
0.054948 0.706206 0.396970
0.191349 0.686467 0.376760
0.327749 0.666728 0.356551
0.511782 0.663098 0.352834
0.659083 0.663098 0.352834
0.801849 0.642728 0.332006
0.944102 0.621845 0.310652
1.000000 0.617162 0.360837
0.000000 0.765226 0.393021
0.033454 0.849393 0.375476
0.169855 0.829654 0.355266
0.306255 0.809914 0.335057
0.490761 0.806284 0.331340
0.638062 0.806284 0.331340
0.801198 0.806284 0.331340
0.944102 0.786052 0.310652
1.000000 0.752239 0.360837
0.000000 0.886918 0.389606
0.011960 0.992579 0.353982
0.148361 0.972840 0.333772
0.284761 0.953101 0.313563
0.469741 0.949471 0.309846
0.617042 0.949471 0.309846
0.780178 0.949471 0.309846
0.943313 0.949471 0.309846
1.000000 0.887315 0.360837
0.008611 1.000000 0.389057
0.126232 1.000000 0.387166
0.242893 1.000000 0.384808
0.359555 1.000000 0.381698
0.504428 1.000000 0.381009
0.617791 1.000000 0.381009
0.743339 1.000000 0.381009
0.868888 1.000000 0.381009
0.979052 1.000000 0.381009
0.000000 0.000000 0.530059
0.128483 0.000000 0.530059
0.255917 0.000000 0.530059
0.383351 0.000000 0.530059
0.510538 0.000000 0.530059
0.640558 0.000000 0.543191
0.761456 0.000000 0.536978
0.882355 0.000000 0.532661
0.988438 0.000000 0.529858
0.000000 0.128271 0.530059
0.071517 0.071257 0.596086
0.228127 0.071257 0.596086
0.384737 0.071257 0.596086
0.541043 0.071257 0.596086
0.702739 0.055247 0.580428
0.844991 0.033893 0.559545
0.987243 0.012539 0.538662
1.000000 0.105866 0.526870
0.000000 0.256542 0.530059
0.071483 0.228862 0.596053
0.207884 0.208652 0.576313
0.364395 0.208553 0.576217
0.520701 0.208553 0.576217
0.682870 0.192543 0.560559
0.825122 0.171189 0.539676
0.967374 0.149836 0.518793
1.000000 0.223293 0.521798
0.000000 0.384813 0.530059
0.071483 0.386501 0.596053
0.207884 0.366291 0.576313
0.344284 0.346081 0.556574
0.531357 0.345850 0.556348
0.663001 0.329840 0.540690
0.805253 0.308486 0.519807
0.947505 0.287132 0.498924
1.000000 0.340721 0.514743
0.000000 0.512781 0.530059
0.071483 0.543768 0.596053
0.207884 0.523558 0.576313
0.344284 0.534456 0.556574
0.506366 0.509239 0.531357
0.637579 0.493150 0.515269
0.779749 0.472184 0.494303
0.921919 0.451219 0.473337
1.000000 0.479489 0.498244
0.000000 0.643533 0.543006
0.054948 0.706206 0.579882
0.191349 0.686467 0.560142
0.327749 0.666728 0.540403
0.490131 0.641447 0.515122
0.634220 0.638235 0.511910
0.776906 0.617785 0.491460
0.919076 0.596819 0.470494
1.000000 0.603535 0.495922
0.000000 0.765226 0.536819
0.033454 0.849393 0.558861
0.169855 0.829654 0.539122
0.306255 0.809914 0.519382
0.469027 0.784550 0.494018
0.613117 0.781339 0.490807
0.776253 0.781339 0.490807
0.919076 0.761026 0.470494
1.000000 0.743419 0.495922
0.000000 0.886918 0.532524
0.011960 0.992579 0.537841
0.148361 0.972840 0.518101
0.284761 0.953101 0.498362
0.447924 0.927654 0.472915
0.592013 0.924442 0.469703
0.755149 0.924442 0.469703
0.918285 0.924442 0.469703
1.000000 0.883304 0.495922
0.008611 1.000000 0.528975
0.126232 1.000000 0.527796
0.242893 1.000000 0.526256
0.359555 1.000000 0.524140
0.497578 1.000000 0.517077
0.611760 1.000000 0.516145
0.739290 1.000000 0.516145
0.866819 1.000000 0.516145
0.978721 1.000000 0.516145
0.000000 0.000000 0.678835
0.125152 0.000000 0.678835
0.249283 0.000000 0.678835
0.373414 0.000000 0.678835
0.497304 0.000000 0.678835
0.637897 0.000000 0.678835
0.761456 0.000000 0.673782
0.882355 0.000000 0.668272
0.988438 0.000000 0.664675
0.000000 0.124946 0.678835
0.048746 0.048486 0.747776
0.205357 0.048486 0.747776
0.361967 0.048486 0.747776
0.518273 0.048486 0.747776
0.696127 0.048486 0.747776
0.844991 0.033893 0.733505
0.987243 0.012539 0.712621
1.000000 0.105866 0.665964
0.000000 0.249892 0.678835
0.048713 0.206091 0.747743
0.185113 0.185882 0.728004
0.341624 0.185783 0.727907
0.528957 0.185783 0.727907
0.676258 0.185783 0.727907
0.825122 0.171189 0.713636
0.967374 0.149836 0.692752
1.000000 0.223293 0.662383
0.000000 0.374838 0.678835
0.048713 0.363730 0.747743
0.185113 0.343521 0.728004
0.321514 0.323311 0.708265
0.509088 0.323079 0.708038
0.656389 0.323079 0.708038
0.805253 0.308486 0.693767
0.947505 0.287132 0.672883
1.000000 0.340721 0.657402
0.000000 0.499489 0.678835
0.048713 0.520997 0.747743
0.185113 0.531926 0.728004
0.321514 0.512187 0.708265
0.484009 0.486882 0.682960
0.630941 0.486512 0.682591
0.779749 0.472184 0.668263
0.921919 0.451219 0.647297
1.000000 0.479489 0.645754
0.000000 0.641079 0.678835
0.048713 0.700109 0.747743
0.185113 0.680369 0.728004
0.321514 0.660630 0.708265
0.484009 0.635325 0.682960
0.612379 0.616394 0.664029
0.760671 0.601550 0.649185
0.902841 0.580584 0.628219
1.000000 0.589777 0.631764
0.000000 0.765226 0.673580
0.033454 0.849393 0.732821
0.169855 0.829654 0.713081
0.306255 0.809914 0.693342
0.469027 0.784550 0.667978
0.597398 0.765619 0.649047
0.753896 0.758982 0.642409
0.896719 0.738669 0.622097
1.000000 0.729760 0.625168
0.000000 0.886918 0.668097
0.011960 0.992579 0.711800
0.148361 0.972840 0.692061
0.284761 0.953101 0.672321
0.447924 0.927654 0.646875
0.576294 0.908723 0.627944
0.732792 0.902085 0.621306
0.895928 0.902085 0.621306
1.000000 0.877091 0.625168
0.008611 1.000000 0.661360
0.126232 1.000000 0.660513
0.242893 1.000000 0.659406
0.359555 1.000000 0.657884
0.497578 1.000000 0.652806
0.607017 1.000000 0.647887
0.734234 1.000000 0.645391
0.864237 1.000000 0.645391
0.978308 1.000000 0.645391
0.000000 0.000000 0.807755
0.123719 0.000000 0.807755
0.246428 0.000000 0.807755
0.369137 0.000000 0.807755
0.491607 0.000000 0.807755
0.630983 0.000000 0.807755
0.758805 0.000000 0.807755
0.882355 0.000000 0.803883
0.988438 0.000000 0.799491
0.000000 0.123515 0.807755
0.025976 0.025716 0.899467
0.182586 0.025716 0.899467
0.339196 0.025716 0.899467
0.526557 0.025716 0.899467
0.673858 0.025716 0.899467
0.836994 0.025716 0.899467
0.987243 0.012539 0.886581
1.000000 0.105866 0.805058
0.000000 0.247030 0.807755
0.025942 0.183321 0.899434
0.162343 0.163111 0.879695
0.318854 0.163012 0.879598
0.506688 0.163012 0.879598
0.653989 0.163012 0.879598
0.817125 0.163012 0.879598
0.967374 0.149836 0.866712
1.000000 0.223293 0.802968
0.000000 0.370545 0.807755
0.025942 0.340960 0.899434
0.162343 0.320750 0.879695
0.298743 0.300540 0.859955
0.486819 0.300308 0.859729
0.634120 0.300308 0.859729
0.797256 0.300308 0.859729
0.947505 0.287132 0.846843
1.000000 0.340721 0.800061
0.000000 0.493768 0.807755
0.025942 0.529396 0.899434
0.162343 0.509657 0.879695
0.298743 0.489918 0.859955
0.461652 0.464525 0.834562
0.608584 0.464156 0.834193
0.771720 0.464156 0.834193
0.921919 0.451219 0.821256
1.000000 0.479489 0.793263
0.000000 0.634129 0.807755
0.025942 0.677840 0.899434
0.162343 0.658100 0.879695
0.298743 0.638361 0.859955
0.461652 0.612968 0.834562
0.590023 0.594037 0.815632
0.752642 0.593521 0.815116
0.902841 0.580584 0.802179
1.000000 0.589777 0.785099
0.000000 0.762790 0.807755
0.025942 0.842047 0.899434
0.162343 0.822307 0.879695
0.298743 0.802568 0.859955
0.461652 0.777175 0.834562
0.590023 0.758244 0.815632
0.732192 0.737278 0.794666
0.881738 0.723688 0.781075
1.000000 0.711777 0.766693
0.000000 0.886918 0.803670
0.011960 0.992579 0.885760
0.148361 0.972840 0.866020
0.284761 0.953101 0.846281
0.447924 0.927654 0.820834
0.576294 0.908723 0.801903
0.718464 0.887757 0.780937
0.873571 0.879728 0.772909
0.999110 0.862123 0.755303
0.008611 1.000000 0.793745
0.126232 1.000000 0.793229
0.242893 1.000000 0.792555
0.359555 1.000000 0.791628
0.497578 1.000000 0.788535
0.607017 1.000000 0.785539
0.728221 1.000000 0.779133
0.858339 1.000000 0.774637
0.977366 1.000000 0.774637
0.000000 0.000000 0.936675
0.122700 0.000000 0.936675
0.244399 0.000000 0.936675
0.366098 0.000000 0.936675
0.511713 0.000000 0.936675
0.626178 0.000000 0.936675
0.752948 0.000000 0.936675
0.879717 0.000000 0.936675
0.988438 0.000000 0.934308
0.000000 0.122498 0.936675
0.054337 0.054102 1.000000
0.195661 0.054102 1.000000
0.336985 0.054102 1.000000
0.506509 0.054102 1.000000
0.639433 0.054102 1.000000
0.786645 0.054102 1.000000
0.933857 0.054102 1.000000
1.000000 0.105866 0.944152
0.000000 0.244996 0.936675
0.054296 0.196319 1.000000
0.170958 0.171672 1.000000
0.316427 0.171530 1.000000
0.491536 0.171530 1.000000
0.628492 0.171530 1.000000
0.780171 0.171530 1.000000
0.931850 0.171530 1.000000
1.000000 0.223293 0.943553
0.000000 0.367494 0.936675
0.054296 0.338577 1.000000
0.170958 0.318215 1.000000
0.287619 0.289359 1.000000
0.470149 0.288957 1.000000
0.612866 0.288957 1.000000
0.770925 0.288957 1.000000
0.928984 0.288957 1.000000
1.000000 0.340721 0.942720
0.000000 0.513946 0.936675
0.054296 0.509081 1.000000
0.170958 0.494292 1.000000
0.287619 0.473226 1.000000
0.439295 0.442168 0.986165
0.586227 0.441799 0.985796
0.749363 0.441799 0.985796
0.912499 0.441799 0.985796
1.000000 0.479489 0.940773
0.000000 0.629298 0.936675
0.054296 0.643040 1.000000
0.170958 0.632287 1.000000
0.287619 0.616969 1.000000
0.439295 0.590611 0.986165
0.567666 0.571680 0.967234
0.730285 0.571164 0.966718
0.893421 0.571164 0.966718
1.000000 0.589777 0.938434
0.000000 0.756900 0.936675
0.054296 0.791226 1.000000
0.170958 0.784936 1.000000
0.287619 0.775978 1.000000
0.439295 0.754818 0.986165
0.567666 0.735887 0.967234
0.709835 0.714921 0.946268
0.872318 0.714268 0.945615
1.000000 0.711777 0.933161
0.000000 0.884502 0.936675
0.054296 0.939411 1.000000
0.170958 0.937586 1.000000
0.287619 0.934986 1.000000
0.439295 0.919025 0.986165
0.567666 0.900094 0.967234
0.709835 0.879129 0.946268
0.852005 0.858163 0.925303
0.985382 0.848395 0.915535
0.008611 1.000000 0.926131
0.126232 1.000000 0.925946
0.242893 1.000000 0.925704
0.359555 1.000000 0.925372
0.497578 1.000000 0.924265
0.607017 1.000000 0.923192
0.728221 1.000000 0.920897
0.849425 1.000000 0.914208
0.973046 1.000000 0.903883
0.008611 0.008611 1.000000
0.128774 0.008611 1.000000
0.247956 0.008611 1.000000
0.367138 0.008611 1.000000
0.509956 0.008611 1.000000
0.622054 0.008611 1.000000
0.746202 0.008611 1.000000
0.870351 0.008611 1.000000
0.979285 0.008611 1.000000
0.008611 0.128576 1.000000
0.126237 0.126038 1.000000
0.245717 0.126038 1.000000
0.365197 0.126038 1.000000
0.508732 0.126038 1.000000
0.621110 0.126038 1.000000
0.745569 0.126038 1.000000
0.870027 0.126038 1.000000
0.979234 0.126038 1.000000
0.008611 0.248541 1.000000
0.126232 0.246299 1.000000
0.242893 0.243481 1.000000
0.362750 0.243466 1.000000
0.507119 0.243466 1.000000
0.619866 0.243466 1.000000
0.744733 0.243466 1.000000
0.869600 0.243466 1.000000
0.979165 0.243466 1.000000
0.008611 0.368506 1.000000
0.126232 0.366564 1.000000
0.242893 0.364139 1.000000
0.359555 0.360936 1.000000
0.504896 0.360893 1.000000
0.618152 0.360893 1.000000
0.743582 0.360893 1.000000
0.869012 0.360893 1.000000
0.979071 0.360893 1.000000
0.008611 0.512142 1.000000
0.126232 0.510921 1.000000
0.242893 0.509327 1.000000
0.359555 0.507135 1.000000
0.497578 0.499819 1.000000
0.612424 0.499712 1.000000
0.739736 0.499712 1.000000
0.867047 0.499712 1.000000
0.978757 0.499712 1.000000
0.008611 0.625109 1.000000
0.126232 0.624171 1.000000
0.242893 0.622946 1.000000
0.359555 0.621261 1.000000
0.497578 0.615640 1.000000
0.607017 0.610194 1.000000
0.735974 0.610000 1.000000
0.865125 0.610000 1.000000
0.978450 0.610000 1.000000
0.008611 0.750073 1.000000
0.126232 0.749447 1.000000
0.242893 0.748631 1.000000
0.359555 0.747507 1.000000
0.497578 0.743760 1.000000
0.607017 0.740129 1.000000
0.728221 0.732366 1.000000
0.860975 0.732000 1.000000
0.977787 0.732000 1.000000
0.008611 0.875036 1.000000
0.126232 0.874724 1.000000
0.242893 0.874315 1.000000
0.359555 0.873754 1.000000
0.497578 0.871880 1.000000
0.607017 0.870065 1.000000
0.728221 0.866183 1.000000
0.849425 0.854867 1.000000
0.975798 0.854000 1.000000
0.008611 1.000000 1.000000
0.126232 1.000000 1.000000
0.242893 1.000000 1.000000
0.359555 1.000000 1.000000
0.497578 1.000000 1.000000
0.607017 1.000000 1.000000
0.728221 1.000000 1.000000
0.849425 1.000000 1.000000
0.964278 0.991498 0.991498
