docs/luts/fuji_recipes/Astia_VM_Astia.cube
TITLE "Fujifilm Recipe: VM Astia (Astia)"
# FilmSim=Astia HL=-1 SH=-1 Col=-1 WB=Auto WBR=0 WBB=-1
LUT_3D_SIZE 33
DOMAIN_MIN 0.0 0.0 0.0
DOMAIN_MAX 1.0 1.0 1.0
0.063040 0.063040 0.063040
0.088424 0.067229 0.067229
0.113697 0.071400 0.071400
0.138934 0.075565 0.075565
0.164170 0.079730 0.079730
0.189407 0.083896 0.083896
0.214643 0.088061 0.088061
0.239880 0.092226 0.092226
0.265117 0.096391 0.096391
0.290353 0.100556 0.100556
0.315590 0.104721 0.104721
0.340826 0.108886 0.108886
0.366063 0.113051 0.113051
0.391300 0.117216 0.117216
0.416536 0.121381 0.121381
0.441773 0.125546 0.125546
0.457121 0.128079 0.128079
0.464143 0.130443 0.130443
0.488857 0.134556 0.134556
0.513572 0.138669 0.138669
0.538286 0.142783 0.142783
0.563000 0.146896 0.146896
0.587715 0.151009 0.151009
0.612429 0.155123 0.155123
0.637143 0.159236 0.159236
0.661858 0.163350 0.163350
0.686572 0.167463 0.167463
0.711286 0.171576 0.171576
0.736001 0.175690 0.175690
0.760715 0.179803 0.179803
0.785429 0.183917 0.183917
0.810144 0.188030 0.188030
0.831406 0.191569 0.191569
0.067188 0.088172 0.067188
0.088424 0.088214 0.067229
0.113697 0.092385 0.071400
0.138934 0.096550 0.075565
0.164170 0.100715 0.079730
0.189407 0.104880 0.083896
0.214643 0.109045 0.088061
0.239880 0.113210 0.092226
0.265117 0.117375 0.096391
0.290353 0.121540 0.100556
0.315590 0.125705 0.104721
0.340826 0.129870 0.108886
0.366063 0.134035 0.113051
0.391300 0.138200 0.117216
0.416536 0.142365 0.121381
0.441773 0.146530 0.125546
0.457121 0.149063 0.128079
0.464143 0.151427 0.130443
0.488857 0.155540 0.134556
0.513572 0.159654 0.138669
0.538286 0.163767 0.142783
0.563000 0.167880 0.146896
0.587715 0.171994 0.151009
0.612429 0.176107 0.155123
0.637143 0.180221 0.159236
0.661858 0.184334 0.163350
0.686572 0.188447 0.167463
0.711286 0.192561 0.171576
0.736001 0.196674 0.175690
0.760715 0.200788 0.179803
0.785429 0.204901 0.183917
0.810144 0.209014 0.188030
0.831406 0.212553 0.191569
0.071336 0.113304 0.071336
0.092530 0.113304 0.071336
0.113697 0.113369 0.071400
0.138934 0.117534 0.075565
0.164170 0.121699 0.079730
0.189407 0.125864 0.083896
0.214643 0.130029 0.088061
0.239880 0.134194 0.092226
0.265117 0.138359 0.096391
0.290353 0.142524 0.100556
0.315590 0.146689 0.104721
0.340826 0.150855 0.108886
0.366063 0.155020 0.113051
0.391300 0.159185 0.117216
0.416536 0.163350 0.121381
0.441773 0.167515 0.125546
0.457121 0.170048 0.128079
0.464143 0.172411 0.130443
0.488857 0.176525 0.134556
0.513572 0.180638 0.138669
0.538286 0.184751 0.142783
0.563000 0.188865 0.146896
0.587715 0.192978 0.151009
0.612429 0.197092 0.155123
0.637143 0.201205 0.159236
0.661858 0.205318 0.163350
0.686572 0.209432 0.167463
0.711286 0.213545 0.171576
0.736001 0.217659 0.175690
0.760715 0.221772 0.179803
0.785429 0.225885 0.183917
0.810144 0.229999 0.188030
0.831406 0.233538 0.191569
0.075483 0.138437 0.075483
0.096678 0.138437 0.075483
0.117780 0.138437 0.075483
0.138934 0.138519 0.075565
0.164170 0.142684 0.079730
0.189407 0.146849 0.083896
0.214643 0.151014 0.088061
0.239880 0.155179 0.092226
0.265117 0.159344 0.096391
0.290353 0.163509 0.100556
0.315590 0.167674 0.104721
0.340826 0.171839 0.108886
0.366063 0.176004 0.113051
0.391300 0.180169 0.117216
0.416536 0.184334 0.121381
0.441773 0.188499 0.125546
0.457121 0.191032 0.128079
0.464143 0.193396 0.130443
0.488857 0.197509 0.134556
0.513572 0.201623 0.138669
0.538286 0.205736 0.142783
0.563000 0.209849 0.146896
0.587715 0.213963 0.151009
0.612429 0.218076 0.155123
0.637143 0.222189 0.159236
0.661858 0.226303 0.163350
0.686572 0.230416 0.167463
0.711286 0.234530 0.171576
0.736001 0.238643 0.175690
0.760715 0.242756 0.179803
0.785429 0.246870 0.183917
0.810144 0.250983 0.188030
0.831406 0.254522 0.191569
0.079631 0.163569 0.079631
0.100825 0.163569 0.079631
0.121928 0.163569 0.079631
0.142999 0.163569 0.079631
0.164170 0.163668 0.079730
0.189407 0.167833 0.083896
0.214643 0.171998 0.088061
0.239880 0.176163 0.092226
0.265117 0.180328 0.096391
0.290353 0.184493 0.100556
0.315590 0.188658 0.104721
0.340826 0.192823 0.108886
0.366063 0.196988 0.113051
0.391300 0.201153 0.117216
0.416536 0.205318 0.121381
0.441773 0.209483 0.125546
0.457121 0.212017 0.128079
0.464143 0.214380 0.130443
0.488857 0.218494 0.134556
0.513572 0.222607 0.138669
0.538286 0.226720 0.142783
0.563000 0.230834 0.146896
0.587715 0.234947 0.151009
0.612429 0.239060 0.155123
0.637143 0.243174 0.159236
0.661858 0.247287 0.163350
0.686572 0.251401 0.167463
0.711286 0.255514 0.171576
0.736001 0.259627 0.175690
0.760715 0.263741 0.179803
0.785429 0.267854 0.183917
0.810144 0.271967 0.188030
0.831406 0.275506 0.191569
0.083779 0.188701 0.083779
0.104973 0.188701 0.083779
0.126076 0.188701 0.083779
0.147147 0.188701 0.083779
0.168219 0.188701 0.083779
0.189407 0.188817 0.083896
0.214643 0.192983 0.088061
0.239880 0.197148 0.092226
0.265117 0.201313 0.096391
0.290353 0.205478 0.100556
0.315590 0.209643 0.104721
0.340826 0.213808 0.108886
0.366063 0.217973 0.113051
0.391300 0.222138 0.117216
0.416536 0.226303 0.121381
0.441773 0.230468 0.125546
0.457121 0.233001 0.128079
0.464143 0.235365 0.130443
0.488857 0.239478 0.134556
0.513572 0.243591 0.138669
0.538286 0.247705 0.142783
0.563000 0.251818 0.146896
0.587715 0.255931 0.151009
0.612429 0.260045 0.155123
0.637143 0.264158 0.159236
0.661858 0.268272 0.163350
0.686572 0.272385 0.167463
0.711286 0.276498 0.171576
0.736001 0.280612 0.175690
0.760715 0.284725 0.179803
0.785429 0.288838 0.183917
0.810144 0.292952 0.188030
0.831406 0.296491 0.191569
0.087927 0.213833 0.087927
0.109121 0.213833 0.087927
0.130223 0.213833 0.087927
0.151295 0.213833 0.087927
0.172367 0.213833 0.087927
0.193438 0.213833 0.087927
0.214643 0.213967 0.088061
0.239880 0.218132 0.092226
0.265117 0.222297 0.096391
0.290353 0.226462 0.100556
0.315590 0.230627 0.104721
0.340826 0.234792 0.108886
0.366063 0.238957 0.113051
0.391300 0.243122 0.117216
0.416536 0.247287 0.121381
0.441773 0.251452 0.125546
0.457121 0.253985 0.128079
0.464143 0.256349 0.130443
0.488857 0.260462 0.134556
0.513572 0.264576 0.138669
0.538286 0.268689 0.142783
0.563000 0.272802 0.146896
0.587715 0.276916 0.151009
0.612429 0.281029 0.155123
0.637143 0.285143 0.159236
0.661858 0.289256 0.163350
0.686572 0.293369 0.167463
0.711286 0.297483 0.171576
0.736001 0.301596 0.175690
0.760715 0.305709 0.179803
0.785429 0.309823 0.183917
0.810144 0.313936 0.188030
0.831406 0.317475 0.191569
0.092075 0.238965 0.092075
0.113269 0.238965 0.092075
0.134371 0.238965 0.092075
0.155443 0.238965 0.092075
0.176514 0.238965 0.092075
0.197586 0.238965 0.092075
0.218658 0.238965 0.092075
0.239880 0.239116 0.092226
0.265117 0.243281 0.096391
0.290353 0.247446 0.100556
0.315590 0.251611 0.104721
0.340826 0.255776 0.108886
0.366063 0.259942 0.113051
0.391300 0.264107 0.117216
0.416536 0.268272 0.121381
0.441773 0.272437 0.125546
0.457121 0.274970 0.128079
0.464143 0.277333 0.130443
0.488857 0.281447 0.134556
0.513572 0.285560 0.138669
0.538286 0.289673 0.142783
0.563000 0.293787 0.146896
0.587715 0.297900 0.151009
0.612429 0.302014 0.155123
0.637143 0.306127 0.159236
0.661858 0.310240 0.163350
0.686572 0.314354 0.167463
0.711286 0.318467 0.171576
0.736001 0.322581 0.175690
0.760715 0.326694 0.179803
0.785429 0.330807 0.183917
0.810144 0.334921 0.188030
0.831406 0.338459 0.191569
0.096222 0.264098 0.096222
0.117417 0.264098 0.096222
0.138519 0.264098 0.096222
0.159591 0.264098 0.096222
0.180662 0.264098 0.096222
0.201734 0.264098 0.096222
0.222805 0.264098 0.096222
0.243877 0.264098 0.096222
0.265117 0.264266 0.096391
0.290353 0.268431 0.100556
0.315590 0.272596 0.104721
0.340826 0.276761 0.108886
0.366063 0.280926 0.113051
0.391300 0.285091 0.117216
0.416536 0.289256 0.121381
0.441773 0.293421 0.125546
0.457121 0.295954 0.128079
0.464143 0.298318 0.130443
0.488857 0.302431 0.134556
0.513572 0.306544 0.138669
0.538286 0.310658 0.142783
0.563000 0.314771 0.146896
0.587715 0.318885 0.151009
0.612429 0.322998 0.155123
0.637143 0.327111 0.159236
0.661858 0.331225 0.163350
0.686572 0.335338 0.167463
0.711286 0.339452 0.171576
0.736001 0.343565 0.175690
0.760715 0.347678 0.179803
0.785429 0.351792 0.183917
0.810144 0.355905 0.188030
0.831406 0.359444 0.191569
0.100370 0.289230 0.100370
0.121564 0.289230 0.100370
0.142667 0.289230 0.100370
0.163738 0.289230 0.100370
0.184810 0.289230 0.100370
0.205882 0.289230 0.100370
0.226953 0.289230 0.100370
0.248025 0.289230 0.100370
0.269096 0.289230 0.100370
0.290353 0.289415 0.100556
0.315590 0.293580 0.104721
0.340826 0.297745 0.108886
0.366063 0.301910 0.113051
0.391300 0.306075 0.117216
0.416536 0.310240 0.121381
0.441773 0.314405 0.125546
0.457121 0.316939 0.128079
0.464143 0.319302 0.130443
0.488857 0.323415 0.134556
0.513572 0.327529 0.138669
0.538286 0.331642 0.142783
0.563000 0.335756 0.146896
0.587715 0.339869 0.151009
0.612429 0.343982 0.155123
0.637143 0.348096 0.159236
0.661858 0.352209 0.163350
0.686572 0.356323 0.167463
0.711286 0.360436 0.171576
0.736001 0.364549 0.175690
0.760715 0.368663 0.179803
0.785429 0.372776 0.183917
0.810144 0.376889 0.188030
0.831406 0.380428 0.191569
0.104518 0.314362 0.104518
0.125712 0.314362 0.104518
0.146815 0.314362 0.104518
0.167886 0.314362 0.104518
0.188958 0.314362 0.104518
0.210029 0.314362 0.104518
0.231101 0.314362 0.104518
0.252172 0.314362 0.104518
0.273244 0.314362 0.104518
0.294316 0.314362 0.104518
0.315590 0.314565 0.104721
0.340826 0.318730 0.108886
0.366063 0.322895 0.113051
0.391300 0.327060 0.117216
0.416536 0.331225 0.121381
0.441773 0.335390 0.125546
0.457121 0.337923 0.128079
0.464143 0.340286 0.130443
0.488857 0.344400 0.134556
0.513572 0.348513 0.138669
0.538286 0.352627 0.142783
0.563000 0.356740 0.146896
0.587715 0.360853 0.151009
0.612429 0.364967 0.155123
0.637143 0.369080 0.159236
0.661858 0.373194 0.163350
0.686572 0.377307 0.167463
0.711286 0.381420 0.171576
0.736001 0.385534 0.175690
0.760715 0.389647 0.179803
0.785429 0.393760 0.183917
0.810144 0.397874 0.188030
0.831406 0.401413 0.191569
0.108666 0.339494 0.108666
0.129860 0.339494 0.108666
0.150962 0.339494 0.108666
0.172034 0.339494 0.108666
0.193106 0.339494 0.108666
0.214177 0.339494 0.108666
0.235249 0.339494 0.108666
0.256320 0.339494 0.108666
0.277392 0.339494 0.108666
0.298463 0.339494 0.108666
0.319535 0.339494 0.108666
0.340826 0.339714 0.108886
0.366063 0.343879 0.113051
0.391300 0.348044 0.117216
0.416536 0.352209 0.121381
0.441773 0.356374 0.125546
0.457121 0.358907 0.128079
0.464143 0.361271 0.130443
0.488857 0.365384 0.134556
0.513572 0.369498 0.138669
0.538286 0.373611 0.142783
0.563000 0.377724 0.146896
0.587715 0.381838 0.151009
0.612429 0.385951 0.155123
0.637143 0.390065 0.159236
0.661858 0.394178 0.163350
0.686572 0.398291 0.167463
0.711286 0.402405 0.171576
0.736001 0.406518 0.175690
0.760715 0.410631 0.179803
0.785429 0.414745 0.183917
0.810144 0.418858 0.188030
0.831406 0.422397 0.191569
0.112814 0.364626 0.112814
0.134008 0.364626 0.112814
0.155110 0.364626 0.112814
0.176182 0.364626 0.112814
0.197253 0.364626 0.112814
0.218325 0.364626 0.112814
0.239397 0.364626 0.112814
0.260468 0.364626 0.112814
0.281540 0.364626 0.112814
0.302611 0.364626 0.112814
0.323683 0.364626 0.112814
0.344754 0.364626 0.112814
0.366063 0.364863 0.113051
0.391300 0.369028 0.117216
0.416536 0.373194 0.121381
0.441773 0.377359 0.125546
0.457121 0.379892 0.128079
0.464143 0.382255 0.130443
0.488857 0.386369 0.134556
0.513572 0.390482 0.138669
0.538286 0.394595 0.142783
0.563000 0.398709 0.146896
0.587715 0.402822 0.151009
0.612429 0.406936 0.155123
0.637143 0.411049 0.159236
0.661858 0.415162 0.163350
0.686572 0.419276 0.167463
0.711286 0.423389 0.171576
0.736001 0.427502 0.175690
0.760715 0.431616 0.179803
0.785429 0.435729 0.183917
0.810144 0.439843 0.188030
0.831406 0.443381 0.191569
0.116961 0.389759 0.116961
0.138156 0.389759 0.116961
0.159258 0.389759 0.116961
0.180330 0.389759 0.116961
0.201401 0.389759 0.116961
0.222473 0.389759 0.116961
0.243544 0.389759 0.116961
0.264616 0.389759 0.116961
0.285687 0.389759 0.116961
0.306759 0.389759 0.116961
0.327831 0.389759 0.116961
0.348902 0.389759 0.116961
0.369974 0.389759 0.116961
0.391300 0.390013 0.117216
0.416536 0.394178 0.121381
0.441773 0.398343 0.125546
0.457121 0.400876 0.128079
0.464143 0.403240 0.130443
0.488857 0.407353 0.134556
0.513572 0.411466 0.138669
0.538286 0.415580 0.142783
0.563000 0.419693 0.146896
0.587715 0.423807 0.151009
0.612429 0.427920 0.155123
0.637143 0.432033 0.159236
0.661858 0.436147 0.163350
0.686572 0.440260 0.167463
0.711286 0.444373 0.171576
0.736001 0.448487 0.175690
0.760715 0.452600 0.179803
0.785429 0.456714 0.183917
0.810144 0.460827 0.188030
0.831406 0.464366 0.191569
0.121109 0.414891 0.121109
0.142304 0.414891 0.121109
0.163406 0.414891 0.121109
0.184477 0.414891 0.121109
0.205549 0.414891 0.121109
0.226621 0.414891 0.121109
0.247692 0.414891 0.121109
0.268764 0.414891 0.121109
0.289835 0.414891 0.121109
0.310907 0.414891 0.121109
0.331978 0.414891 0.121109
0.353050 0.414891 0.121109
0.374122 0.414891 0.121109
0.395193 0.414891 0.121109
0.416536 0.415162 0.121381
0.441773 0.419327 0.125546
0.457121 0.421860 0.128079
0.464143 0.424224 0.130443
0.488857 0.428337 0.134556
0.513572 0.432451 0.138669
0.538286 0.436564 0.142783
0.563000 0.440678 0.146896
0.587715 0.444791 0.151009
0.612429 0.448904 0.155123
0.637143 0.453018 0.159236
0.661858 0.457131 0.163350
0.686572 0.461244 0.167463
0.711286 0.465358 0.171576
0.736001 0.469471 0.175690
0.760715 0.473585 0.179803
0.785429 0.477698 0.183917
0.810144 0.481811 0.188030
0.831406 0.485350 0.191569
0.125257 0.440023 0.125257
0.146451 0.440023 0.125257
0.167554 0.440023 0.125257
0.188625 0.440023 0.125257
0.209697 0.440023 0.125257
0.230768 0.440023 0.125257
0.251840 0.440023 0.125257
0.272912 0.440023 0.125257
0.293983 0.440023 0.125257
0.315055 0.440023 0.125257
0.336126 0.440023 0.125257
0.357198 0.440023 0.125257
0.378269 0.440023 0.125257
0.399341 0.440023 0.125257
0.420413 0.440023 0.125257
0.441773 0.440312 0.125546
0.457121 0.442845 0.128079
0.464143 0.445208 0.130443
0.488857 0.449322 0.134556
0.513572 0.453435 0.138669
0.538286 0.457549 0.142783
0.563000 0.461662 0.146896
0.587715 0.465775 0.151009
0.612429 0.469889 0.155123
0.637143 0.474002 0.159236
0.661858 0.478115 0.163350
0.686572 0.482229 0.167463
0.711286 0.486342 0.171576
0.736001 0.490456 0.175690
0.760715 0.494569 0.179803
0.785429 0.498682 0.183917
0.810144 0.502796 0.188030
0.831406 0.506335 0.191569
0.129366 0.464918 0.129366
0.150560 0.464918 0.129366
0.171662 0.464918 0.129366
0.192734 0.464918 0.129366
0.213805 0.464918 0.129366
0.234877 0.464918 0.129366
0.255949 0.464918 0.129366
0.277020 0.464918 0.129366
0.298092 0.464918 0.129366
0.319163 0.464918 0.129366
0.340235 0.464918 0.129366
0.361306 0.464918 0.129366
0.382378 0.464918 0.129366
0.403450 0.464918 0.129366
0.424521 0.464918 0.129366
0.445593 0.464918 0.129366
0.458408 0.464918 0.129366
0.464346 0.466198 0.130646
0.488857 0.470108 0.134556
0.513572 0.474221 0.138669
0.538286 0.478335 0.142783
0.563000 0.482448 0.146896
0.587715 0.486562 0.151009
0.612429 0.490675 0.155123
0.637143 0.494788 0.159236
0.661858 0.498902 0.163350
0.686572 0.503015 0.167463
0.711286 0.490702 0.171576
0.736001 0.494784 0.175690
0.760715 0.498865 0.179803
0.785429 0.502947 0.183917
0.810144 0.507029 0.188030
0.831406 0.510541 0.191569
0.131921 0.480399 0.131921
0.153115 0.480399 0.131921
0.174217 0.480399 0.131921
0.195289 0.480399 0.131921
0.216360 0.480399 0.131921
0.237432 0.480399 0.131921
0.258504 0.480399 0.131921
0.279575 0.480399 0.131921
0.300647 0.480399 0.131921
0.321718 0.480399 0.131921
0.342790 0.480399 0.131921
0.363861 0.480399 0.131921
0.384933 0.480399 0.131921
0.406005 0.480399 0.131921
0.427076 0.480399 0.131921
0.448148 0.480399 0.131921
0.460963 0.480399 0.131921
0.465765 0.480543 0.132065
0.488857 0.466623 0.134556
0.513572 0.470705 0.138669
0.538286 0.474787 0.142783
0.563000 0.478869 0.146896
0.587715 0.482950 0.151009
0.612429 0.487032 0.155123
0.637143 0.491114 0.159236
0.661858 0.495196 0.163350
0.686572 0.499277 0.167463
0.711286 0.503359 0.171576
0.736001 0.507441 0.175690
0.760715 0.511523 0.179803
0.785429 0.515604 0.183917
0.810144 0.519686 0.188030
0.831406 0.523198 0.191569
0.134220 0.486837 0.134220
0.155414 0.486837 0.134220
0.176516 0.486837 0.134220
0.197588 0.486837 0.134220
0.218659 0.486837 0.134220
0.239731 0.486837 0.134220
0.260803 0.486837 0.134220
0.281874 0.486837 0.134220
0.302946 0.486837 0.134220
0.324017 0.486837 0.134220
0.345089 0.486837 0.134220
0.366160 0.486837 0.134220
0.387232 0.486837 0.134220
0.408304 0.486837 0.134220
0.429375 0.486837 0.134220
0.450447 0.486837 0.134220
0.463262 0.486837 0.134220
0.467891 0.486837 0.134220
0.488857 0.487171 0.134556
0.513572 0.491252 0.138669
0.538286 0.495334 0.142783
0.563000 0.499416 0.146896
0.587715 0.503498 0.151009
0.612429 0.507579 0.155123
0.637143 0.511661 0.159236
0.661858 0.515743 0.163350
0.686572 0.519825 0.167463
0.711286 0.523906 0.171576
0.736001 0.527988 0.175690
0.760715 0.532070 0.179803
0.785429 0.536152 0.183917
0.810144 0.540233 0.188030
0.831406 0.543745 0.191569
0.138316 0.511449 0.138316
0.159510 0.511449 0.138316
0.180613 0.511449 0.138316
0.201684 0.511449 0.138316
0.222756 0.511449 0.138316
0.243827 0.511449 0.138316
0.264899 0.511449 0.138316
0.285970 0.511449 0.138316
0.307042 0.511449 0.138316
0.328114 0.511449 0.138316
0.349185 0.511449 0.138316
0.370257 0.511449 0.138316
0.391328 0.511449 0.138316
0.412400 0.511449 0.138316
0.433471 0.511449 0.138316
0.454543 0.511449 0.138316
0.467358 0.511449 0.138316
0.471956 0.511449 0.138316
0.492589 0.511449 0.138316
0.513572 0.511800 0.138669
0.538286 0.515881 0.142783
0.563000 0.519963 0.146896
0.587715 0.524045 0.151009
0.612429 0.528127 0.155123
0.637143 0.532208 0.159236
0.661858 0.536290 0.163350
0.686572 0.540372 0.167463
0.711286 0.544454 0.171576
0.736001 0.548535 0.175690
0.760715 0.552617 0.179803
0.785429 0.556699 0.183917
0.810144 0.560780 0.188030
0.831406 0.564292 0.191569
0.142412 0.536061 0.142412
0.163607 0.536061 0.142412
0.184709 0.536061 0.142412
0.205781 0.536061 0.142412
0.226852 0.536061 0.142412
0.247924 0.536061 0.142412
0.268995 0.536061 0.142412
0.290067 0.536061 0.142412
0.311138 0.536061 0.142412
0.332210 0.536061 0.142412
0.353282 0.536061 0.142412
0.374353 0.536061 0.142412
0.395425 0.536061 0.142412
0.416496 0.536061 0.142412
0.437568 0.536061 0.142412
0.458639 0.536061 0.142412
0.471455 0.536061 0.142412
0.476021 0.536061 0.142412
0.496653 0.536061 0.142412
0.517286 0.536061 0.142412
0.538286 0.536429 0.142783
0.563000 0.540510 0.146896
0.587715 0.544592 0.151009
0.612429 0.548674 0.155123
0.637143 0.552756 0.159236
0.661858 0.556837 0.163350
0.686572 0.560919 0.167463
0.711286 0.565001 0.171576
0.736001 0.569082 0.175690
0.760715 0.573164 0.179803
0.785429 0.577246 0.183917
0.810144 0.581328 0.188030
0.831406 0.584839 0.191569
0.146509 0.560673 0.146509
0.167703 0.560673 0.146509
0.188805 0.560673 0.146509
0.209877 0.560673 0.146509
0.230948 0.560673 0.146509
0.252020 0.560673 0.146509
0.273092 0.560673 0.146509
0.294163 0.560673 0.146509
0.315235 0.560673 0.146509
0.336306 0.560673 0.146509
0.357378 0.560673 0.146509
0.378449 0.560673 0.146509
0.399521 0.560673 0.146509
0.420593 0.560673 0.146509
0.441664 0.560673 0.146509
0.462736 0.560673 0.146509
0.475551 0.560673 0.146509
0.480086 0.560673 0.146509
0.500718 0.560673 0.146509
0.521351 0.560673 0.146509
0.541983 0.560673 0.146509
0.563000 0.561058 0.146896
0.587715 0.565139 0.151009
0.612429 0.569221 0.155123
0.637143 0.573303 0.159236
0.661858 0.577384 0.163350
0.686572 0.581466 0.167463
0.711286 0.585548 0.171576
0.736001 0.589630 0.175690
0.760715 0.593711 0.179803
0.785429 0.597793 0.183917
0.810144 0.601875 0.188030
0.831406 0.605387 0.191569
0.150605 0.585285 0.150605
0.171799 0.585285 0.150605
0.192902 0.585285 0.150605
0.213973 0.585285 0.150605
0.235045 0.585285 0.150605
0.256116 0.585285 0.150605
0.277188 0.585285 0.150605
0.298260 0.585285 0.150605
0.319331 0.585285 0.150605
0.340403 0.585285 0.150605
0.361474 0.585285 0.150605
0.382546 0.585285 0.150605
0.403617 0.585285 0.150605
0.424689 0.585285 0.150605
0.445761 0.585285 0.150605
0.466832 0.585285 0.150605
0.479648 0.585285 0.150605
0.484151 0.585285 0.150605
0.504783 0.585285 0.150605
0.525416 0.585285 0.150605
0.546048 0.585285 0.150605
0.566681 0.585285 0.150605
0.587715 0.585686 0.151009
0.612429 0.589768 0.155123
0.637143 0.593850 0.159236
0.661858 0.597932 0.163350
0.686572 0.602013 0.167463
0.711286 0.606095 0.171576
0.736001 0.610177 0.175690
0.760715 0.614259 0.179803
0.785429 0.618340 0.183917
0.810144 0.622422 0.188030
0.831406 0.625934 0.191569
0.154701 0.609897 0.154701
0.175896 0.609897 0.154701
0.196998 0.609897 0.154701
0.218070 0.609897 0.154701
0.239141 0.609897 0.154701
0.260213 0.609897 0.154701
0.281284 0.609897 0.154701
0.302356 0.609897 0.154701
0.323427 0.609897 0.154701
0.344499 0.609897 0.154701
0.365571 0.609897 0.154701
0.386642 0.609897 0.154701
0.407714 0.609897 0.154701
0.428785 0.609897 0.154701
0.449857 0.609897 0.154701
0.470928 0.609897 0.154701
0.483744 0.609897 0.154701
0.488215 0.609897 0.154701
0.508848 0.609897 0.154701
0.529481 0.609897 0.154701
0.550113 0.609897 0.154701
0.570746 0.609897 0.154701
0.591378 0.609897 0.154701
0.612429 0.610315 0.155123
0.637143 0.614397 0.159236
0.661858 0.618479 0.163350
0.686572 0.622561 0.167463
0.711286 0.626642 0.171576
0.736001 0.630724 0.175690
0.760715 0.634806 0.179803
0.785429 0.638888 0.183917
0.810144 0.642969 0.188030
0.831406 0.646481 0.191569
0.158798 0.634509 0.158798
0.179992 0.634509 0.158798
0.201094 0.634509 0.158798
0.222166 0.634509 0.158798
0.243238 0.634509 0.158798
0.264309 0.634509 0.158798
0.285381 0.634509 0.158798
0.306452 0.634509 0.158798
0.327524 0.634509 0.158798
0.348595 0.634509 0.158798
0.369667 0.634509 0.158798
0.390739 0.634509 0.158798
0.411810 0.634509 0.158798
0.432882 0.634509 0.158798
0.453953 0.634509 0.158798
0.475025 0.634509 0.158798
0.487840 0.634509 0.158798
0.492280 0.634509 0.158798
0.512913 0.634509 0.158798
0.533545 0.634509 0.158798
0.554178 0.634509 0.158798
0.574811 0.634509 0.158798
0.595443 0.634509 0.158798
0.616076 0.634509 0.158798
0.637143 0.634944 0.159236
0.661858 0.639026 0.163350
0.686572 0.643108 0.167463
0.711286 0.647190 0.171576
0.736001 0.651271 0.175690
0.760715 0.655353 0.179803
0.785429 0.659435 0.183917
0.810144 0.663517 0.188030
0.831406 0.667028 0.191569
0.162894 0.659121 0.162894
0.184088 0.659121 0.162894
0.205191 0.659121 0.162894
0.226262 0.659121 0.162894
0.247334 0.659121 0.162894
0.268406 0.659121 0.162894
0.289477 0.659121 0.162894
0.310549 0.659121 0.162894
0.331620 0.659121 0.162894
0.352692 0.659121 0.162894
0.373763 0.659121 0.162894
0.394835 0.659121 0.162894
0.415907 0.659121 0.162894
0.436978 0.659121 0.162894
0.458050 0.659121 0.162894
0.479121 0.659121 0.162894
0.491937 0.659121 0.162894
0.496345 0.659121 0.162894
0.516978 0.659121 0.162894
0.537610 0.659121 0.162894
0.558243 0.659121 0.162894
0.578875 0.659121 0.162894
0.599508 0.659121 0.162894
0.620141 0.659121 0.162894
0.640773 0.659121 0.162894
0.661858 0.659573 0.163350
0.686572 0.663655 0.167463
0.711286 0.667737 0.171576
0.736001 0.671819 0.175690
0.760715 0.675900 0.179803
0.785429 0.679982 0.183917
0.810144 0.684064 0.188030
0.831406 0.687575 0.191569
0.166991 0.683733 0.166991
0.188185 0.683733 0.166991
0.209287 0.683733 0.166991
0.230359 0.683733 0.166991
0.251430 0.683733 0.166991
0.272502 0.683733 0.166991
0.293573 0.683733 0.166991
0.314645 0.683733 0.166991
0.335717 0.683733 0.166991
0.356788 0.683733 0.166991
0.377860 0.683733 0.166991
0.398931 0.683733 0.166991
0.420003 0.683733 0.166991
0.441074 0.683733 0.166991
0.462146 0.683733 0.166991
0.483218 0.683733 0.166991
0.496033 0.683733 0.166991
0.500410 0.683733 0.166991
0.521043 0.683733 0.166991
0.541675 0.683733 0.166991
0.562308 0.683733 0.166991
0.582940 0.683733 0.166991
0.603573 0.683733 0.166991
0.624205 0.683733 0.166991
0.644838 0.683733 0.166991
