docs/luts/fuji_recipes/Astia_RR_Astia.cube
TITLE "Fujifilm Recipe: RR Astia (Astia)"
# FilmSim=Astia HL=-1 SH=-2 Col=1 WB=Auto WBR=0 WBB=0
LUT_3D_SIZE 33
DOMAIN_MIN 0.0 0.0 0.0
DOMAIN_MAX 1.0 1.0 1.0
0.102080 0.102080 0.102080
0.138262 0.101522 0.101522
0.170284 0.101028 0.101028
0.201764 0.100543 0.100543
0.233243 0.100058 0.100058
0.264723 0.099572 0.099572
0.296202 0.099087 0.099087
0.327682 0.098602 0.098602
0.359161 0.098116 0.098116
0.390641 0.097631 0.097631
0.422120 0.097145 0.097145
0.453600 0.096660 0.096660
0.485079 0.096175 0.096175
0.516559 0.095689 0.095689
0.548010 0.095204 0.095204
0.568305 0.094891 0.094891
0.556688 0.097965 0.097965
0.588856 0.097422 0.097422
0.621023 0.096880 0.096880
0.653191 0.096338 0.096338
0.685359 0.095796 0.095796
0.717526 0.095254 0.095254
0.749694 0.094711 0.094711
0.781862 0.094169 0.094169
0.814029 0.093627 0.093627
0.846197 0.093085 0.093085
0.878365 0.092543 0.092543
0.910532 0.092000 0.092000
0.942700 0.091458 0.091458
0.968563 0.091022 0.091022
0.968563 0.091022 0.091022
0.968563 0.091022 0.091022
0.968563 0.091022 0.091022
0.101528 0.137904 0.101528
0.138262 0.137899 0.101522
0.170284 0.137405 0.101028
0.201764 0.136920 0.100543
0.233243 0.136434 0.100058
0.264723 0.135949 0.099572
0.296202 0.135463 0.099087
0.327682 0.134978 0.098602
0.359161 0.134493 0.098116
0.390641 0.134007 0.097631
0.422120 0.133522 0.097145
0.453600 0.133037 0.096660
0.485079 0.132551 0.096175
0.516559 0.132066 0.095689
0.548010 0.131581 0.095204
0.568305 0.131268 0.094891
0.556688 0.134341 0.097965
0.588856 0.133799 0.097422
0.621023 0.133257 0.096880
0.653191 0.132715 0.096338
0.685359 0.132172 0.095796
0.717526 0.131630 0.095254
0.749694 0.131088 0.094711
0.781862 0.130546 0.094169
0.814029 0.130004 0.093627
0.846197 0.129461 0.093085
0.878365 0.128919 0.092543
0.910532 0.128377 0.092000
0.942700 0.127835 0.091458
0.968563 0.127399 0.091022
0.968563 0.127399 0.091022
0.968563 0.127399 0.091022
0.968563 0.127399 0.091022
0.101036 0.169794 0.101036
0.137776 0.169794 0.101036
0.170284 0.169787 0.101028
0.201764 0.169301 0.100543
0.233243 0.168816 0.100058
0.264723 0.168331 0.099572
0.296202 0.167845 0.099087
0.327682 0.167360 0.098602
0.359161 0.166875 0.098116
0.390641 0.166389 0.097631
0.422120 0.165904 0.097145
0.453600 0.165418 0.096660
0.485079 0.164933 0.096175
0.516559 0.164448 0.095689
0.548010 0.163963 0.095204
0.568305 0.163650 0.094891
0.556688 0.166723 0.097965
0.588856 0.166181 0.097422
0.621023 0.165639 0.096880
0.653191 0.165096 0.096338
0.685359 0.164554 0.095796
0.717526 0.164012 0.095254
0.749694 0.163470 0.094711
0.781862 0.162928 0.094169
0.814029 0.162385 0.093627
0.846197 0.161843 0.093085
0.878365 0.161301 0.092543
0.910532 0.160759 0.092000
0.942700 0.160217 0.091458
0.968563 0.159781 0.091022
0.968563 0.159781 0.091022
0.968563 0.159781 0.091022
0.968563 0.159781 0.091022
0.100553 0.201144 0.100553
0.137293 0.201144 0.100553
0.169808 0.201144 0.100553
0.201764 0.201134 0.100543
0.233243 0.200649 0.100058
0.264723 0.200163 0.099572
0.296202 0.199678 0.099087
0.327682 0.199193 0.098602
0.359161 0.198707 0.098116
0.390641 0.198222 0.097631
0.422120 0.197736 0.097145
0.453600 0.197251 0.096660
0.485079 0.196766 0.096175
0.516559 0.196280 0.095689
0.548010 0.195795 0.095204
0.568305 0.195483 0.094891
0.556688 0.198556 0.097965
0.588856 0.198013 0.097422
0.621023 0.197471 0.096880
0.653191 0.196929 0.096338
0.685359 0.196387 0.095796
0.717526 0.195845 0.095254
0.749694 0.195302 0.094711
0.781862 0.194760 0.094169
0.814029 0.194218 0.093627
0.846197 0.193676 0.093085
0.878365 0.193134 0.092543
0.910532 0.192592 0.092000
0.942700 0.192049 0.091458
0.968563 0.191613 0.091022
0.968563 0.191613 0.091022
0.968563 0.191613 0.091022
0.968563 0.191613 0.091022
0.100069 0.232493 0.100069
0.136809 0.232493 0.100069
0.169325 0.232493 0.100069
0.201290 0.232493 0.100069
0.233243 0.232481 0.100058
0.264723 0.231996 0.099572
0.296202 0.231511 0.099087
0.327682 0.231025 0.098602
0.359161 0.230540 0.098116
0.390641 0.230054 0.097631
0.422120 0.229569 0.097145
0.453600 0.229084 0.096660
0.485079 0.228598 0.096175
0.516559 0.228113 0.095689
0.548010 0.227628 0.095204
0.568305 0.227315 0.094891
0.556688 0.230388 0.097965
0.588856 0.229846 0.097422
0.621023 0.229304 0.096880
0.653191 0.228762 0.096338
0.685359 0.228219 0.095796
0.717526 0.227677 0.095254
0.749694 0.227135 0.094711
0.781862 0.226593 0.094169
0.814029 0.226051 0.093627
0.846197 0.225509 0.093085
0.878365 0.224966 0.092543
0.910532 0.224424 0.092000
0.942700 0.223882 0.091458
0.968563 0.223446 0.091022
0.968563 0.223446 0.091022
0.968563 0.223446 0.091022
0.968563 0.223446 0.091022
0.099586 0.263842 0.099586
0.136326 0.263842 0.099586
0.168842 0.263842 0.099586
0.200806 0.263842 0.099586
0.232771 0.263842 0.099586
0.264723 0.263829 0.099572
0.296202 0.263343 0.099087
0.327682 0.262858 0.098602
0.359161 0.262373 0.098116
0.390641 0.261887 0.097631
0.422120 0.261402 0.097145
0.453600 0.260916 0.096660
0.485079 0.260431 0.096175
0.516559 0.259946 0.095689
0.548010 0.259461 0.095204
0.568305 0.259148 0.094891
0.556688 0.262221 0.097965
0.588856 0.261679 0.097422
0.621023 0.261137 0.096880
0.653191 0.260594 0.096338
0.685359 0.260052 0.095796
0.717526 0.259510 0.095254
0.749694 0.258968 0.094711
0.781862 0.258426 0.094169
0.814029 0.257883 0.093627
0.846197 0.257341 0.093085
0.878365 0.256799 0.092543
0.910532 0.256257 0.092000
0.942700 0.255715 0.091458
0.968563 0.255279 0.091022
0.968563 0.255279 0.091022
0.968563 0.255279 0.091022
0.968563 0.255279 0.091022
0.099103 0.295191 0.099103
0.135843 0.295191 0.099103
0.168358 0.295191 0.099103
0.200323 0.295191 0.099103
0.232288 0.295191 0.099103
0.264253 0.295191 0.099103
0.296202 0.295176 0.099087
0.327682 0.294691 0.098602
0.359161 0.294205 0.098116
0.390641 0.293720 0.097631
0.422120 0.293234 0.097145
0.453600 0.292749 0.096660
0.485079 0.292264 0.096175
0.516559 0.291778 0.095689
0.548010 0.291293 0.095204
0.568305 0.290980 0.094891
0.556688 0.294054 0.097965
0.588856 0.293511 0.097422
0.621023 0.292969 0.096880
0.653191 0.292427 0.096338
0.685359 0.291885 0.095796
0.717526 0.291343 0.095254
0.749694 0.290800 0.094711
0.781862 0.290258 0.094169
0.814029 0.289716 0.093627
0.846197 0.289174 0.093085
0.878365 0.288632 0.092543
0.910532 0.288089 0.092000
0.942700 0.287547 0.091458
0.968563 0.287111 0.091022
0.968563 0.287111 0.091022
0.968563 0.287111 0.091022
0.968563 0.287111 0.091022
0.098619 0.326541 0.098619
0.135359 0.326541 0.098619
0.167875 0.326541 0.098619
0.199840 0.326541 0.098619
0.231805 0.326541 0.098619
0.263769 0.326541 0.098619
0.295734 0.326541 0.098619
0.327682 0.326523 0.098602
0.359161 0.326038 0.098116
0.390641 0.325552 0.097631
0.422120 0.325067 0.097145
0.453600 0.324582 0.096660
0.485079 0.324096 0.096175
0.516559 0.323611 0.095689
0.548010 0.323126 0.095204
0.568305 0.322813 0.094891
0.556688 0.325886 0.097965
0.588856 0.325344 0.097422
0.621023 0.324802 0.096880
0.653191 0.324260 0.096338
0.685359 0.323717 0.095796
0.717526 0.323175 0.095254
0.749694 0.322633 0.094711
0.781862 0.322091 0.094169
0.814029 0.321549 0.093627
0.846197 0.321006 0.093085
0.878365 0.320464 0.092543
0.910532 0.319922 0.092000
0.942700 0.319380 0.091458
0.968563 0.318944 0.091022
0.968563 0.318944 0.091022
0.968563 0.318944 0.091022
0.968563 0.318944 0.091022
0.098136 0.357890 0.098136
0.134876 0.357890 0.098136
0.167391 0.357890 0.098136
0.199356 0.357890 0.098136
0.231321 0.357890 0.098136
0.263286 0.357890 0.098136
0.295251 0.357890 0.098136
0.327216 0.357890 0.098136
0.359161 0.357870 0.098116
0.390641 0.357385 0.097631
0.422120 0.356900 0.097145
0.453600 0.356414 0.096660
0.485079 0.355929 0.096175
0.516559 0.355444 0.095689
0.548010 0.354959 0.095204
0.568305 0.354646 0.094891
0.556688 0.357719 0.097965
0.588856 0.357177 0.097422
0.621023 0.356634 0.096880
0.653191 0.356092 0.096338
0.685359 0.355550 0.095796
0.717526 0.355008 0.095254
0.749694 0.354466 0.094711
0.781862 0.353924 0.094169
0.814029 0.353381 0.093627
0.846197 0.352839 0.093085
0.878365 0.352297 0.092543
0.910532 0.351755 0.092000
0.942700 0.351213 0.091458
0.968563 0.350777 0.091022
0.968563 0.350777 0.091022
0.968563 0.350777 0.091022
0.968563 0.350777 0.091022
0.097652 0.389239 0.097652
0.134393 0.389239 0.097652
0.166908 0.389239 0.097652
0.198873 0.389239 0.097652
0.230838 0.389239 0.097652
0.262803 0.389239 0.097652
0.294768 0.389239 0.097652
0.326733 0.389239 0.097652
0.358697 0.389239 0.097652
0.390641 0.389218 0.097631
0.422120 0.388732 0.097145
0.453600 0.388247 0.096660
0.485079 0.387762 0.096175
0.516559 0.387276 0.095689
0.548010 0.386791 0.095204
0.568305 0.386478 0.094891
0.556688 0.389551 0.097965
0.588856 0.389009 0.097422
0.621023 0.388467 0.096880
0.653191 0.387925 0.096338
0.685359 0.387383 0.095796
0.717526 0.386841 0.095254
0.749694 0.386298 0.094711
0.781862 0.385756 0.094169
0.814029 0.385214 0.093627
0.846197 0.384672 0.093085
0.878365 0.384130 0.092543
0.910532 0.383587 0.092000
0.942700 0.383045 0.091458
0.968563 0.382609 0.091022
0.968563 0.382609 0.091022
0.968563 0.382609 0.091022
0.968563 0.382609 0.091022
0.097169 0.420589 0.097169
0.133909 0.420589 0.097169
0.166425 0.420589 0.097169
0.198390 0.420589 0.097169
0.230355 0.420589 0.097169
0.262319 0.420589 0.097169
0.294284 0.420589 0.097169
0.326249 0.420589 0.097169
0.358214 0.420589 0.097169
0.390179 0.420589 0.097169
0.422120 0.420565 0.097145
0.453600 0.420080 0.096660
0.485079 0.419594 0.096175
0.516559 0.419109 0.095689
0.548010 0.418624 0.095204
0.568305 0.418311 0.094891
0.556688 0.421384 0.097965
0.588856 0.420842 0.097422
0.621023 0.420300 0.096880
0.653191 0.419758 0.096338
0.685359 0.419215 0.095796
0.717526 0.418673 0.095254
0.749694 0.418131 0.094711
0.781862 0.417589 0.094169
0.814029 0.417047 0.093627
0.846197 0.416504 0.093085
0.878365 0.415962 0.092543
0.910532 0.415420 0.092000
0.942700 0.414878 0.091458
0.968563 0.414442 0.091022
0.968563 0.414442 0.091022
0.968563 0.414442 0.091022
0.968563 0.414442 0.091022
0.096686 0.451938 0.096686
0.133426 0.451938 0.096686
0.165941 0.451938 0.096686
0.197906 0.451938 0.096686
0.229871 0.451938 0.096686
0.261836 0.451938 0.096686
0.293801 0.451938 0.096686
0.325766 0.451938 0.096686
0.357731 0.451938 0.096686
0.389696 0.451938 0.096686
0.421661 0.451938 0.096686
0.453600 0.451912 0.096660
0.485079 0.451427 0.096175
0.516559 0.450942 0.095689
0.548010 0.450457 0.095204
0.568305 0.450144 0.094891
0.556688 0.453217 0.097965
0.588856 0.452675 0.097422
0.621023 0.452132 0.096880
0.653191 0.451590 0.096338
0.685359 0.451048 0.095796
0.717526 0.450506 0.095254
0.749694 0.449964 0.094711
0.781862 0.449421 0.094169
0.814029 0.448879 0.093627
0.846197 0.448337 0.093085
0.878365 0.447795 0.092543
0.910532 0.447253 0.092000
0.942700 0.446710 0.091458
0.968563 0.446275 0.091022
0.968563 0.446275 0.091022
0.968563 0.446275 0.091022
0.968563 0.446275 0.091022
0.096202 0.483287 0.096202
0.132943 0.483287 0.096202
0.165458 0.483287 0.096202
0.197423 0.483287 0.096202
0.229388 0.483287 0.096202
0.261353 0.483287 0.096202
0.293318 0.483287 0.096202
0.325282 0.483287 0.096202
0.357247 0.483287 0.096202
0.389212 0.483287 0.096202
0.421177 0.483287 0.096202
0.453142 0.483287 0.096202
0.485079 0.483260 0.096175
0.516559 0.482774 0.095689
0.548010 0.482289 0.095204
0.568305 0.481976 0.094891
0.556688 0.485049 0.097965
0.588856 0.484507 0.097422
0.621023 0.483965 0.096880
0.653191 0.483423 0.096338
0.685359 0.482881 0.095796
0.717526 0.482338 0.095254
0.749694 0.481796 0.094711
0.781862 0.481254 0.094169
0.814029 0.480712 0.093627
0.846197 0.480170 0.093085
0.878365 0.479628 0.092543
0.910532 0.479085 0.092000
0.942700 0.478543 0.091458
0.968563 0.478107 0.091022
0.968563 0.478107 0.091022
0.968563 0.478107 0.091022
0.968563 0.478107 0.091022
0.095719 0.514636 0.095719
0.132459 0.514636 0.095719
0.164975 0.514636 0.095719
0.196940 0.514636 0.095719
0.228904 0.514636 0.095719
0.260869 0.514636 0.095719
0.292834 0.514636 0.095719
0.324799 0.514636 0.095719
0.356764 0.514636 0.095719
0.388729 0.514636 0.095719
0.420694 0.514636 0.095719
0.452659 0.514636 0.095719
0.484624 0.514636 0.095719
0.516559 0.514607 0.095689
0.548010 0.514122 0.095204
0.568305 0.513809 0.094891
0.556688 0.516882 0.097965
0.588856 0.516340 0.097422
0.621023 0.515798 0.096880
0.653191 0.515255 0.096338
0.685359 0.514713 0.095796
0.717526 0.514171 0.095254
0.749694 0.513629 0.094711
0.781862 0.513087 0.094169
0.814029 0.512545 0.093627
0.846197 0.512002 0.093085
0.878365 0.511460 0.092543
0.910532 0.510918 0.092000
0.942700 0.510376 0.091458
0.968563 0.509940 0.091022
0.968563 0.509940 0.091022
0.968563 0.509940 0.091022
0.968563 0.509940 0.091022
0.095236 0.545986 0.095236
0.131976 0.545986 0.095236
0.164491 0.545986 0.095236
0.196456 0.545986 0.095236
0.228421 0.545986 0.095236
0.260386 0.545986 0.095236
0.292351 0.545986 0.095236
0.324316 0.545986 0.095236
0.356281 0.545986 0.095236
0.388246 0.545986 0.095236
0.420210 0.545986 0.095236
0.452175 0.545986 0.095236
0.484140 0.545986 0.095236
0.516105 0.545986 0.095236
0.548010 0.545955 0.095204
0.568305 0.545642 0.094891
0.556688 0.548715 0.097965
0.588856 0.548173 0.097422
0.621023 0.547630 0.096880
0.653191 0.547088 0.096338
0.685359 0.546546 0.095796
0.717526 0.546004 0.095254
0.749694 0.545462 0.094711
0.781862 0.544919 0.094169
0.814029 0.544377 0.093627
0.846197 0.543835 0.093085
0.878365 0.543293 0.092543
0.910532 0.542751 0.092000
0.942700 0.542208 0.091458
0.968563 0.541773 0.091022
0.968563 0.541773 0.091022
0.968563 0.541773 0.091022
0.968563 0.541773 0.091022
0.094925 0.566122 0.094925
0.131665 0.566122 0.094925
0.164181 0.566122 0.094925
0.196146 0.566122 0.094925
0.228111 0.566122 0.094925
0.260075 0.566122 0.094925
0.292040 0.566122 0.094925
0.324005 0.566122 0.094925
0.355970 0.566122 0.094925
0.387935 0.566122 0.094925
0.419900 0.566122 0.094925
0.451865 0.566122 0.094925
0.483830 0.566122 0.094925
0.515795 0.566122 0.094925
0.547731 0.566122 0.094925
0.568305 0.566088 0.094891
0.555736 0.568210 0.097013
0.588856 0.568619 0.097422
0.621023 0.568077 0.096880
0.653191 0.567535 0.096338
0.685359 0.519795 0.095796
0.717526 0.519303 0.095254
0.749694 0.518811 0.094711
0.781862 0.518319 0.094169
0.814029 0.517827 0.093627
0.846197 0.517334 0.093085
0.878365 0.516842 0.092543
0.910532 0.516350 0.092000
0.942700 0.515858 0.091458
0.968563 0.515462 0.091022
0.968563 0.515462 0.091022
0.968563 0.515462 0.091022
0.968563 0.515462 0.091022
0.098004 0.554324 0.098004
0.134745 0.554324 0.098004
0.167260 0.554324 0.098004
0.199225 0.554324 0.098004
0.231190 0.554324 0.098004
0.263155 0.554324 0.098004
0.295120 0.554324 0.098004
0.327085 0.554324 0.098004
0.359049 0.554324 0.098004
0.391014 0.554324 0.098004
0.422979 0.554324 0.098004
0.454944 0.554324 0.098004
0.486909 0.554324 0.098004
0.518874 0.554324 0.098004
0.550810 0.554324 0.098004
0.570114 0.553020 0.096701
0.556688 0.554288 0.097965
0.588856 0.553796 0.097422
0.621023 0.553304 0.096880
0.653191 0.552812 0.096338
0.685359 0.552320 0.095796
0.717526 0.551827 0.095254
0.749694 0.551335 0.094711
0.781862 0.550843 0.094169
0.814029 0.550351 0.093627
0.846197 0.549859 0.093085
0.878365 0.549367 0.092543
0.910532 0.548875 0.092000
0.942700 0.548383 0.091458
0.968563 0.547987 0.091022
0.968563 0.547987 0.091022
0.968563 0.547987 0.091022
0.968563 0.547987 0.091022
0.097464 0.586359 0.097464
0.134205 0.586359 0.097464
0.166720 0.586359 0.097464
0.198685 0.586359 0.097464
0.230650 0.586359 0.097464
0.262615 0.586359 0.097464
0.294580 0.586359 0.097464
0.326545 0.586359 0.097464
0.358509 0.586359 0.097464
0.390474 0.586359 0.097464
0.422439 0.586359 0.097464
0.454404 0.586359 0.097464
0.486369 0.586359 0.097464
0.518334 0.586359 0.097464
0.550270 0.586359 0.097464
0.570878 0.586359 0.097464
0.556234 0.586359 0.097464
0.588856 0.586321 0.097422
0.621023 0.585828 0.096880
0.653191 0.585336 0.096338
0.685359 0.584844 0.095796
0.717526 0.584352 0.095254
0.749694 0.583860 0.094711
0.781862 0.583368 0.094169
0.814029 0.582876 0.093627
0.846197 0.582384 0.093085
0.878365 0.581892 0.092543
0.910532 0.581400 0.092000
0.942700 0.580907 0.091458
0.968563 0.580512 0.091022
0.968563 0.580512 0.091022
0.968563 0.580512 0.091022
0.968563 0.580512 0.091022
0.096925 0.618393 0.096925
0.133665 0.618393 0.096925
0.166180 0.618393 0.096925
0.198145 0.618393 0.096925
0.230110 0.618393 0.096925
0.262075 0.618393 0.096925
0.294040 0.618393 0.096925
0.326005 0.618393 0.096925
0.357970 0.618393 0.096925
0.389934 0.618393 0.096925
0.421899 0.618393 0.096925
0.453864 0.618393 0.096925
0.485829 0.618393 0.096925
0.517794 0.618393 0.096925
0.549730 0.618393 0.096925
0.570338 0.618393 0.096925
0.555744 0.618393 0.096925
0.588404 0.618393 0.096925
0.621023 0.618353 0.096880
0.653191 0.617861 0.096338
0.685359 0.617369 0.095796
0.717526 0.616877 0.095254
0.749694 0.616385 0.094711
0.781862 0.615893 0.094169
0.814029 0.615400 0.093627
0.846197 0.614908 0.093085
0.878365 0.614416 0.092543
0.910532 0.613924 0.092000
0.942700 0.613432 0.091458
0.968563 0.613036 0.091022
0.968563 0.613036 0.091022
0.968563 0.613036 0.091022
0.968563 0.613036 0.091022
0.096385 0.650428 0.096385
0.133125 0.650428 0.096385
0.165640 0.650428 0.096385
0.197605 0.650428 0.096385
0.229570 0.650428 0.096385
0.261535 0.650428 0.096385
0.293500 0.650428 0.096385
0.325465 0.650428 0.096385
0.357430 0.650428 0.096385
0.389394 0.650428 0.096385
0.421359 0.650428 0.096385
0.453324 0.650428 0.096385
0.485289 0.650428 0.096385
0.517254 0.650428 0.096385
0.549190 0.650428 0.096385
0.569798 0.650428 0.096385
0.555254 0.650428 0.096385
0.587914 0.650428 0.096385
0.620573 0.650428 0.096385
0.653191 0.650386 0.096338
0.685359 0.649894 0.095796
0.717526 0.649401 0.095254
0.749694 0.648909 0.094711
0.781862 0.648417 0.094169
0.814029 0.647925 0.093627
0.846197 0.647433 0.093085
0.878365 0.646941 0.092543
0.910532 0.646449 0.092000
0.942700 0.645957 0.091458
0.968563 0.645561 0.091022
0.968563 0.645561 0.091022
0.968563 0.645561 0.091022
0.968563 0.645561 0.091022
0.095845 0.682463 0.095845
0.132585 0.682463 0.095845
0.165100 0.682463 0.095845
0.197065 0.682463 0.095845
0.229030 0.682463 0.095845
0.260995 0.682463 0.095845
0.292960 0.682463 0.095845
0.324925 0.682463 0.095845
0.356890 0.682463 0.095845
0.388855 0.682463 0.095845
0.420819 0.682463 0.095845
0.452784 0.682463 0.095845
0.484749 0.682463 0.095845
0.516714 0.682463 0.095845
0.548650 0.682463 0.095845
0.522104 0.682463 0.095845
0.554764 0.682463 0.095845
0.587424 0.682463 0.095845
0.620083 0.682463 0.095845
0.652743 0.682463 0.095845
0.685359 0.682418 0.095796
0.717526 0.681926 0.095254
0.749694 0.681434 0.094711
0.781862 0.680942 0.094169
0.814029 0.680450 0.093627
0.846197 0.679958 0.093085
0.878365 0.679466 0.092543
0.910532 0.678974 0.092000
0.942700 0.678481 0.091458
0.968563 0.678086 0.091022
0.968563 0.678086 0.091022
0.968563 0.678086 0.091022
0.968563 0.678086 0.091022
0.095305 0.714497 0.095305
0.132045 0.714497 0.095305
0.164560 0.714497 0.095305
0.196525 0.714497 0.095305
0.228490 0.714497 0.095305
0.260455 0.714497 0.095305
0.292420 0.714497 0.095305
0.324385 0.714497 0.095305
0.356350 0.714497 0.095305
0.388315 0.714497 0.095305
0.420280 0.714497 0.095305
0.452244 0.714497 0.095305
0.484209 0.714497 0.095305
0.516174 0.714497 0.095305
0.548110 0.714497 0.095305
0.521614 0.714497 0.095305
0.554274 0.714497 0.095305
0.586933 0.714497 0.095305
0.619593 0.714497 0.095305
0.652253 0.714497 0.095305
0.684913 0.714497 0.095305
0.717526 0.714451 0.095254
0.749694 0.713959 0.094711
0.781862 0.713467 0.094169
0.814029 0.712974 0.093627
0.846197 0.712482 0.093085
0.878365 0.711990 0.092543
0.910532 0.711498 0.092000
0.942700 0.711006 0.091458
0.968563 0.710610 0.091022
0.968563 0.710610 0.091022
0.968563 0.710610 0.091022
0.968563 0.710610 0.091022
0.094765 0.746532 0.094765
0.131505 0.746532 0.094765
0.164020 0.746532 0.094765
0.195985 0.746532 0.094765
0.227950 0.746532 0.094765
0.259915 0.746532 0.094765
0.291880 0.746532 0.094765
0.323845 0.746532 0.094765
0.355810 0.746532 0.094765
0.387775 0.746532 0.094765
0.419740 0.746532 0.094765
0.451704 0.746532 0.094765
0.483669 0.746532 0.094765
0.515634 0.746532 0.094765
0.547570 0.746532 0.094765
0.521124 0.746532 0.094765
0.553784 0.746532 0.094765
0.586443 0.746532 0.094765
0.619103 0.746532 0.094765
0.651763 0.746532 0.094765
0.684423 0.746532 0.094765
0.717083 0.746532 0.094765
0.749694 0.746483 0.094711
0.781862 0.745991 0.094169
0.814029 0.745499 0.093627
0.846197 0.745007 0.093085
0.878365 0.744515 0.092543
0.910532 0.744023 0.092000
0.942700 0.743531 0.091458
0.968563 0.743135 0.091022
0.968563 0.743135 0.091022
0.968563 0.743135 0.091022
0.968563 0.743135 0.091022
0.094225 0.778566 0.094225
0.130965 0.778566 0.094225
0.163480 0.778566 0.094225
0.195445 0.778566 0.094225
0.227410 0.778566 0.094225
0.259375 0.778566 0.094225
0.291340 0.778566 0.094225
0.323305 0.778566 0.094225
0.355270 0.778566 0.094225
0.387235 0.778566 0.094225
0.419200 0.778566 0.094225
0.451165 0.778566 0.094225
0.483129 0.778566 0.094225
0.515094 0.778566 0.094225
0.547030 0.778566 0.094225
0.520634 0.778566 0.094225
0.553294 0.778566 0.094225
0.585953 0.778566 0.094225
0.618613 0.778566 0.094225
0.651273 0.778566 0.094225
0.683933 0.778566 0.094225
0.716592 0.778566 0.094225
0.749252 0.778566 0.094225
0.781862 0.778516 0.094169
0.814029 0.778024 0.093627
0.846197 0.777532 0.093085
0.878365 0.777040 0.092543
0.910532 0.776547 0.092000
0.942700 0.776055 0.091458
0.968563 0.775660 0.091022
0.968563 0.775660 0.091022
0.968563 0.775660 0.091022
0.968563 0.775660 0.091022
0.093685 0.810601 0.093685
0.130425 0.810601 0.093685
0.162940 0.810601 0.093685
0.194905 0.810601 0.093685
0.226870 0.810601 0.093685
0.258835 0.810601 0.093685
0.290800 0.810601 0.093685
0.322765 0.810601 0.093685
0.354730 0.810601 0.093685
0.386695 0.810601 0.093685
0.418660 0.810601 0.093685
0.450625 0.810601 0.093685
0.482589 0.810601 0.093685
0.514554 0.810601 0.093685
0.546490 0.810601 0.093685
0.520144 0.810601 0.093685
0.552803 0.810601 0.093685
0.585463 0.810601 0.093685
0.618123 0.810601 0.093685
0.650783 0.810601 0.093685
0.683443 0.810601 0.093685
0.716102 0.810601 0.093685
0.748762 0.810601 0.093685
0.781422 0.810601 0.093685
0.814029 0.810548 0.093627
0.846197 0.810056 0.093085
0.878365 0.809564 0.092543
0.910532 0.809072 0.092000
0.942700 0.808580 0.091458
0.968563 0.808184 0.091022
0.968563 0.808184 0.091022
0.968563 0.808184 0.091022
0.968563 0.808184 0.091022
0.093145 0.842635 0.093145
0.129885 0.842635 0.093145
0.162401 0.842635 0.093145
0.194365 0.842635 0.093145
0.226330 0.842635 0.093145
0.258295 0.842635 0.093145
0.290260 0.842635 0.093145
0.322225 0.842635 0.093145
0.354190 0.842635 0.093145
0.386155 0.842635 0.093145
0.418120 0.842635 0.093145
0.450085 0.842635 0.093145
0.482050 0.842635 0.093145
0.514014 0.842635 0.093145
0.545951 0.842635 0.093145
0.519654 0.842635 0.093145
0.552313 0.842635 0.093145
0.584973 0.842635 0.093145
0.617633 0.842635 0.093145
0.650293 0.842635 0.093145
0.682953 0.842635 0.093145
0.715612 0.842635 0.093145
0.748272 0.842635 0.093145
0.780932 0.842635 0.093145
0.813592 0.842635 0.093145
0.846197 0.842581 0.093085
0.878365 0.842089 0.092543
0.910532 0.841597 0.092000
0.942700 0.841105 0.091458
0.968563 0.840709 0.091022
0.968563 0.840709 0.091022
0.968563 0.840709 0.091022
0.968563 0.840709 0.091022
0.092605 0.874670 0.092605
0.129345 0.874670 0.092605
0.161861 0.874670 0.092605
0.193825 0.874670 0.092605
0.225790 0.874670 0.092605
0.257755 0.874670 0.092605
0.289720 0.874670 0.092605
0.321685 0.874670 0.092605
0.353650 0.874670 0.092605
0.385615 0.874670 0.092605
0.417580 0.874670 0.092605
0.449545 0.874670 0.092605
0.481510 0.874670 0.092605
0.513474 0.874670 0.092605
0.545411 0.874670 0.092605
0.519164 0.874670 0.092605
0.551823 0.874670 0.092605
0.584483 0.874670 0.092605
0.617143 0.874670 0.092605
0.649803 0.874670 0.092605
0.682462 0.874670 0.092605
0.715122 0.874670 0.092605
0.747782 0.874670 0.092605
0.780442 0.874670 0.092605
0.813102 0.874670 0.092605
