docs/luts/fuji_recipes/Astia_NZD_Classic_Chrome.cube
TITLE "Fujifilm Recipe: NZD Classic Chrome (Astia)"
# FilmSim=Astia HL=1 SH=-2 Col=1 WB=Auto WBR=0 WBB=0
LUT_3D_SIZE 5
DOMAIN_MIN 0.0 0.0 0.0
DOMAIN_MAX 1.0 1.0 1.0
0.102080 0.102080 0.102080
0.331231 0.098547 0.098547
0.548961 0.095190 0.095190
0.760685 0.093081 0.093081
1.000000 0.102312 0.102312
0.098565 0.330075 0.098565
0.331231 0.330058 0.098547
0.548961 0.326700 0.095190
0.760685 0.324592 0.093081
1.000000 0.326271 0.102312
0.095053 0.557802 0.095053
0.327738 0.557802 0.095053
0.548824 0.557802 0.095053
0.760685 0.555830 0.093081
1.000000 0.505811 0.102312
0.093162 0.757235 0.093162
0.325846 0.757235 0.093162
0.546932 0.757235 0.093162
0.760685 0.757184 0.093081
1.000000 0.746829 0.102312
0.102312 1.000000 0.102312
0.327406 1.000000 0.102312
0.495994 1.000000 0.102312
0.750216 1.000000 0.102312
1.000000 1.000000 0.102312
0.098565 0.098565 0.330075
0.331231 0.098547 0.330058
0.548961 0.095190 0.326700
0.760685 0.093081 0.324592
1.000000 0.102312 0.326271
0.098565 0.330075 0.330075
0.327716 0.326542 0.326542
0.545445 0.323185 0.323185
0.759181 0.320911 0.320911
1.000000 0.328637 0.328637
0.095053 0.557802 0.326564
0.324222 0.554286 0.323049
0.545309 0.554286 0.323049
0.759181 0.506534 0.320911
1.000000 0.509080 0.328637
0.093162 0.757235 0.324672
0.322164 0.755731 0.320991
0.496437 0.755731 0.320991
0.759181 0.755680 0.320911
1.000000 0.748504 0.328637
0.102312 1.000000 0.326271
0.329764 1.000000 0.328637
0.499328 1.000000 0.328637
0.751869 1.000000 0.328637
1.000000 1.000000 0.328637
0.095053 0.095053 0.557802
0.327738 0.095053 0.557802
0.548824 0.095053 0.557802
0.760685 0.093081 0.555830
1.000000 0.102312 0.505811
0.095053 0.326564 0.557802
0.324222 0.323049 0.554286
0.545309 0.323049 0.554286
0.759181 0.320911 0.506534
1.000000 0.328637 0.509080
0.095053 0.557802 0.557802
0.324204 0.554268 0.554268
0.502186 0.512335 0.512335
0.760991 0.508344 0.508344
1.000000 0.519700 0.519700
0.093162 0.757235 0.555910
0.322146 0.755723 0.506577
0.498403 0.757697 0.508551
0.760991 0.757490 0.508344
1.000000 0.753945 0.519700
0.102312 1.000000 0.505811
0.329784 1.000000 0.509102
0.509860 1.000000 0.519408
0.757237 1.000000 0.519700
1.000000 1.000000 0.519700
0.093162 0.093162 0.757235
0.325846 0.093162 0.757235
0.546932 0.093162 0.757235
0.760685 0.093081 0.757184
1.000000 0.102312 0.746829
0.093162 0.324672 0.757235
0.322164 0.320991 0.755731
0.496437 0.320991 0.755731
0.759181 0.320911 0.755680
1.000000 0.328637 0.748504
0.093162 0.555910 0.757235
0.322146 0.506577 0.755723
0.498403 0.508551 0.757697
0.760991 0.508344 0.757490
1.000000 0.519700 0.753945
0.093162 0.757235 0.757235
0.322146 0.755723 0.755723
0.498403 0.757697 0.757697
0.757208 0.753707 0.753707
1.000000 0.761280 0.761280
0.102312 1.000000 0.746829
0.329784 1.000000 0.748516
0.509860 1.000000 0.753795
0.764474 1.000000 0.761280
1.000000 1.000000 0.761280
0.102312 0.102312 1.000000
0.327406 0.102312 1.000000
0.495994 0.102312 1.000000
0.750216 0.102312 1.000000
1.000000 0.102312 1.000000
0.102312 0.326271 1.000000
0.329764 0.328637 1.000000
0.499328 0.328637 1.000000
0.751869 0.328637 1.000000
1.000000 0.328637 1.000000
0.102312 0.505811 1.000000
0.329784 0.509102 1.000000
0.509860 0.519408 1.000000
0.757237 0.519700 1.000000
1.000000 0.519700 1.000000
0.102312 0.746829 1.000000
0.329784 0.748516 1.000000
0.509860 0.753795 1.000000
0.764474 0.761280 1.000000
1.000000 0.761280 1.000000
0.102312 1.000000 1.000000
0.329784 1.000000 1.000000
0.509860 1.000000 1.000000
0.764675 1.000000 1.000000
1.000000 1.000000 1.000000
