docs/luts/fuji_recipes/Astia_PS_Kodak_Ektar_100.cube
TITLE "Fujifilm Recipe: PS Kodak Ektar 100 (Astia)"
# FilmSim=Astia HL=0 SH=1 Col=3 WB=5900K WBR=-1 WBB=3
LUT_3D_SIZE 33
DOMAIN_MIN 0.0 0.0 0.0
DOMAIN_MAX 1.0 1.0 1.0
0.023040 0.023040 0.023040
0.058069 0.017874 0.017874
0.092405 0.012811 0.012811
0.126525 0.007779 0.007779
0.160646 0.002747 0.002747
0.192482 0.000000 0.000000
0.221571 0.000000 0.000000
0.250660 0.000000 0.000000
0.279749 0.000000 0.000000
0.308838 0.000000 0.000000
0.337927 0.000000 0.000000
0.367016 0.000000 0.000000
0.396105 0.000000 0.000000
0.425194 0.000000 0.000000
0.454283 0.000000 0.000000
0.483372 0.000000 0.000000
0.512235 0.000000 0.000000
0.530030 0.000000 0.000000
0.580109 0.000000 0.000000
0.610333 0.000000 0.000000
0.640558 0.000000 0.000000
0.670783 0.000000 0.000000
0.701007 0.000000 0.000000
0.731232 0.000000 0.000000
0.761456 0.000000 0.000000
0.791681 0.000000 0.000000
0.821906 0.000000 0.000000
0.852130 0.000000 0.000000
0.882355 0.000000 0.000000
0.912580 0.000000 0.000000
0.942804 0.000000 0.000000
0.973029 0.000000 0.000000
0.988438 0.000000 0.000000
0.017975 0.057385 0.017975
0.058069 0.057284 0.017874
0.092405 0.052220 0.012811
0.126525 0.047189 0.007779
0.160646 0.042157 0.002747
0.192482 0.038496 0.000000
0.221571 0.036968 0.000000
0.250660 0.035875 0.000000
0.279749 0.035054 0.000000
0.308838 0.034415 0.000000
0.337927 0.033903 0.000000
0.367016 0.033484 0.000000
0.396105 0.033135 0.000000
0.425194 0.032839 0.000000
0.454283 0.032585 0.000000
0.483372 0.032365 0.000000
0.512235 0.032174 0.000000
0.530030 0.032068 0.000000
0.580109 0.031627 0.000000
0.610333 0.031493 0.000000
0.640558 0.031373 0.000000
0.670783 0.031264 0.000000
0.701007 0.031165 0.000000
0.731232 0.031075 0.000000
0.761456 0.030992 0.000000
0.791681 0.030917 0.000000
0.821906 0.030847 0.000000
0.852130 0.030782 0.000000
0.882355 0.030722 0.000000
0.912580 0.030666 0.000000
0.942804 0.030614 0.000000
0.973029 0.030566 0.000000
0.988438 0.030542 0.000000
0.012910 0.091730 0.012910
0.053105 0.091730 0.012910
0.092405 0.091630 0.012811
0.126525 0.086598 0.007779
0.160646 0.081567 0.002747
0.192482 0.076992 0.000000
0.221571 0.073937 0.000000
0.250660 0.071750 0.000000
0.279749 0.070108 0.000000
0.308838 0.068830 0.000000
0.337927 0.067806 0.000000
0.367016 0.066968 0.000000
0.396105 0.066269 0.000000
0.425194 0.065678 0.000000
0.454283 0.065171 0.000000
0.483372 0.064731 0.000000
0.512235 0.064349 0.000000
0.530030 0.064136 0.000000
0.580109 0.063255 0.000000
0.610333 0.062986 0.000000
0.640558 0.062745 0.000000
0.670783 0.062528 0.000000
0.701007 0.062330 0.000000
0.731232 0.062150 0.000000
0.761456 0.061985 0.000000
0.791681 0.061833 0.000000
0.821906 0.061693 0.000000
0.852130 0.061564 0.000000
0.882355 0.061444 0.000000
0.912580 0.061333 0.000000
0.942804 0.061228 0.000000
0.973029 0.061131 0.000000
0.988438 0.061084 0.000000
0.007845 0.126075 0.007845
0.048041 0.126075 0.007845
0.087439 0.126075 0.007845
0.126525 0.126008 0.007779
0.160646 0.120976 0.002747
0.192482 0.115488 0.000000
0.221571 0.110905 0.000000
0.250660 0.107625 0.000000
0.279749 0.105162 0.000000
0.308838 0.103245 0.000000
0.337927 0.101709 0.000000
0.367016 0.100452 0.000000
0.396105 0.099404 0.000000
0.425194 0.098517 0.000000
0.454283 0.097756 0.000000
0.483372 0.097096 0.000000
0.512235 0.096523 0.000000
0.530030 0.096204 0.000000
0.580109 0.094882 0.000000
0.610333 0.094479 0.000000
0.640558 0.094118 0.000000
0.670783 0.093791 0.000000
0.701007 0.093495 0.000000
0.731232 0.093225 0.000000
0.761456 0.092977 0.000000
0.791681 0.092750 0.000000
0.821906 0.092540 0.000000
0.852130 0.092346 0.000000
0.882355 0.092166 0.000000
0.912580 0.091999 0.000000
0.942804 0.091843 0.000000
0.973029 0.091697 0.000000
0.988438 0.091626 0.000000
0.002781 0.160419 0.002781
0.042976 0.160419 0.002781
0.082374 0.160419 0.002781
0.121527 0.160419 0.002781
0.160646 0.160386 0.002747
0.192482 0.153983 0.000000
0.221571 0.147873 0.000000
0.250660 0.143500 0.000000
0.279749 0.140216 0.000000
0.308838 0.137659 0.000000
0.337927 0.135612 0.000000
0.367016 0.133936 0.000000
0.396105 0.132539 0.000000
0.425194 0.131356 0.000000
0.454283 0.130341 0.000000
0.483372 0.129462 0.000000
0.512235 0.128697 0.000000
0.530030 0.128272 0.000000
0.580109 0.126509 0.000000
0.610333 0.125973 0.000000
0.640558 0.125490 0.000000
0.670783 0.125055 0.000000
0.701007 0.124660 0.000000
0.731232 0.124299 0.000000
0.761456 0.123970 0.000000
0.791681 0.123666 0.000000
0.821906 0.123387 0.000000
0.852130 0.123128 0.000000
0.882355 0.122888 0.000000
0.912580 0.122665 0.000000
0.942804 0.122457 0.000000
0.973029 0.122262 0.000000
0.988438 0.122168 0.000000
0.000000 0.192480 0.000000
0.039263 0.192480 0.000000
0.077748 0.192480 0.000000
0.115993 0.192480 0.000000
0.154238 0.192480 0.000000
0.192482 0.192479 0.000000
0.221571 0.184841 0.000000
0.250660 0.179375 0.000000
0.279749 0.175270 0.000000
0.308838 0.172074 0.000000
0.337927 0.169515 0.000000
0.367016 0.167420 0.000000
0.396105 0.165673 0.000000
0.425194 0.164194 0.000000
0.454283 0.162926 0.000000
0.483372 0.161827 0.000000
0.512235 0.160872 0.000000
0.530030 0.160340 0.000000
0.580109 0.158136 0.000000
0.610333 0.157466 0.000000
0.640558 0.156863 0.000000
0.670783 0.156319 0.000000
0.701007 0.155825 0.000000
0.731232 0.155374 0.000000
0.761456 0.154962 0.000000
0.791681 0.154583 0.000000
0.821906 0.154233 0.000000
0.852130 0.153910 0.000000
0.882355 0.153610 0.000000
0.912580 0.153331 0.000000
0.942804 0.153071 0.000000
0.973029 0.152828 0.000000
0.988438 0.152710 0.000000
0.000000 0.221760 0.000000
0.037697 0.221760 0.000000
0.074646 0.221760 0.000000
0.111365 0.221760 0.000000
0.148084 0.221760 0.000000
0.184803 0.221760 0.000000
0.221522 0.221760 0.000000
0.250660 0.215250 0.000000
0.279749 0.210324 0.000000
0.308838 0.206489 0.000000
0.337927 0.203418 0.000000
0.367016 0.200904 0.000000
0.396105 0.198808 0.000000
0.425194 0.197033 0.000000
0.454283 0.195512 0.000000
0.483372 0.194192 0.000000
0.512235 0.193046 0.000000
0.530030 0.192408 0.000000
0.580109 0.189764 0.000000
0.610333 0.188959 0.000000
0.640558 0.188236 0.000000
0.670783 0.187583 0.000000
0.701007 0.186990 0.000000
0.731232 0.186449 0.000000
0.761456 0.185954 0.000000
0.791681 0.185499 0.000000
0.821906 0.185080 0.000000
0.852130 0.184692 0.000000
0.882355 0.184332 0.000000
0.912580 0.183998 0.000000
0.942804 0.183685 0.000000
0.973029 0.183394 0.000000
0.988438 0.183252 0.000000
0.000000 0.251040 0.000000
0.036578 0.251040 0.000000
0.072430 0.251040 0.000000
0.108059 0.251040 0.000000
0.143688 0.251040 0.000000
0.179317 0.251040 0.000000
0.214946 0.251040 0.000000
0.250575 0.251040 0.000000
0.279749 0.245379 0.000000
0.308838 0.240904 0.000000
0.337927 0.237321 0.000000
0.367016 0.234388 0.000000
0.396105 0.231943 0.000000
0.425194 0.229872 0.000000
0.454283 0.228097 0.000000
0.483372 0.226558 0.000000
0.512235 0.225221 0.000000
0.530030 0.224476 0.000000
0.580109 0.221391 0.000000
0.610333 0.220452 0.000000
0.640558 0.219608 0.000000
0.670783 0.218846 0.000000
0.701007 0.218155 0.000000
0.731232 0.217524 0.000000
0.761456 0.216947 0.000000
0.791681 0.216416 0.000000
0.821906 0.215927 0.000000
0.852130 0.215474 0.000000
0.882355 0.215054 0.000000
0.912580 0.214664 0.000000
0.942804 0.214300 0.000000
0.973029 0.213959 0.000000
0.988438 0.213794 0.000000
0.000000 0.280320 0.000000
0.035738 0.280320 0.000000
0.070769 0.280320 0.000000
0.105580 0.280320 0.000000
0.140391 0.280320 0.000000
0.175203 0.280320 0.000000
0.210014 0.280320 0.000000
0.244825 0.280320 0.000000
0.279637 0.280320 0.000000
0.308838 0.275319 0.000000
0.337927 0.271224 0.000000
0.367016 0.267872 0.000000
0.396105 0.265077 0.000000
0.425194 0.262711 0.000000
0.454283 0.260682 0.000000
0.483372 0.258923 0.000000
0.512235 0.257395 0.000000
0.530030 0.256544 0.000000
0.580109 0.253018 0.000000
0.610333 0.251945 0.000000
0.640558 0.250981 0.000000
0.670783 0.250110 0.000000
0.701007 0.249320 0.000000
0.731232 0.248599 0.000000
0.761456 0.247939 0.000000
0.791681 0.247333 0.000000
0.821906 0.246774 0.000000
0.852130 0.246256 0.000000
0.882355 0.245776 0.000000
0.912580 0.245330 0.000000
0.942804 0.244914 0.000000
0.973029 0.244525 0.000000
0.988438 0.244336 0.000000
0.000000 0.309600 0.000000
0.035086 0.309600 0.000000
0.069476 0.309600 0.000000
0.103652 0.309600 0.000000
0.137827 0.309600 0.000000
0.172003 0.309600 0.000000
0.206178 0.309600 0.000000
0.240354 0.309600 0.000000
0.274529 0.309600 0.000000
0.308705 0.309600 0.000000
0.337927 0.305127 0.000000
0.367016 0.301356 0.000000
0.396105 0.298212 0.000000
0.425194 0.295550 0.000000
0.454283 0.293267 0.000000
0.483372 0.291289 0.000000
0.512235 0.289569 0.000000
0.530030 0.288611 0.000000
0.580109 0.284646 0.000000
0.610333 0.283438 0.000000
0.640558 0.282354 0.000000
0.670783 0.281374 0.000000
0.701007 0.280485 0.000000
0.731232 0.279674 0.000000
0.761456 0.278931 0.000000
0.791681 0.278249 0.000000
0.821906 0.277620 0.000000
0.852130 0.277038 0.000000
0.882355 0.276499 0.000000
0.912580 0.275996 0.000000
0.942804 0.275528 0.000000
0.973029 0.275090 0.000000
0.988438 0.274878 0.000000
0.000000 0.338880 0.000000
0.034563 0.338880 0.000000
0.068442 0.338880 0.000000
0.102109 0.338880 0.000000
0.135776 0.338880 0.000000
0.169443 0.338880 0.000000
0.203109 0.338880 0.000000
0.236776 0.338880 0.000000
0.270443 0.338880 0.000000
0.304110 0.338880 0.000000
0.337777 0.338880 0.000000
0.367016 0.334840 0.000000
0.396105 0.331346 0.000000
0.425194 0.328389 0.000000
0.454283 0.325853 0.000000
0.483372 0.323654 0.000000
0.512235 0.321744 0.000000
0.530030 0.320679 0.000000
0.580109 0.316273 0.000000
0.610333 0.314931 0.000000
0.640558 0.313726 0.000000
0.670783 0.312638 0.000000
0.701007 0.311650 0.000000
0.731232 0.310749 0.000000
0.761456 0.309924 0.000000
0.791681 0.309166 0.000000
0.821906 0.308467 0.000000
0.852130 0.307820 0.000000
0.882355 0.307221 0.000000
0.912580 0.306663 0.000000
0.942804 0.306142 0.000000
0.973029 0.305656 0.000000
0.988438 0.305420 0.000000
0.000000 0.368160 0.000000
0.034136 0.368160 0.000000
0.067596 0.368160 0.000000
0.100847 0.368160 0.000000
0.134097 0.368160 0.000000
0.167348 0.368160 0.000000
0.200599 0.368160 0.000000
0.233849 0.368160 0.000000
0.267100 0.368160 0.000000
0.300351 0.368160 0.000000
0.333602 0.368160 0.000000
0.366852 0.368160 0.000000
0.396105 0.364481 0.000000
0.425194 0.361228 0.000000
0.454283 0.358438 0.000000
0.483372 0.356019 0.000000
0.512235 0.353918 0.000000
0.530030 0.352747 0.000000
0.580109 0.347900 0.000000
0.610333 0.346424 0.000000
0.640558 0.345099 0.000000
0.670783 0.343901 0.000000
0.701007 0.342814 0.000000
0.731232 0.341823 0.000000
0.761456 0.340916 0.000000
0.791681 0.340082 0.000000
0.821906 0.339314 0.000000
0.852130 0.338602 0.000000
0.882355 0.337943 0.000000
0.912580 0.337329 0.000000
0.942804 0.336757 0.000000
0.973029 0.336221 0.000000
0.988438 0.335962 0.000000
0.000000 0.397440 0.000000
0.033780 0.397440 0.000000
0.066891 0.397440 0.000000
0.099795 0.397440 0.000000
0.132699 0.397440 0.000000
0.165603 0.397440 0.000000
0.198506 0.397440 0.000000
0.231410 0.397440 0.000000
0.264314 0.397440 0.000000
0.297218 0.397440 0.000000
0.330122 0.397440 0.000000
0.363026 0.397440 0.000000
0.395930 0.397440 0.000000
0.425194 0.394067 0.000000
0.454283 0.391023 0.000000
0.483372 0.388385 0.000000
0.512235 0.386092 0.000000
0.530030 0.384815 0.000000
0.580109 0.379527 0.000000
0.610333 0.377918 0.000000
0.640558 0.376471 0.000000
0.670783 0.375165 0.000000
0.701007 0.373979 0.000000
0.731232 0.372898 0.000000
0.761456 0.371909 0.000000
0.791681 0.370999 0.000000
0.821906 0.370160 0.000000
0.852130 0.369384 0.000000
0.882355 0.368665 0.000000
0.912580 0.367995 0.000000
0.942804 0.367371 0.000000
0.973029 0.366787 0.000000
0.988438 0.366504 0.000000
0.000000 0.426720 0.000000
0.033479 0.426720 0.000000
0.066294 0.426720 0.000000
0.098905 0.426720 0.000000
0.131515 0.426720 0.000000
0.164126 0.426720 0.000000
0.196736 0.426720 0.000000
0.229346 0.426720 0.000000
0.261957 0.426720 0.000000
0.294567 0.426720 0.000000
0.327178 0.426720 0.000000
0.359788 0.426720 0.000000
0.392399 0.426720 0.000000
0.425009 0.426720 0.000000
0.454283 0.423609 0.000000
0.483372 0.420750 0.000000
0.512235 0.418267 0.000000
0.530030 0.416883 0.000000
0.580109 0.411155 0.000000
0.610333 0.409411 0.000000
0.640558 0.407844 0.000000
0.670783 0.406429 0.000000
0.701007 0.405144 0.000000
0.731232 0.403973 0.000000
0.761456 0.402901 0.000000
0.791681 0.401916 0.000000
0.821906 0.401007 0.000000
0.852130 0.400166 0.000000
0.882355 0.399387 0.000000
0.912580 0.398661 0.000000
0.942804 0.397985 0.000000
0.973029 0.397353 0.000000
0.988438 0.397046 0.000000
0.000000 0.456000 0.000000
0.033221 0.456000 0.000000
0.065783 0.456000 0.000000
0.098142 0.456000 0.000000
0.130501 0.456000 0.000000
0.162860 0.456000 0.000000
0.195219 0.456000 0.000000
0.227577 0.456000 0.000000
0.259936 0.456000 0.000000
0.292295 0.456000 0.000000
0.324654 0.456000 0.000000
0.357013 0.456000 0.000000
0.389372 0.456000 0.000000
0.421731 0.456000 0.000000
0.454090 0.456000 0.000000
0.483372 0.453116 0.000000
0.512235 0.450441 0.000000
0.530030 0.448951 0.000000
0.580109 0.442782 0.000000
0.610333 0.440904 0.000000
0.640558 0.439217 0.000000
0.670783 0.437693 0.000000
0.701007 0.436309 0.000000
0.731232 0.435048 0.000000
0.761456 0.433893 0.000000
0.791681 0.432832 0.000000
0.821906 0.431854 0.000000
0.852130 0.430949 0.000000
0.882355 0.430109 0.000000
0.912580 0.429328 0.000000
0.942804 0.428599 0.000000
0.973029 0.427918 0.000000
0.988438 0.427588 0.000000
0.000000 0.485280 0.000000
0.032997 0.485280 0.000000
0.065340 0.485280 0.000000
0.097481 0.485280 0.000000
0.129622 0.485280 0.000000
0.161762 0.485280 0.000000
0.193903 0.485280 0.000000
0.226044 0.485280 0.000000
0.258185 0.485280 0.000000
0.290326 0.485280 0.000000
0.322467 0.485280 0.000000
0.354608 0.485280 0.000000
0.386749 0.485280 0.000000
0.418890 0.485280 0.000000
0.451031 0.485280 0.000000
0.483172 0.485280 0.000000
0.512235 0.482615 0.000000
0.530030 0.481019 0.000000
0.580109 0.474409 0.000000
0.610333 0.472397 0.000000
0.640558 0.470589 0.000000
0.670783 0.468956 0.000000
0.701007 0.467474 0.000000
0.731232 0.466123 0.000000
0.761456 0.464886 0.000000
0.791681 0.463749 0.000000
0.821906 0.462700 0.000000
0.852130 0.461731 0.000000
0.882355 0.460831 0.000000
0.912580 0.459994 0.000000
0.942804 0.459213 0.000000
0.973029 0.458484 0.000000
0.988438 0.458130 0.000000
0.000000 0.514284 0.000000
0.032803 0.514284 0.000000
0.064955 0.514284 0.000000
0.096907 0.514284 0.000000
0.128859 0.514284 0.000000
0.160811 0.514284 0.000000
0.192763 0.514284 0.000000
0.224715 0.514284 0.000000
0.256667 0.514284 0.000000
0.288618 0.514284 0.000000
0.320570 0.514284 0.000000
0.352522 0.514284 0.000000
0.384474 0.514284 0.000000
0.416426 0.514284 0.000000
0.448378 0.514284 0.000000
0.480330 0.514284 0.000000
0.512033 0.514284 0.000000
0.530030 0.512784 0.000000
0.580109 0.505738 0.000000
0.610333 0.503593 0.000000
0.640558 0.501666 0.000000
0.670783 0.499925 0.000000
0.701007 0.498345 0.000000
0.731232 0.496904 0.000000
0.761456 0.495585 0.000000
0.791681 0.494373 0.000000
0.821906 0.493256 0.000000
0.852130 0.516332 0.000000
0.882355 0.515418 0.000000
0.912580 0.514574 0.000000
0.942804 0.513792 0.000000
0.973029 0.513067 0.000000
0.988438 0.512717 0.000000
0.000000 0.532320 0.000000
0.032694 0.532320 0.000000
0.064740 0.532320 0.000000
0.096585 0.532320 0.000000
0.128431 0.532320 0.000000
0.160276 0.532320 0.000000
0.192122 0.532320 0.000000
0.223968 0.532320 0.000000
0.255813 0.532320 0.000000
0.287659 0.532320 0.000000
0.319505 0.532320 0.000000
0.351350 0.532320 0.000000
0.383196 0.532320 0.000000
0.415042 0.532320 0.000000
0.446887 0.532320 0.000000
0.478733 0.532320 0.000000
0.510331 0.532320 0.000000
0.529813 0.532320 0.000000
0.580109 0.549955 0.000000
0.610333 0.547717 0.000000
0.640558 0.545714 0.000000
0.670783 0.543914 0.000000
0.701007 0.542288 0.000000
0.731232 0.540813 0.000000
0.761456 0.539470 0.000000
0.791681 0.538243 0.000000
0.821906 0.537118 0.000000
0.852130 0.536084 0.000000
0.882355 0.535131 0.000000
0.912580 0.534251 0.000000
0.942804 0.533436 0.000000
0.973029 0.532680 0.000000
0.988438 0.532315 0.000000
0.000000 0.582687 0.000000
0.032245 0.582687 0.000000
0.063852 0.582687 0.000000
0.095261 0.582687 0.000000
0.126670 0.582687 0.000000
0.158079 0.582687 0.000000
0.189488 0.582687 0.000000
0.220897 0.582687 0.000000
0.252306 0.582687 0.000000
0.283715 0.582687 0.000000
0.315124 0.582687 0.000000
0.346533 0.582687 0.000000
0.377942 0.582687 0.000000
0.409351 0.582687 0.000000
0.440759 0.582687 0.000000
0.472168 0.582687 0.000000
0.503333 0.582687 0.000000
0.522548 0.582687 0.000000
0.579896 0.582687 0.000000
0.610333 0.580522 0.000000
0.640558 0.578394 0.000000
0.670783 0.576480 0.000000
0.701007 0.574752 0.000000
0.731232 0.573183 0.000000
0.761456 0.571754 0.000000
0.791681 0.570448 0.000000
0.821906 0.569250 0.000000
0.852130 0.568149 0.000000
0.882355 0.567134 0.000000
0.912580 0.566195 0.000000
0.942804 0.565326 0.000000
0.973029 0.564519 0.000000
0.988438 0.564129 0.000000
0.000000 0.613110 0.000000
0.032109 0.613110 0.000000
0.063582 0.613110 0.000000
0.094858 0.613110 0.000000
0.126134 0.613110 0.000000
0.157410 0.613110 0.000000
0.188686 0.613110 0.000000
0.219962 0.613110 0.000000
0.251238 0.613110 0.000000
0.282515 0.613110 0.000000
0.313791 0.613110 0.000000
0.345067 0.613110 0.000000
0.376343 0.613110 0.000000
0.407619 0.613110 0.000000
0.438895 0.613110 0.000000
0.470171 0.613110 0.000000
0.501204 0.613110 0.000000
0.544958 0.613110 0.000000
0.577538 0.613110 0.000000
0.610117 0.613110 0.000000
0.640558 0.611074 0.000000
0.670783 0.609047 0.000000
0.701007 0.607215 0.000000
0.731232 0.605552 0.000000
0.761456 0.604037 0.000000
0.791681 0.602652 0.000000
0.821906 0.601382 0.000000
0.852130 0.600214 0.000000
0.882355 0.599136 0.000000
0.912580 0.598139 0.000000
0.942804 0.597216 0.000000
0.973029 0.596358 0.000000
0.988438 0.595944 0.000000
0.000000 0.643533 0.000000
0.031986 0.643533 0.000000
0.063339 0.643533 0.000000
0.094496 0.643533 0.000000
0.125653 0.643533 0.000000
0.156809 0.643533 0.000000
0.187966 0.643533 0.000000
0.219123 0.643533 0.000000
0.250280 0.643533 0.000000
0.281437 0.643533 0.000000
0.312593 0.643533 0.000000
0.343750 0.643533 0.000000
0.374907 0.643533 0.000000
0.406064 0.643533 0.000000
0.437221 0.643533 0.000000
0.468377 0.643533 0.000000
0.499292 0.643533 0.000000
0.542973 0.643533 0.000000
0.575428 0.643533 0.000000
0.607883 0.643533 0.000000
0.640338 0.643533 0.000000
0.670783 0.641613 0.000000
0.701007 0.639678 0.000000
0.731232 0.637922 0.000000
0.761456 0.636321 0.000000
0.791681 0.634857 0.000000
0.821906 0.633514 0.000000
0.852130 0.632278 0.000000
0.882355 0.631138 0.000000
0.912580 0.630083 0.000000
0.942804 0.629105 0.000000
0.973029 0.628197 0.000000
0.988438 0.627758 0.000000
0.000000 0.673956 0.000000
0.031876 0.673956 0.000000
0.063120 0.673956 0.000000
0.094169 0.673956 0.000000
0.125218 0.673956 0.000000
0.156267 0.673956 0.000000
0.187316 0.673956 0.000000
0.218365 0.673956 0.000000
0.249414 0.673956 0.000000
0.280463 0.673956 0.000000
0.311512 0.673956 0.000000
0.342561 0.673956 0.000000
0.373610 0.673956 0.000000
0.404659 0.673956 0.000000
0.435708 0.673956 0.000000
0.466757 0.673956 0.000000
0.497565 0.673956 0.000000
0.541189 0.673956 0.000000
0.573532 0.673956 0.000000
0.605875 0.673956 0.000000
0.638217 0.673956 0.000000
0.670560 0.673956 0.000000
0.701007 0.672142 0.000000
0.731232 0.670292 0.000000
0.761456 0.668605 0.000000
0.791681 0.667062 0.000000
0.821906 0.665646 0.000000
0.852130 0.664343 0.000000
0.882355 0.663140 0.000000
0.912580 0.662027 0.000000
0.942804 0.660995 0.000000
0.973029 0.660036 0.000000
0.988438 0.659573 0.000000
0.000000 0.704379 0.000000
0.031775 0.704379 0.000000
0.062921 0.704379 0.000000
0.093872 0.704379 0.000000
0.124824 0.704379 0.000000
0.155775 0.704379 0.000000
0.186726 0.704379 0.000000
0.217677 0.704379 0.000000
0.248629 0.704379 0.000000
0.279580 0.704379 0.000000
0.310531 0.704379 0.000000
0.341482 0.704379 0.000000
0.372433 0.704379 0.000000
0.403385 0.704379 0.000000
0.434336 0.704379 0.000000
0.465287 0.704379 0.000000
0.495998 0.704379 0.000000
0.539578 0.704379 0.000000
0.571819 0.704379 0.000000
0.604060 0.704379 0.000000
0.636301 0.704379 0.000000
0.668541 0.704379 0.000000
0.700782 0.704379 0.000000
0.731232 0.702661 0.000000
0.761456 0.700889 0.000000
0.791681 0.699267 0.000000
0.821906 0.697778 0.000000
0.852130 0.696407 0.000000
0.882355 0.695142 0.000000
0.912580 0.693971 0.000000
0.942804 0.692885 0.000000
0.973029 0.691875 0.000000
0.988438 0.691388 0.000000
0.000000 0.734802 0.000000
0.031684 0.734802 0.000000
0.062740 0.734802 0.000000
0.093602 0.734802 0.000000
0.124464 0.734802 0.000000
0.155326 0.734802 0.000000
0.186188 0.734802 0.000000
0.217050 0.734802 0.000000
0.247912 0.734802 0.000000
0.278774 0.734802 0.000000
0.309636 0.734802 0.000000
0.340498 0.734802 0.000000
0.371360 0.734802 0.000000
0.402223 0.734802 0.000000
0.433085 0.734802 0.000000
0.463947 0.734802 0.000000
0.494569 0.734802 0.000000
0.538117 0.734802 0.000000
0.570265 0.734802 0.000000
0.602413 0.734802 0.000000
0.634561 0.734802 0.000000
0.666709 0.734802 0.000000
0.698857 0.734802 0.000000
0.731005 0.734802 0.000000
0.761456 0.733172 0.000000
0.791681 0.731472 0.000000
0.821906 0.729910 0.000000
0.852130 0.728472 0.000000
0.882355 0.727144 0.000000
0.912580 0.725915 0.000000
0.942804 0.724775 0.000000
0.973029 0.723714 0.000000
0.988438 0.723202 0.000000
0.000000 0.765226 0.000000
0.031600 0.765226 0.000000
0.062574 0.765226 0.000000
0.093354 0.765226 0.000000
0.124135 0.765226 0.000000
0.154915 0.765226 0.000000
0.185696 0.765226 0.000000
0.216476 0.765226 0.000000
0.247257 0.765226 0.000000
0.278037 0.765226 0.000000
0.308817 0.765226 0.000000
0.339598 0.765226 0.000000
0.370378 0.765226 0.000000
0.401159 0.765226 0.000000
0.431939 0.765226 0.000000
0.462720 0.765226 0.000000
0.493261 0.765226 0.000000
0.536787 0.765226 0.000000
0.568850 0.765226 0.000000
0.600912 0.765226 0.000000
0.632975 0.765226 0.000000
0.665038 0.765226 0.000000
0.697101 0.765226 0.000000
0.729164 0.765226 0.000000
0.761227 0.765226 0.000000
0.791681 0.763676 0.000000
0.821906 0.762042 0.000000
0.852130 0.760537 0.000000
0.882355 0.759146 0.000000
0.912580 0.757859 0.000000
0.942804 0.756665 0.000000
0.973029 0.755554 0.000000
0.988438 0.755017 0.000000
0.000000 0.795649 0.000000
0.031523 0.795649 0.000000
0.062422 0.795649 0.000000
0.093127 0.795649 0.000000
0.123832 0.795649 0.000000
0.154538 0.795649 0.000000
0.185243 0.795649 0.000000
0.215949 0.795649 0.000000
0.246654 0.795649 0.000000
0.277360 0.795649 0.000000
0.308065 0.795649 0.000000
0.338770 0.795649 0.000000
0.369476 0.795649 0.000000
0.400181 0.795649 0.000000
0.430887 0.795649 0.000000
0.461592 0.795649 0.000000
0.492059 0.795649 0.000000
0.535571 0.795649 0.000000
0.567556 0.795649 0.000000
0.599541 0.795649 0.000000
0.631526 0.795649 0.000000
0.663511 0.795649 0.000000
0.695496 0.795649 0.000000
0.727480 0.795649 0.000000
0.759465 0.795649 0.000000
0.791450 0.795649 0.000000
0.821906 0.794174 0.000000
0.852130 0.792601 0.000000
0.882355 0.791149 0.000000
0.912580 0.789803 0.000000
0.942804 0.788554 0.000000
0.973029 0.787393 0.000000
0.988438 0.786831 0.000000
0.000000 0.826072 0.000000
0.031452 0.826072 0.000000
0.062281 0.826072 0.000000
0.092917 0.826072 0.000000
0.123553 0.826072 0.000000
0.154190 0.826072 0.000000
0.184826 0.826072 0.000000
0.215462 0.826072 0.000000
0.246099 0.826072 0.000000
0.276735 0.826072 0.000000
0.307371 0.826072 0.000000
0.338007 0.826072 0.000000
0.368644 0.826072 0.000000
0.399280 0.826072 0.000000
0.429916 0.826072 0.000000
0.460553 0.826072 0.000000
0.490951 0.826072 0.000000
0.534458 0.826072 0.000000
0.566371 0.826072 0.000000
0.598284 0.826072 0.000000
0.630196 0.826072 0.000000
0.662109 0.826072 0.000000
0.694022 0.826072 0.000000
0.725935 0.826072 0.000000
