docs/luts/fuji_recipes/Astia_JC_Astia_Travel.cube
TITLE "Fujifilm Recipe: JC Astia Travel (Astia)"
# FilmSim=Astia HL=-1 SH=2 Col=2 WB=Auto WBR=1 WBB=0
LUT_3D_SIZE 33
DOMAIN_MIN 0.0 0.0 0.0
DOMAIN_MAX 1.0 1.0 1.0
0.022080 0.022080 0.022080
0.053869 0.019340 0.019340
0.085515 0.016613 0.016613
0.117120 0.013888 0.013888
0.148725 0.011164 0.011164
0.180330 0.008440 0.008440
0.211935 0.005716 0.005716
0.243540 0.002992 0.002992
0.275145 0.000268 0.000268
0.304294 0.000000 0.000000
0.333175 0.000000 0.000000
0.362056 0.000000 0.000000
0.390937 0.000000 0.000000
0.419818 0.000000 0.000000
0.448699 0.000000 0.000000
0.477580 0.000000 0.000000
0.495421 0.000000 0.000000
0.564562 0.000000 0.000000
0.594032 0.000000 0.000000
0.623501 0.000000 0.000000
0.652970 0.000000 0.000000
0.682439 0.000000 0.000000
0.711909 0.000000 0.000000
0.741378 0.000000 0.000000
0.770847 0.000000 0.000000
0.800317 0.000000 0.000000
0.829786 0.000000 0.000000
0.859255 0.000000 0.000000
0.888724 0.000000 0.000000
0.918194 0.000000 0.000000
0.947663 0.000000 0.000000
0.977132 0.000000 0.000000
0.979585 0.000000 0.000000
0.019433 0.052787 0.019433
0.053869 0.052693 0.019340
0.085515 0.049966 0.016613
0.117120 0.047242 0.013888
0.148725 0.044518 0.011164
0.180330 0.041794 0.008440
0.211935 0.039070 0.005716
0.243540 0.036346 0.002992
0.275145 0.033621 0.000268
0.304294 0.032823 0.000000
0.333175 0.032347 0.000000
0.362056 0.031958 0.000000
0.390937 0.031633 0.000000
0.419818 0.031359 0.000000
0.448699 0.031123 0.000000
0.477580 0.030919 0.000000
0.495421 0.030806 0.000000
0.564562 0.030105 0.000000
0.594032 0.029992 0.000000
0.623501 0.029891 0.000000
0.652970 0.029799 0.000000
0.682439 0.029715 0.000000
0.711909 0.029639 0.000000
0.741378 0.029570 0.000000
0.770847 0.029505 0.000000
0.800317 0.029446 0.000000
0.829786 0.029392 0.000000
0.859255 0.029341 0.000000
0.888724 0.029294 0.000000
0.918194 0.029249 0.000000
0.947663 0.029208 0.000000
0.977132 0.029170 0.000000
0.979585 0.029166 0.000000
0.016787 0.083493 0.016787
0.051316 0.083493 0.016787
0.085515 0.083319 0.016613
0.117120 0.080595 0.013888
0.148725 0.077871 0.011164
0.180330 0.075147 0.008440
0.211935 0.072423 0.005716
0.243540 0.069699 0.002992
0.275145 0.066975 0.000268
0.304294 0.065647 0.000000
0.333175 0.064695 0.000000
0.362056 0.063916 0.000000
0.390937 0.063267 0.000000
0.419818 0.062717 0.000000
0.448699 0.062246 0.000000
0.477580 0.061838 0.000000
0.495421 0.061612 0.000000
0.564562 0.060211 0.000000
0.594032 0.059985 0.000000
0.623501 0.059781 0.000000
0.652970 0.059598 0.000000
0.682439 0.059431 0.000000
0.711909 0.059278 0.000000
0.741378 0.059139 0.000000
0.770847 0.059011 0.000000
0.800317 0.058893 0.000000
0.829786 0.058783 0.000000
0.859255 0.058682 0.000000
0.888724 0.058587 0.000000
0.918194 0.058499 0.000000
0.947663 0.058416 0.000000
0.977132 0.058339 0.000000
0.979585 0.058333 0.000000
0.014140 0.114200 0.014140
0.048669 0.114200 0.014140
0.083042 0.114200 0.014140
0.117120 0.113948 0.013888
0.148725 0.111224 0.011164
0.180330 0.108500 0.008440
0.211935 0.105776 0.005716
0.243540 0.103052 0.002992
0.275145 0.100328 0.000268
0.304294 0.098470 0.000000
0.333175 0.097042 0.000000
0.362056 0.095874 0.000000
0.390937 0.094900 0.000000
0.419818 0.094076 0.000000
0.448699 0.093369 0.000000
0.477580 0.092757 0.000000
0.495421 0.092418 0.000000
0.564562 0.090316 0.000000
0.594032 0.089977 0.000000
0.623501 0.089672 0.000000
0.652970 0.089396 0.000000
0.682439 0.089146 0.000000
0.711909 0.088918 0.000000
0.741378 0.088709 0.000000
0.770847 0.088516 0.000000
0.800317 0.088339 0.000000
0.829786 0.088175 0.000000
0.859255 0.088022 0.000000
0.888724 0.087881 0.000000
0.918194 0.087748 0.000000
0.947663 0.087625 0.000000
0.977132 0.087509 0.000000
0.979585 0.087499 0.000000
0.011494 0.144906 0.011494
0.046022 0.144906 0.011494
0.080396 0.144906 0.011494
0.114725 0.144906 0.011494
0.148725 0.144577 0.011164
0.180330 0.141853 0.008440
0.211935 0.139129 0.005716
0.243540 0.136405 0.002992
0.275145 0.133681 0.000268
0.304294 0.131294 0.000000
0.333175 0.129390 0.000000
0.362056 0.127832 0.000000
0.390937 0.126533 0.000000
0.419818 0.125434 0.000000
0.448699 0.124492 0.000000
0.477580 0.123676 0.000000
0.495421 0.123224 0.000000
0.564562 0.120421 0.000000
0.594032 0.119969 0.000000
0.623501 0.119563 0.000000
0.652970 0.119195 0.000000
0.682439 0.118861 0.000000
0.711909 0.118557 0.000000
0.741378 0.118278 0.000000
0.770847 0.118022 0.000000
0.800317 0.117785 0.000000
0.829786 0.117566 0.000000
0.859255 0.117363 0.000000
0.888724 0.117174 0.000000
0.918194 0.116998 0.000000
0.947663 0.116833 0.000000
0.977132 0.116678 0.000000
0.979585 0.116666 0.000000
0.008847 0.175613 0.008847
0.043376 0.175613 0.008847
0.077749 0.175613 0.008847
0.112078 0.175613 0.008847
0.146407 0.175613 0.008847
0.180330 0.175207 0.008440
0.211935 0.172483 0.005716
0.243540 0.169758 0.002992
0.275145 0.167034 0.000268
0.304294 0.164117 0.000000
0.333175 0.161737 0.000000
0.362056 0.159790 0.000000
0.390937 0.158166 0.000000
0.419818 0.156793 0.000000
0.448699 0.155615 0.000000
0.477580 0.154595 0.000000
0.495421 0.154030 0.000000
0.564562 0.150527 0.000000
0.594032 0.149961 0.000000
0.623501 0.149453 0.000000
0.652970 0.148994 0.000000
0.682439 0.148577 0.000000
0.711909 0.148196 0.000000
0.741378 0.147848 0.000000
0.770847 0.147527 0.000000
0.800317 0.147231 0.000000
0.829786 0.146958 0.000000
0.859255 0.146704 0.000000
0.888724 0.146468 0.000000
0.918194 0.146247 0.000000
0.947663 0.146041 0.000000
0.977132 0.145848 0.000000
0.979585 0.145832 0.000000
0.006200 0.206320 0.006200
0.040729 0.206320 0.006200
0.075102 0.206320 0.006200
0.109431 0.206320 0.006200
0.143761 0.206320 0.006200
0.178090 0.206320 0.006200
0.211935 0.205836 0.005716
0.243540 0.203112 0.002992
0.275145 0.200388 0.000268
0.304294 0.196941 0.000000
0.333175 0.194085 0.000000
0.362056 0.191747 0.000000
0.390937 0.189800 0.000000
0.419818 0.188151 0.000000
0.448699 0.186738 0.000000
0.477580 0.185514 0.000000
0.495421 0.184836 0.000000
0.564562 0.180632 0.000000
0.594032 0.179954 0.000000
0.623501 0.179344 0.000000
0.652970 0.178793 0.000000
0.682439 0.178292 0.000000
0.711909 0.177835 0.000000
0.741378 0.177417 0.000000
0.770847 0.177032 0.000000
0.800317 0.176678 0.000000
0.829786 0.176349 0.000000
0.859255 0.176045 0.000000
0.888724 0.175761 0.000000
0.918194 0.175497 0.000000
0.947663 0.175249 0.000000
0.977132 0.175017 0.000000
0.979585 0.174999 0.000000
0.003554 0.237026 0.003554
0.038083 0.237026 0.003554
0.072456 0.237026 0.003554
0.106785 0.237026 0.003554
0.141114 0.237026 0.003554
0.175443 0.237026 0.003554
0.209772 0.237026 0.003554
0.243540 0.236465 0.002992
0.275145 0.233741 0.000268
0.304294 0.229764 0.000000
0.333175 0.226432 0.000000
0.362056 0.223705 0.000000
0.390937 0.221433 0.000000
0.419818 0.219510 0.000000
0.448699 0.217861 0.000000
0.477580 0.216433 0.000000
0.495421 0.215641 0.000000
0.564562 0.210737 0.000000
0.594032 0.209946 0.000000
0.623501 0.209235 0.000000
0.652970 0.208592 0.000000
0.682439 0.208007 0.000000
0.711909 0.207475 0.000000
0.741378 0.206987 0.000000
0.770847 0.206538 0.000000
0.800317 0.206124 0.000000
0.829786 0.205741 0.000000
0.859255 0.205385 0.000000
0.888724 0.205055 0.000000
0.918194 0.204746 0.000000
0.947663 0.204457 0.000000
0.977132 0.204187 0.000000
0.979585 0.204165 0.000000
0.000907 0.267733 0.000907
0.035436 0.267733 0.000907
0.069809 0.267733 0.000907
0.104138 0.267733 0.000907
0.138467 0.267733 0.000907
0.172796 0.267733 0.000907
0.207126 0.267733 0.000907
0.241455 0.267733 0.000907
0.275145 0.267094 0.000268
0.304294 0.262587 0.000000
0.333175 0.258779 0.000000
0.362056 0.255663 0.000000
0.390937 0.253066 0.000000
0.419818 0.250868 0.000000
0.448699 0.248985 0.000000
0.477580 0.247352 0.000000
0.495421 0.246447 0.000000
0.564562 0.240843 0.000000
0.594032 0.239938 0.000000
0.623501 0.239125 0.000000
0.652970 0.238390 0.000000
0.682439 0.237723 0.000000
0.711909 0.237114 0.000000
0.741378 0.236556 0.000000
0.770847 0.236043 0.000000
0.800317 0.235570 0.000000
0.829786 0.235132 0.000000
0.859255 0.234726 0.000000
0.888724 0.234348 0.000000
0.918194 0.233995 0.000000
0.947663 0.233666 0.000000
0.977132 0.233357 0.000000
0.979585 0.233332 0.000000
0.000000 0.296700 0.000000
0.034129 0.296700 0.000000
0.068103 0.296700 0.000000
0.102035 0.296700 0.000000
0.135966 0.296700 0.000000
0.169897 0.296700 0.000000
0.203828 0.296700 0.000000
0.237760 0.296700 0.000000
0.271691 0.296700 0.000000
0.304294 0.295411 0.000000
0.333175 0.291127 0.000000
0.362056 0.287621 0.000000
0.390937 0.284699 0.000000
0.419818 0.282227 0.000000
0.448699 0.280108 0.000000
0.477580 0.278271 0.000000
0.495421 0.277253 0.000000
0.564562 0.270948 0.000000
0.594032 0.269931 0.000000
0.623501 0.269016 0.000000
0.652970 0.268189 0.000000
0.682439 0.267438 0.000000
0.711909 0.266753 0.000000
0.741378 0.266126 0.000000
0.770847 0.265549 0.000000
0.800317 0.265016 0.000000
0.829786 0.264524 0.000000
0.859255 0.264067 0.000000
0.888724 0.263642 0.000000
0.918194 0.263245 0.000000
0.947663 0.262874 0.000000
0.977132 0.262526 0.000000
0.979585 0.262498 0.000000
0.000000 0.324760 0.000000
0.033621 0.324760 0.000000
0.067090 0.324760 0.000000
0.100516 0.324760 0.000000
0.133942 0.324760 0.000000
0.167368 0.324760 0.000000
0.200795 0.324760 0.000000
0.234221 0.324760 0.000000
0.267647 0.324760 0.000000
0.301073 0.324760 0.000000
0.333175 0.323474 0.000000
0.362056 0.319579 0.000000
0.390937 0.316333 0.000000
0.419818 0.313586 0.000000
0.448699 0.311231 0.000000
0.477580 0.309190 0.000000
0.495421 0.308059 0.000000
0.564562 0.301053 0.000000
0.594032 0.299923 0.000000
0.623501 0.298907 0.000000
0.652970 0.297988 0.000000
0.682439 0.297154 0.000000
0.711909 0.296392 0.000000
0.741378 0.295695 0.000000
0.770847 0.295054 0.000000
0.800317 0.294463 0.000000
0.829786 0.293916 0.000000
0.859255 0.293408 0.000000
0.888724 0.292935 0.000000
0.918194 0.292494 0.000000
0.947663 0.292082 0.000000
0.977132 0.291696 0.000000
0.979585 0.291665 0.000000
0.000000 0.352820 0.000000
0.033205 0.352820 0.000000
0.066261 0.352820 0.000000
0.099274 0.352820 0.000000
0.132287 0.352820 0.000000
0.165300 0.352820 0.000000
0.198313 0.352820 0.000000
0.231326 0.352820 0.000000
0.264339 0.352820 0.000000
0.297352 0.352820 0.000000
0.330364 0.352820 0.000000
0.362056 0.351537 0.000000
0.390937 0.347966 0.000000
0.419818 0.344944 0.000000
0.448699 0.342354 0.000000
0.477580 0.340109 0.000000
0.495421 0.338865 0.000000
0.564562 0.331159 0.000000
0.594032 0.329915 0.000000
0.623501 0.328797 0.000000
0.652970 0.327787 0.000000
0.682439 0.326869 0.000000
0.711909 0.326032 0.000000
0.741378 0.325265 0.000000
0.770847 0.324559 0.000000
0.800317 0.323909 0.000000
0.829786 0.323307 0.000000
0.859255 0.322748 0.000000
0.888724 0.322229 0.000000
0.918194 0.321744 0.000000
0.947663 0.321290 0.000000
0.977132 0.320865 0.000000
0.979585 0.320831 0.000000
0.000000 0.380880 0.000000
0.032859 0.380880 0.000000
0.065569 0.380880 0.000000
0.098238 0.380880 0.000000
0.130907 0.380880 0.000000
0.163575 0.380880 0.000000
0.196244 0.380880 0.000000
0.228913 0.380880 0.000000
0.261581 0.380880 0.000000
0.294250 0.380880 0.000000
0.326919 0.380880 0.000000
0.359587 0.380880 0.000000
0.390937 0.379599 0.000000
0.419818 0.376303 0.000000
0.448699 0.373477 0.000000
0.477580 0.371027 0.000000
0.495421 0.369671 0.000000
0.564562 0.361264 0.000000
0.594032 0.359907 0.000000
0.623501 0.358688 0.000000
0.652970 0.357585 0.000000
0.682439 0.356584 0.000000
0.711909 0.355671 0.000000
0.741378 0.354834 0.000000
0.770847 0.354065 0.000000
0.800317 0.353355 0.000000
0.829786 0.352699 0.000000
0.859255 0.352089 0.000000
0.888724 0.351522 0.000000
0.918194 0.350993 0.000000
0.947663 0.350498 0.000000
0.977132 0.350035 0.000000
0.979585 0.349997 0.000000
0.000000 0.408940 0.000000
0.032566 0.408940 0.000000
0.064985 0.408940 0.000000
0.097362 0.408940 0.000000
0.129739 0.408940 0.000000
0.162117 0.408940 0.000000
0.194494 0.408940 0.000000
0.226871 0.408940 0.000000
0.259248 0.408940 0.000000
0.291626 0.408940 0.000000
0.324003 0.408940 0.000000
0.356380 0.408940 0.000000
0.388758 0.408940 0.000000
0.419818 0.407661 0.000000
0.448699 0.404600 0.000000
0.477580 0.401946 0.000000
0.495421 0.400477 0.000000
0.564562 0.391369 0.000000
0.594032 0.389900 0.000000
0.623501 0.388578 0.000000
0.652970 0.387384 0.000000
0.682439 0.386300 0.000000
0.711909 0.385310 0.000000
0.741378 0.384404 0.000000
0.770847 0.383570 0.000000
0.800317 0.382802 0.000000
0.829786 0.382090 0.000000
0.859255 0.381430 0.000000
0.888724 0.380816 0.000000
0.918194 0.380242 0.000000
0.947663 0.379707 0.000000
0.977132 0.379204 0.000000
0.979585 0.379164 0.000000
0.000000 0.437000 0.000000
0.032315 0.437000 0.000000
0.064483 0.437000 0.000000
0.096611 0.437000 0.000000
0.128739 0.437000 0.000000
0.160866 0.437000 0.000000
0.192994 0.437000 0.000000
0.225121 0.437000 0.000000
0.257249 0.437000 0.000000
0.289376 0.437000 0.000000
0.321504 0.437000 0.000000
0.353631 0.437000 0.000000
0.385759 0.437000 0.000000
0.417887 0.437000 0.000000
0.448699 0.435723 0.000000
0.477580 0.432865 0.000000
0.495421 0.431283 0.000000
0.564562 0.421475 0.000000
0.594032 0.419892 0.000000
0.623501 0.418469 0.000000
0.652970 0.417183 0.000000
0.682439 0.416015 0.000000
0.711909 0.414949 0.000000
0.741378 0.413973 0.000000
0.770847 0.413076 0.000000
0.800317 0.412248 0.000000
0.829786 0.411482 0.000000
0.859255 0.410771 0.000000
0.888724 0.410109 0.000000
0.918194 0.409492 0.000000
0.947663 0.408915 0.000000
0.977132 0.408374 0.000000
0.979585 0.408330 0.000000
0.000000 0.465060 0.000000
0.032097 0.465060 0.000000
0.064049 0.465060 0.000000
0.095960 0.465060 0.000000
0.127871 0.465060 0.000000
0.159782 0.465060 0.000000
0.191693 0.465060 0.000000
0.223605 0.465060 0.000000
0.255516 0.465060 0.000000
0.287427 0.465060 0.000000
0.319338 0.465060 0.000000
0.351249 0.465060 0.000000
0.383160 0.465060 0.000000
0.415071 0.465060 0.000000
0.446983 0.465060 0.000000
0.477580 0.463784 0.000000
0.495421 0.462089 0.000000
0.564562 0.451580 0.000000
0.594032 0.449884 0.000000
0.623501 0.448360 0.000000
0.652970 0.446982 0.000000
0.682439 0.445730 0.000000
0.711909 0.444589 0.000000
0.741378 0.443543 0.000000
0.770847 0.442581 0.000000
0.800317 0.441694 0.000000
0.829786 0.440873 0.000000
0.859255 0.440112 0.000000
0.888724 0.439403 0.000000
0.918194 0.438741 0.000000
0.947663 0.438123 0.000000
0.977132 0.437543 0.000000
0.979585 0.437497 0.000000
0.000000 0.492855 0.000000
0.031908 0.492855 0.000000
0.063672 0.492855 0.000000
0.095396 0.492855 0.000000
0.127119 0.492855 0.000000
0.158842 0.492855 0.000000
0.190566 0.492855 0.000000
0.222289 0.492855 0.000000
0.254013 0.492855 0.000000
0.285736 0.492855 0.000000
0.317460 0.492855 0.000000
0.349183 0.492855 0.000000
0.380906 0.492855 0.000000
0.412630 0.492855 0.000000
0.444353 0.492855 0.000000
0.476077 0.492855 0.000000
0.495421 0.492604 0.000000
0.564562 0.481401 0.000000
0.594032 0.479593 0.000000
0.623501 0.477968 0.000000
0.652970 0.476499 0.000000
0.682439 0.475165 0.000000
0.711909 0.473948 0.000000
0.741378 0.472833 0.000000
0.770847 0.471808 0.000000
0.800317 0.470862 0.000000
0.829786 0.517948 0.000000
0.859255 0.517101 0.000000
0.888724 0.516315 0.000000
0.918194 0.515585 0.000000
0.947663 0.514905 0.000000
0.977132 0.514271 0.000000
0.979585 0.514221 0.000000
0.000000 0.510140 0.000000
0.031802 0.510140 0.000000
0.063461 0.510140 0.000000
0.095079 0.510140 0.000000
0.126697 0.510140 0.000000
0.158315 0.510140 0.000000
0.189933 0.510140 0.000000
0.221551 0.510140 0.000000
0.253169 0.510140 0.000000
0.284786 0.510140 0.000000
0.316404 0.510140 0.000000
0.348022 0.510140 0.000000
0.379640 0.510140 0.000000
0.411258 0.510140 0.000000
0.442876 0.510140 0.000000
0.474494 0.510140 0.000000
0.494026 0.510140 0.000000
0.564562 0.499946 0.000000
0.594032 0.547024 0.000000
0.623501 0.545219 0.000000
0.652970 0.543591 0.000000
0.682439 0.542117 0.000000
0.711909 0.540776 0.000000
0.741378 0.539552 0.000000
0.770847 0.538430 0.000000
0.800317 0.537398 0.000000
0.829786 0.536447 0.000000
0.859255 0.535567 0.000000
0.888724 0.534752 0.000000
0.918194 0.533994 0.000000
0.947663 0.533289 0.000000
0.977132 0.532631 0.000000
0.979585 0.532578 0.000000
0.000000 0.578743 0.000000
0.031109 0.578743 0.000000
0.062077 0.578743 0.000000
0.093005 0.578743 0.000000
0.123934 0.578743 0.000000
0.154863 0.578743 0.000000
0.185791 0.578743 0.000000
0.216720 0.578743 0.000000
0.247648 0.578743 0.000000
0.278577 0.578743 0.000000
0.309506 0.578743 0.000000
0.340434 0.578743 0.000000
0.371363 0.578743 0.000000
0.402291 0.578743 0.000000
0.433220 0.578743 0.000000
0.464148 0.578743 0.000000
0.483254 0.578743 0.000000
0.563537 0.578743 0.000000
0.594032 0.577669 0.000000
0.623501 0.575759 0.000000
0.652970 0.574038 0.000000
0.682439 0.572479 0.000000
0.711909 0.571060 0.000000
0.741378 0.569764 0.000000
0.770847 0.568577 0.000000
0.800317 0.567485 0.000000
0.829786 0.566478 0.000000
0.859255 0.565546 0.000000
0.888724 0.564682 0.000000
0.918194 0.563880 0.000000
0.947663 0.563132 0.000000
0.977132 0.562434 0.000000
0.979585 0.562378 0.000000
0.000000 0.607375 0.000000
0.031001 0.607375 0.000000
0.061861 0.607375 0.000000
0.092682 0.607375 0.000000
0.123503 0.607375 0.000000
0.154324 0.607375 0.000000
0.185146 0.607375 0.000000
0.215967 0.607375 0.000000
0.246788 0.607375 0.000000
0.277609 0.607375 0.000000
0.308430 0.607375 0.000000
0.339251 0.607375 0.000000
0.370072 0.607375 0.000000
0.400893 0.607375 0.000000
0.431714 0.607375 0.000000
0.462535 0.607375 0.000000
0.481575 0.607375 0.000000
0.561625 0.607375 0.000000
0.593116 0.607375 0.000000
0.623501 0.606300 0.000000
0.652970 0.604485 0.000000
0.682439 0.602840 0.000000
0.711909 0.601344 0.000000
0.741378 0.599977 0.000000
0.770847 0.598724 0.000000
0.800317 0.597571 0.000000
0.829786 0.596508 0.000000
0.859255 0.595525 0.000000
0.888724 0.594613 0.000000
0.918194 0.593765 0.000000
0.947663 0.592975 0.000000
0.977132 0.592238 0.000000
0.979585 0.592179 0.000000
0.000000 0.636007 0.000000
0.030903 0.636007 0.000000
0.061666 0.636007 0.000000
0.092390 0.636007 0.000000
0.123114 0.636007 0.000000
0.153838 0.636007 0.000000
0.184562 0.636007 0.000000
0.215286 0.636007 0.000000
0.246010 0.636007 0.000000
0.276734 0.636007 0.000000
0.307458 0.636007 0.000000
0.338182 0.636007 0.000000
0.368906 0.636007 0.000000
0.399629 0.636007 0.000000
0.430353 0.636007 0.000000
0.461077 0.636007 0.000000
0.480057 0.636007 0.000000
0.559901 0.636007 0.000000
0.591293 0.636007 0.000000
0.622685 0.636007 0.000000
0.652970 0.634931 0.000000
0.682439 0.633201 0.000000
0.711909 0.631627 0.000000
0.741378 0.630189 0.000000
0.770847 0.628870 0.000000
0.800317 0.627658 0.000000
0.829786 0.626539 0.000000
0.859255 0.625503 0.000000
0.888724 0.624543 0.000000
0.918194 0.623650 0.000000
0.947663 0.622818 0.000000
0.977132 0.622042 0.000000
0.979585 0.621979 0.000000
0.000000 0.664638 0.000000
0.030814 0.664638 0.000000
0.061489 0.664638 0.000000
0.092125 0.664638 0.000000
0.122760 0.664638 0.000000
0.153396 0.664638 0.000000
0.184032 0.664638 0.000000
0.214667 0.664638 0.000000
0.245303 0.664638 0.000000
0.275939 0.664638 0.000000
0.306574 0.664638 0.000000
0.337210 0.664638 0.000000
0.367846 0.664638 0.000000
0.398482 0.664638 0.000000
0.429117 0.664638 0.000000
0.459753 0.664638 0.000000
0.478678 0.664638 0.000000
0.558340 0.664638 0.000000
0.589641 0.664638 0.000000
0.620943 0.664638 0.000000
0.652245 0.664638 0.000000
0.682439 0.663563 0.000000
0.711909 0.661911 0.000000
0.741378 0.660401 0.000000
0.770847 0.659017 0.000000
0.800317 0.657744 0.000000
0.829786 0.656569 0.000000
0.859255 0.655482 0.000000
0.888724 0.654473 0.000000
0.918194 0.653535 0.000000
0.947663 0.652661 0.000000
0.977132 0.651845 0.000000
0.979585 0.651780 0.000000
0.000000 0.693270 0.000000
0.030733 0.693270 0.000000
0.061327 0.693270 0.000000
0.091883 0.693270 0.000000
0.122438 0.693270 0.000000
0.152993 0.693270 0.000000
0.183548 0.693270 0.000000
0.214103 0.693270 0.000000
0.244658 0.693270 0.000000
0.275214 0.693270 0.000000
0.305769 0.693270 0.000000
0.336324 0.693270 0.000000
0.366879 0.693270 0.000000
0.397434 0.693270 0.000000
0.427989 0.693270 0.000000
0.458545 0.693270 0.000000
0.477420 0.693270 0.000000
0.556919 0.693270 0.000000
0.588138 0.693270 0.000000
0.619357 0.693270 0.000000
0.650577 0.693270 0.000000
0.681796 0.693270 0.000000
0.711909 0.692194 0.000000
0.741378 0.690614 0.000000
0.770847 0.689164 0.000000
0.800317 0.687830 0.000000
0.829786 0.686600 0.000000
0.859255 0.685460 0.000000
0.888724 0.684404 0.000000
0.918194 0.683421 0.000000
0.947663 0.682505 0.000000
0.977132 0.681649 0.000000
0.979585 0.681580 0.000000
0.000000 0.721901 0.000000
0.030659 0.721901 0.000000
0.061179 0.721901 0.000000
0.091661 0.721901 0.000000
0.122142 0.721901 0.000000
0.152624 0.721901 0.000000
0.183105 0.721901 0.000000
0.213586 0.721901 0.000000
0.244068 0.721901 0.000000
0.274549 0.721901 0.000000
0.305031 0.721901 0.000000
0.335512 0.721901 0.000000
0.365993 0.721901 0.000000
0.396475 0.721901 0.000000
0.426956 0.721901 0.000000
0.457438 0.721901 0.000000
0.476267 0.721901 0.000000
0.555621 0.721901 0.000000
0.586765 0.721901 0.000000
0.617909 0.721901 0.000000
0.649053 0.721901 0.000000
0.680197 0.721901 0.000000
0.711341 0.721901 0.000000
0.741378 0.720826 0.000000
0.770847 0.719311 0.000000
0.800317 0.717917 0.000000
0.829786 0.716630 0.000000
0.859255 0.715439 0.000000
0.888724 0.714334 0.000000
0.918194 0.713306 0.000000
0.947663 0.712348 0.000000
0.977132 0.711453 0.000000
0.979585 0.711381 0.000000
0.000000 0.750533 0.000000
0.030591 0.750533 0.000000
0.061043 0.750533 0.000000
0.091457 0.750533 0.000000
0.121870 0.750533 0.000000
0.152284 0.750533 0.000000
0.182698 0.750533 0.000000
0.213111 0.750533 0.000000
0.243525 0.750533 0.000000
0.273938 0.750533 0.000000
0.304352 0.750533 0.000000
0.334766 0.750533 0.000000
0.365179 0.750533 0.000000
0.395593 0.750533 0.000000
0.426006 0.750533 0.000000
0.456420 0.750533 0.000000
0.475208 0.750533 0.000000
0.554431 0.750533 0.000000
0.585506 0.750533 0.000000
0.616580 0.750533 0.000000
0.647655 0.750533 0.000000
0.678730 0.750533 0.000000
0.709805 0.750533 0.000000
0.740879 0.750533 0.000000
0.770847 0.749458 0.000000
0.800317 0.748003 0.000000
0.829786 0.746661 0.000000
0.859255 0.745418 0.000000
0.888724 0.744264 0.000000
0.918194 0.743191 0.000000
0.947663 0.742191 0.000000
0.977132 0.741256 0.000000
0.979585 0.741181 0.000000
0.000000 0.779164 0.000000
0.030528 0.779164 0.000000
0.060918 0.779164 0.000000
0.091269 0.779164 0.000000
0.121620 0.779164 0.000000
0.151971 0.779164 0.000000
0.182322 0.779164 0.000000
0.212673 0.779164 0.000000
0.243024 0.779164 0.000000
0.273375 0.779164 0.000000
0.303726 0.779164 0.000000
0.334077 0.779164 0.000000
0.364428 0.779164 0.000000
0.394779 0.779164 0.000000
0.425130 0.779164 0.000000
0.455481 0.779164 0.000000
0.474230 0.779164 0.000000
0.553336 0.779164 0.000000
0.584347 0.779164 0.000000
0.615358 0.779164 0.000000
0.646369 0.779164 0.000000
0.677380 0.779164 0.000000
0.708391 0.779164 0.000000
0.739401 0.779164 0.000000
0.770412 0.779164 0.000000
0.800317 0.778090 0.000000
0.829786 0.776691 0.000000
0.859255 0.775396 0.000000
0.888724 0.774195 0.000000
0.918194 0.773077 0.000000
0.947663 0.772034 0.000000
0.977132 0.771060 0.000000
0.979585 0.770982 0.000000
0.000000 0.807796 0.000000
0.030469 0.807796 0.000000
0.060801 0.807796 0.000000
0.091095 0.807796 0.000000
0.121388 0.807796 0.000000
0.151681 0.807796 0.000000
0.181974 0.807796 0.000000
0.212267 0.807796 0.000000
0.242560 0.807796 0.000000
0.272853 0.807796 0.000000
0.303146 0.807796 0.000000
0.333440 0.807796 0.000000
0.363733 0.807796 0.000000
0.394026 0.807796 0.000000
0.424319 0.807796 0.000000
0.454612 0.807796 0.000000
0.521375 0.807796 0.000000
0.552327 0.807796 0.000000
0.583279 0.807796 0.000000
0.614230 0.807796 0.000000
0.645182 0.807796 0.000000
0.676134 0.807796 0.000000
0.707085 0.807796 0.000000
0.738037 0.807796 0.000000
