docs/luts/fuji_recipes/Astia_RR_Astia.cube
TITLE "Fujifilm Recipe: RR Astia (Astia)"
# FilmSim=Astia HL=-1 SH=-2 Col=1 WB=Auto WBR=0 WBB=0
LUT_3D_SIZE 5
DOMAIN_MIN 0.0 0.0 0.0
DOMAIN_MAX 1.0 1.0 1.0
0.102080 0.102080 0.102080
0.359161 0.098116 0.098116
0.556688 0.097965 0.097965
0.814029 0.093627 0.093627
0.968563 0.091022 0.091022
0.098136 0.357890 0.098136
0.359161 0.357870 0.098116
0.556688 0.357719 0.097965
0.814029 0.353381 0.093627
0.968563 0.350777 0.091022
0.098004 0.554324 0.098004
0.359049 0.554324 0.098004
0.556688 0.554288 0.097965
0.814029 0.550351 0.093627
0.968563 0.547987 0.091022
0.093685 0.810601 0.093685
0.354730 0.810601 0.093685
0.552803 0.810601 0.093685
0.814029 0.810548 0.093627
0.968563 0.808184 0.091022
0.091022 0.968563 0.091022
0.352067 0.968563 0.091022
0.550387 0.968563 0.091022
0.811665 0.968563 0.091022
0.968563 0.968563 0.091022
0.098136 0.098136 0.357890
0.359161 0.098116 0.357870
0.556688 0.097965 0.357719
0.814029 0.093627 0.353381
0.968563 0.091022 0.350777
0.098136 0.357890 0.357890
0.355217 0.353926 0.353926
0.553120 0.353744 0.353744
0.810461 0.349406 0.349406
0.964995 0.346801 0.346801
0.098004 0.554324 0.357759
0.355074 0.550756 0.353783
0.553120 0.550720 0.353744
0.810461 0.546783 0.349406
0.964995 0.544419 0.346801
0.093685 0.810601 0.353439
0.350755 0.807033 0.349464
0.549235 0.807033 0.349464
0.810461 0.806980 0.349406
0.964995 0.804616 0.346801
0.091022 0.968563 0.350777
0.348092 0.964995 0.346801
0.546819 0.964995 0.346801
0.808097 0.964995 0.346801
0.964995 0.964995 0.346801
0.098004 0.098004 0.554324
0.359049 0.098004 0.554324
0.556688 0.097965 0.554288
0.814029 0.093627 0.550351
0.968563 0.091022 0.547987
0.098004 0.357759 0.554324
0.355074 0.353783 0.550756
0.553120 0.353744 0.550720
0.810461 0.349406 0.546783
0.964995 0.346801 0.544419
0.098004 0.554324 0.554324
0.355054 0.550738 0.550738
0.553280 0.550880 0.550880
0.810591 0.546913 0.546913
0.965106 0.544530 0.544530
0.093685 0.810601 0.550404
0.350735 0.807015 0.546818
0.549365 0.807163 0.546966
0.810591 0.807110 0.546913
0.965106 0.804728 0.544530
0.091022 0.968563 0.547987
0.348072 0.964977 0.544401
0.546930 0.965106 0.544530
0.808208 0.965106 0.544530
0.965106 0.965106 0.544530
0.093685 0.093685 0.810601
0.354730 0.093685 0.810601
0.552803 0.093685 0.810601
0.814029 0.093627 0.810548
0.968563 0.091022 0.808184
0.093685 0.353439 0.810601
0.350755 0.349464 0.807033
0.549235 0.349464 0.807033
0.810461 0.349406 0.806980
0.964995 0.346801 0.804616
0.093685 0.550404 0.810601
0.350735 0.546818 0.807015
0.549365 0.546966 0.807163
0.810591 0.546913 0.807110
0.965106 0.544530 0.804728
0.093685 0.810601 0.810601
0.350735 0.807015 0.807015
0.549329 0.807126 0.807126
0.806640 0.803159 0.803159
0.961155 0.800777 0.800777
0.091022 0.968563 0.808184
0.348072 0.964977 0.804598
0.546894 0.965070 0.804691
0.804258 0.961155 0.800777
0.961155 0.961155 0.800777
0.091022 0.091022 0.968563
0.352067 0.091022 0.968563
0.550387 0.091022 0.968563
0.811665 0.091022 0.968563
0.968563 0.091022 0.968563
0.091022 0.350777 0.968563
0.348092 0.346801 0.964995
0.546819 0.346801 0.964995
0.808097 0.346801 0.964995
0.964995 0.346801 0.964995
0.091022 0.547987 0.968563
0.348072 0.544401 0.964977
0.546930 0.544530 0.965106
0.808208 0.544530 0.965106
0.965106 0.544530 0.965106
0.091022 0.808184 0.968563
0.348072 0.804598 0.964977
0.546894 0.804691 0.965070
0.804258 0.800777 0.961155
0.961155 0.800777 0.961155
0.091022 0.968563 0.968563
0.348072 0.964977 0.964977
0.546894 0.965070 0.965070
0.804205 0.961102 0.961102
0.958720 0.958720 0.958720
