docs/luts/fuji_recipes/Astia_GB_Portrait.cube
TITLE "Fujifilm Recipe: GB Portrait (Astia)"
# FilmSim=Astia HL=2 SH=2 Col=0 WB=Auto WBR=0 WBB=0
LUT_3D_SIZE 33
DOMAIN_MIN 0.0 0.0 0.0
DOMAIN_MAX 1.0 1.0 1.0
0.022080 0.022080 0.022080
0.048635 0.023865 0.023865
0.075075 0.025643 0.025643
0.101477 0.027418 0.027418
0.127878 0.029193 0.029193
0.154280 0.030969 0.030969
0.180681 0.032744 0.032744
0.207082 0.034519 0.034519
0.233484 0.036294 0.036294
0.259885 0.038069 0.038069
0.286287 0.039844 0.039844
0.312688 0.041619 0.041619
0.339090 0.043394 0.043394
0.365491 0.045170 0.045170
0.391893 0.046945 0.046945
0.418294 0.048720 0.048720
0.434351 0.049799 0.049799
0.500883 0.051575 0.051575
0.531876 0.053350 0.053350
0.562869 0.055125 0.055125
0.593862 0.056900 0.056900
0.624855 0.058675 0.058675
0.655848 0.060450 0.060450
0.686841 0.062225 0.062225
0.717834 0.064000 0.064000
0.748827 0.065776 0.065776
0.779820 0.067551 0.067551
0.810813 0.069326 0.069326
0.841806 0.071101 0.071101
0.872799 0.072876 0.072876
0.903792 0.074651 0.074651
0.934785 0.076426 0.076426
0.961449 0.077953 0.077953
0.023848 0.048372 0.023848
0.048635 0.048390 0.023865
0.075075 0.050168 0.025643
0.101477 0.051943 0.027418
0.127878 0.053718 0.029193
0.154280 0.055493 0.030969
0.180681 0.057268 0.032744
0.207082 0.059043 0.034519
0.233484 0.060818 0.036294
0.259885 0.062593 0.038069
0.286287 0.064369 0.039844
0.312688 0.066144 0.041619
0.339090 0.067919 0.043394
0.365491 0.069694 0.045170
0.391893 0.071469 0.046945
0.418294 0.073244 0.048720
0.434351 0.074324 0.049799
0.500883 0.076099 0.051575
0.531876 0.077874 0.053350
0.562869 0.079649 0.055125
0.593862 0.081424 0.056900
0.624855 0.083199 0.058675
0.655848 0.084975 0.060450
0.686841 0.086750 0.062225
0.717834 0.088525 0.064000
0.748827 0.090300 0.065776
0.779820 0.092075 0.067551
0.810813 0.093850 0.069326
0.841806 0.095625 0.071101
0.872799 0.097400 0.072876
0.903792 0.099176 0.074651
0.934785 0.100951 0.076426
0.961449 0.102478 0.077953
0.025616 0.074664 0.025616
0.050385 0.074664 0.025616
0.075075 0.074692 0.025643
0.101477 0.076467 0.027418
0.127878 0.078242 0.029193
0.154280 0.080017 0.030969
0.180681 0.081793 0.032744
0.207082 0.083568 0.034519
0.233484 0.085343 0.036294
0.259885 0.087118 0.038069
0.286287 0.088893 0.039844
0.312688 0.090668 0.041619
0.339090 0.092443 0.043394
0.365491 0.094218 0.045170
0.391893 0.095994 0.046945
0.418294 0.097769 0.048720
0.434351 0.098848 0.049799
0.500883 0.100623 0.051575
0.531876 0.102399 0.053350
0.562869 0.104174 0.055125
0.593862 0.105949 0.056900
0.624855 0.107724 0.058675
0.655848 0.109499 0.060450
0.686841 0.111274 0.062225
0.717834 0.113049 0.064000
0.748827 0.114824 0.065776
0.779820 0.116600 0.067551
0.810813 0.118375 0.069326
0.841806 0.120150 0.071101
0.872799 0.121925 0.072876
0.903792 0.123700 0.074651
0.934785 0.125475 0.076426
0.961449 0.127002 0.077953
0.027383 0.100957 0.027383
0.052153 0.100957 0.027383
0.076815 0.100957 0.027383
0.101477 0.100992 0.027418
0.127878 0.102767 0.029193
0.154280 0.104542 0.030969
0.180681 0.106317 0.032744
0.207082 0.108092 0.034519
0.233484 0.109867 0.036294
0.259885 0.111642 0.038069
0.286287 0.113417 0.039844
0.312688 0.115193 0.041619
0.339090 0.116968 0.043394
0.365491 0.118743 0.045170
0.391893 0.120518 0.046945
0.418294 0.122293 0.048720
0.434351 0.123373 0.049799
0.500883 0.125148 0.051575
0.531876 0.126923 0.053350
0.562869 0.128698 0.055125
0.593862 0.130473 0.056900
0.624855 0.132248 0.058675
0.655848 0.134023 0.060450
0.686841 0.135799 0.062225
0.717834 0.137574 0.064000
0.748827 0.139349 0.065776
0.779820 0.141124 0.067551
0.810813 0.142899 0.069326
0.841806 0.144674 0.071101
0.872799 0.146449 0.072876
0.903792 0.148224 0.074651
0.934785 0.150000 0.076426
0.961449 0.151527 0.077953
0.029151 0.127249 0.029151
0.053921 0.127249 0.029151
0.078583 0.127249 0.029151
0.103209 0.127249 0.029151
0.127878 0.127291 0.029193
0.154280 0.129066 0.030969
0.180681 0.130841 0.032744
0.207082 0.132617 0.034519
0.233484 0.134392 0.036294
0.259885 0.136167 0.038069
0.286287 0.137942 0.039844
0.312688 0.139717 0.041619
0.339090 0.141492 0.043394
0.365491 0.143267 0.045170
0.391893 0.145042 0.046945
0.418294 0.146818 0.048720
0.434351 0.147897 0.049799
0.500883 0.149672 0.051575
0.531876 0.151447 0.053350
0.562869 0.153223 0.055125
0.593862 0.154998 0.056900
0.624855 0.156773 0.058675
0.655848 0.158548 0.060450
0.686841 0.160323 0.062225
0.717834 0.162098 0.064000
0.748827 0.163873 0.065776
0.779820 0.165648 0.067551
0.810813 0.167424 0.069326
0.841806 0.169199 0.071101
0.872799 0.170974 0.072876
0.903792 0.172749 0.074651
0.934785 0.174524 0.076426
0.961449 0.176051 0.077953
0.030919 0.153541 0.030919
0.055689 0.153541 0.030919
0.080351 0.153541 0.030919
0.104977 0.153541 0.030919
0.129604 0.153541 0.030919
0.154280 0.153591 0.030969
0.180681 0.155366 0.032744
0.207082 0.157141 0.034519
0.233484 0.158916 0.036294
0.259885 0.160691 0.038069
0.286287 0.162466 0.039844
0.312688 0.164241 0.041619
0.339090 0.166017 0.043394
0.365491 0.167792 0.045170
0.391893 0.169567 0.046945
0.418294 0.171342 0.048720
0.434351 0.172422 0.049799
0.500883 0.174197 0.051575
0.531876 0.175972 0.053350
0.562869 0.177747 0.055125
0.593862 0.179522 0.056900
0.624855 0.181297 0.058675
0.655848 0.183072 0.060450
0.686841 0.184847 0.062225
0.717834 0.186623 0.064000
0.748827 0.188398 0.065776
0.779820 0.190173 0.067551
0.810813 0.191948 0.069326
0.841806 0.193723 0.071101
0.872799 0.195498 0.072876
0.903792 0.197273 0.074651
0.934785 0.199048 0.076426
0.961449 0.200576 0.077953
0.032687 0.179833 0.032687
0.057456 0.179833 0.032687
0.082119 0.179833 0.032687
0.106745 0.179833 0.032687
0.131371 0.179833 0.032687
0.155998 0.179833 0.032687
0.180681 0.179890 0.032744
0.207082 0.181665 0.034519
0.233484 0.183441 0.036294
0.259885 0.185216 0.038069
0.286287 0.186991 0.039844
0.312688 0.188766 0.041619
0.339090 0.190541 0.043394
0.365491 0.192316 0.045170
0.391893 0.194091 0.046945
0.418294 0.195866 0.048720
0.434351 0.196946 0.049799
0.500883 0.198721 0.051575
0.531876 0.200496 0.053350
0.562869 0.202271 0.055125
0.593862 0.204047 0.056900
0.624855 0.205822 0.058675
0.655848 0.207597 0.060450
0.686841 0.209372 0.062225
0.717834 0.211147 0.064000
0.748827 0.212922 0.065776
0.779820 0.214697 0.067551
0.810813 0.216472 0.069326
0.841806 0.218248 0.071101
0.872799 0.220023 0.072876
0.903792 0.221798 0.074651
0.934785 0.223573 0.076426
0.961449 0.225100 0.077953
0.034454 0.206126 0.034454
0.059224 0.206126 0.034454
0.083886 0.206126 0.034454
0.108513 0.206126 0.034454
0.133139 0.206126 0.034454
0.157765 0.206126 0.034454
0.182392 0.206126 0.034454
0.207082 0.206190 0.034519
0.233484 0.207965 0.036294
0.259885 0.209740 0.038069
0.286287 0.211515 0.039844
0.312688 0.213290 0.041619
0.339090 0.215065 0.043394
0.365491 0.216841 0.045170
0.391893 0.218616 0.046945
0.418294 0.220391 0.048720
0.434351 0.221470 0.049799
0.500883 0.223246 0.051575
0.531876 0.225021 0.053350
0.562869 0.226796 0.055125
0.593862 0.228571 0.056900
0.624855 0.230346 0.058675
0.655848 0.232121 0.060450
0.686841 0.233896 0.062225
0.717834 0.235671 0.064000
0.748827 0.237447 0.065776
0.779820 0.239222 0.067551
0.810813 0.240997 0.069326
0.841806 0.242772 0.071101
0.872799 0.244547 0.072876
0.903792 0.246322 0.074651
0.934785 0.248097 0.076426
0.961449 0.249625 0.077953
0.036222 0.232418 0.036222
0.060992 0.232418 0.036222
0.085654 0.232418 0.036222
0.110281 0.232418 0.036222
0.134907 0.232418 0.036222
0.159533 0.232418 0.036222
0.184160 0.232418 0.036222
0.208786 0.232418 0.036222
0.233484 0.232489 0.036294
0.259885 0.234265 0.038069
0.286287 0.236040 0.039844
0.312688 0.237815 0.041619
0.339090 0.239590 0.043394
0.365491 0.241365 0.045170
0.391893 0.243140 0.046945
0.418294 0.244915 0.048720
0.434351 0.245995 0.049799
0.500883 0.247770 0.051575
0.531876 0.249545 0.053350
0.562869 0.251320 0.055125
0.593862 0.253095 0.056900
0.624855 0.254871 0.058675
0.655848 0.256646 0.060450
0.686841 0.258421 0.062225
0.717834 0.260196 0.064000
0.748827 0.261971 0.065776
0.779820 0.263746 0.067551
0.810813 0.265521 0.069326
0.841806 0.267296 0.071101
0.872799 0.269072 0.072876
0.903792 0.270847 0.074651
0.934785 0.272622 0.076426
0.961449 0.274149 0.077953
0.037990 0.258710 0.037990
0.062760 0.258710 0.037990
0.087422 0.258710 0.037990
0.112048 0.258710 0.037990
0.136675 0.258710 0.037990
0.161301 0.258710 0.037990
0.185927 0.258710 0.037990
0.210554 0.258710 0.037990
0.235180 0.258710 0.037990
0.259885 0.258789 0.038069
0.286287 0.260564 0.039844
0.312688 0.262339 0.041619
0.339090 0.264114 0.043394
0.365491 0.265890 0.045170
0.391893 0.267665 0.046945
0.418294 0.269440 0.048720
0.434351 0.270519 0.049799
0.500883 0.272294 0.051575
0.531876 0.274070 0.053350
0.562869 0.275845 0.055125
0.593862 0.277620 0.056900
0.624855 0.279395 0.058675
0.655848 0.281170 0.060450
0.686841 0.282945 0.062225
0.717834 0.284720 0.064000
0.748827 0.286495 0.065776
0.779820 0.288271 0.067551
0.810813 0.290046 0.069326
0.841806 0.291821 0.071101
0.872799 0.293596 0.072876
0.903792 0.295371 0.074651
0.934785 0.297146 0.076426
0.961449 0.298673 0.077953
0.039758 0.285002 0.039758
0.064527 0.285002 0.039758
0.089190 0.285002 0.039758
0.113816 0.285002 0.039758
0.138442 0.285002 0.039758
0.163069 0.285002 0.039758
0.187695 0.285002 0.039758
0.212321 0.285002 0.039758
0.236948 0.285002 0.039758
0.261574 0.285002 0.039758
0.286287 0.285089 0.039844
0.312688 0.286864 0.041619
0.339090 0.288639 0.043394
0.365491 0.290414 0.045170
0.391893 0.292189 0.046945
0.418294 0.293964 0.048720
0.434351 0.295044 0.049799
0.500883 0.296819 0.051575
0.531876 0.298594 0.053350
0.562869 0.300369 0.055125
0.593862 0.302144 0.056900
0.624855 0.303919 0.058675
0.655848 0.305695 0.060450
0.686841 0.307470 0.062225
0.717834 0.309245 0.064000
0.748827 0.311020 0.065776
0.779820 0.312795 0.067551
0.810813 0.314570 0.069326
0.841806 0.316345 0.071101
0.872799 0.318120 0.072876
0.903792 0.319896 0.074651
0.934785 0.321671 0.076426
0.961449 0.323198 0.077953
0.041526 0.311294 0.041526
0.066295 0.311294 0.041526
0.090958 0.311294 0.041526
0.115584 0.311294 0.041526
0.140210 0.311294 0.041526
0.164837 0.311294 0.041526
0.189463 0.311294 0.041526
0.214089 0.311294 0.041526
0.238716 0.311294 0.041526
0.263342 0.311294 0.041526
0.287968 0.311294 0.041526
0.312688 0.311388 0.041619
0.339090 0.313163 0.043394
0.365491 0.314938 0.045170
0.391893 0.316714 0.046945
0.418294 0.318489 0.048720
0.434351 0.319568 0.049799
0.500883 0.321343 0.051575
0.531876 0.323118 0.053350
0.562869 0.324894 0.055125
0.593862 0.326669 0.056900
0.624855 0.328444 0.058675
0.655848 0.330219 0.060450
0.686841 0.331994 0.062225
0.717834 0.333769 0.064000
0.748827 0.335544 0.065776
0.779820 0.337319 0.067551
0.810813 0.339095 0.069326
0.841806 0.340870 0.071101
0.872799 0.342645 0.072876
0.903792 0.344420 0.074651
0.934785 0.346195 0.076426
0.961449 0.347722 0.077953
0.043293 0.337587 0.043293
0.068063 0.337587 0.043293
0.092725 0.337587 0.043293
0.117352 0.337587 0.043293
0.141978 0.337587 0.043293
0.166604 0.337587 0.043293
0.191231 0.337587 0.043293
0.215857 0.337587 0.043293
0.240483 0.337587 0.043293
0.265110 0.337587 0.043293
0.289736 0.337587 0.043293
0.314362 0.337587 0.043293
0.339090 0.337688 0.043394
0.365491 0.339463 0.045170
0.391893 0.341238 0.046945
0.418294 0.343013 0.048720
0.434351 0.344093 0.049799
0.500883 0.345868 0.051575
0.531876 0.347643 0.053350
0.562869 0.349418 0.055125
0.593862 0.351193 0.056900
0.624855 0.352968 0.058675
0.655848 0.354743 0.060450
0.686841 0.356519 0.062225
0.717834 0.358294 0.064000
0.748827 0.360069 0.065776
0.779820 0.361844 0.067551
0.810813 0.363619 0.069326
0.841806 0.365394 0.071101
0.872799 0.367169 0.072876
0.903792 0.368944 0.074651
0.934785 0.370720 0.076426
0.961449 0.372247 0.077953
0.045061 0.363879 0.045061
0.069831 0.363879 0.045061
0.094493 0.363879 0.045061
0.119119 0.363879 0.045061
0.143746 0.363879 0.045061
0.168372 0.363879 0.045061
0.192998 0.363879 0.045061
0.217625 0.363879 0.045061
0.242251 0.363879 0.045061
0.266877 0.363879 0.045061
0.291504 0.363879 0.045061
0.316130 0.363879 0.045061
0.340756 0.363879 0.045061
0.365491 0.363987 0.045170
0.391893 0.365762 0.046945
0.418294 0.367538 0.048720
0.434351 0.368617 0.049799
0.500883 0.370392 0.051575
0.531876 0.372167 0.053350
0.562869 0.373942 0.055125
0.593862 0.375718 0.056900
0.624855 0.377493 0.058675
0.655848 0.379268 0.060450
0.686841 0.381043 0.062225
0.717834 0.382818 0.064000
0.748827 0.384593 0.065776
0.779820 0.386368 0.067551
0.810813 0.388143 0.069326
0.841806 0.389919 0.071101
0.872799 0.391694 0.072876
0.903792 0.393469 0.074651
0.934785 0.395244 0.076426
0.961449 0.396771 0.077953
0.046829 0.390171 0.046829
0.071599 0.390171 0.046829
0.096261 0.390171 0.046829
0.120887 0.390171 0.046829
0.145514 0.390171 0.046829
0.170140 0.390171 0.046829
0.194766 0.390171 0.046829
0.219393 0.390171 0.046829
0.244019 0.390171 0.046829
0.268645 0.390171 0.046829
0.293272 0.390171 0.046829
0.317898 0.390171 0.046829
0.342524 0.390171 0.046829
0.367151 0.390171 0.046829
0.391893 0.390287 0.046945
0.418294 0.392062 0.048720
0.434351 0.393142 0.049799
0.500883 0.394917 0.051575
0.531876 0.396692 0.053350
0.562869 0.398467 0.055125
0.593862 0.400242 0.056900
0.624855 0.402017 0.058675
0.655848 0.403792 0.060450
0.686841 0.405567 0.062225
0.717834 0.407343 0.064000
0.748827 0.409118 0.065776
0.779820 0.410893 0.067551
0.810813 0.412668 0.069326
0.841806 0.414443 0.071101
0.872799 0.416218 0.072876
0.903792 0.417993 0.074651
0.934785 0.419768 0.076426
0.961449 0.421296 0.077953
0.048597 0.416463 0.048597
0.073366 0.416463 0.048597
0.098029 0.416463 0.048597
0.122655 0.416463 0.048597
0.147281 0.416463 0.048597
0.171908 0.416463 0.048597
0.196534 0.416463 0.048597
0.221160 0.416463 0.048597
0.245787 0.416463 0.048597
0.270413 0.416463 0.048597
0.295039 0.416463 0.048597
0.319666 0.416463 0.048597
0.344292 0.416463 0.048597
0.368918 0.416463 0.048597
0.393545 0.416463 0.048597
0.418294 0.416586 0.048720
0.434351 0.417666 0.049799
0.500883 0.419441 0.051575
0.531876 0.421216 0.053350
0.562869 0.422991 0.055125
0.593862 0.424766 0.056900
0.624855 0.426542 0.058675
0.655848 0.428317 0.060450
0.686841 0.430092 0.062225
0.717834 0.431867 0.064000
0.748827 0.433642 0.065776
0.779820 0.435417 0.067551
0.810813 0.437192 0.069326
0.841806 0.438967 0.071101
0.872799 0.440743 0.072876
0.903792 0.442518 0.074651
0.934785 0.444293 0.076426
0.961449 0.445820 0.077953
0.050348 0.442507 0.050348
0.075117 0.442507 0.050348
0.099780 0.442507 0.050348
0.124406 0.442507 0.050348
0.149032 0.442507 0.050348
0.173659 0.442507 0.050348
0.198285 0.442507 0.050348
0.222911 0.442507 0.050348
0.247538 0.442507 0.050348
0.272164 0.442507 0.050348
0.296790 0.442507 0.050348
0.321417 0.442507 0.050348
0.346043 0.442507 0.050348
0.370669 0.442507 0.050348
0.395296 0.442507 0.050348
0.419922 0.442507 0.050348
0.434899 0.442507 0.050348
0.500883 0.443734 0.051575
0.531876 0.445509 0.053350
0.562869 0.447284 0.055125
0.593862 0.449059 0.056900
0.624855 0.450834 0.058675
0.655848 0.452610 0.060450
0.686841 0.454385 0.062225
0.717834 0.456160 0.064000
0.748827 0.457935 0.065776
0.779820 0.459710 0.067551
0.810813 0.501744 0.069326
0.841806 0.503827 0.071101
0.872799 0.505911 0.072876
0.903792 0.507995 0.074651
0.934785 0.510079 0.076426
0.961449 0.511872 0.077953
0.051437 0.458703 0.051437
0.076206 0.458703 0.051437
0.100869 0.458703 0.051437
0.125495 0.458703 0.051437
0.150121 0.458703 0.051437
0.174748 0.458703 0.051437
0.199374 0.458703 0.051437
0.224000 0.458703 0.051437
0.248627 0.458703 0.051437
0.273253 0.458703 0.051437
0.297879 0.458703 0.051437
0.322506 0.458703 0.051437
0.347132 0.458703 0.051437
0.371758 0.458703 0.051437
0.396385 0.458703 0.051437
0.421011 0.458703 0.051437
0.435988 0.458703 0.051437
0.500883 0.458841 0.051575
0.531876 0.500723 0.053350
0.562869 0.502807 0.055125
0.593862 0.504891 0.056900
0.624855 0.506975 0.058675
0.655848 0.509059 0.060450
0.686841 0.511143 0.062225
0.717834 0.513226 0.064000
0.748827 0.515310 0.065776
0.779820 0.517394 0.067551
0.810813 0.519478 0.069326
0.841806 0.521562 0.071101
0.872799 0.523646 0.072876
0.903792 0.525729 0.074651
0.934785 0.527813 0.076426
0.961449 0.529606 0.077953
0.053205 0.529343 0.053205
0.077974 0.529343 0.053205
0.102637 0.529343 0.053205
0.127263 0.529343 0.053205
0.151889 0.529343 0.053205
0.176515 0.529343 0.053205
0.201142 0.529343 0.053205
0.225768 0.529343 0.053205
0.250394 0.529343 0.053205
0.275021 0.529343 0.053205
0.299647 0.529343 0.053205
0.324273 0.529343 0.053205
0.348900 0.529343 0.053205
0.373526 0.529343 0.053205
0.398152 0.529343 0.053205
0.422779 0.529343 0.053205
0.437756 0.529343 0.053205
0.502797 0.529343 0.053205
0.531876 0.529513 0.053350
0.562869 0.531597 0.055125
0.593862 0.533681 0.056900
0.624855 0.535764 0.058675
0.655848 0.537848 0.060450
0.686841 0.539932 0.062225
0.717834 0.542016 0.064000
0.748827 0.544100 0.065776
0.779820 0.546184 0.067551
0.810813 0.548267 0.069326
0.841806 0.550351 0.071101
0.872799 0.552435 0.072876
0.903792 0.554519 0.074651
0.934785 0.556603 0.076426
0.961449 0.558396 0.077953
0.054972 0.560207 0.054972
0.079742 0.560207 0.054972
0.104404 0.560207 0.054972
0.129031 0.560207 0.054972
0.153657 0.560207 0.054972
0.178283 0.560207 0.054972
0.202910 0.560207 0.054972
0.227536 0.560207 0.054972
0.252162 0.560207 0.054972
0.276789 0.560207 0.054972
0.301415 0.560207 0.054972
0.326041 0.560207 0.054972
0.350668 0.560207 0.054972
0.375294 0.560207 0.054972
0.399920 0.560207 0.054972
0.424547 0.560207 0.054972
0.439524 0.560207 0.054972
0.504872 0.560207 0.054972
0.533781 0.560207 0.054972
0.562869 0.560386 0.055125
0.593862 0.562470 0.056900
0.624855 0.564554 0.058675
0.655848 0.566638 0.060450
0.686841 0.568722 0.062225
0.717834 0.570805 0.064000
0.748827 0.572889 0.065776
0.779820 0.574973 0.067551
0.810813 0.577057 0.069326
0.841806 0.579141 0.071101
0.872799 0.581225 0.072876
0.903792 0.583309 0.074651
0.934785 0.585392 0.076426
0.961449 0.587185 0.077953
0.056740 0.591072 0.056740
0.081510 0.591072 0.056740
0.106172 0.591072 0.056740
0.130798 0.591072 0.056740
0.155425 0.591072 0.056740
0.180051 0.591072 0.056740
0.204677 0.591072 0.056740
0.229304 0.591072 0.056740
0.253930 0.591072 0.056740
0.278556 0.591072 0.056740
0.303183 0.591072 0.056740
0.327809 0.591072 0.056740
0.352435 0.591072 0.056740
0.377062 0.591072 0.056740
0.401688 0.591072 0.056740
0.426314 0.591072 0.056740
0.441292 0.591072 0.056740
0.506947 0.591072 0.056740
0.535856 0.591072 0.056740
0.564766 0.591072 0.056740
0.593862 0.591260 0.056900
0.624855 0.593344 0.058675
0.655848 0.595427 0.060450
0.686841 0.597511 0.062225
0.717834 0.599595 0.064000
0.748827 0.601679 0.065776
0.779820 0.603763 0.067551
0.810813 0.605847 0.069326
0.841806 0.607930 0.071101
0.872799 0.610014 0.072876
0.903792 0.612098 0.074651
0.934785 0.614182 0.076426
0.961449 0.615975 0.077953
0.058508 0.621937 0.058508
0.083278 0.621937 0.058508
0.107940 0.621937 0.058508
0.132566 0.621937 0.058508
0.157192 0.621937 0.058508
0.181819 0.621937 0.058508
0.206445 0.621937 0.058508
0.231071 0.621937 0.058508
0.255698 0.621937 0.058508
0.280324 0.621937 0.058508
0.304950 0.621937 0.058508
0.329577 0.621937 0.058508
0.354203 0.621937 0.058508
0.378829 0.621937 0.058508
0.403456 0.621937 0.058508
0.428082 0.621937 0.058508
0.443059 0.621937 0.058508
0.509022 0.621937 0.058508
0.537932 0.621937 0.058508
0.566841 0.621937 0.058508
0.595750 0.621937 0.058508
0.624855 0.622133 0.058675
0.655848 0.624217 0.060450
0.686841 0.626301 0.062225
0.717834 0.628385 0.064000
0.748827 0.630468 0.065776
0.779820 0.632552 0.067551
0.810813 0.634636 0.069326
0.841806 0.636720 0.071101
0.872799 0.638804 0.072876
0.903792 0.640888 0.074651
0.934785 0.642972 0.076426
0.961449 0.644764 0.077953
0.060276 0.652802 0.060276
0.085045 0.652802 0.060276
0.109708 0.652802 0.060276
0.134334 0.652802 0.060276
0.158960 0.652802 0.060276
0.183587 0.652802 0.060276
0.208213 0.652802 0.060276
0.232839 0.652802 0.060276
0.257466 0.652802 0.060276
0.282092 0.652802 0.060276
0.306718 0.652802 0.060276
0.331345 0.652802 0.060276
0.355971 0.652802 0.060276
0.380597 0.652802 0.060276
0.405224 0.652802 0.060276
0.429850 0.652802 0.060276
0.444827 0.652802 0.060276
0.511098 0.652802 0.060276
0.540007 0.652802 0.060276
0.568916 0.652802 0.060276
0.597825 0.652802 0.060276
0.626734 0.652802 0.060276
0.655848 0.653006 0.060450
0.686841 0.655090 0.062225
0.717834 0.657174 0.064000
0.748827 0.659258 0.065776
0.779820 0.661342 0.067551
0.810813 0.663426 0.069326
0.841806 0.665510 0.071101
0.872799 0.667593 0.072876
0.903792 0.669677 0.074651
0.934785 0.671761 0.076426
0.961449 0.673554 0.077953
0.062043 0.683666 0.062043
0.086813 0.683666 0.062043
0.111475 0.683666 0.062043
0.136102 0.683666 0.062043
0.160728 0.683666 0.062043
0.185354 0.683666 0.062043
0.209981 0.683666 0.062043
0.234607 0.683666 0.062043
0.259233 0.683666 0.062043
0.283860 0.683666 0.062043
0.308486 0.683666 0.062043
0.333112 0.683666 0.062043
0.357739 0.683666 0.062043
0.382365 0.683666 0.062043
0.406991 0.683666 0.062043
0.431618 0.683666 0.062043
0.446595 0.683666 0.062043
0.513173 0.683666 0.062043
0.542082 0.683666 0.062043
0.570991 0.683666 0.062043
0.599900 0.683666 0.062043
0.628810 0.683666 0.062043
0.657719 0.683666 0.062043
0.686841 0.683880 0.062225
0.717834 0.685964 0.064000
0.748827 0.688048 0.065776
0.779820 0.690131 0.067551
0.810813 0.692215 0.069326
0.841806 0.694299 0.071101
0.872799 0.696383 0.072876
0.903792 0.698467 0.074651
0.934785 0.700551 0.076426
0.961449 0.702343 0.077953
0.063811 0.714531 0.063811
0.088581 0.714531 0.063811
0.113243 0.714531 0.063811
0.137870 0.714531 0.063811
0.162496 0.714531 0.063811
0.187122 0.714531 0.063811
0.211748 0.714531 0.063811
0.236375 0.714531 0.063811
0.261001 0.714531 0.063811
0.285627 0.714531 0.063811
0.310254 0.714531 0.063811
0.334880 0.714531 0.063811
0.359506 0.714531 0.063811
0.384133 0.714531 0.063811
0.408759 0.714531 0.063811
0.433385 0.714531 0.063811
0.448363 0.714531 0.063811
0.515248 0.714531 0.063811
0.544157 0.714531 0.063811
0.573066 0.714531 0.063811
0.601976 0.714531 0.063811
0.630885 0.714531 0.063811
0.659794 0.714531 0.063811
0.688703 0.714531 0.063811
0.717834 0.714753 0.064000
0.748827 0.716837 0.065776
0.779820 0.718921 0.067551
0.810813 0.721005 0.069326
0.841806 0.723089 0.071101
0.872799 0.725173 0.072876
0.903792 0.727256 0.074651
0.934785 0.729340 0.076426
0.961449 0.731133 0.077953
0.065579 0.745396 0.065579
0.090349 0.745396 0.065579
0.115011 0.745396 0.065579
0.139637 0.745396 0.065579
0.164264 0.745396 0.065579
0.188890 0.745396 0.065579
0.213516 0.745396 0.065579
0.238143 0.745396 0.065579
0.262769 0.745396 0.065579
0.287395 0.745396 0.065579
0.312022 0.745396 0.065579
0.336648 0.745396 0.065579
0.361274 0.745396 0.065579
0.385901 0.745396 0.065579
0.410527 0.745396 0.065579
0.435153 0.745396 0.065579
0.450131 0.745396 0.065579
0.517323 0.745396 0.065579
0.546233 0.745396 0.065579
0.575142 0.745396 0.065579
0.604051 0.745396 0.065579
0.632960 0.745396 0.065579
0.661869 0.745396 0.065579
0.690778 0.745396 0.065579
0.719688 0.745396 0.065579
0.748827 0.745627 0.065776
0.779820 0.747711 0.067551
0.810813 0.749794 0.069326
0.841806 0.751878 0.071101
0.872799 0.753962 0.072876
0.903792 0.756046 0.074651
0.934785 0.758130 0.076426
0.961449 0.759923 0.077953
0.067347 0.776261 0.067347
0.092116 0.776261 0.067347
0.116779 0.776261 0.067347
0.141405 0.776261 0.067347
0.166031 0.776261 0.067347
0.190658 0.776261 0.067347
0.215284 0.776261 0.067347
0.239910 0.776261 0.067347
0.264537 0.776261 0.067347
0.289163 0.776261 0.067347
0.313789 0.776261 0.067347
0.338416 0.776261 0.067347
0.363042 0.776261 0.067347
0.387668 0.776261 0.067347
0.412295 0.776261 0.067347
0.436921 0.776261 0.067347
0.451898 0.776261 0.067347
0.519399 0.776261 0.067347
0.548308 0.776261 0.067347
0.577217 0.776261 0.067347
0.606126 0.776261 0.067347
0.635035 0.776261 0.067347
0.663944 0.776261 0.067347
0.692854 0.776261 0.067347
0.721763 0.776261 0.067347
