docs/luts/fuji_recipes/Astia_VM_Astia.cube
TITLE "Fujifilm Recipe: VM Astia (Astia)"
# FilmSim=Astia HL=-1 SH=-1 Col=-1 WB=Auto WBR=0 WBB=-1
LUT_3D_SIZE 9
DOMAIN_MIN 0.0 0.0 0.0
DOMAIN_MAX 1.0 1.0 1.0
0.063040 0.063040 0.063040
0.164170 0.079730 0.079730
0.265117 0.096391 0.096391
0.366063 0.113051 0.113051
0.457121 0.128079 0.128079
0.538286 0.142783 0.142783
0.637143 0.159236 0.159236
0.736001 0.175690 0.175690
0.831406 0.191569 0.191569
0.079631 0.163569 0.079631
0.164170 0.163668 0.079730
0.265117 0.180328 0.096391
0.366063 0.196988 0.113051
0.457121 0.212017 0.128079
0.538286 0.226720 0.142783
0.637143 0.243174 0.159236
0.736001 0.259627 0.175690
0.831406 0.275506 0.191569
0.096222 0.264098 0.096222
0.180662 0.264098 0.096222
0.265117 0.264266 0.096391
0.366063 0.280926 0.113051
0.457121 0.295954 0.128079
0.538286 0.310658 0.142783
0.637143 0.327111 0.159236
0.736001 0.343565 0.175690
0.831406 0.359444 0.191569
0.112814 0.364626 0.112814
0.197253 0.364626 0.112814
0.281540 0.364626 0.112814
0.366063 0.364863 0.113051
0.457121 0.379892 0.128079
0.538286 0.394595 0.142783
0.637143 0.411049 0.159236
0.736001 0.427502 0.175690
0.831406 0.443381 0.191569
0.129366 0.464918 0.129366
0.213805 0.464918 0.129366
0.298092 0.464918 0.129366
0.382378 0.464918 0.129366
0.458408 0.464918 0.129366
0.538286 0.478335 0.142783
0.637143 0.494788 0.159236
0.736001 0.494784 0.175690
0.831406 0.510541 0.191569
0.142412 0.536061 0.142412
0.226852 0.536061 0.142412
0.311138 0.536061 0.142412
0.395425 0.536061 0.142412
0.471455 0.536061 0.142412
0.538286 0.536429 0.142783
0.637143 0.552756 0.159236
0.736001 0.569082 0.175690
0.831406 0.584839 0.191569
0.158798 0.634509 0.158798
0.243238 0.634509 0.158798
0.327524 0.634509 0.158798
0.411810 0.634509 0.158798
0.487840 0.634509 0.158798
0.554178 0.634509 0.158798
0.637143 0.634944 0.159236
0.736001 0.651271 0.175690
0.831406 0.667028 0.191569
0.175183 0.732958 0.175183
0.259623 0.732958 0.175183
0.343909 0.732958 0.175183
0.428196 0.732958 0.175183
0.504226 0.732958 0.175183
0.570437 0.732958 0.175183
0.652968 0.732958 0.175183
0.736001 0.733460 0.175690
0.831406 0.749217 0.191569
0.191569 0.831406 0.191569
0.276008 0.831406 0.191569
0.360295 0.831406 0.191569
0.444581 0.831406 0.191569
0.504167 0.831406 0.191569
0.586697 0.831406 0.191569
0.669227 0.831406 0.191569
0.751757 0.831406 0.191569
0.831406 0.831406 0.191569
0.079216 0.079216 0.161056
0.164170 0.079730 0.161570
0.265117 0.096391 0.178230
0.366063 0.113051 0.194890
0.457121 0.128079 0.209918
0.538286 0.142783 0.224622
0.637143 0.159236 0.241075
0.736001 0.175690 0.257529
0.831406 0.191569 0.273408
0.079631 0.163569 0.161470
0.180347 0.179844 0.177746
0.281293 0.196505 0.194406
0.382240 0.213165 0.211066
0.473298 0.228193 0.226095
0.554326 0.242883 0.240785
0.653183 0.259337 0.257238
0.752041 0.275790 0.273692
0.847446 0.291669 0.289571
0.096222 0.264098 0.178062
0.196839 0.280274 0.194238
0.281293 0.280442 0.194406
0.382240 0.297102 0.211066
0.473298 0.312131 0.226095
0.554326 0.326821 0.240785
0.653183 0.343274 0.257238
0.752041 0.359728 0.273692
0.847446 0.375607 0.289571
0.112814 0.364626 0.194653
0.213430 0.380803 0.210829
0.297716 0.380803 0.210829
0.382240 0.381040 0.211066
0.473298 0.396068 0.226095
0.554326 0.410758 0.240785
0.653183 0.427212 0.257238
0.752041 0.443665 0.273692
0.847446 0.459544 0.289571
0.129366 0.464918 0.211205
0.229982 0.481094 0.227381
0.314268 0.481094 0.227381
0.398554 0.481094 0.227381
0.474585 0.481094 0.227381
0.554326 0.494498 0.240785
0.653183 0.494497 0.257238
0.752041 0.510824 0.273692
0.847446 0.526581 0.289571
0.142412 0.536061 0.224252
0.243015 0.552101 0.240414
0.327301 0.552101 0.240414
0.411588 0.552101 0.240414
0.487618 0.552101 0.240414
0.554326 0.552469 0.240785
0.653183 0.568796 0.257238
0.752041 0.585123 0.273692
0.847446 0.600879 0.289571
0.158798 0.634509 0.240637
0.259401 0.650549 0.256800
0.343687 0.650549 0.256800
0.427973 0.650549 0.256800
0.504003 0.650549 0.256800
0.570218 0.650549 0.256800
0.653183 0.650984 0.257238
0.752041 0.667311 0.273692
0.847446 0.683068 0.289571
0.175183 0.732958 0.257022
0.275786 0.748998 0.273185
0.360072 0.748998 0.273185
0.444359 0.748998 0.273185
0.503947 0.748998 0.273185
0.586477 0.748998 0.273185
0.669008 0.748998 0.273185
0.752041 0.749500 0.273692
0.847446 0.765257 0.289571
0.191569 0.831406 0.273408
0.292171 0.847446 0.289571
0.376458 0.847446 0.289571
0.460744 0.847446 0.289571
0.520207 0.847446 0.289571
0.602737 0.847446 0.289571
0.685267 0.847446 0.289571
0.767798 0.847446 0.289571
0.847446 0.847446 0.289571
0.095393 0.095393 0.259071
0.179833 0.095393 0.259071
0.265117 0.096391 0.260069
0.366063 0.113051 0.276729
0.457121 0.128079 0.291757
0.538286 0.142783 0.306461
0.637143 0.159236 0.322914
0.736001 0.175690 0.339368
0.831406 0.191569 0.355247
0.095393 0.179330 0.259071
0.196424 0.195922 0.275662
0.281708 0.196919 0.276660
0.382654 0.213580 0.293320
0.473713 0.228608 0.308348
0.554737 0.243298 0.323038
0.653595 0.259751 0.339492
0.752452 0.276205 0.355945
0.847857 0.292084 0.371824
0.096222 0.264098 0.259901
0.197353 0.280788 0.276591
0.297470 0.296619 0.292422
0.398416 0.313279 0.309082
0.489474 0.328307 0.324110
0.570366 0.342984 0.338787
0.669223 0.359437 0.355240
0.768081 0.375891 0.371694
0.863486 0.391770 0.387573
0.112814 0.364626 0.276492
0.213944 0.381317 0.293182
0.313893 0.396979 0.308845
0.398416 0.397216 0.309082
0.489474 0.412245 0.324110
0.570366 0.426921 0.338787
0.669223 0.443375 0.355240
0.768081 0.459828 0.371694
0.863486 0.475707 0.387573
0.129366 0.464918 0.293044
0.230496 0.481608 0.309734
0.330445 0.497271 0.325397
0.414731 0.497271 0.325397
0.490761 0.497271 0.325397
0.570366 0.494210 0.338787
0.669223 0.510537 0.355240
0.768081 0.526864 0.371694
0.863486 0.542621 0.387573
0.142412 0.536061 0.306091
0.243529 0.552611 0.322767
0.343464 0.568141 0.338417
0.427751 0.568141 0.338417
0.503781 0.568141 0.338417
0.570366 0.568509 0.338787
0.669223 0.584836 0.355240
0.768081 0.601163 0.371694
0.863486 0.616919 0.387573
0.158798 0.634509 0.322476
0.259914 0.651059 0.339153
0.359850 0.666589 0.354802
0.444136 0.666589 0.354802
0.503728 0.666589 0.354802
0.586258 0.666589 0.354802
0.669223 0.667024 0.355240
0.768081 0.683351 0.371694
0.863486 0.699108 0.387573
0.175183 0.732958 0.338862
0.276300 0.749507 0.355538
0.376235 0.765038 0.371187
0.460521 0.765038 0.371187
0.519987 0.765038 0.371187
0.602518 0.765038 0.371187
0.685048 0.765038 0.371187
0.768081 0.765540 0.371694
0.863486 0.781297 0.387573
0.191569 0.831406 0.355247
0.292685 0.847956 0.371924
0.392621 0.863486 0.387573
0.476907 0.863486 0.387573
0.536247 0.863486 0.387573
0.618777 0.863486 0.387573
0.701307 0.863486 0.387573
0.783838 0.863486 0.387573
0.863486 0.863486 0.387573
0.111569 0.111569 0.357087
0.196009 0.111569 0.357087
0.280295 0.111569 0.357087
0.366063 0.113051 0.358568
0.457121 0.128079 0.373596
0.538286 0.142783 0.388300
0.637143 0.159236 0.404754
0.736001 0.175690 0.421207
0.831406 0.191569 0.437086
0.111569 0.195507 0.357087
0.212600 0.212098 0.373678
0.296887 0.212098 0.373678
0.382654 0.213580 0.375159
0.473713 0.228608 0.390188
0.554737 0.243298 0.404877
0.653595 0.259751 0.421331
0.752452 0.276205 0.437785
0.847857 0.292084 0.453664
0.111569 0.279444 0.357087
0.212700 0.296135 0.373777
0.313478 0.312627 0.390269
0.399246 0.314108 0.391751
0.490304 0.329137 0.406779
0.571189 0.343813 0.421455
0.670046 0.360266 0.437908
0.768903 0.376720 0.454362
0.864309 0.392599 0.470241
0.112814 0.364626 0.358331
0.213944 0.381317 0.375022
0.314890 0.397977 0.391682
0.414592 0.413393 0.407097
0.505651 0.428421 0.422126
0.586406 0.443084 0.436789
0.685264 0.459538 0.453242
0.784121 0.475991 0.469696
0.879526 0.491870 0.485575
0.129366 0.464918 0.374883
0.230496 0.481608 0.391574
0.331442 0.498268 0.408234
0.429101 0.495184 0.421606
0.506223 0.496276 0.422698
0.586406 0.510250 0.436789
0.685264 0.526577 0.453242
0.784121 0.542904 0.469696
0.879526 0.558661 0.485575
0.142412 0.536061 0.387930
0.243529 0.552611 0.404606
0.344461 0.569131 0.421253
0.443914 0.584181 0.436419
0.503508 0.584181 0.436419
0.586406 0.584549 0.436789
0.685264 0.600876 0.453242
0.784121 0.617203 0.469696
0.879526 0.632959 0.485575
0.158798 0.634509 0.404315
0.259914 0.651059 0.420992
0.360847 0.667579 0.437638
0.460299 0.682630 0.452804
0.519768 0.682630 0.452804
0.602298 0.682630 0.452804
0.685264 0.683065 0.453242
0.784121 0.699391 0.469696
0.879526 0.715148 0.485575
0.175183 0.732958 0.420701
0.276300 0.749507 0.437377
0.377232 0.766027 0.454023
0.476684 0.781078 0.469190
0.536027 0.781078 0.469190
0.618558 0.781078 0.469190
0.701088 0.781078 0.469190
0.784121 0.781580 0.469696
0.879526 0.797337 0.485575
0.191569 0.831406 0.437086
0.292685 0.847956 0.453763
0.393618 0.864475 0.470409
0.493070 0.879526 0.485575
0.552287 0.879526 0.485575
0.634817 0.879526 0.485575
0.717347 0.879526 0.485575
0.799878 0.879526 0.485575
0.879526 0.879526 0.485575
0.127746 0.127746 0.455102
0.212185 0.127746 0.455102
0.296472 0.127746 0.455102
0.380758 0.127746 0.455102
0.457121 0.128079 0.455435
0.538286 0.142783 0.470139
0.637143 0.159236 0.486593
0.736001 0.175690 0.503046
0.831406 0.191569 0.502516
0.127746 0.211683 0.455102
0.228777 0.228275 0.471693
0.313063 0.228275 0.471693
0.397349 0.228275 0.471693
0.473713 0.228608 0.472027
0.554737 0.243298 0.486717
0.653595 0.259751 0.503170
0.752452 0.276205 0.503210
0.847857 0.292084 0.518967
0.127746 0.295621 0.455102
0.228876 0.312311 0.471793
0.329654 0.328803 0.488285
0.413940 0.328803 0.488285
0.490304 0.329137 0.488618
0.571189 0.343813 0.503294
0.670046 0.360266 0.503335
0.768903 0.376720 0.519662
0.864309 0.392599 0.535418
0.127746 0.379558 0.455102
0.228876 0.396249 0.471793
0.329822 0.412909 0.488453
0.430532 0.429332 0.504876
0.506895 0.429665 0.505209
0.587640 0.444328 0.503459
0.686497 0.460781 0.519786
0.785355 0.477235 0.536113
0.880760 0.493114 0.551870
0.129366 0.464918 0.456722
0.230496 0.481608 0.473413
0.331442 0.498268 0.490073
0.431489 0.497561 0.505833
0.503049 0.509423 0.501398
0.600633 0.524476 0.516451
0.699476 0.540789 0.532764
0.798319 0.557102 0.549077
0.893711 0.572846 0.564821
0.142412 0.536061 0.469769
0.243529 0.552611 0.486445
0.344461 0.569131 0.503092
0.445394 0.585650 0.503327
0.517735 0.598408 0.516084
0.600633 0.598775 0.516451
0.699476 0.615088 0.532764
0.798319 0.631401 0.549077
0.893711 0.647145 0.564821
0.158798 0.634509 0.486154
0.259914 0.651059 0.502831
0.360847 0.667579 0.503066
0.461779 0.684098 0.519586
0.533981 0.696842 0.532330
0.616511 0.696842 0.532330
0.699476 0.697277 0.532764
0.798319 0.713590 0.549077
0.893711 0.729333 0.564821
0.175183 0.732958 0.502540
0.276300 0.749507 0.502806
0.377232 0.766027 0.519326
0.478165 0.782547 0.535845
0.550226 0.795277 0.548575
0.632756 0.795277 0.548575
0.715287 0.795277 0.548575
0.798319 0.795779 0.549077
0.893711 0.811522 0.564821
0.191569 0.831406 0.502516
0.292685 0.847956 0.519065
0.393618 0.864475 0.535585
0.494550 0.880995 0.552105
0.566472 0.893711 0.564821
0.649002 0.893711 0.564821
0.731532 0.893711 0.564821
0.814063 0.893711 0.564821
0.893711 0.893711 0.564821
0.140364 0.140364 0.523755
0.224804 0.140364 0.523755
0.309090 0.140364 0.523755
0.393377 0.140364 0.523755
0.469407 0.140364 0.523755
0.538286 0.142783 0.526155
0.637143 0.159236 0.542482
0.736001 0.175690 0.558809
0.831406 0.191569 0.574566
0.140364 0.224302 0.523755
0.241381 0.240879 0.540206
0.325668 0.240879 0.540206
0.409954 0.240879 0.540206
0.485984 0.240879 0.540206
0.554737 0.243298 0.542606
0.653595 0.259751 0.558933
0.752452 0.276205 0.575260
0.847857 0.292084 0.591017
0.140364 0.308239 0.523755
0.241480 0.324916 0.540305
0.342245 0.341394 0.556658
0.426531 0.341394 0.556658
0.502561 0.341394 0.556658
0.571189 0.343813 0.559058
0.670046 0.360266 0.575385
0.768903 0.376720 0.591712
0.864309 0.392599 0.607468
0.140364 0.392177 0.523755
0.241480 0.408853 0.540305
0.342413 0.425500 0.556824
0.443109 0.441909 0.573109
0.502710 0.441909 0.573109
0.587640 0.444328 0.575509
0.686497 0.460781 0.591836
0.785355 0.477235 0.608163
0.880760 0.493114 0.623920
0.140364 0.475916 0.523755
0.241480 0.492593 0.540305
0.342413 0.492799 0.556824
0.443346 0.509319 0.573344
0.516031 0.522405 0.586430
0.602219 0.526062 0.590088
0.701062 0.542376 0.606401
0.799905 0.558689 0.622714
0.895297 0.574432 0.638457
0.142412 0.536061 0.525787
0.243529 0.552611 0.542337
0.344461 0.569131 0.558857
0.445394 0.585650 0.575377
0.518061 0.598734 0.588460
0.614874 0.613016 0.602743
0.713717 0.629330 0.619056
0.812561 0.645643 0.635369
0.907953 0.661386 0.651112
0.158798 0.634509 0.542047
0.259914 0.651059 0.558597
0.360847 0.667579 0.575116
0.461779 0.684098 0.591636
0.534307 0.697169 0.604706
0.630752 0.711084 0.618621
0.713717 0.711518 0.619056
0.812561 0.727831 0.635369
0.907953 0.743575 0.651112
0.175183 0.732958 0.558306
0.276300 0.749507 0.574856
0.377232 0.766027 0.591376
0.478165 0.782547 0.607895
0.550552 0.795603 0.620952
0.646998 0.809518 0.634867
0.729528 0.809518 0.634867
0.812561 0.810020 0.635369
0.907953 0.825764 0.651112
0.191569 0.831406 0.574566
0.292685 0.847956 0.591115
0.393618 0.864475 0.607635
0.494550 0.880995 0.624155
0.566798 0.894037 0.637197
0.663244 0.907953 0.651112
0.745774 0.907953 0.651112
0.828304 0.907953 0.651112
0.907953 0.907953 0.651112
0.156340 0.156340 0.619742
0.240780 0.156340 0.619742
0.325066 0.156340 0.619742
0.409352 0.156340 0.619742
0.485382 0.156340 0.619742
0.551739 0.156340 0.619742
0.637143 0.159236 0.622616
0.736001 0.175690 0.638943
0.831406 0.191569 0.654700
0.156340 0.240278 0.619742
0.257357 0.256855 0.636193
0.341643 0.256855 0.636193
0.425930 0.256855 0.636193
0.501960 0.256855 0.636193
0.568190 0.256855 0.636193
0.653595 0.259751 0.639067
0.752452 0.276205 0.655394
0.847857 0.292084 0.671151
0.156340 0.324215 0.619742
0.257456 0.340892 0.636292
0.358221 0.357370 0.652645
0.442507 0.357370 0.652645
0.502111 0.357370 0.652645
0.584642 0.357370 0.652645
0.670046 0.360266 0.655519
0.768903 0.376720 0.671846
0.864309 0.392599 0.687603
0.156340 0.408153 0.619742
0.257456 0.424829 0.636292
0.358389 0.441476 0.652812
0.459084 0.457885 0.669096
0.518563 0.457885 0.669096
0.601093 0.457885 0.669096
0.686497 0.460781 0.671970
0.785355 0.477235 0.688297
0.880760 0.493114 0.704054
0.156340 0.491892 0.619742
0.257456 0.492133 0.636292
0.358389 0.508652 0.652812
0.459321 0.525172 0.669331
0.531870 0.538244 0.682403
0.615660 0.539504 0.683663
0.701062 0.542376 0.686535
0.799905 0.558689 0.702848
0.895297 0.574432 0.718591
0.156340 0.549882 0.619742
0.257456 0.566431 0.636292
0.358389 0.582951 0.652812
0.459321 0.599471 0.669331
0.531870 0.612543 0.682403
0.630346 0.628489 0.698349
0.715748 0.631360 0.701221
0.814591 0.647673 0.717534
0.909983 0.663417 0.733277
0.158798 0.634509 0.622181
0.259914 0.651059 0.638731
0.360847 0.667579 0.655250
0.461779 0.684098 0.671770
0.534307 0.697169 0.684840
0.633150 0.713482 0.701153
0.729557 0.727358 0.715029
0.828400 0.743671 0.731343
0.923792 0.759414 0.747086
0.175183 0.732958 0.638440
0.276300 0.749507 0.654990
0.377232 0.766027 0.671510
0.478165 0.782547 0.688030
0.550552 0.795603 0.701086
0.649396 0.811916 0.717399
0.745368 0.825358 0.730840
0.828400 0.825860 0.731343
0.923792 0.841603 0.747086
0.191569 0.831406 0.654700
0.292685 0.847956 0.671250
0.393618 0.864475 0.687769
0.494550 0.880995 0.704289
0.566798 0.894037 0.717331
0.665641 0.910350 0.733644
0.761613 0.923792 0.747086
0.844144 0.923792 0.747086
0.923792 0.923792 0.747086
0.172316 0.172316 0.715729
0.256756 0.172316 0.715729
0.341042 0.172316 0.715729
0.425328 0.172316 0.715729
0.501358 0.172316 0.715729
0.567592 0.172316 0.715729
0.650122 0.172316 0.715729
0.736001 0.175690 0.719077
0.831406 0.191569 0.734834
0.172316 0.256253 0.715729
0.273333 0.272831 0.732181
0.357619 0.272831 0.732181
0.441906 0.272831 0.732181
0.501513 0.272831 0.732181
0.584043 0.272831 0.732181
0.666574 0.272831 0.732181
0.752452 0.276205 0.735528
0.847857 0.292084 0.751285
0.172316 0.340191 0.715729
0.273432 0.356868 0.732279
0.374197 0.373346 0.748632
0.458483 0.373346 0.748632
0.517964 0.373346 0.748632
0.600495 0.373346 0.748632
0.683025 0.373346 0.748632
0.768903 0.376720 0.751980
0.864309 0.392599 0.767737
0.172316 0.424129 0.715729
0.273432 0.440805 0.732279
0.374365 0.457451 0.748799
0.475060 0.473861 0.765083
0.534416 0.473861 0.765083
0.616946 0.473861 0.765083
0.699476 0.473861 0.765083
0.785355 0.477235 0.768431
0.880760 0.493114 0.784188
0.172316 0.491436 0.715729
0.273432 0.507986 0.732279
0.374365 0.524505 0.748799
0.475297 0.541025 0.765318
0.547709 0.554084 0.778377
0.631500 0.555343 0.779637
0.714030 0.555343 0.779637
0.799905 0.558689 0.782982
0.895297 0.574432 0.798725
0.172316 0.565735 0.715729
0.273432 0.582284 0.732279
0.374365 0.598804 0.748799
0.475297 0.615324 0.765318
0.547709 0.628382 0.778377
0.646186 0.644328 0.794323
0.728716 0.644328 0.794323
0.814591 0.647673 0.797668
0.909983 0.663417 0.813411
0.172316 0.647923 0.715729
0.273432 0.664473 0.732279
0.374365 0.680993 0.748799
0.475297 0.697512 0.765318
0.547709 0.710571 0.778377
0.646553 0.726884 0.794690
0.744962 0.742763 0.810568
0.830837 0.746108 0.813914
0.926229 0.761851 0.829657
0.175183 0.732958 0.718575
0.276300 0.749507 0.735124
0.377232 0.766027 0.751644
0.478165 0.782547 0.768164
0.550552 0.795603 0.781220
0.649396 0.811916 0.797533
0.748239 0.828229 0.813846
0.844240 0.841699 0.827316
0.939631 0.857443 0.843060
0.191569 0.831406 0.734834
0.292685 0.847956 0.751384
0.393618 0.864475 0.767903
0.494550 0.880995 0.784423
0.566798 0.894037 0.797465
0.665641 0.910350 0.813779
0.764485 0.926664 0.830092
0.859983 0.939631 0.843060
0.939631 0.939631 0.843060
0.188292 0.188292 0.811716
0.272731 0.188292 0.811716
0.357018 0.188292 0.811716
0.441304 0.188292 0.811716
0.500915 0.188292 0.811716
0.583445 0.188292 0.811716
0.665975 0.188292 0.811716
0.748506 0.188292 0.811716
0.831406 0.191569 0.814968
0.188292 0.272229 0.811716
0.289309 0.288807 0.828168
0.373595 0.288807 0.828168
0.457881 0.288807 0.828168
0.517366 0.288807 0.828168
0.599896 0.288807 0.828168
0.682427 0.288807 0.828168
0.764957 0.288807 0.828168
0.847857 0.292084 0.831419
0.188292 0.356167 0.811716
0.289408 0.372843 0.828266
0.390172 0.389322 0.844619
0.474459 0.389322 0.844619
0.533817 0.389322 0.844619
0.616348 0.389322 0.844619
0.698878 0.389322 0.844619
0.781408 0.389322 0.844619
0.864309 0.392599 0.847871
0.188292 0.440104 0.811716
0.289408 0.456781 0.828266
0.390340 0.473427 0.844786
0.491036 0.489836 0.861070
0.550269 0.489836 0.861070
0.632799 0.489836 0.861070
0.715329 0.489836 0.861070
0.797860 0.489836 0.861070
0.880760 0.493114 0.864322
0.188292 0.507289 0.811716
0.289408 0.523838 0.828266
0.390340 0.540358 0.844786
0.491273 0.556878 0.861305
0.563549 0.569923 0.874351
0.647339 0.571183 0.875610
0.729869 0.571183 0.875610
0.812400 0.571183 0.875610
0.895297 0.574432 0.878860
0.188292 0.581587 0.811716
0.289408 0.598137 0.828266
0.390340 0.614657 0.844786
0.491273 0.631177 0.861305
0.563549 0.644222 0.874351
0.662025 0.660168 0.890296
0.744555 0.660168 0.890296
0.827086 0.660168 0.890296
0.909983 0.663417 0.893546
0.188292 0.663776 0.811716
0.289408 0.680326 0.828266
0.390340 0.696846 0.844786
0.491273 0.713365 0.861305
0.563549 0.726411 0.874351
0.662392 0.742724 0.890664
0.760801 0.758602 0.906542
0.843331 0.758602 0.906542
0.926229 0.761851 0.909791
0.188292 0.745965 0.811716
0.289408 0.762515 0.828266
0.390340 0.779035 0.844786
0.491273 0.795554 0.861305
0.563549 0.808599 0.874351
0.662392 0.824912 0.890664
0.761236 0.841226 0.906977
0.859577 0.857036 0.922788
0.942474 0.860286 0.926037
0.191569 0.831406 0.814968
0.292685 0.847956 0.831518
0.393618 0.864475 0.848038
0.494550 0.880995 0.864557
0.566798 0.894037 0.877600
0.665641 0.910350 0.893913
0.764485 0.926664 0.910226
0.863328 0.942977 0.926539
0.955471 0.955471 0.939033
