docs/luts/fuji_recipes/Astia_JC_Astia_Travel.cube
TITLE "Fujifilm Recipe: JC Astia Travel (Astia)"
# FilmSim=Astia HL=-1 SH=2 Col=2 WB=Auto WBR=1 WBB=0
LUT_3D_SIZE 9
DOMAIN_MIN 0.0 0.0 0.0
DOMAIN_MAX 1.0 1.0 1.0
0.022080 0.022080 0.022080
0.148725 0.011164 0.011164
0.275145 0.000268 0.000268
0.390937 0.000000 0.000000
0.495421 0.000000 0.000000
0.652970 0.000000 0.000000
0.770847 0.000000 0.000000
0.888724 0.000000 0.000000
0.979585 0.000000 0.000000
0.011494 0.144906 0.011494
0.148725 0.144577 0.011164
0.275145 0.133681 0.000268
0.390937 0.126533 0.000000
0.495421 0.123224 0.000000
0.652970 0.119195 0.000000
0.770847 0.118022 0.000000
0.888724 0.117174 0.000000
0.979585 0.116666 0.000000
0.000907 0.267733 0.000907
0.138467 0.267733 0.000907
0.275145 0.267094 0.000268
0.390937 0.253066 0.000000
0.495421 0.246447 0.000000
0.652970 0.238390 0.000000
0.770847 0.236043 0.000000
0.888724 0.234348 0.000000
0.979585 0.233332 0.000000
0.000000 0.380880 0.000000
0.130907 0.380880 0.000000
0.261581 0.380880 0.000000
0.390937 0.379599 0.000000
0.495421 0.369671 0.000000
0.652970 0.357585 0.000000
0.770847 0.354065 0.000000
0.888724 0.351522 0.000000
0.979585 0.349997 0.000000
0.000000 0.492855 0.000000
0.127119 0.492855 0.000000
0.254013 0.492855 0.000000
0.380906 0.492855 0.000000
0.495421 0.492604 0.000000
0.652970 0.476499 0.000000
0.770847 0.471808 0.000000
0.888724 0.516315 0.000000
0.979585 0.514221 0.000000
0.000000 0.636007 0.000000
0.123114 0.636007 0.000000
0.246010 0.636007 0.000000
0.368906 0.636007 0.000000
0.480057 0.636007 0.000000
0.652970 0.634931 0.000000
0.770847 0.628870 0.000000
0.888724 0.624543 0.000000
0.979585 0.621979 0.000000
0.000000 0.750533 0.000000
0.121870 0.750533 0.000000
0.243525 0.750533 0.000000
0.365179 0.750533 0.000000
0.475208 0.750533 0.000000
0.647655 0.750533 0.000000
0.770847 0.749458 0.000000
0.888724 0.744264 0.000000
0.979585 0.741181 0.000000
0.000000 0.865059 0.000000
0.120972 0.865059 0.000000
0.241730 0.865059 0.000000
0.362487 0.865059 0.000000
0.519682 0.865059 0.000000
0.643064 0.865059 0.000000
0.766447 0.865059 0.000000
0.888724 0.863986 0.000000
0.979585 0.860383 0.000000
0.000000 0.979585 0.000000
0.120293 0.979585 0.000000
0.240372 0.979585 0.000000
0.360451 0.979585 0.000000
0.516946 0.979585 0.000000
0.639635 0.979585 0.000000
0.762325 0.979585 0.000000
0.885015 0.979585 0.000000
0.979585 0.979585 0.000000
0.011494 0.011494 0.144906
0.148725 0.011164 0.144577
0.275145 0.000268 0.133681
0.390937 0.000000 0.126533
0.495421 0.000000 0.123224
0.652970 0.000000 0.119195
0.770847 0.000000 0.118022
0.888724 0.000000 0.117174
0.979585 0.000000 0.116666
0.011494 0.144906 0.144906
0.138138 0.133991 0.133991
0.264558 0.123095 0.123095
0.390979 0.112198 0.112198
0.505318 0.102344 0.102344
0.681509 0.083855 0.083855
0.810706 0.072535 0.072535
0.939903 0.061216 0.061216
1.000000 0.091979 0.091979
0.000907 0.267733 0.134320
0.127881 0.257146 0.123734
0.264558 0.256508 0.123095
0.390979 0.245611 0.112198
0.505318 0.235756 0.102344
0.681509 0.217268 0.083855
0.810706 0.205948 0.072535
0.939903 0.194628 0.061216
1.000000 0.214717 0.091979
0.000000 0.380880 0.126960
0.117294 0.379973 0.113147
0.254611 0.379973 0.113147
0.390979 0.379024 0.112198
0.505318 0.369169 0.102344
0.681509 0.350681 0.083855
0.810706 0.339361 0.072535
0.939903 0.328041 0.061216
1.000000 0.337454 0.091979
0.000000 0.492855 0.123287
0.106733 0.502509 0.102586
0.244049 0.502509 0.102586
0.381366 0.502509 0.102586
0.505318 0.502267 0.102344
0.681509 0.483779 0.083855
0.810706 0.526986 0.072535
0.939903 0.515882 0.061216
1.000000 0.510416 0.091979
0.000000 0.636007 0.119402
0.089631 0.662916 0.085484
0.226948 0.662916 0.085484
0.364264 0.662916 0.085484
0.488458 0.662916 0.085484
0.681509 0.661318 0.083855
0.810706 0.650213 0.072535
0.939903 0.639109 0.061216
1.000000 0.623783 0.091979
0.000000 0.750533 0.118196
0.078633 0.788440 0.074486
0.215950 0.788440 0.074486
0.353266 0.788440 0.074486
0.532016 0.788440 0.074486
0.672318 0.788440 0.074486
0.810706 0.786527 0.072535
0.939903 0.775422 0.061216
1.000000 0.749189 0.091979
0.000000 0.865059 0.117325
0.067635 0.913965 0.063488
0.204952 0.913965 0.063488
0.342268 0.913965 0.063488
0.521227 0.913965 0.063488
0.661529 0.913965 0.063488
0.801830 0.913965 0.063488
0.939903 0.911735 0.061216
1.000000 0.874594 0.091979
0.000000 0.979585 0.116666
0.095795 1.000000 0.091979
0.222123 1.000000 0.091979
0.348452 1.000000 0.091979
0.513283 1.000000 0.091979
0.642358 1.000000 0.091979
0.771433 1.000000 0.091979
0.900508 1.000000 0.091979
1.000000 1.000000 0.091979
0.000907 0.000907 0.267733
0.138467 0.000907 0.267733
0.275145 0.000268 0.267094
0.390937 0.000000 0.253066
0.495421 0.000000 0.246447
0.652970 0.000000 0.238390
0.770847 0.000000 0.236043
0.888724 0.000000 0.234348
0.979585 0.000000 0.233332
0.000907 0.134320 0.267733
0.127881 0.123734 0.257146
0.264558 0.123095 0.256508
0.390979 0.112198 0.245611
0.505318 0.102344 0.235756
0.681509 0.083855 0.217268
0.810706 0.072535 0.205948
0.939903 0.061216 0.194628
1.000000 0.091979 0.214717
0.000907 0.267733 0.267733
0.127552 0.256817 0.256817
0.253972 0.245921 0.245921
0.380392 0.235025 0.235025
0.494731 0.225170 0.225170
0.671104 0.206654 0.206654
0.800301 0.195334 0.195334
0.929498 0.184014 0.184014
1.000000 0.204373 0.204373
0.000000 0.380880 0.253920
0.116965 0.379644 0.246231
0.244024 0.369386 0.235974
0.380392 0.368438 0.235025
0.494731 0.358583 0.225170
0.671104 0.340067 0.206654
0.800301 0.328747 0.195334
0.929498 0.317427 0.184014
1.000000 0.328697 0.204373
0.000000 0.492855 0.246573
0.106404 0.502180 0.235669
0.233463 0.491923 0.225412
0.370779 0.491923 0.225412
0.494731 0.491681 0.225170
0.671104 0.527686 0.206654
0.800301 0.516581 0.195334
0.929498 0.505477 0.184014
1.000000 0.504089 0.204373
0.000000 0.636007 0.238804
0.089302 0.662593 0.218567
0.216334 0.652511 0.208283
0.353650 0.652511 0.208283
0.532400 0.652511 0.208283
0.671104 0.650913 0.206654
0.800301 0.639808 0.195334
0.929498 0.628704 0.184014
1.000000 0.618921 0.204373
0.000000 0.750533 0.236392
0.078304 0.788117 0.207569
0.205336 0.778035 0.197285
0.342652 0.778035 0.197285
0.521611 0.778035 0.197285
0.661913 0.778035 0.197285
0.800301 0.776122 0.195334
0.929498 0.765017 0.184014
1.000000 0.745947 0.204373
0.000000 0.865059 0.234650
0.067306 0.913641 0.196571
0.194338 0.903560 0.186287
0.331654 0.903560 0.186287
0.510822 0.903560 0.186287
0.651124 0.903560 0.186287
0.791425 0.903560 0.186287
0.929498 0.901330 0.184014
1.000000 0.872974 0.204373
0.000000 0.979585 0.233332
0.095473 1.000000 0.214437
0.211875 1.000000 0.204373
0.339836 1.000000 0.204373
0.506993 1.000000 0.204373
0.637736 1.000000 0.204373
0.768479 1.000000 0.204373
0.899222 1.000000 0.204373
1.000000 1.000000 0.204373
0.000000 0.000000 0.380880
0.130907 0.000000 0.380880
0.261581 0.000000 0.380880
0.390937 0.000000 0.379599
0.495421 0.000000 0.369671
0.652970 0.000000 0.357585
0.770847 0.000000 0.354065
0.888724 0.000000 0.351522
0.979585 0.000000 0.349997
0.000000 0.126960 0.380880
0.117294 0.113147 0.379973
0.254611 0.113147 0.379973
0.390979 0.112198 0.379024
0.505318 0.102344 0.369169
0.681509 0.083855 0.350681
0.810706 0.072535 0.339361
0.939903 0.061216 0.328041
1.000000 0.091979 0.337454
0.000000 0.253920 0.380880
0.116965 0.246231 0.379644
0.244024 0.235974 0.369386
0.380392 0.235025 0.368438
0.494731 0.225170 0.358583
0.671104 0.206654 0.340067
0.800301 0.195334 0.328747
0.929498 0.184014 0.317427
1.000000 0.204373 0.328697
0.000000 0.380880 0.380880
0.116965 0.379644 0.379644
0.243385 0.368748 0.368748
0.369806 0.357851 0.357851
0.531502 0.340773 0.340773
0.660699 0.329453 0.329453
0.789896 0.318133 0.318133
0.919092 0.306813 0.306813
1.000000 0.316767 0.316767
0.000000 0.492855 0.369860
0.106404 0.502180 0.369082
0.232824 0.491284 0.358186
0.352978 0.528632 0.341024
0.531502 0.528385 0.340773
0.660699 0.517281 0.329453
0.789896 0.506176 0.318133
0.919092 0.495071 0.306813
1.000000 0.495422 0.316767
0.000000 0.636007 0.358207
0.089302 0.662593 0.351980
0.215693 0.651883 0.341055
0.343036 0.642106 0.331082
0.521995 0.642106 0.331082
0.660699 0.640508 0.329453
0.789896 0.629403 0.318133
0.919092 0.618299 0.306813
1.000000 0.612261 0.316767
0.000000 0.750533 0.354588
0.078304 0.788117 0.340982
0.204695 0.777407 0.330057
0.332038 0.767630 0.320084
0.511206 0.767630 0.320084
0.651508 0.767630 0.320084
0.789896 0.765716 0.318133
0.919092 0.754612 0.306813
1.000000 0.741507 0.316767
0.000000 0.865059 0.351974
0.067306 0.913641 0.329984
0.193697 0.902932 0.319059
0.321040 0.893154 0.309086
0.500417 0.893154 0.309086
0.640719 0.893154 0.309086
0.781020 0.893154 0.309086
0.919092 0.890925 0.306813
1.000000 0.870754 0.316767
0.000000 0.979585 0.349997
0.095473 1.000000 0.337217
0.211155 1.000000 0.328082
0.328101 1.000000 0.316767
0.498377 1.000000 0.316767
0.631405 1.000000 0.316767
0.764433 1.000000 0.316767
0.897461 1.000000 0.316767
1.000000 1.000000 0.316767
0.000000 0.000000 0.492855
0.127119 0.000000 0.492855
0.254013 0.000000 0.492855
0.380906 0.000000 0.492855
0.495421 0.000000 0.492604
0.652970 0.000000 0.476499
0.770847 0.000000 0.471808
0.888724 0.000000 0.516315
0.979585 0.000000 0.514221
0.000000 0.123287 0.492855
0.106733 0.102586 0.502509
0.244049 0.102586 0.502509
0.381366 0.102586 0.502509
0.505318 0.102344 0.502267
0.681509 0.083855 0.483779
0.810706 0.072535 0.526986
0.939903 0.061216 0.515882
1.000000 0.091979 0.510416
0.000000 0.246573 0.492855
0.106404 0.235669 0.502180
0.233463 0.225412 0.491923
0.370779 0.225412 0.491923
0.494731 0.225170 0.491681
0.671104 0.206654 0.527686
0.800301 0.195334 0.516581
0.929498 0.184014 0.505477
1.000000 0.204373 0.504089
0.000000 0.369860 0.492855
0.106404 0.369082 0.502180
0.232824 0.358186 0.491284
0.352978 0.341024 0.528632
0.531502 0.340773 0.528385
0.660699 0.329453 0.517281
0.789896 0.318133 0.506176
0.919092 0.306813 0.495071
1.000000 0.316767 0.495422
0.000000 0.492855 0.492855
0.106404 0.502180 0.502180
0.232824 0.491284 0.491284
0.352027 0.527700 0.527700
0.513878 0.510762 0.510762
0.643047 0.499629 0.499629
0.772215 0.488496 0.488496
0.901384 0.477363 0.477363
1.000000 0.469729 0.469729
0.000000 0.636007 0.477327
0.089302 0.662593 0.485078
0.215693 0.651883 0.528656
0.342085 0.641174 0.517946
0.504347 0.624458 0.501231
0.643047 0.622856 0.499629
0.772215 0.611723 0.488496
0.901384 0.600590 0.477363
1.000000 0.592517 0.469729
0.000000 0.750533 0.472505
0.078304 0.788117 0.528577
0.204695 0.777407 0.517867
0.331087 0.766698 0.507157
0.493531 0.749955 0.490414
0.633832 0.749955 0.490414
0.772215 0.748036 0.488496
0.901384 0.736903 0.477363
1.000000 0.728345 0.469729
0.000000 0.865059 0.516941
0.067306 0.913641 0.517788
0.193697 0.902932 0.507078
0.320089 0.892222 0.496369
0.482714 0.875451 0.479598
0.623016 0.875451 0.479598
0.763317 0.875451 0.479598
0.901384 0.873216 0.477363
1.000000 0.864172 0.469729
0.000000 0.979585 0.514221
0.095473 1.000000 0.510245
0.211155 1.000000 0.503643
0.326837 1.000000 0.494487
0.472835 1.000000 0.469729
0.612636 1.000000 0.469729
0.752438 1.000000 0.469729
0.892239 1.000000 0.469729
1.000000 1.000000 0.469729
0.000000 0.000000 0.636007
0.123114 0.000000 0.636007
0.246010 0.000000 0.636007
0.368906 0.000000 0.636007
0.480057 0.000000 0.636007
0.652970 0.000000 0.634931
0.770847 0.000000 0.628870
0.888724 0.000000 0.624543
0.979585 0.000000 0.621979
0.000000 0.119402 0.636007
0.089631 0.085484 0.662916
0.226948 0.085484 0.662916
0.364264 0.085484 0.662916
0.488458 0.085484 0.662916
0.681509 0.083855 0.661318
0.810706 0.072535 0.650213
0.939903 0.061216 0.639109
1.000000 0.091979 0.623783
0.000000 0.238804 0.636007
0.089302 0.218567 0.662593
0.216334 0.208283 0.652511
0.353650 0.208283 0.652511
0.532400 0.208283 0.652511
0.671104 0.206654 0.650913
0.800301 0.195334 0.639808
0.929498 0.184014 0.628704
1.000000 0.204373 0.618921
0.000000 0.358207 0.636007
0.089302 0.351980 0.662593
0.215693 0.341055 0.651883
0.343036 0.331082 0.642106
0.521995 0.331082 0.642106
0.660699 0.329453 0.640508
0.789896 0.318133 0.629403
0.919092 0.306813 0.618299
1.000000 0.316767 0.612261
0.000000 0.477327 0.636007
0.089302 0.485078 0.662593
0.215693 0.528656 0.651883
0.342085 0.517946 0.641174
0.504347 0.501231 0.624458
0.643047 0.499629 0.622856
0.772215 0.488496 0.611723
0.901384 0.477363 0.600590
1.000000 0.469729 0.592517
0.000000 0.636007 0.636007
0.089302 0.662593 0.662593
0.215693 0.651883 0.651883
0.342085 0.641174 0.641174
0.504100 0.624211 0.624211
0.633269 0.613078 0.613078
0.762437 0.601945 0.601945
0.891605 0.590812 0.590812
0.991170 0.582230 0.582230
0.000000 0.750533 0.629767
0.078304 0.788117 0.651804
0.204695 0.777407 0.641094
0.331087 0.766698 0.630385
0.493284 0.749708 0.613394
0.624054 0.740177 0.603863
0.762437 0.738258 0.601945
0.891605 0.727125 0.590812
0.991170 0.718543 0.582230
0.000000 0.865059 0.625308
0.067306 0.913641 0.641015
0.193697 0.902932 0.630305
0.320089 0.892222 0.619596
0.482467 0.875204 0.602578
0.613238 0.865673 0.593047
0.753539 0.865673 0.593047
0.891605 0.863438 0.590812
0.991170 0.854857 0.582230
0.000000 0.979585 0.621979
0.095473 1.000000 0.623652
0.211155 1.000000 0.618578
0.326837 1.000000 0.611542
0.472351 1.000000 0.592144
0.602421 0.991170 0.582230
0.742722 0.991170 0.582230
0.883024 0.991170 0.582230
0.991170 0.991170 0.582230
0.000000 0.000000 0.750533
0.121870 0.000000 0.750533
0.243525 0.000000 0.750533
0.365179 0.000000 0.750533
0.475208 0.000000 0.750533
0.647655 0.000000 0.750533
0.770847 0.000000 0.749458
0.888724 0.000000 0.744264
0.979585 0.000000 0.741181
0.000000 0.118196 0.750533
0.078633 0.074486 0.788440
0.215950 0.074486 0.788440
0.353266 0.074486 0.788440
0.532016 0.074486 0.788440
0.672318 0.074486 0.788440
0.810706 0.072535 0.786527
0.939903 0.061216 0.775422
1.000000 0.091979 0.749189
0.000000 0.236392 0.750533
0.078304 0.207569 0.788117
0.205336 0.197285 0.778035
0.342652 0.197285 0.778035
0.521611 0.197285 0.778035
0.661913 0.197285 0.778035
0.800301 0.195334 0.776122
0.929498 0.184014 0.765017
1.000000 0.204373 0.745947
0.000000 0.354588 0.750533
0.078304 0.340982 0.788117
0.204695 0.330057 0.777407
0.332038 0.320084 0.767630
0.511206 0.320084 0.767630
0.651508 0.320084 0.767630
0.789896 0.318133 0.765716
0.919092 0.306813 0.754612
1.000000 0.316767 0.741507
0.000000 0.472505 0.750533
0.078304 0.528577 0.788117
0.204695 0.517867 0.777407
0.331087 0.507157 0.766698
0.493531 0.490414 0.749955
0.633832 0.490414 0.749955
0.772215 0.488496 0.748036
0.901384 0.477363 0.736903
1.000000 0.469729 0.728345
0.000000 0.629767 0.750533
0.078304 0.651804 0.788117
0.204695 0.641094 0.777407
0.331087 0.630385 0.766698
0.493284 0.613394 0.749708
0.624054 0.603863 0.740177
0.762437 0.601945 0.738258
0.891605 0.590812 0.727125
0.991170 0.582230 0.718543
0.000000 0.750533 0.750533
0.078304 0.788117 0.788117
0.204695 0.777407 0.777407
0.331087 0.766698 0.766698
0.493284 0.749708 0.749708
0.622452 0.738574 0.738574
0.751620 0.727441 0.727441
0.880789 0.716308 0.716308
0.980353 0.707727 0.707727
0.000000 0.865059 0.745184
0.067306 0.913641 0.777328
0.193697 0.902932 0.766618
0.320089 0.892222 0.755909
0.482467 0.875204 0.738891
0.611635 0.864071 0.727758
0.742722 0.854857 0.718543
0.880789 0.852622 0.716308
0.980353 0.844040 0.707727
0.000000 0.979585 0.741181
0.095473 1.000000 0.749101
0.211155 1.000000 0.745719
0.326837 1.000000 0.741028
0.472351 1.000000 0.728096
0.600819 0.989568 0.716941
0.731906 0.980353 0.707727
0.872207 0.980353 0.707727
0.980353 0.980353 0.707727
0.000000 0.000000 0.865059
0.120972 0.000000 0.865059
0.241730 0.000000 0.865059
0.362487 0.000000 0.865059
0.519682 0.000000 0.865059
0.643064 0.000000 0.865059
0.766447 0.000000 0.865059
0.888724 0.000000 0.863986
0.979585 0.000000 0.860383
0.000000 0.117325 0.865059
0.067635 0.063488 0.913965
0.204952 0.063488 0.913965
0.342268 0.063488 0.913965
0.521227 0.063488 0.913965
0.661529 0.063488 0.913965
0.801830 0.063488 0.913965
0.939903 0.061216 0.911735
1.000000 0.091979 0.874594
0.000000 0.234650 0.865059
0.067306 0.196571 0.913641
0.194338 0.186287 0.903560
0.331654 0.186287 0.903560
0.510822 0.186287 0.903560
0.651124 0.186287 0.903560
0.791425 0.186287 0.903560
0.929498 0.184014 0.901330
1.000000 0.204373 0.872974
0.000000 0.351974 0.865059
0.067306 0.329984 0.913641
0.193697 0.319059 0.902932
0.321040 0.309086 0.893154
0.500417 0.309086 0.893154
0.640719 0.309086 0.893154
0.781020 0.309086 0.893154
0.919092 0.306813 0.890925
1.000000 0.316767 0.870754
0.000000 0.516941 0.865059
0.067306 0.517788 0.913641
0.193697 0.507078 0.902932
0.320089 0.496369 0.892222
0.482714 0.479598 0.875451
0.623016 0.479598 0.875451
0.763317 0.479598 0.875451
0.901384 0.477363 0.873216
1.000000 0.469729 0.864172
0.000000 0.625308 0.865059
0.067306 0.641015 0.913641
0.193697 0.630305 0.902932
0.320089 0.619596 0.892222
0.482467 0.602578 0.875204
0.613238 0.593047 0.865673
0.753539 0.593047 0.865673
0.891605 0.590812 0.863438
0.991170 0.582230 0.854857
0.000000 0.745184 0.865059
0.067306 0.777328 0.913641
0.193697 0.766618 0.902932
0.320089 0.755909 0.892222
0.482467 0.738891 0.875204
0.611635 0.727758 0.864071
0.742722 0.718543 0.854857
0.880789 0.716308 0.852622
0.980353 0.707727 0.844040
0.000000 0.865059 0.865059
0.067306 0.913641 0.913641
0.193697 0.902932 0.902932
0.320089 0.892222 0.892222
0.482467 0.875204 0.875204
0.611635 0.864071 0.864071
0.740804 0.852938 0.852938
0.869972 0.841805 0.841805
0.969537 0.833223 0.833223
0.000000 0.979585 0.860383
0.095473 1.000000 0.874551
0.211155 1.000000 0.872859
0.326837 1.000000 0.870514
0.472351 1.000000 0.864048
0.600819 0.989568 0.853254
0.729987 0.978435 0.842121
0.861391 0.969537 0.833223
0.969537 0.969537 0.833223
0.000000 0.000000 0.979585
0.120293 0.000000 0.979585
0.240372 0.000000 0.979585
0.360451 0.000000 0.979585
0.516946 0.000000 0.979585
0.639635 0.000000 0.979585
0.762325 0.000000 0.979585
0.885015 0.000000 0.979585
0.979585 0.000000 0.979585
0.000000 0.116666 0.979585
0.095795 0.091979 1.000000
0.222123 0.091979 1.000000
0.348452 0.091979 1.000000
0.513283 0.091979 1.000000
0.642358 0.091979 1.000000
0.771433 0.091979 1.000000
0.900508 0.091979 1.000000
1.000000 0.091979 1.000000
0.000000 0.233332 0.979585
0.095473 0.214437 1.000000
0.211875 0.204373 1.000000
0.339836 0.204373 1.000000
0.506993 0.204373 1.000000
0.637736 0.204373 1.000000
0.768479 0.204373 1.000000
0.899222 0.204373 1.000000
1.000000 0.204373 1.000000
0.000000 0.349997 0.979585
0.095473 0.337217 1.000000
0.211155 0.328082 1.000000
0.328101 0.316767 1.000000
0.498377 0.316767 1.000000
0.631405 0.316767 1.000000
0.764433 0.316767 1.000000
0.897461 0.316767 1.000000
1.000000 0.316767 1.000000
0.000000 0.514221 0.979585
0.095473 0.510245 1.000000
0.211155 0.503643 1.000000
0.326837 0.494487 1.000000
0.472835 0.469729 1.000000
0.612636 0.469729 1.000000
0.752438 0.469729 1.000000
0.892239 0.469729 1.000000
1.000000 0.469729 1.000000
0.000000 0.621979 0.979585
0.095473 0.623652 1.000000
0.211155 0.618578 1.000000
0.326837 0.611542 1.000000
0.472351 0.592144 1.000000
0.602421 0.582230 0.991170
0.742722 0.582230 0.991170
0.883024 0.582230 0.991170
0.991170 0.582230 0.991170
0.000000 0.741181 0.979585
0.095473 0.749101 1.000000
0.211155 0.745719 1.000000
0.326837 0.741028 1.000000
0.472351 0.728096 1.000000
0.600819 0.716941 0.989568
0.731906 0.707727 0.980353
0.872207 0.707727 0.980353
0.980353 0.707727 0.980353
0.000000 0.860383 0.979585
0.095473 0.874551 1.000000
0.211155 0.872859 1.000000
0.326837 0.870514 1.000000
0.472351 0.864048 1.000000
0.600819 0.853254 0.989568
0.729987 0.842121 0.978435
0.861391 0.833223 0.969537
0.969537 0.833223 0.969537
0.000000 0.979585 0.979585
0.095473 1.000000 1.000000
0.211155 1.000000 1.000000
0.326837 1.000000 1.000000
0.472351 1.000000 1.000000
0.600819 0.989568 0.989568
0.729987 0.978435 0.978435
0.859156 0.967302 0.967302
0.958720 0.958720 0.958720
