docs/luts/fuji_recipes/Astia_RR_Kodak_Ektar_100.cube
TITLE "Fujifilm Recipe: RR Kodak Ektar 100 (Astia)"
# FilmSim=Astia HL=1 SH=3 Col=4 WB=Auto WBR=3 WBB=-2
LUT_3D_SIZE 33
DOMAIN_MIN 0.0 0.0 0.0
DOMAIN_MAX 1.0 1.0 1.0
0.021120 0.021120 0.021120
0.057595 0.013787 0.013787
0.093893 0.006489 0.006489
0.129355 0.000000 0.000000
0.158328 0.000000 0.000000
0.187301 0.000000 0.000000
0.216273 0.000000 0.000000
0.245246 0.000000 0.000000
0.274219 0.000000 0.000000
0.303192 0.000000 0.000000
0.332165 0.000000 0.000000
0.361138 0.000000 0.000000
0.390111 0.000000 0.000000
0.419084 0.000000 0.000000
0.448056 0.000000 0.000000
0.466469 0.000000 0.000000
0.556491 0.000000 0.000000
0.590400 0.000000 0.000000
0.624309 0.000000 0.000000
0.658218 0.000000 0.000000
0.692127 0.000000 0.000000
0.726035 0.000000 0.000000
0.759944 0.000000 0.000000
0.793853 0.000000 0.000000
0.827762 0.000000 0.000000
0.861671 0.000000 0.000000
0.895579 0.000000 0.000000
0.929488 0.000000 0.000000
0.963397 0.000000 0.000000
0.997306 0.000000 0.000000
1.000000 0.018923 0.018923
1.000000 0.018923 0.018923
1.000000 0.018923 0.018923
0.014366 0.054714 0.014366
0.057595 0.054135 0.013787
0.093893 0.046837 0.006489
0.129355 0.039854 0.000000
0.158328 0.036606 0.000000
0.187301 0.034656 0.000000
0.216273 0.033354 0.000000
0.245246 0.032425 0.000000
0.274219 0.031727 0.000000
0.303192 0.031185 0.000000
0.332165 0.030750 0.000000
0.361138 0.030395 0.000000
0.390111 0.030099 0.000000
0.419084 0.029848 0.000000
0.448056 0.029634 0.000000
0.466469 0.029512 0.000000
0.556491 0.028556 0.000000
0.590400 0.028415 0.000000
0.624309 0.028291 0.000000
0.658218 0.028180 0.000000
0.692127 0.028081 0.000000
0.726035 0.027992 0.000000
0.759944 0.027911 0.000000
0.793853 0.027838 0.000000
0.827762 0.027771 0.000000
0.861671 0.027709 0.000000
0.895579 0.027653 0.000000
0.929488 0.027601 0.000000
0.963397 0.027552 0.000000
0.997306 0.027507 0.000000
1.000000 0.045382 0.018923
1.000000 0.045382 0.018923
1.000000 0.045382 0.018923
0.007612 0.088308 0.007612
0.051420 0.088308 0.007612
0.093893 0.087185 0.006489
0.129355 0.079708 0.000000
0.158328 0.073212 0.000000
0.187301 0.069311 0.000000
0.216273 0.066709 0.000000
0.245246 0.064849 0.000000
0.274219 0.063454 0.000000
0.303192 0.062369 0.000000
0.332165 0.061501 0.000000
0.361138 0.060790 0.000000
0.390111 0.060198 0.000000
0.419084 0.059697 0.000000
0.448056 0.059267 0.000000
0.466469 0.059025 0.000000
0.556491 0.057112 0.000000
0.590400 0.056830 0.000000
0.624309 0.056582 0.000000
0.658218 0.056360 0.000000
0.692127 0.056162 0.000000
0.726035 0.055984 0.000000
0.759944 0.055823 0.000000
0.793853 0.055676 0.000000
0.827762 0.055542 0.000000
0.861671 0.055419 0.000000
0.895579 0.055306 0.000000
0.929488 0.055201 0.000000
0.963397 0.055104 0.000000
0.997306 0.055014 0.000000
1.000000 0.071842 0.018923
1.000000 0.071842 0.018923
1.000000 0.071842 0.018923
0.000858 0.121902 0.000858
0.044666 0.121902 0.000858
0.088262 0.121902 0.000858
0.129355 0.119562 0.000000
0.158328 0.109818 0.000000
0.187301 0.103967 0.000000
0.216273 0.100063 0.000000
0.245246 0.097274 0.000000
0.274219 0.095182 0.000000
0.303192 0.093554 0.000000
0.332165 0.092251 0.000000
0.361138 0.091185 0.000000
0.390111 0.090297 0.000000
0.419084 0.089545 0.000000
0.448056 0.088901 0.000000
0.466469 0.088537 0.000000
0.556491 0.085668 0.000000
0.590400 0.085245 0.000000
0.624309 0.084872 0.000000
0.658218 0.084541 0.000000
0.692127 0.084244 0.000000
0.726035 0.083976 0.000000
0.759944 0.083734 0.000000
0.793853 0.083514 0.000000
0.827762 0.083313 0.000000
0.861671 0.083128 0.000000
0.895579 0.082958 0.000000
0.929488 0.082802 0.000000
0.963397 0.082656 0.000000
0.997306 0.082521 0.000000
1.000000 0.098301 0.018923
1.000000 0.098301 0.018923
1.000000 0.098301 0.018923
0.000000 0.149600 0.000000
0.040607 0.149600 0.000000
0.081018 0.149600 0.000000
0.121390 0.149600 0.000000
0.158328 0.146424 0.000000
0.187301 0.138622 0.000000
0.216273 0.133418 0.000000
0.245246 0.129699 0.000000
0.274219 0.126909 0.000000
0.303192 0.124738 0.000000
0.332165 0.123002 0.000000
0.361138 0.121580 0.000000
0.390111 0.120396 0.000000
0.419084 0.119394 0.000000
0.448056 0.118535 0.000000
0.466469 0.118050 0.000000
0.556491 0.114224 0.000000
0.590400 0.113660 0.000000
0.624309 0.113163 0.000000
0.658218 0.112721 0.000000
0.692127 0.112325 0.000000
0.726035 0.111968 0.000000
0.759944 0.111645 0.000000
0.793853 0.111352 0.000000
0.827762 0.111083 0.000000
0.861671 0.110837 0.000000
0.895579 0.110611 0.000000
0.929488 0.110402 0.000000
0.963397 0.110208 0.000000
0.997306 0.110029 0.000000
1.000000 0.124761 0.018923
1.000000 0.124761 0.018923
1.000000 0.124761 0.018923
0.000000 0.176440 0.000000
0.038314 0.176440 0.000000
0.076442 0.176440 0.000000
0.114535 0.176440 0.000000
0.152627 0.176440 0.000000
0.187301 0.173278 0.000000
0.216273 0.166772 0.000000
0.245246 0.162123 0.000000
0.274219 0.158636 0.000000
0.303192 0.155923 0.000000
0.332165 0.153752 0.000000
0.361138 0.151976 0.000000
0.390111 0.150495 0.000000
0.419084 0.149242 0.000000
0.448056 0.148168 0.000000
0.466469 0.147562 0.000000
0.556491 0.142779 0.000000
0.590400 0.142076 0.000000
0.624309 0.141454 0.000000
0.658218 0.140901 0.000000
0.692127 0.140406 0.000000
0.726035 0.139960 0.000000
0.759944 0.139557 0.000000
0.793853 0.139190 0.000000
0.827762 0.138854 0.000000
0.861671 0.138547 0.000000
0.895579 0.138264 0.000000
0.929488 0.138003 0.000000
0.963397 0.137761 0.000000
0.997306 0.137536 0.000000
1.000000 0.151220 0.018923
1.000000 0.151220 0.018923
1.000000 0.151220 0.018923
0.000000 0.203280 0.000000
0.036785 0.203280 0.000000
0.073392 0.203280 0.000000
0.109965 0.203280 0.000000
0.146537 0.203280 0.000000
0.183109 0.203280 0.000000
0.216273 0.200126 0.000000
0.245246 0.194548 0.000000
0.274219 0.190363 0.000000
0.303192 0.187107 0.000000
0.332165 0.184502 0.000000
0.361138 0.182371 0.000000
0.390111 0.180594 0.000000
0.419084 0.179091 0.000000
0.448056 0.177802 0.000000
0.466469 0.177075 0.000000
0.556491 0.171335 0.000000
0.590400 0.170491 0.000000
0.624309 0.169745 0.000000
0.658218 0.169081 0.000000
0.692127 0.168487 0.000000
0.726035 0.167952 0.000000
0.759944 0.167468 0.000000
0.793853 0.167028 0.000000
0.827762 0.166625 0.000000
0.861671 0.166256 0.000000
0.895579 0.165917 0.000000
0.929488 0.165603 0.000000
0.963397 0.165313 0.000000
0.997306 0.165043 0.000000
1.000000 0.177679 0.018923
1.000000 0.177679 0.018923
1.000000 0.177679 0.018923
0.000000 0.230120 0.000000
0.035693 0.230120 0.000000
0.071214 0.230120 0.000000
0.106700 0.230120 0.000000
0.142187 0.230120 0.000000
0.177674 0.230120 0.000000
0.213160 0.230120 0.000000
0.245246 0.226973 0.000000
0.274219 0.222090 0.000000
0.303192 0.218292 0.000000
0.332165 0.215253 0.000000
0.361138 0.212766 0.000000
0.390111 0.210693 0.000000
0.419084 0.208939 0.000000
0.448056 0.207436 0.000000
0.466469 0.206587 0.000000
0.556491 0.199891 0.000000
0.590400 0.198906 0.000000
0.624309 0.198036 0.000000
0.658218 0.197262 0.000000
0.692127 0.196568 0.000000
0.726035 0.195944 0.000000
0.759944 0.195379 0.000000
0.793853 0.194865 0.000000
0.827762 0.194396 0.000000
0.861671 0.193966 0.000000
0.895579 0.193569 0.000000
0.929488 0.193204 0.000000
0.963397 0.192865 0.000000
0.997306 0.192550 0.000000
1.000000 0.204139 0.018923
1.000000 0.204139 0.018923
1.000000 0.204139 0.018923
0.000000 0.256960 0.000000
0.034874 0.256960 0.000000
0.069580 0.256960 0.000000
0.104252 0.256960 0.000000
0.138925 0.256960 0.000000
0.173597 0.256960 0.000000
0.208270 0.256960 0.000000
0.242942 0.256960 0.000000
0.274219 0.253817 0.000000
0.303192 0.249476 0.000000
0.332165 0.246003 0.000000
0.361138 0.243161 0.000000
0.390111 0.240792 0.000000
0.419084 0.238788 0.000000
0.448056 0.237069 0.000000
0.466469 0.236099 0.000000
0.556491 0.228447 0.000000
0.590400 0.227321 0.000000
0.624309 0.226326 0.000000
0.658218 0.225442 0.000000
0.692127 0.224650 0.000000
0.726035 0.223936 0.000000
0.759944 0.223291 0.000000
0.793853 0.222703 0.000000
0.827762 0.222167 0.000000
0.861671 0.221675 0.000000
0.895579 0.221222 0.000000
0.929488 0.220804 0.000000
0.963397 0.220417 0.000000
0.997306 0.220057 0.000000
1.000000 0.230598 0.018923
1.000000 0.230598 0.018923
1.000000 0.230598 0.018923
0.000000 0.283800 0.000000
0.034237 0.283800 0.000000
0.068309 0.283800 0.000000
0.102348 0.283800 0.000000
0.136387 0.283800 0.000000
0.170426 0.283800 0.000000
0.204466 0.283800 0.000000
0.238505 0.283800 0.000000
0.272544 0.283800 0.000000
0.303192 0.280661 0.000000
0.332165 0.276754 0.000000
0.361138 0.273556 0.000000
0.390111 0.270891 0.000000
0.419084 0.268636 0.000000
0.448056 0.266703 0.000000
0.466469 0.265612 0.000000
0.556491 0.257003 0.000000
0.590400 0.255736 0.000000
0.624309 0.254617 0.000000
0.658218 0.253622 0.000000
0.692127 0.252731 0.000000
0.726035 0.251928 0.000000
0.759944 0.251202 0.000000
0.793853 0.250541 0.000000
0.827762 0.249938 0.000000
0.861671 0.249384 0.000000
0.895579 0.248875 0.000000
0.929488 0.248405 0.000000
0.963397 0.247969 0.000000
0.997306 0.247564 0.000000
1.000000 0.257058 0.018923
1.000000 0.257058 0.018923
1.000000 0.257058 0.018923
0.000000 0.310640 0.000000
0.033728 0.310640 0.000000
0.067292 0.310640 0.000000
0.100825 0.310640 0.000000
0.134357 0.310640 0.000000
0.167890 0.310640 0.000000
0.201422 0.310640 0.000000
0.234955 0.310640 0.000000
0.268487 0.310640 0.000000
0.302020 0.310640 0.000000
0.332165 0.307504 0.000000
0.361138 0.303951 0.000000
0.390111 0.300990 0.000000
0.419084 0.298485 0.000000
0.448056 0.296337 0.000000
0.466469 0.295124 0.000000
0.556491 0.285559 0.000000
0.590400 0.284151 0.000000
0.624309 0.282908 0.000000
0.658218 0.281802 0.000000
0.692127 0.280812 0.000000
0.726035 0.279920 0.000000
0.759944 0.279113 0.000000
0.793853 0.278379 0.000000
0.827762 0.277709 0.000000
0.861671 0.277094 0.000000
0.895579 0.276528 0.000000
0.929488 0.276005 0.000000
0.963397 0.275521 0.000000
0.997306 0.275071 0.000000
1.000000 0.283517 0.018923
1.000000 0.283517 0.018923
1.000000 0.283517 0.018923
0.000000 0.337480 0.000000
0.033311 0.337480 0.000000
0.066460 0.337480 0.000000
0.099578 0.337480 0.000000
0.132696 0.337480 0.000000
0.165814 0.337480 0.000000
0.198932 0.337480 0.000000
0.232050 0.337480 0.000000
0.265169 0.337480 0.000000
0.298287 0.337480 0.000000
0.331405 0.337480 0.000000
0.361138 0.334346 0.000000
0.390111 0.331089 0.000000
0.419084 0.328333 0.000000
0.448056 0.325970 0.000000
0.466469 0.324637 0.000000
0.556491 0.314115 0.000000
0.590400 0.312566 0.000000
0.624309 0.311199 0.000000
0.658218 0.309982 0.000000
0.692127 0.308893 0.000000
0.726035 0.307913 0.000000
0.759944 0.307025 0.000000
0.793853 0.306217 0.000000
0.827762 0.305480 0.000000
0.861671 0.304803 0.000000
0.895579 0.304181 0.000000
0.929488 0.303606 0.000000
0.963397 0.303073 0.000000
0.997306 0.302579 0.000000
1.000000 0.309977 0.018923
1.000000 0.309977 0.018923
1.000000 0.309977 0.018923
0.000000 0.364320 0.000000
0.032963 0.364320 0.000000
0.065767 0.364320 0.000000
0.098540 0.364320 0.000000
0.131312 0.364320 0.000000
0.164085 0.364320 0.000000
0.196858 0.364320 0.000000
0.229630 0.364320 0.000000
0.262403 0.364320 0.000000
0.295175 0.364320 0.000000
0.327948 0.364320 0.000000
0.360721 0.364320 0.000000
0.390111 0.361188 0.000000
0.419084 0.358182 0.000000
0.448056 0.355604 0.000000
0.466469 0.354149 0.000000
0.556491 0.342671 0.000000
0.590400 0.340981 0.000000
0.624309 0.339490 0.000000
0.658218 0.338163 0.000000
0.692127 0.336975 0.000000
0.726035 0.335905 0.000000
0.759944 0.334936 0.000000
0.793853 0.334055 0.000000
0.827762 0.333250 0.000000
0.861671 0.332512 0.000000
0.895579 0.331833 0.000000
0.929488 0.331206 0.000000
0.963397 0.330625 0.000000
0.997306 0.330086 0.000000
1.000000 0.336436 0.018923
1.000000 0.336436 0.018923
1.000000 0.336436 0.018923
0.000000 0.391160 0.000000
0.032669 0.391160 0.000000
0.065181 0.391160 0.000000
0.097661 0.391160 0.000000
0.130141 0.391160 0.000000
0.162622 0.391160 0.000000
0.195102 0.391160 0.000000
0.227582 0.391160 0.000000
0.260062 0.391160 0.000000
0.292543 0.391160 0.000000
0.325023 0.391160 0.000000
0.357503 0.391160 0.000000
0.389984 0.391160 0.000000
0.419084 0.388030 0.000000
0.448056 0.385238 0.000000
0.466469 0.383662 0.000000
0.556491 0.371227 0.000000
0.590400 0.369397 0.000000
0.624309 0.367780 0.000000
0.658218 0.366343 0.000000
0.692127 0.365056 0.000000
0.726035 0.363897 0.000000
0.759944 0.362847 0.000000
0.793853 0.361893 0.000000
0.827762 0.361021 0.000000
0.861671 0.360222 0.000000
0.895579 0.359486 0.000000
0.929488 0.358807 0.000000
0.963397 0.358177 0.000000
0.997306 0.357593 0.000000
1.000000 0.362895 0.018923
1.000000 0.362895 0.018923
1.000000 0.362895 0.018923
0.000000 0.418000 0.000000
0.032417 0.418000 0.000000
0.064678 0.418000 0.000000
0.096908 0.418000 0.000000
0.129137 0.418000 0.000000
0.161367 0.418000 0.000000
0.193597 0.418000 0.000000
0.225827 0.418000 0.000000
0.258057 0.418000 0.000000
0.290286 0.418000 0.000000
0.322516 0.418000 0.000000
0.354746 0.418000 0.000000
0.386976 0.418000 0.000000
0.419084 0.417879 0.000000
0.448056 0.414872 0.000000
0.466469 0.413174 0.000000
0.556491 0.399782 0.000000
0.590400 0.397812 0.000000
0.624309 0.396071 0.000000
0.658218 0.394523 0.000000
0.692127 0.393137 0.000000
0.726035 0.391889 0.000000
0.759944 0.390759 0.000000
0.793853 0.389731 0.000000
0.827762 0.388792 0.000000
0.861671 0.387931 0.000000
0.895579 0.387139 0.000000
0.929488 0.386407 0.000000
0.963397 0.385730 0.000000
0.997306 0.385100 0.000000
1.000000 0.389355 0.018923
1.000000 0.389355 0.018923
1.000000 0.389355 0.018923
0.000000 0.444840 0.000000
0.032199 0.444840 0.000000
0.064242 0.444840 0.000000
0.096255 0.444840 0.000000
0.128267 0.444840 0.000000
0.160280 0.444840 0.000000
0.192293 0.444840 0.000000
0.224305 0.444840 0.000000
0.256318 0.444840 0.000000
0.288331 0.444840 0.000000
0.320343 0.444840 0.000000
0.352356 0.444840 0.000000
0.384369 0.444840 0.000000
0.416381 0.444840 0.000000
0.448056 0.444505 0.000000
0.466469 0.442686 0.000000
0.556491 0.428338 0.000000
0.590400 0.426227 0.000000
0.624309 0.424362 0.000000
0.658218 0.422703 0.000000
0.692127 0.421218 0.000000
0.726035 0.419881 0.000000
0.759944 0.418670 0.000000
0.793853 0.417569 0.000000
0.827762 0.416563 0.000000
0.861671 0.415641 0.000000
0.895579 0.414792 0.000000
0.929488 0.414008 0.000000
0.963397 0.413282 0.000000
0.997306 0.412607 0.000000
1.000000 0.415814 0.018923
1.000000 0.415814 0.018923
1.000000 0.415814 0.018923
0.000000 0.471427 0.000000
0.032010 0.471427 0.000000
0.063864 0.471427 0.000000
0.095689 0.471427 0.000000
0.127513 0.471427 0.000000
0.159337 0.471427 0.000000
0.191162 0.471427 0.000000
0.222986 0.471427 0.000000
0.254810 0.471427 0.000000
0.286635 0.471427 0.000000
0.318459 0.471427 0.000000
0.350283 0.471427 0.000000
0.382108 0.471427 0.000000
0.413932 0.471427 0.000000
0.445756 0.471427 0.000000
0.465981 0.471427 0.000000
0.556491 0.456625 0.000000
0.590400 0.454374 0.000000
0.624309 0.452386 0.000000
0.658218 0.450617 0.000000
0.692127 0.449034 0.000000
0.726035 0.447608 0.000000
0.759944 0.446318 0.000000
0.793853 0.445144 0.000000
0.827762 0.444072 0.000000
0.861671 0.514221 0.000000
0.895579 0.513562 0.000000
0.929488 0.512982 0.000000
0.963397 0.512472 0.000000
0.997306 0.512025 0.000000
1.000000 0.511684 0.018923
1.000000 0.511684 0.018923
1.000000 0.511684 0.018923
0.000000 0.487960 0.000000
0.031903 0.487960 0.000000
0.063652 0.487960 0.000000
0.095371 0.487960 0.000000
0.127089 0.487960 0.000000
0.158808 0.487960 0.000000
0.190526 0.487960 0.000000
0.222245 0.487960 0.000000
0.253963 0.487960 0.000000
0.285682 0.487960 0.000000
0.317401 0.487960 0.000000
0.349119 0.487960 0.000000
0.380838 0.487960 0.000000
0.412556 0.487960 0.000000
0.444275 0.487960 0.000000
0.464433 0.487960 0.000000
0.556491 0.474215 0.000000
0.590400 0.544789 0.000000
0.624309 0.542805 0.000000
0.658218 0.541082 0.000000
0.692127 0.539579 0.000000
0.726035 0.538261 0.000000
0.759944 0.537104 0.000000
0.793853 0.536085 0.000000
0.827762 0.535187 0.000000
0.861671 0.534394 0.000000
0.895579 0.533693 0.000000
0.929488 0.533075 0.000000
0.963397 0.532530 0.000000
0.997306 0.532050 0.000000
1.000000 0.530947 0.018923
1.000000 0.530947 0.018923
1.000000 0.530947 0.018923
0.000000 0.579147 0.000000
0.030900 0.579147 0.000000
0.061651 0.579147 0.000000
0.092372 0.579147 0.000000
0.123094 0.579147 0.000000
0.153815 0.579147 0.000000
0.184537 0.579147 0.000000
0.215258 0.579147 0.000000
0.245980 0.579147 0.000000
0.276701 0.579147 0.000000
0.307423 0.579147 0.000000
0.338144 0.579147 0.000000
0.368866 0.579147 0.000000
0.399587 0.579147 0.000000
0.430308 0.579147 0.000000
0.449833 0.579147 0.000000
0.554889 0.579147 0.000000
0.590400 0.578370 0.000000
0.624309 0.576240 0.000000
0.658218 0.574386 0.000000
0.692127 0.572765 0.000000
0.726035 0.571343 0.000000
0.759944 0.570090 0.000000
0.793853 0.568985 0.000000
0.827762 0.568007 0.000000
0.861671 0.567141 0.000000
0.895579 0.566374 0.000000
0.929488 0.565694 0.000000
0.963397 0.565092 0.000000
0.997306 0.564559 0.000000
1.000000 0.562217 0.018923
1.000000 0.562217 0.018923
1.000000 0.562217 0.018923
0.000000 0.610560 0.000000
0.030770 0.610560 0.000000
0.061390 0.610560 0.000000
0.091982 0.610560 0.000000
0.122573 0.610560 0.000000
0.153164 0.610560 0.000000
0.183756 0.610560 0.000000
0.214347 0.610560 0.000000
0.244939 0.610560 0.000000
0.275530 0.610560 0.000000
0.306122 0.610560 0.000000
0.336713 0.610560 0.000000
0.367305 0.610560 0.000000
0.397896 0.610560 0.000000
0.428487 0.610560 0.000000
0.447929 0.610560 0.000000
0.552912 0.610560 0.000000
0.589066 0.610560 0.000000
0.624309 0.609675 0.000000
0.658218 0.607690 0.000000
0.692127 0.605952 0.000000
0.726035 0.604424 0.000000
0.759944 0.603076 0.000000
0.793853 0.601884 0.000000
0.827762 0.600827 0.000000
0.861671 0.599889 0.000000
0.895579 0.599055 0.000000
0.929488 0.598313 0.000000
0.963397 0.597653 0.000000
0.997306 0.597067 0.000000
1.000000 0.593487 0.018923
1.000000 0.593487 0.018923
1.000000 0.593487 0.018923
0.000000 0.641972 0.000000
0.030652 0.641972 0.000000
0.061157 0.641972 0.000000
0.091632 0.641972 0.000000
0.122107 0.641972 0.000000
0.152582 0.641972 0.000000
0.183057 0.641972 0.000000
0.213532 0.641972 0.000000
0.244007 0.641972 0.000000
0.274482 0.641972 0.000000
0.304957 0.641972 0.000000
0.335432 0.641972 0.000000
0.365908 0.641972 0.000000
0.396383 0.641972 0.000000
0.426858 0.641972 0.000000
0.446225 0.641972 0.000000
0.551179 0.641972 0.000000
0.587195 0.641972 0.000000
0.623211 0.641972 0.000000
0.658218 0.640994 0.000000
0.692127 0.639139 0.000000
0.726035 0.637506 0.000000
0.759944 0.636063 0.000000
0.793853 0.634783 0.000000
0.827762 0.633647 0.000000
0.861671 0.632636 0.000000
0.895579 0.631735 0.000000
0.929488 0.630932 0.000000
0.963397 0.630215 0.000000
0.997306 0.629576 0.000000
1.000000 0.624757 0.018923
1.000000 0.624757 0.018923
1.000000 0.624757 0.018923
0.000000 0.673385 0.000000
0.030547 0.673385 0.000000
0.060946 0.673385 0.000000
0.091317 0.673385 0.000000
0.121687 0.673385 0.000000
0.152058 0.673385 0.000000
0.182428 0.673385 0.000000
0.212798 0.673385 0.000000
0.243169 0.673385 0.000000
0.273539 0.673385 0.000000
0.303909 0.673385 0.000000
0.334280 0.673385 0.000000
0.364650 0.673385 0.000000
0.395020 0.673385 0.000000
0.425391 0.673385 0.000000
0.444692 0.673385 0.000000
0.549654 0.673385 0.000000
0.585546 0.673385 0.000000
0.621438 0.673385 0.000000
0.657331 0.673385 0.000000
0.692127 0.672326 0.000000
0.726035 0.670587 0.000000
0.759944 0.669049 0.000000
0.793853 0.667683 0.000000
0.827762 0.666467 0.000000
0.861671 0.665384 0.000000
0.895579 0.664416 0.000000
0.929488 0.663550 0.000000
0.963397 0.662777 0.000000
0.997306 0.662084 0.000000
1.000000 0.656027 0.018923
1.000000 0.656027 0.018923
1.000000 0.656027 0.018923
0.000000 0.704797 0.000000
0.030452 0.704797 0.000000
0.060756 0.704797 0.000000
0.091032 0.704797 0.000000
0.121307 0.704797 0.000000
0.151583 0.704797 0.000000
0.181859 0.704797 0.000000
0.212134 0.704797 0.000000
0.242410 0.704797 0.000000
0.272685 0.704797 0.000000
0.302961 0.704797 0.000000
0.333237 0.704797 0.000000
0.363512 0.704797 0.000000
0.393788 0.704797 0.000000
0.424063 0.704797 0.000000
0.443304 0.704797 0.000000
0.548306 0.704797 0.000000
0.584087 0.704797 0.000000
0.619867 0.704797 0.000000
0.655647 0.704797 0.000000
0.691427 0.704797 0.000000
0.726035 0.703669 0.000000
0.759944 0.702035 0.000000
0.793853 0.700582 0.000000
0.827762 0.699287 0.000000
0.861671 0.698131 0.000000
0.895579 0.697096 0.000000
0.929488 0.696169 0.000000
0.963397 0.695338 0.000000
0.997306 0.694593 0.000000
1.000000 0.687298 0.018923
1.000000 0.687298 0.018923
1.000000 0.687298 0.018923
0.000000 0.736210 0.000000
0.030365 0.736210 0.000000
0.060583 0.736210 0.000000
0.090773 0.736210 0.000000
0.120962 0.736210 0.000000
0.151152 0.736210 0.000000
0.181341 0.736210 0.000000
0.211531 0.736210 0.000000
0.241720 0.736210 0.000000
0.271909 0.736210 0.000000
0.302099 0.736210 0.000000
0.332288 0.736210 0.000000
0.362478 0.736210 0.000000
0.392667 0.736210 0.000000
0.422857 0.736210 0.000000
0.442043 0.736210 0.000000
0.547112 0.736210 0.000000
0.582791 0.736210 0.000000
0.618469 0.736210 0.000000
0.654148 0.736210 0.000000
0.689826 0.736210 0.000000
0.725504 0.736210 0.000000
0.759944 0.735021 0.000000
0.793853 0.733482 0.000000
0.827762 0.732108 0.000000
0.861671 0.730878 0.000000
0.895579 0.729777 0.000000
0.929488 0.728788 0.000000
0.963397 0.727900 0.000000
0.997306 0.727101 0.000000
1.000000 0.718568 0.018923
1.000000 0.718568 0.018923
1.000000 0.718568 0.018923
0.000000 0.767622 0.000000
0.030286 0.767622 0.000000
0.060425 0.767622 0.000000
0.090536 0.767622 0.000000
0.120647 0.767622 0.000000
0.150758 0.767622 0.000000
0.180868 0.767622 0.000000
0.210979 0.767622 0.000000
0.241090 0.767622 0.000000
0.271201 0.767622 0.000000
0.301311 0.767622 0.000000
0.331422 0.767622 0.000000
0.361533 0.767622 0.000000
0.391644 0.767622 0.000000
0.421754 0.767622 0.000000
0.440890 0.767622 0.000000
0.546052 0.767622 0.000000
0.581637 0.767622 0.000000
0.617223 0.767622 0.000000
0.652808 0.767622 0.000000
0.688394 0.767622 0.000000
0.723979 0.767622 0.000000
0.759565 0.767622 0.000000
0.793853 0.766381 0.000000
0.827762 0.764928 0.000000
0.861671 0.763626 0.000000
0.895579 0.762457 0.000000
0.929488 0.761407 0.000000
0.963397 0.760461 0.000000
0.997306 0.759609 0.000000
1.000000 0.749838 0.018923
1.000000 0.749838 0.018923
1.000000 0.749838 0.018923
0.000000 0.799035 0.000000
0.030213 0.799035 0.000000
0.060281 0.799035 0.000000
0.090319 0.799035 0.000000
0.120358 0.799035 0.000000
0.150397 0.799035 0.000000
0.180435 0.799035 0.000000
0.210474 0.799035 0.000000
0.240512 0.799035 0.000000
0.270551 0.799035 0.000000
0.300590 0.799035 0.000000
0.330628 0.799035 0.000000
0.360667 0.799035 0.000000
0.390705 0.799035 0.000000
0.420744 0.799035 0.000000
0.439834 0.799035 0.000000
0.545108 0.799035 0.000000
0.580609 0.799035 0.000000
0.616109 0.799035 0.000000
0.651609 0.799035 0.000000
0.687109 0.799035 0.000000
0.722609 0.799035 0.000000
0.758110 0.799035 0.000000
0.793610 0.799035 0.000000
0.827762 0.797748 0.000000
0.861671 0.796373 0.000000
0.895579 0.795138 0.000000
0.929488 0.794026 0.000000
0.963397 0.793023 0.000000
0.997306 0.792118 0.000000
1.000000 0.781108 0.018923
1.000000 0.781108 0.018923
1.000000 0.781108 0.018923
0.000000 0.830448 0.000000
0.030147 0.830448 0.000000
0.060148 0.830448 0.000000
0.090120 0.830448 0.000000
0.120092 0.830448 0.000000
0.150064 0.830448 0.000000
0.180036 0.830448 0.000000
0.210009 0.830448 0.000000
0.239981 0.830448 0.000000
0.269953 0.830448 0.000000
0.299925 0.830448 0.000000
0.329898 0.830448 0.000000
0.359870 0.830448 0.000000
0.389842 0.830448 0.000000
0.419814 0.830448 0.000000
0.438862 0.830448 0.000000
0.544268 0.830448 0.000000
0.579690 0.830448 0.000000
0.615111 0.830448 0.000000
0.650533 0.830448 0.000000
0.685955 0.830448 0.000000
0.721377 0.830448 0.000000
0.756798 0.830448 0.000000
0.792220 0.830448 0.000000
