docs/luts/fuji_recipes/Astia_NZD_Ektar_100.cube
TITLE "Fujifilm Recipe: NZD Ektar 100 (Astia)"
# FilmSim=Astia HL=1 SH=1 Col=2 WB=Auto WBR=0 WBB=0
LUT_3D_SIZE 9
DOMAIN_MIN 0.0 0.0 0.0
DOMAIN_MAX 1.0 1.0 1.0
0.023040 0.023040 0.023040
0.151974 0.011927 0.011927
0.280673 0.000835 0.000835
0.399114 0.000000 0.000000
0.505200 0.000000 0.000000
0.649760 0.000000 0.000000
0.776549 0.000000 0.000000
0.903339 0.000000 0.000000
1.000000 0.025701 0.025701
0.011993 0.151207 0.011993
0.151974 0.151141 0.011927
0.280673 0.140048 0.000835
0.399114 0.132407 0.000000
0.505200 0.128875 0.000000
0.649760 0.125254 0.000000
0.776549 0.123627 0.000000
0.903339 0.122482 0.000000
1.000000 0.141264 0.025701
0.000946 0.279374 0.000946
0.140993 0.279374 0.000946
0.280673 0.279262 0.000835
0.399114 0.264814 0.000000
0.505200 0.257750 0.000000
0.649760 0.250508 0.000000
0.776549 0.247253 0.000000
0.903339 0.244964 0.000000
1.000000 0.256826 0.025701
0.000000 0.397440 0.000000
0.133273 0.397440 0.000000
0.266303 0.397440 0.000000
0.399114 0.397222 0.000000
0.505200 0.386625 0.000000
0.649760 0.375761 0.000000
0.776549 0.370880 0.000000
0.903339 0.367446 0.000000
1.000000 0.372388 0.025701
0.000000 0.514284 0.000000
0.129416 0.514284 0.000000
0.258598 0.514284 0.000000
0.387779 0.514284 0.000000
0.504306 0.514284 0.000000
0.649760 0.500719 0.000000
0.776549 0.494214 0.000000
0.903339 0.513909 0.000000
1.000000 0.511249 0.025701
0.000000 0.646906 0.000000
0.126048 0.646906 0.000000
0.251867 0.646906 0.000000
0.377686 0.646906 0.000000
0.491180 0.646906 0.000000
0.649760 0.646693 0.000000
0.776549 0.639037 0.000000
0.903339 0.633860 0.000000
1.000000 0.624423 0.025701
0.000000 0.773171 0.000000
0.124402 0.773171 0.000000
0.248579 0.773171 0.000000
0.372755 0.773171 0.000000
0.484768 0.773171 0.000000
0.642231 0.773171 0.000000
0.776549 0.772966 0.000000
0.903339 0.766549 0.000000
1.000000 0.749615 0.025701
0.000000 0.899436 0.000000
0.123245 0.899436 0.000000
0.246266 0.899436 0.000000
0.369287 0.899436 0.000000
0.480258 0.899436 0.000000
0.636993 0.899436 0.000000
0.770266 0.899436 0.000000
0.903339 0.899238 0.000000
1.000000 0.874808 0.025701
0.025701 1.000000 0.025701
0.141955 1.000000 0.025701
0.257997 1.000000 0.025701
0.374040 1.000000 0.025701
0.501540 1.000000 0.025701
0.627252 1.000000 0.025701
0.752965 1.000000 0.025701
0.878677 1.000000 0.025701
1.000000 1.000000 0.025701
0.011993 0.011993 0.151207
0.151974 0.011927 0.151141
0.280673 0.000835 0.140048
0.399114 0.000000 0.132407
0.505200 0.000000 0.128875
0.649760 0.000000 0.125254
0.776549 0.000000 0.123627
0.903339 0.000000 0.122482
1.000000 0.025701 0.141264
0.011993 0.151207 0.151207
0.140927 0.140094 0.140094
0.269626 0.129001 0.129001
0.398325 0.117909 0.117909
0.514418 0.107903 0.107903
0.675647 0.091848 0.091848
0.815182 0.079102 0.079102
0.954718 0.066356 0.066356
1.000000 0.143436 0.143436
0.000946 0.279374 0.140160
0.129946 0.268327 0.129113
0.269626 0.268215 0.129001
0.398325 0.257122 0.117909
0.514418 0.247116 0.107903
0.675647 0.231061 0.091848
0.815182 0.218316 0.079102
0.954718 0.205570 0.066356
1.000000 0.258613 0.143436
0.000000 0.397440 0.132480
0.118899 0.396494 0.118066
0.258691 0.396494 0.118066
0.398325 0.396336 0.117909
0.514418 0.386330 0.107903
0.675647 0.370275 0.091848
0.815182 0.357529 0.079102
0.954718 0.344783 0.066356
1.000000 0.373790 0.143436
0.000000 0.514284 0.128647
0.107879 0.524358 0.107046
0.247671 0.524358 0.107046
0.387462 0.524358 0.107046
0.513561 0.524358 0.107046
0.675647 0.509160 0.091848
0.815182 0.523996 0.079102
0.954718 0.512090 0.066356
1.000000 0.512879 0.143436
0.000000 0.646906 0.125298
0.092967 0.672506 0.092135
0.232759 0.672506 0.092135
0.372551 0.672506 0.092135
0.498650 0.672506 0.092135
0.675647 0.672238 0.091848
0.815182 0.660333 0.079102
0.954718 0.648427 0.066356
1.000000 0.625676 0.143436
0.000000 0.773171 0.123663
0.080275 0.811464 0.079442
0.220066 0.811464 0.079442
0.359858 0.811464 0.079442
0.485957 0.811464 0.079442
0.664058 0.811464 0.079442
0.815182 0.811147 0.079102
0.954718 0.799241 0.066356
1.000000 0.750451 0.143436
0.000000 0.899436 0.122512
0.067582 0.950422 0.066749
0.207374 0.950422 0.066749
0.347165 0.950422 0.066749
0.500760 0.950422 0.066749
0.652202 0.950422 0.066749
0.803643 0.950422 0.066749
0.954718 0.950056 0.066356
1.000000 0.875225 0.143436
0.025701 1.000000 0.141264
0.144125 1.000000 0.143436
0.259781 1.000000 0.143436
0.375436 1.000000 0.143436
0.503203 1.000000 0.143436
0.628496 1.000000 0.143436
0.753789 1.000000 0.143436
0.879082 1.000000 0.143436
1.000000 1.000000 0.143436
0.000946 0.000946 0.279374
0.140993 0.000946 0.279374
0.280673 0.000835 0.279262
0.399114 0.000000 0.264814
0.505200 0.000000 0.257750
0.649760 0.000000 0.250508
0.776549 0.000000 0.247253
0.903339 0.000000 0.244964
1.000000 0.025701 0.256826
0.000946 0.140160 0.279374
0.129946 0.129113 0.268327
0.269626 0.129001 0.268215
0.398325 0.117909 0.257122
0.514418 0.107903 0.247116
0.675647 0.091848 0.231061
0.815182 0.079102 0.218316
0.954718 0.066356 0.205570
1.000000 0.143436 0.258613
0.000946 0.279374 0.279374
0.129880 0.268261 0.268261
0.258579 0.257168 0.257168
0.387278 0.246075 0.246075
0.503371 0.236069 0.236069
0.665326 0.219904 0.219904
0.804861 0.207158 0.207158
0.944396 0.194413 0.194413
1.000000 0.261171 0.261171
0.000000 0.397440 0.264960
0.118833 0.396427 0.257214
0.247644 0.385447 0.246233
0.387278 0.385289 0.246075
0.503371 0.375283 0.236069
0.665326 0.359117 0.219904
0.804861 0.346372 0.207158
0.944396 0.333626 0.194413
1.000000 0.375843 0.261171
0.000000 0.514284 0.257294
0.107813 0.524292 0.246193
0.236624 0.513311 0.235213
0.376416 0.513311 0.235213
0.502514 0.513311 0.235213
0.665326 0.525581 0.219904
0.804861 0.513675 0.207158
0.944396 0.501769 0.194413
1.000000 0.515013 0.261171
0.000000 0.646906 0.250597
0.092901 0.672445 0.231281
0.221602 0.662185 0.220191
0.361394 0.662185 0.220191
0.487493 0.662185 0.220191
0.665326 0.661917 0.219904
0.804861 0.650011 0.207158
0.944396 0.638105 0.194413
1.000000 0.627315 0.261171
0.000000 0.773171 0.247325
0.080208 0.811403 0.218588
0.208909 0.801143 0.207498
0.348701 0.801143 0.207498
0.502296 0.801143 0.207498
0.653737 0.801143 0.207498
0.804861 0.800826 0.207158
0.944396 0.788920 0.194413
1.000000 0.751543 0.261171
0.000000 0.899436 0.245024
0.067515 0.950361 0.205896
0.196216 0.940101 0.194805
0.336008 0.940101 0.194805
0.490439 0.940101 0.194805
0.641880 0.940101 0.194805
0.793322 0.940101 0.194805
0.944396 0.939735 0.194413
1.000000 0.875772 0.261171
0.025701 1.000000 0.256826
0.144141 1.000000 0.258626
0.262334 1.000000 0.261171
0.377482 1.000000 0.261171
0.505378 1.000000 0.261171
0.630123 1.000000 0.261171
0.754867 1.000000 0.261171
0.879612 1.000000 0.261171
1.000000 1.000000 0.261171
0.000000 0.000000 0.397440
0.133273 0.000000 0.397440
0.266303 0.000000 0.397440
0.399114 0.000000 0.397222
0.505200 0.000000 0.386625
0.649760 0.000000 0.375761
0.776549 0.000000 0.370880
0.903339 0.000000 0.367446
1.000000 0.025701 0.372388
0.000000 0.132480 0.397440
0.118899 0.118066 0.396494
0.258691 0.118066 0.396494
0.398325 0.117909 0.396336
0.514418 0.107903 0.386330
0.675647 0.091848 0.370275
0.815182 0.079102 0.357529
0.954718 0.066356 0.344783
1.000000 0.143436 0.373790
0.000000 0.264960 0.397440
0.118833 0.257214 0.396427
0.247644 0.246233 0.385447
0.387278 0.246075 0.385289
0.503371 0.236069 0.375283
0.665326 0.219904 0.359117
0.804861 0.207158 0.346372
0.944396 0.194413 0.333626
1.000000 0.261171 0.375843
0.000000 0.397440 0.397440
0.118833 0.396427 0.396427
0.247532 0.385335 0.385335
0.376232 0.374242 0.374242
0.492324 0.364236 0.364236
0.655005 0.347960 0.347960
0.794540 0.335214 0.335214
0.934075 0.322469 0.322469
1.000000 0.378906 0.378906
0.000000 0.514284 0.385940
0.107813 0.524292 0.385407
0.236512 0.513199 0.374314
0.361711 0.526246 0.359721
0.487809 0.526246 0.359721
0.655005 0.515260 0.347960
0.794540 0.503354 0.335214
0.934075 0.491448 0.322469
1.000000 0.517925 0.378906
0.000000 0.646906 0.375895
0.092901 0.672445 0.370495
0.221489 0.662081 0.359291
0.350236 0.651864 0.348247
0.503831 0.651864 0.348247
0.655005 0.651596 0.347960
0.794540 0.639690 0.335214
0.934075 0.627784 0.322469
1.000000 0.629553 0.378906
0.000000 0.773171 0.370988
0.080208 0.811403 0.357802
0.208796 0.801039 0.346598
0.337543 0.790822 0.335554
0.491975 0.790822 0.335554
0.643416 0.790822 0.335554
0.794540 0.790505 0.335214
0.934075 0.778599 0.322469
1.000000 0.753035 0.378906
0.000000 0.899436 0.367537
0.067515 0.950361 0.345109
0.196103 0.939997 0.333905
0.324851 0.929780 0.322861
0.480118 0.929780 0.322861
0.631559 0.929780 0.322861
0.783000 0.929780 0.322861
0.934075 0.929414 0.322469
1.000000 0.876518 0.378906
0.025701 1.000000 0.372388
0.144141 1.000000 0.373800
0.262365 1.000000 0.375869
0.380535 1.000000 0.378906
0.508348 1.000000 0.378906
0.632344 1.000000 0.378906
0.756339 1.000000 0.378906
0.880334 1.000000 0.378906
1.000000 1.000000 0.378906
0.000000 0.000000 0.514284
0.129416 0.000000 0.514284
0.258598 0.000000 0.514284
0.387779 0.000000 0.514284
0.504306 0.000000 0.514284
0.649760 0.000000 0.500719
0.776549 0.000000 0.494214
0.903339 0.000000 0.513909
1.000000 0.025701 0.511249
0.000000 0.128647 0.514284
0.107879 0.107046 0.524358
0.247671 0.107046 0.524358
0.387462 0.107046 0.524358
0.513561 0.107046 0.524358
0.675647 0.091848 0.509160
0.815182 0.079102 0.523996
0.954718 0.066356 0.512090
1.000000 0.143436 0.512879
0.000000 0.257294 0.514284
0.107813 0.246193 0.524292
0.236624 0.235213 0.513311
0.376416 0.235213 0.513311
0.502514 0.235213 0.513311
0.665326 0.219904 0.525581
0.804861 0.207158 0.513675
0.944396 0.194413 0.501769
1.000000 0.261171 0.515013
0.000000 0.385940 0.514284
0.107813 0.385407 0.524292
0.236512 0.374314 0.513199
0.361711 0.359721 0.526246
0.487809 0.359721 0.526246
0.655005 0.347960 0.515260
0.794540 0.335214 0.503354
0.934075 0.322469 0.491448
1.000000 0.378906 0.517925
0.000000 0.514284 0.514284
0.107813 0.524292 0.524292
0.236512 0.513199 0.513199
0.361551 0.526098 0.526098
0.501412 0.513109 0.513109
0.640837 0.501092 0.501092
0.780261 0.489075 0.489075
0.919685 0.477057 0.477057
1.000000 0.519700 0.519700
0.000000 0.646906 0.500898
0.092901 0.672445 0.509380
0.221489 0.662081 0.525744
0.350077 0.651716 0.515380
0.490594 0.638627 0.502290
0.640837 0.637428 0.501092
0.780261 0.625411 0.489075
0.919685 0.613394 0.477057
1.000000 0.630917 0.519700
0.000000 0.773171 0.494358
0.080208 0.811403 0.524252
0.208796 0.801039 0.513887
0.337384 0.790674 0.503523
0.478627 0.777474 0.490323
0.629140 0.776546 0.489395
0.780261 0.776226 0.489075
0.919685 0.764209 0.477057
1.000000 0.753945 0.519700
0.000000 0.899436 0.514013
0.067515 0.950361 0.512395
0.196103 0.939997 0.502031
0.324691 0.929632 0.491667
0.466659 0.916321 0.478355
0.617172 0.915393 0.477427
0.768614 0.915393 0.477427
0.919685 0.915023 0.477057
1.000000 0.876972 0.519700
0.025701 1.000000 0.511249
0.144141 1.000000 0.512890
0.262365 1.000000 0.515038
0.380589 1.000000 0.517974
0.509860 1.000000 0.519408
0.633698 1.000000 0.519700
0.757237 1.000000 0.519700
0.880775 1.000000 0.519700
1.000000 1.000000 0.519700
0.000000 0.000000 0.646906
0.126048 0.000000 0.646906
0.251867 0.000000 0.646906
0.377686 0.000000 0.646906
0.491180 0.000000 0.646906
0.649760 0.000000 0.646693
0.776549 0.000000 0.639037
0.903339 0.000000 0.633860
1.000000 0.025701 0.624423
0.000000 0.125298 0.646906
0.092967 0.092135 0.672506
0.232759 0.092135 0.672506
0.372551 0.092135 0.672506
0.498650 0.092135 0.672506
0.675647 0.091848 0.672238
0.815182 0.079102 0.660333
0.954718 0.066356 0.648427
1.000000 0.143436 0.625676
0.000000 0.250597 0.646906
0.092901 0.231281 0.672445
0.221602 0.220191 0.662185
0.361394 0.220191 0.662185
0.487493 0.220191 0.662185
0.665326 0.219904 0.661917
0.804861 0.207158 0.650011
0.944396 0.194413 0.638105
1.000000 0.261171 0.627315
0.000000 0.375895 0.646906
0.092901 0.370495 0.672445
0.221489 0.359291 0.662081
0.350236 0.348247 0.651864
0.503831 0.348247 0.651864
0.655005 0.347960 0.651596
0.794540 0.335214 0.639690
0.934075 0.322469 0.627784
1.000000 0.378906 0.629553
0.000000 0.500898 0.646906
0.092901 0.509380 0.672445
0.221489 0.525744 0.662081
0.350077 0.515380 0.651716
0.490594 0.502290 0.638627
0.640837 0.501092 0.637428
0.780261 0.489075 0.625411
0.919685 0.477057 0.613394
1.000000 0.519700 0.630917
0.000000 0.646906 0.646906
0.092901 0.672445 0.672445
0.221489 0.662081 0.662081
0.350077 0.651716 0.651716
0.490594 0.638627 0.638627
0.630018 0.626610 0.626610
0.769442 0.614592 0.614592
0.908866 0.602575 0.602575
1.000000 0.634400 0.634400
0.000000 0.773171 0.639203
0.080208 0.811403 0.660588
0.208796 0.801039 0.650224
0.337384 0.790674 0.639860
0.478627 0.777474 0.626659
0.618321 0.765727 0.614913
0.769442 0.765407 0.614592
0.908866 0.753390 0.602575
1.000000 0.756267 0.634400
0.000000 0.899436 0.633993
0.067515 0.950361 0.648731
0.196103 0.939997 0.638367
0.324691 0.929632 0.628003
0.466659 0.916321 0.614692
0.606354 0.904575 0.602945
0.757795 0.904575 0.602945
0.908866 0.904205 0.602575
1.000000 0.878133 0.634400
0.025701 1.000000 0.624423
0.144141 1.000000 0.625684
0.262365 1.000000 0.627334
0.380589 1.000000 0.629591
0.509860 1.000000 0.630692
0.637154 1.000000 0.634400
0.759527 1.000000 0.634400
0.881900 1.000000 0.634400
1.000000 1.000000 0.634400
0.000000 0.000000 0.773171
0.124402 0.000000 0.773171
0.248579 0.000000 0.773171
0.372755 0.000000 0.773171
0.484768 0.000000 0.773171
0.642231 0.000000 0.773171
0.776549 0.000000 0.772966
0.903339 0.000000 0.766549
1.000000 0.025701 0.749615
0.000000 0.123663 0.773171
0.080275 0.079442 0.811464
0.220066 0.079442 0.811464
0.359858 0.079442 0.811464
0.485957 0.079442 0.811464
0.664058 0.079442 0.811464
0.815182 0.079102 0.811147
0.954718 0.066356 0.799241
1.000000 0.143436 0.750451
0.000000 0.247325 0.773171
0.080208 0.218588 0.811403
0.208909 0.207498 0.801143
0.348701 0.207498 0.801143
0.502296 0.207498 0.801143
0.653737 0.207498 0.801143
0.804861 0.207158 0.800826
0.944396 0.194413 0.788920
1.000000 0.261171 0.751543
0.000000 0.370988 0.773171
0.080208 0.357802 0.811403
0.208796 0.346598 0.801039
0.337543 0.335554 0.790822
0.491975 0.335554 0.790822
0.643416 0.335554 0.790822
0.794540 0.335214 0.790505
0.934075 0.322469 0.778599
1.000000 0.378906 0.753035
0.000000 0.494358 0.773171
0.080208 0.524252 0.811403
0.208796 0.513887 0.801039
0.337384 0.503523 0.790674
0.478627 0.490323 0.777474
0.629140 0.489395 0.776546
0.780261 0.489075 0.776226
0.919685 0.477057 0.764209
1.000000 0.519700 0.753945
0.000000 0.639203 0.773171
0.080208 0.660588 0.811403
0.208796 0.650224 0.801039
0.337384 0.639860 0.790674
0.478627 0.626659 0.777474
0.618321 0.614913 0.765727
0.769442 0.614592 0.765407
0.908866 0.602575 0.753390
1.000000 0.634400 0.756267
0.000000 0.773171 0.773171
0.080208 0.811403 0.811403
0.208796 0.801039 0.801039
0.337384 0.790674 0.790674
0.478627 0.777474 0.777474
0.618051 0.765457 0.765457
0.757475 0.753440 0.753440
0.896899 0.741423 0.741423
1.000000 0.761280 0.761280
0.000000 0.899436 0.766715
0.067515 0.950361 0.799546
0.196103 0.939997 0.789182
0.324691 0.929632 0.778818
0.466659 0.916321 0.765507
0.606083 0.904304 0.753490
0.745828 0.892607 0.741793
0.896899 0.892237 0.741423
1.000000 0.880640 0.761280
0.025701 1.000000 0.749615
0.144141 1.000000 0.750456
0.262365 1.000000 0.751556
0.380589 1.000000 0.753060
0.509860 1.000000 0.753795
0.637268 1.000000 0.756343
0.764474 1.000000 0.761280
0.884329 1.000000 0.761280
1.000000 1.000000 0.761280
0.000000 0.000000 0.899436
0.123245 0.000000 0.899436
0.246266 0.000000 0.899436
0.369287 0.000000 0.899436
0.480258 0.000000 0.899436
0.636993 0.000000 0.899436
0.770266 0.000000 0.899436
0.903339 0.000000 0.899238
1.000000 0.025701 0.874808
0.000000 0.122512 0.899436
0.067582 0.066749 0.950422
0.207374 0.066749 0.950422
0.347165 0.066749 0.950422
0.500760 0.066749 0.950422
0.652202 0.066749 0.950422
0.803643 0.066749 0.950422
0.954718 0.066356 0.950056
1.000000 0.143436 0.875225
0.000000 0.245024 0.899436
0.067515 0.205896 0.950361
0.196216 0.194805 0.940101
0.336008 0.194805 0.940101
0.490439 0.194805 0.940101
0.641880 0.194805 0.940101
0.793322 0.194805 0.940101
0.944396 0.194413 0.939735
1.000000 0.261171 0.875772
0.000000 0.367537 0.899436
0.067515 0.345109 0.950361
0.196103 0.333905 0.939997
0.324851 0.322861 0.929780
0.480118 0.322861 0.929780
0.631559 0.322861 0.929780
0.783000 0.322861 0.929780
0.934075 0.322469 0.929414
1.000000 0.378906 0.876518
0.000000 0.514013 0.899436
0.067515 0.512395 0.950361
0.196103 0.502031 0.939997
0.324691 0.491667 0.929632
0.466659 0.478355 0.916321
0.617172 0.477427 0.915393
0.768614 0.477427 0.915393
0.919685 0.477057 0.915023
1.000000 0.519700 0.876972
0.000000 0.633993 0.899436
0.067515 0.648731 0.950361
0.196103 0.638367 0.939997
0.324691 0.628003 0.929632
0.466659 0.614692 0.916321
0.606354 0.602945 0.904575
0.757795 0.602945 0.904575
0.908866 0.602575 0.904205
1.000000 0.634400 0.878133
0.000000 0.766715 0.899436
0.067515 0.799546 0.950361
0.196103 0.789182 0.939997
0.324691 0.778818 0.929632
0.466659 0.765507 0.916321
0.606083 0.753490 0.904304
0.745828 0.741793 0.892607
0.896899 0.741423 0.892237
1.000000 0.761280 0.880640
0.000000 0.899436 0.899436
0.067515 0.950361 0.950361
0.196103 0.939997 0.939997
0.324691 0.929632 0.929632
0.466659 0.916321 0.916321
0.606083 0.904304 0.904304
0.745508 0.892287 0.892287
0.884932 0.880270 0.880270
1.000000 0.888160 0.888160
0.025701 1.000000 0.874808
0.144141 1.000000 0.875228
0.262365 1.000000 0.875778
0.380589 1.000000 0.876530
0.509860 1.000000 0.876897
0.637268 1.000000 0.878171
0.764675 1.000000 0.880742
0.891617 1.000000 0.888160
1.000000 1.000000 0.888160
0.025701 0.025701 1.000000
0.141955 0.025701 1.000000
0.257997 0.025701 1.000000
0.374040 0.025701 1.000000
0.501540 0.025701 1.000000
0.627252 0.025701 1.000000
0.752965 0.025701 1.000000
0.878677 0.025701 1.000000
1.000000 0.025701 1.000000
0.025701 0.141264 1.000000
0.144125 0.143436 1.000000
0.259781 0.143436 1.000000
0.375436 0.143436 1.000000
0.503203 0.143436 1.000000
0.628496 0.143436 1.000000
0.753789 0.143436 1.000000
0.879082 0.143436 1.000000
1.000000 0.143436 1.000000
0.025701 0.256826 1.000000
0.144141 0.258626 1.000000
0.262334 0.261171 1.000000
0.377482 0.261171 1.000000
0.505378 0.261171 1.000000
0.630123 0.261171 1.000000
0.754867 0.261171 1.000000
0.879612 0.261171 1.000000
1.000000 0.261171 1.000000
0.025701 0.372388 1.000000
0.144141 0.373800 1.000000
0.262365 0.375869 1.000000
0.380535 0.378906 1.000000
0.508348 0.378906 1.000000
0.632344 0.378906 1.000000
0.756339 0.378906 1.000000
0.880334 0.378906 1.000000
1.000000 0.378906 1.000000
0.025701 0.511249 1.000000
0.144141 0.512890 1.000000
0.262365 0.515038 1.000000
0.380589 0.517974 1.000000
0.509860 0.519408 1.000000
0.633698 0.519700 1.000000
0.757237 0.519700 1.000000
0.880775 0.519700 1.000000
1.000000 0.519700 1.000000
0.025701 0.624423 1.000000
0.144141 0.625684 1.000000
0.262365 0.627334 1.000000
0.380589 0.629591 1.000000
0.509860 0.630692 1.000000
0.637154 0.634400 1.000000
0.759527 0.634400 1.000000
0.881900 0.634400 1.000000
1.000000 0.634400 1.000000
0.025701 0.749615 1.000000
0.144141 0.750456 1.000000
0.262365 0.751556 1.000000
0.380589 0.753060 1.000000
0.509860 0.753795 1.000000
0.637268 0.756343 1.000000
0.764474 0.761280 1.000000
0.884329 0.761280 1.000000
1.000000 0.761280 1.000000
0.025701 0.874808 1.000000
0.144141 0.875228 1.000000
0.262365 0.875778 1.000000
0.380589 0.876530 1.000000
0.509860 0.876897 1.000000
0.637268 0.878171 1.000000
0.764675 0.880742 1.000000
0.891617 0.888160 1.000000
1.000000 0.888160 1.000000
0.025701 1.000000 1.000000
0.144141 1.000000 1.000000
0.262365 1.000000 1.000000
0.380589 1.000000 1.000000
0.509860 1.000000 1.000000
0.637268 1.000000 1.000000
0.764675 1.000000 1.000000
0.892082 1.000000 1.000000
1.000000 1.000000 1.000000
