docs/luts/fuji_recipes/Astia_RR_Redscale.cube
TITLE "Fujifilm Recipe: RR Redscale (Astia)"
# FilmSim=Astia HL=1 SH=2 Col=-2 WB=10000K WBR=9 WBB=0
LUT_3D_SIZE 33
DOMAIN_MIN 0.0 0.0 0.0
DOMAIN_MAX 1.0 1.0 1.0
0.022080 0.022080 0.022080
0.056080 0.029119 0.029119
0.085261 0.035591 0.035591
0.113869 0.042040 0.042040
0.142441 0.048526 0.048526
0.170993 0.055031 0.055031
0.199534 0.061548 0.061548
0.228068 0.068072 0.068072
0.256596 0.074601 0.074601
0.285121 0.081133 0.081133
0.313644 0.087668 0.087668
0.342164 0.094206 0.094206
0.362506 0.098869 0.098869
0.424667 0.110891 0.110891
0.456813 0.118027 0.118027
0.488958 0.125164 0.125164
0.521102 0.132301 0.132301
0.553245 0.139439 0.139439
0.585388 0.146577 0.146577
0.617531 0.153716 0.153716
0.649673 0.160856 0.160856
0.681815 0.167996 0.167996
0.713956 0.175136 0.175136
0.755598 0.172775 0.172775
0.763311 0.170282 0.170282
0.763311 0.170282 0.170282
0.763311 0.170282 0.170282
0.763311 0.170282 0.170282
0.763311 0.170282 0.170282
0.763311 0.170282 0.170282
0.763311 0.170282 0.170282
0.763311 0.170282 0.170282
0.763311 0.170282 0.170282
0.026370 0.043338 0.026370
0.056080 0.045903 0.029119
0.085261 0.052138 0.035591
0.113869 0.058462 0.042040
0.142441 0.064870 0.048526
0.170993 0.071321 0.055031
0.199534 0.077799 0.061548
0.228068 0.084294 0.068072
0.256596 0.090800 0.074601
0.285121 0.097314 0.081133
0.313644 0.103833 0.087668
0.342164 0.110358 0.094206
0.362506 0.115013 0.098869
0.424667 0.126999 0.110891
0.456813 0.134126 0.118027
0.488958 0.141255 0.125164
0.521102 0.148386 0.132301
0.553245 0.155518 0.139439
0.585388 0.162651 0.146577
0.617531 0.169785 0.153716
0.649673 0.176920 0.160856
0.681815 0.184056 0.167996
0.713956 0.191193 0.175136
0.755598 0.189370 0.172775
0.763311 0.187068 0.170282
0.763311 0.187068 0.170282
0.763311 0.187068 0.170282
0.763311 0.187068 0.170282
0.763311 0.187068 0.170282
0.763311 0.187068 0.170282
0.763311 0.187068 0.170282
0.763311 0.187068 0.170282
0.763311 0.187068 0.170282
0.030930 0.064327 0.030930
0.057753 0.064327 0.030930
0.085261 0.068685 0.035591
0.113869 0.074884 0.042040
0.142441 0.081214 0.048526
0.170993 0.087612 0.055031
0.199534 0.094051 0.061548
0.228068 0.100516 0.068072
0.256596 0.106999 0.074601
0.285121 0.113494 0.081133
0.313644 0.119998 0.087668
0.342164 0.126510 0.094206
0.362506 0.131158 0.098869
0.424667 0.143107 0.110891
0.456813 0.150225 0.118027
0.488958 0.157346 0.125164
0.521102 0.164471 0.132301
0.553245 0.171597 0.139439
0.585388 0.178725 0.146577
0.617531 0.185854 0.153716
0.649673 0.192985 0.160856
0.681815 0.200117 0.167996
0.713956 0.207250 0.175136
0.755598 0.205965 0.172775
0.763311 0.203854 0.170282
0.763311 0.203854 0.170282
0.763311 0.203854 0.170282
0.763311 0.203854 0.170282
0.763311 0.203854 0.170282
0.763311 0.203854 0.170282
0.763311 0.203854 0.170282
0.763311 0.203854 0.170282
0.763311 0.203854 0.170282
0.035582 0.085224 0.035582
0.062162 0.085224 0.035582
0.085261 0.085231 0.035591
0.113869 0.091306 0.042040
0.142441 0.097558 0.048526
0.170993 0.103903 0.055031
0.199534 0.110303 0.061548
0.228068 0.116739 0.068072
0.256596 0.123198 0.074601
0.285121 0.129675 0.081133
0.313644 0.136163 0.087668
0.342164 0.142662 0.094206
0.362506 0.147302 0.098869
0.424667 0.159215 0.110891
0.456813 0.166324 0.118027
0.488958 0.173438 0.125164
0.521102 0.180555 0.132301
0.553245 0.187676 0.139439
0.585388 0.194798 0.146577
0.617531 0.201923 0.153716
0.649673 0.209050 0.160856
0.681815 0.216178 0.167996
0.713956 0.223307 0.175136
0.755598 0.222560 0.172775
0.763311 0.220640 0.170282
0.763311 0.220640 0.170282
0.763311 0.220640 0.170282
0.763311 0.220640 0.170282
0.763311 0.220640 0.170282
0.763311 0.220640 0.170282
0.763311 0.220640 0.170282
0.763311 0.220640 0.170282
0.763311 0.220640 0.170282
0.040277 0.106077 0.040277
0.066701 0.106077 0.040277
0.089657 0.106077 0.040277
0.113869 0.107728 0.042040
0.142441 0.113902 0.048526
0.170993 0.120194 0.055031
0.199534 0.126555 0.061548
0.228068 0.132961 0.068072
0.256596 0.139397 0.074601
0.285121 0.145855 0.081133
0.313644 0.152329 0.087668
0.342164 0.158814 0.094206
0.362506 0.163446 0.098869
0.424667 0.175322 0.110891
0.456813 0.182423 0.118027
0.488958 0.189529 0.125164
0.521102 0.196640 0.132301
0.553245 0.203754 0.139439
0.585388 0.210872 0.146577
0.617531 0.217992 0.153716
0.649673 0.225114 0.160856
0.681815 0.232238 0.167996
0.713956 0.239364 0.175136
0.755598 0.239155 0.172775
0.763311 0.237427 0.170282
0.763311 0.237427 0.170282
0.763311 0.237427 0.170282
0.763311 0.237427 0.170282
0.763311 0.237427 0.170282
0.763311 0.237427 0.170282
0.763311 0.237427 0.170282
0.763311 0.237427 0.170282
0.763311 0.237427 0.170282
0.044996 0.126908 0.044996
0.071311 0.126908 0.044996
0.094172 0.126908 0.044996
0.116652 0.126908 0.044996
0.142441 0.130246 0.048526
0.170993 0.136484 0.055031
0.199534 0.142807 0.061548
0.228068 0.149183 0.068072
0.256596 0.155596 0.074601
0.285121 0.162035 0.081133
0.313644 0.168494 0.087668
0.342164 0.174966 0.094206
0.362506 0.179590 0.098869
0.424667 0.191430 0.110891
0.456813 0.198522 0.118027
0.488958 0.205621 0.125164
0.521102 0.212725 0.132301
0.553245 0.219833 0.139439
0.585388 0.226945 0.146577
0.617531 0.234061 0.153716
0.649673 0.241179 0.160856
0.681815 0.248299 0.167996
0.713956 0.255421 0.175136
0.755598 0.255750 0.172775
0.763311 0.254213 0.170282
0.763311 0.254213 0.170282
0.763311 0.254213 0.170282
0.763311 0.254213 0.170282
0.763311 0.254213 0.170282
0.763311 0.254213 0.170282
0.763311 0.254213 0.170282
0.763311 0.254213 0.170282
0.763311 0.254213 0.170282
0.049728 0.147724 0.049728
0.075963 0.147724 0.049728
0.098755 0.147724 0.049728
0.121167 0.147724 0.049728
0.143578 0.147724 0.049728
0.170993 0.152775 0.055031
0.199534 0.159059 0.061548
0.228068 0.165406 0.068072
0.256596 0.171795 0.074601
0.285121 0.178216 0.081133
0.313644 0.184659 0.087668
0.342164 0.191118 0.094206
0.362506 0.195734 0.098869
0.424667 0.207538 0.110891
0.456813 0.214621 0.118027
0.488958 0.221712 0.125164
0.521102 0.228810 0.132301
0.553245 0.235912 0.139439
0.585388 0.243019 0.146577
0.617531 0.250130 0.153716
0.649673 0.257243 0.160856
0.681815 0.264360 0.167996
0.713956 0.271479 0.175136
0.755598 0.272345 0.172775
0.763311 0.270999 0.170282
0.763311 0.270999 0.170282
0.763311 0.270999 0.170282
0.763311 0.270999 0.170282
0.763311 0.270999 0.170282
0.763311 0.270999 0.170282
0.763311 0.270999 0.170282
0.763311 0.270999 0.170282
0.763311 0.270999 0.170282
0.054469 0.168532 0.054469
0.080643 0.168532 0.054469
0.103382 0.168532 0.054469
0.125741 0.168532 0.054469
0.148101 0.168532 0.054469
0.170993 0.169066 0.055031
0.199534 0.175310 0.061548
0.228068 0.181628 0.068072
0.256596 0.187995 0.074601
0.285121 0.194396 0.081133
0.313644 0.200824 0.087668
0.342164 0.207270 0.094206
0.362506 0.211878 0.098869
0.424667 0.223646 0.110891
0.456813 0.230720 0.118027
0.488958 0.237804 0.125164
0.521102 0.244894 0.132301
0.553245 0.251991 0.139439
0.585388 0.259093 0.146577
0.617531 0.266199 0.153716
0.649673 0.273308 0.160856
0.681815 0.280421 0.167996
0.713956 0.287536 0.175136
0.755598 0.288940 0.172775
0.763311 0.287785 0.170282
0.763311 0.287785 0.170282
0.763311 0.287785 0.170282
0.763311 0.287785 0.170282
0.763311 0.287785 0.170282
0.763311 0.287785 0.170282
0.763311 0.287785 0.170282
0.763311 0.287785 0.170282
0.763311 0.287785 0.170282
0.059217 0.189333 0.059217
0.085343 0.189333 0.059217
0.108039 0.189333 0.059217
0.130357 0.189333 0.059217
0.152675 0.189333 0.059217
0.174993 0.189333 0.059217
0.199534 0.191562 0.061548
0.228068 0.197850 0.068072
0.256596 0.204194 0.074601
0.285121 0.210577 0.081133
0.313644 0.216989 0.087668
0.342164 0.223423 0.094206
0.362506 0.228022 0.098869
0.424667 0.239754 0.110891
0.456813 0.246819 0.118027
0.488958 0.253895 0.125164
0.521102 0.260979 0.132301
0.553245 0.268070 0.139439
0.585388 0.275166 0.146577
0.617531 0.282267 0.153716
0.649673 0.289373 0.160856
0.681815 0.296481 0.167996
0.713956 0.303593 0.175136
0.755598 0.305535 0.172775
0.763311 0.304572 0.170282
0.763311 0.304572 0.170282
0.763311 0.304572 0.170282
0.763311 0.304572 0.170282
0.763311 0.304572 0.170282
0.763311 0.304572 0.170282
0.763311 0.304572 0.170282
0.763311 0.304572 0.170282
0.763311 0.304572 0.170282
0.063969 0.210129 0.063969
0.090056 0.210129 0.063969
0.112718 0.210129 0.063969
0.135002 0.210129 0.063969
0.157287 0.210129 0.063969
0.179571 0.210129 0.063969
0.201855 0.210129 0.063969
0.228068 0.214073 0.068072
0.256596 0.220393 0.074601
0.285121 0.226757 0.081133
0.313644 0.233154 0.087668
0.342164 0.239575 0.094206
0.362506 0.244166 0.098869
0.424667 0.255861 0.110891
0.456813 0.262919 0.118027
0.488958 0.269987 0.125164
0.521102 0.277064 0.132301
0.553245 0.284149 0.139439
0.585388 0.291240 0.146577
0.617531 0.298336 0.153716
0.649673 0.305437 0.160856
0.681815 0.312542 0.167996
0.713956 0.319650 0.175136
0.755598 0.322130 0.172775
0.763311 0.321358 0.170282
0.763311 0.321358 0.170282
0.763311 0.321358 0.170282
0.763311 0.321358 0.170282
0.763311 0.321358 0.170282
0.763311 0.321358 0.170282
0.763311 0.321358 0.170282
0.763311 0.321358 0.170282
0.763311 0.321358 0.170282
0.068725 0.230922 0.068725
0.094779 0.230922 0.068725
0.117413 0.230922 0.068725
0.139669 0.230922 0.068725
0.161926 0.230922 0.068725
0.184182 0.230922 0.068725
0.206439 0.230922 0.068725
0.228695 0.230922 0.068725
0.256596 0.236592 0.074601
0.285121 0.242938 0.081133
0.313644 0.249319 0.087668
0.342164 0.255727 0.094206
0.362506 0.260310 0.098869
0.424667 0.271969 0.110891
0.456813 0.279018 0.118027
0.488958 0.286078 0.125164
0.521102 0.293149 0.132301
0.553245 0.300228 0.139439
0.585388 0.307313 0.146577
0.617531 0.314405 0.153716
0.649673 0.321502 0.160856
0.681815 0.328603 0.167996
0.713956 0.335707 0.175136
0.755598 0.338725 0.172775
0.763311 0.338144 0.170282
0.763311 0.338144 0.170282
0.763311 0.338144 0.170282
0.763311 0.338144 0.170282
0.763311 0.338144 0.170282
0.763311 0.338144 0.170282
0.763311 0.338144 0.170282
0.763311 0.338144 0.170282
0.763311 0.338144 0.170282
0.073483 0.251713 0.073483
0.099509 0.251713 0.073483
0.122120 0.251713 0.073483
0.144353 0.251713 0.073483
0.166586 0.251713 0.073483
0.188819 0.251713 0.073483
0.211052 0.251713 0.073483
0.233286 0.251713 0.073483
0.256596 0.252791 0.074601
0.285121 0.259118 0.081133
0.313644 0.265484 0.087668
0.342164 0.271879 0.094206
0.362506 0.276455 0.098869
0.424667 0.288077 0.110891
0.456813 0.295117 0.118027
0.488958 0.302170 0.125164
0.521102 0.309234 0.132301
0.553245 0.316307 0.139439
0.585388 0.323387 0.146577
0.617531 0.330474 0.153716
0.649673 0.337566 0.160856
0.681815 0.344663 0.167996
0.713956 0.351765 0.175136
0.755598 0.355320 0.172775
0.763311 0.354930 0.170282
0.763311 0.354930 0.170282
0.763311 0.354930 0.170282
0.763311 0.354930 0.170282
0.763311 0.354930 0.170282
0.763311 0.354930 0.170282
0.763311 0.354930 0.170282
0.763311 0.354930 0.170282
0.763311 0.354930 0.170282
0.078243 0.272502 0.078243
0.104246 0.272502 0.078243
0.126836 0.272502 0.078243
0.149049 0.272502 0.078243
0.171263 0.272502 0.078243
0.193476 0.272502 0.078243
0.215689 0.272502 0.078243
0.237903 0.272502 0.078243
0.260116 0.272502 0.078243
0.285121 0.275298 0.081133
0.313644 0.281649 0.087668
0.342164 0.288031 0.094206
0.362506 0.292599 0.098869
0.424667 0.304185 0.110891
0.456813 0.311216 0.118027
0.488958 0.318261 0.125164
0.521102 0.325318 0.132301
0.553245 0.332385 0.139439
0.585388 0.339461 0.146577
0.617531 0.346543 0.153716
0.649673 0.353631 0.160856
0.681815 0.360724 0.167996
0.713956 0.367822 0.175136
0.755598 0.371915 0.172775
0.763311 0.371717 0.170282
0.763311 0.371717 0.170282
0.763311 0.371717 0.170282
0.763311 0.371717 0.170282
0.763311 0.371717 0.170282
0.763311 0.371717 0.170282
0.763311 0.371717 0.170282
0.763311 0.371717 0.170282
0.763311 0.371717 0.170282
0.083004 0.293289 0.083004
0.108987 0.293289 0.083004
0.131560 0.293289 0.083004
0.153756 0.293289 0.083004
0.175952 0.293289 0.083004
0.198149 0.293289 0.083004
0.220345 0.293289 0.083004
0.242541 0.293289 0.083004
0.264737 0.293289 0.083004
0.286933 0.293289 0.083004
0.313644 0.297814 0.087668
0.342164 0.304183 0.094206
0.362506 0.308743 0.098869
0.424667 0.320293 0.110891
0.456813 0.327315 0.118027
0.488958 0.334353 0.125164
0.521102 0.341403 0.132301
0.553245 0.348464 0.139439
0.585388 0.355534 0.146577
0.617531 0.362612 0.153716
0.649673 0.369696 0.160856
0.681815 0.376785 0.167996
0.713956 0.383879 0.175136
0.755598 0.388510 0.172775
0.763311 0.388503 0.170282
0.763311 0.388503 0.170282
0.763311 0.388503 0.170282
0.763311 0.388503 0.170282
0.763311 0.388503 0.170282
0.763311 0.388503 0.170282
0.763311 0.388503 0.170282
0.763311 0.388503 0.170282
0.763311 0.388503 0.170282
0.087767 0.314075 0.087767
0.113733 0.314075 0.087767
0.136290 0.314075 0.087767
0.158471 0.314075 0.087767
0.180653 0.314075 0.087767
0.202834 0.314075 0.087767
0.225015 0.314075 0.087767
0.247196 0.314075 0.087767
0.269377 0.314075 0.087767
0.291558 0.314075 0.087767
0.313739 0.314075 0.087767
0.342164 0.320335 0.094206
0.362506 0.324887 0.098869
0.424667 0.336400 0.110891
0.456813 0.343414 0.118027
0.488958 0.350444 0.125164
0.521102 0.357488 0.132301
0.553245 0.364543 0.139439
0.585388 0.371608 0.146577
0.617531 0.378681 0.153716
0.649673 0.385760 0.160856
0.681815 0.392846 0.167996
0.713956 0.399936 0.175136
0.755598 0.405105 0.172775
0.763311 0.405289 0.170282
0.763311 0.405289 0.170282
0.763311 0.405289 0.170282
0.763311 0.405289 0.170282
0.763311 0.405289 0.170282
0.763311 0.405289 0.170282
0.763311 0.405289 0.170282
0.763311 0.405289 0.170282
0.763311 0.405289 0.170282
0.092531 0.334859 0.092531
0.118481 0.334859 0.092531
0.141025 0.334859 0.092531
0.163193 0.334859 0.092531
0.185361 0.334859 0.092531
0.207529 0.334859 0.092531
0.229697 0.334859 0.092531
0.251865 0.334859 0.092531
0.274033 0.334859 0.092531
0.296201 0.334859 0.092531
0.318369 0.334859 0.092531
0.342164 0.336487 0.094206
0.362506 0.341031 0.098869
0.424667 0.352508 0.110891
0.456813 0.359513 0.118027
0.488958 0.366536 0.125164
0.521102 0.373573 0.132301
0.553245 0.380622 0.139439
0.585388 0.387681 0.146577
0.617531 0.394749 0.153716
0.649673 0.401825 0.160856
0.681815 0.408906 0.167996
0.713956 0.415993 0.175136
0.755598 0.421700 0.172775
0.763311 0.422076 0.170282
0.763311 0.422076 0.170282
0.763311 0.422076 0.170282
0.763311 0.422076 0.170282
0.763311 0.422076 0.170282
0.763311 0.422076 0.170282
0.763311 0.422076 0.170282
0.763311 0.422076 0.170282
0.763311 0.422076 0.170282
0.097251 0.355447 0.097251
0.123187 0.355447 0.097251
0.145720 0.355447 0.097251
0.167876 0.355447 0.097251
0.190033 0.355447 0.097251
0.212189 0.355447 0.097251
0.234346 0.355447 0.097251
0.256502 0.355447 0.097251
0.278658 0.355447 0.097251
0.300815 0.355447 0.097251
0.322971 0.355447 0.097251
0.345128 0.355447 0.097251
0.362506 0.357023 0.098869
0.424667 0.368464 0.110891
0.456813 0.375460 0.118027
0.488958 0.382475 0.125164
0.521102 0.389506 0.132301
0.553245 0.396549 0.139439
0.585388 0.403603 0.146577
0.617531 0.436883 0.153716
0.649673 0.444154 0.160856
0.681815 0.451433 0.167996
0.713956 0.458717 0.175136
0.755598 0.466069 0.172775
0.763311 0.466985 0.170282
0.763311 0.466985 0.170282
0.763311 0.466985 0.170282
0.763311 0.466985 0.170282
0.763311 0.466985 0.170282
0.763311 0.466985 0.170282
0.763311 0.466985 0.170282
0.763311 0.466985 0.170282
0.763311 0.466985 0.170282
0.100186 0.368250 0.100186
0.126115 0.368250 0.100186
0.148641 0.368250 0.100186
0.170791 0.368250 0.100186
0.192941 0.368250 0.100186
0.215091 0.368250 0.100186
0.237240 0.368250 0.100186
0.259390 0.368250 0.100186
0.281540 0.368250 0.100186
0.303690 0.368250 0.100186
0.325840 0.368250 0.100186
0.347990 0.368250 0.100186
0.363789 0.368250 0.100186
0.424667 0.404713 0.110891
0.456813 0.411898 0.118027
0.488958 0.419103 0.125164
0.521102 0.426326 0.132301
0.553245 0.433563 0.139439
0.585388 0.440813 0.146577
0.617531 0.448072 0.153716
0.649673 0.455341 0.160856
0.681815 0.462616 0.167996
0.713956 0.469899 0.175136
0.755598 0.477625 0.172775
0.763311 0.478674 0.170282
0.763311 0.478674 0.170282
0.763311 0.478674 0.170282
0.763311 0.478674 0.170282
0.763311 0.478674 0.170282
0.763311 0.478674 0.170282
0.763311 0.478674 0.170282
0.763311 0.478674 0.170282
0.763311 0.478674 0.170282
0.110393 0.422422 0.110393
0.136268 0.422422 0.110393
0.158747 0.422422 0.110393
0.180851 0.422422 0.110393
0.202955 0.422422 0.110393
0.225058 0.422422 0.110393
0.247162 0.422422 0.110393
0.269266 0.422422 0.110393
0.291370 0.422422 0.110393
0.313473 0.422422 0.110393
0.335577 0.422422 0.110393
0.357681 0.422422 0.110393
0.373447 0.422422 0.110393
0.424667 0.422922 0.110891
0.456813 0.430096 0.118027
0.488958 0.437293 0.125164
0.521102 0.444509 0.132301
0.553245 0.451739 0.139439
0.585388 0.458983 0.146577
0.617531 0.466237 0.153716
0.649673 0.473501 0.160856
0.681815 0.480772 0.167996
0.713956 0.488050 0.175136
0.755598 0.496385 0.172775
0.763311 0.497650 0.170282
0.763311 0.497650 0.170282
0.763311 0.497650 0.170282
0.763311 0.497650 0.170282
0.763311 0.497650 0.170282
0.763311 0.497650 0.170282
0.763311 0.497650 0.170282
0.763311 0.497650 0.170282
0.763311 0.497650 0.170282
0.115593 0.445849 0.115593
0.141458 0.445849 0.115593
0.163927 0.445849 0.115593
0.186022 0.445849 0.115593
0.208117 0.445849 0.115593
0.230212 0.445849 0.115593
0.252307 0.445849 0.115593
0.274401 0.445849 0.115593
0.296496 0.445849 0.115593
0.318591 0.445849 0.115593
0.340686 0.445849 0.115593
0.362781 0.445849 0.115593
0.378540 0.445849 0.115593
0.429391 0.445849 0.115593
0.456813 0.448295 0.118027
0.488958 0.455484 0.125164
0.521102 0.462692 0.132301
0.553245 0.469916 0.139439
0.585388 0.477153 0.146577
0.617531 0.484402 0.153716
0.649673 0.491661 0.160856
0.681815 0.498928 0.167996
0.713956 0.506202 0.175136
0.755598 0.515144 0.172775
0.763311 0.516626 0.170282
0.763311 0.516626 0.170282
0.763311 0.516626 0.170282
0.763311 0.516626 0.170282
0.763311 0.516626 0.170282
0.763311 0.516626 0.170282
0.763311 0.516626 0.170282
0.763311 0.516626 0.170282
0.763311 0.516626 0.170282
0.120794 0.469275 0.120794
0.146649 0.469275 0.120794
0.169110 0.469275 0.120794
0.191197 0.469275 0.120794
0.213284 0.469275 0.120794
0.235370 0.469275 0.120794
0.257457 0.469275 0.120794
0.279544 0.469275 0.120794
0.301631 0.469275 0.120794
0.323717 0.469275 0.120794
0.345804 0.469275 0.120794
0.367891 0.469275 0.120794
0.383644 0.469275 0.120794
0.434628 0.469275 0.120794
0.459595 0.469275 0.120794
0.488958 0.473674 0.125164
0.521102 0.480874 0.132301
0.553245 0.488092 0.139439
0.585388 0.495323 0.146577
0.617531 0.502567 0.153716
0.649673 0.509821 0.160856
0.681815 0.517083 0.167996
0.713956 0.524354 0.175136
0.755598 0.533904 0.172775
0.763311 0.535601 0.170282
0.763311 0.535601 0.170282
0.763311 0.535601 0.170282
0.763311 0.535601 0.170282
0.763311 0.535601 0.170282
0.763311 0.535601 0.170282
0.763311 0.535601 0.170282
0.763311 0.535601 0.170282
0.763311 0.535601 0.170282
0.125995 0.492701 0.125995
0.151841 0.492701 0.125995
0.174295 0.492701 0.125995
0.196375 0.492701 0.125995
0.218454 0.492701 0.125995
0.240533 0.492701 0.125995
0.262613 0.492701 0.125995
0.284692 0.492701 0.125995
0.306771 0.492701 0.125995
0.328851 0.492701 0.125995
0.350930 0.492701 0.125995
0.373010 0.492701 0.125995
0.388758 0.492701 0.125995
0.439876 0.492701 0.125995
0.464835 0.492701 0.125995
0.489794 0.492701 0.125995
0.521102 0.499057 0.132301
0.553245 0.506268 0.139439
0.585388 0.513493 0.146577
0.617531 0.520732 0.153716
0.649673 0.527981 0.160856
0.681815 0.535239 0.167996
0.713956 0.542505 0.175136
0.755598 0.552663 0.172775
0.763311 0.554577 0.170282
0.763311 0.554577 0.170282
0.763311 0.554577 0.170282
0.763311 0.554577 0.170282
0.763311 0.554577 0.170282
0.763311 0.554577 0.170282
0.763311 0.554577 0.170282
0.763311 0.554577 0.170282
0.763311 0.554577 0.170282
0.131196 0.516127 0.131196
0.157035 0.516127 0.131196
0.179482 0.516127 0.131196
0.201555 0.516127 0.131196
0.223627 0.516127 0.131196
0.245700 0.516127 0.131196
0.267773 0.516127 0.131196
0.289845 0.516127 0.131196
0.311918 0.516127 0.131196
0.333991 0.516127 0.131196
0.356063 0.516127 0.131196
0.378136 0.516127 0.131196
0.420182 0.516127 0.131196
0.445133 0.516127 0.131196
0.470085 0.516127 0.131196
0.495037 0.516127 0.131196
0.521102 0.517240 0.132301
0.553245 0.524444 0.139439
0.585388 0.531664 0.146577
0.617531 0.538896 0.153716
0.649673 0.546141 0.160856
0.681815 0.553394 0.167996
0.713956 0.560657 0.175136
0.755598 0.571423 0.172775
0.763311 0.573553 0.170282
0.763311 0.573553 0.170282
0.763311 0.573553 0.170282
0.763311 0.573553 0.170282
0.763311 0.573553 0.170282
0.763311 0.573553 0.170282
0.763311 0.573553 0.170282
0.763311 0.573553 0.170282
0.763311 0.573553 0.170282
0.136398 0.539552 0.136398
0.162229 0.539552 0.136398
0.184670 0.539552 0.136398
0.206737 0.539552 0.136398
0.228804 0.539552 0.136398
0.250870 0.539552 0.136398
0.272937 0.539552 0.136398
0.295003 0.539552 0.136398
0.317070 0.539552 0.136398
0.339136 0.539552 0.136398
0.361203 0.539552 0.136398
0.383269 0.539552 0.136398
0.425455 0.539552 0.136398
0.450399 0.539552 0.136398
0.475344 0.539552 0.136398
0.500289 0.539552 0.136398
0.525234 0.539552 0.136398
0.553245 0.542620 0.139439
0.585388 0.549834 0.146577
0.617531 0.557061 0.153716
0.649673 0.564300 0.160856
0.681815 0.571550 0.167996
0.713956 0.578808 0.175136
0.755598 0.590182 0.172775
0.763311 0.592529 0.170282
0.763311 0.592529 0.170282
0.763311 0.592529 0.170282
0.763311 0.592529 0.170282
0.763311 0.592529 0.170282
0.763311 0.592529 0.170282
0.763311 0.592529 0.170282
0.763311 0.592529 0.170282
0.763311 0.592529 0.170282
0.141600 0.562977 0.141600
0.167425 0.562977 0.141600
0.189860 0.562977 0.141600
0.211921 0.562977 0.141600
0.233982 0.562977 0.141600
0.256043 0.562977 0.141600
0.278104 0.562977 0.141600
0.300165 0.562977 0.141600
0.322226 0.562977 0.141600
0.344287 0.562977 0.141600
0.366348 0.562977 0.141600
0.388409 0.562977 0.141600
0.430734 0.562977 0.141600
0.455673 0.562977 0.141600
0.480611 0.562977 0.141600
0.505550 0.562977 0.141600
0.530488 0.562977 0.141600
0.555426 0.562977 0.141600
0.585388 0.568004 0.146577
0.617531 0.575226 0.153716
0.649673 0.582460 0.160856
0.681815 0.589706 0.167996
0.713956 0.596960 0.175136
0.755598 0.608942 0.172775
0.763311 0.611505 0.170282
0.763311 0.611505 0.170282
0.763311 0.611505 0.170282
0.763311 0.611505 0.170282
0.763311 0.611505 0.170282
0.763311 0.611505 0.170282
0.763311 0.611505 0.170282
0.763311 0.611505 0.170282
0.763311 0.611505 0.170282
0.146802 0.586401 0.146802
0.172621 0.586401 0.146802
0.195051 0.586401 0.146802
0.217107 0.586401 0.146802
0.239163 0.586401 0.146802
0.261219 0.586401 0.146802
0.283274 0.586401 0.146802
0.305330 0.586401 0.146802
0.327386 0.586401 0.146802
0.349442 0.586401 0.146802
0.371497 0.586401 0.146802
0.393553 0.586401 0.146802
0.436020 0.586401 0.146802
0.460952 0.586401 0.146802
0.485885 0.586401 0.146802
0.510818 0.586401 0.146802
0.535750 0.586401 0.146802
0.560683 0.586401 0.146802
0.585615 0.586401 0.146802
0.617531 0.593391 0.153716
0.649673 0.600620 0.160856
0.681815 0.607861 0.167996
0.713956 0.615112 0.175136
0.755598 0.627701 0.172775
0.763311 0.630480 0.170282
0.763311 0.630480 0.170282
0.763311 0.630480 0.170282
0.763311 0.630480 0.170282
0.763311 0.630480 0.170282
0.763311 0.630480 0.170282
0.763311 0.630480 0.170282
0.763311 0.630480 0.170282
0.763311 0.630480 0.170282
0.152005 0.609826 0.152005
0.177818 0.609826 0.152005
0.200243 0.609826 0.152005
0.222294 0.609826 0.152005
0.244345 0.609826 0.152005
0.266396 0.609826 0.152005
0.288447 0.609826 0.152005
0.310498 0.609826 0.152005
0.332549 0.609826 0.152005
0.354600 0.609826 0.152005
0.376651 0.609826 0.152005
0.398702 0.609826 0.152005
0.441311 0.609826 0.152005
0.466238 0.609826 0.152005
0.491165 0.609826 0.152005
0.516092 0.609826 0.152005
0.541020 0.609826 0.152005
0.565947 0.609826 0.152005
0.590874 0.609826 0.152005
0.617531 0.611556 0.153716
0.649673 0.618780 0.160856
0.681815 0.626017 0.167996
0.713956 0.633263 0.175136
0.755598 0.646461 0.172775
