docs/luts/fuji_recipes/Astia_MT_Astia.cube
TITLE "Fujifilm Recipe: MT Astia (Astia)"
# FilmSim=Astia HL=0 SH=0 Col=-4 WB=Auto WBR=2 WBB=0
LUT_3D_SIZE 33
DOMAIN_MIN 0.0 0.0 0.0
DOMAIN_MAX 1.0 1.0 1.0
0.024000 0.024000 0.024000
0.044130 0.036215 0.036215
0.064167 0.048373 0.048373
0.084180 0.060517 0.060517
0.104194 0.072661 0.072661
0.124208 0.084805 0.084805
0.144222 0.096949 0.096949
0.164236 0.109093 0.109093
0.184250 0.121238 0.121238
0.204264 0.133382 0.133382
0.224278 0.145526 0.145526
0.244292 0.157670 0.157670
0.264305 0.169814 0.169814
0.284319 0.181958 0.181958
0.304333 0.194103 0.194103
0.324249 0.206187 0.206187
0.336893 0.213859 0.213859
0.356907 0.226003 0.226003
0.376920 0.238148 0.238148
0.396934 0.250292 0.250292
0.416948 0.262436 0.262436
0.436962 0.274580 0.274580
0.456976 0.286724 0.286724
0.476990 0.298868 0.298868
0.497004 0.311013 0.311013
0.517018 0.323157 0.323157
0.537031 0.335301 0.335301
0.557045 0.347445 0.347445
0.577059 0.359589 0.359589
0.597073 0.371733 0.371733
0.617087 0.383878 0.383878
0.623955 0.388045 0.388045
0.623955 0.388045 0.388045
0.035518 0.042982 0.035518
0.044130 0.043679 0.036215
0.064167 0.055837 0.048373
0.084180 0.067981 0.060517
0.104194 0.080125 0.072661
0.124208 0.092269 0.084805
0.144222 0.104413 0.096949
0.164236 0.116557 0.109093
0.184250 0.128702 0.121238
0.204264 0.140846 0.133382
0.224278 0.152990 0.145526
0.244292 0.165134 0.157670
0.264305 0.177278 0.169814
0.284319 0.189422 0.181958
0.304333 0.201567 0.194103
0.324249 0.213651 0.206187
0.336893 0.221323 0.213859
0.356907 0.233467 0.226003
0.376920 0.245611 0.238148
0.396934 0.257756 0.250292
0.416948 0.269900 0.262436
0.436962 0.282044 0.274580
0.456976 0.294188 0.286724
0.476990 0.306332 0.298868
0.497004 0.318476 0.311013
0.517018 0.330621 0.323157
0.537031 0.342765 0.335301
0.557045 0.354909 0.347445
0.577059 0.367053 0.359589
0.597073 0.379197 0.371733
0.617087 0.391341 0.383878
0.623955 0.395509 0.388045
0.623955 0.395509 0.388045
0.047036 0.061964 0.047036
0.054952 0.061964 0.047036
0.064167 0.063300 0.048373
0.084180 0.075445 0.060517
0.104194 0.087589 0.072661
0.124208 0.099733 0.084805
0.144222 0.111877 0.096949
0.164236 0.124021 0.109093
0.184250 0.136165 0.121238
0.204264 0.148310 0.133382
0.224278 0.160454 0.145526
0.244292 0.172598 0.157670
0.264305 0.184742 0.169814
0.284319 0.196886 0.181958
0.304333 0.209030 0.194103
0.324249 0.221115 0.206187
0.336893 0.228787 0.213859
0.356907 0.240931 0.226003
0.376920 0.253075 0.238148
0.396934 0.265220 0.250292
0.416948 0.277364 0.262436
0.436962 0.289508 0.274580
0.456976 0.301652 0.286724
0.476990 0.313796 0.298868
0.497004 0.325940 0.311013
0.517018 0.338085 0.323157
0.537031 0.350229 0.335301
0.557045 0.362373 0.347445
0.577059 0.374517 0.359589
0.597073 0.386661 0.371733
0.617087 0.398805 0.383878
0.623955 0.402973 0.388045
0.623955 0.402973 0.388045
0.058554 0.080946 0.058554
0.066470 0.080946 0.058554
0.074348 0.080946 0.058554
0.084180 0.082909 0.060517
0.104194 0.095053 0.072661
0.124208 0.107197 0.084805
0.144222 0.119341 0.096949
0.164236 0.131485 0.109093
0.184250 0.143629 0.121238
0.204264 0.155774 0.133382
0.224278 0.167918 0.145526
0.244292 0.180062 0.157670
0.264305 0.192206 0.169814
0.284319 0.204350 0.181958
0.304333 0.216494 0.194103
0.324249 0.228579 0.206187
0.336893 0.236251 0.213859
0.356907 0.248395 0.226003
0.376920 0.260539 0.238148
0.396934 0.272684 0.250292
0.416948 0.284828 0.262436
0.436962 0.296972 0.274580
0.456976 0.309116 0.286724
0.476990 0.321260 0.298868
0.497004 0.333404 0.311013
0.517018 0.345549 0.323157
0.537031 0.357693 0.335301
0.557045 0.369837 0.347445
0.577059 0.381981 0.359589
0.597073 0.394125 0.371733
0.617087 0.406269 0.383878
0.623955 0.410437 0.388045
0.623955 0.410437 0.388045
0.070072 0.099928 0.070072
0.077988 0.099928 0.070072
0.085866 0.099928 0.070072
0.093736 0.099928 0.070072
0.104194 0.102517 0.072661
0.124208 0.114661 0.084805
0.144222 0.126805 0.096949
0.164236 0.138949 0.109093
0.184250 0.151093 0.121238
0.204264 0.163238 0.133382
0.224278 0.175382 0.145526
0.244292 0.187526 0.157670
0.264305 0.199670 0.169814
0.284319 0.211814 0.181958
0.304333 0.223958 0.194103
0.324249 0.236043 0.206187
0.336893 0.243715 0.213859
0.356907 0.255859 0.226003
0.376920 0.268003 0.238148
0.396934 0.280148 0.250292
0.416948 0.292292 0.262436
0.436962 0.304436 0.274580
0.456976 0.316580 0.286724
0.476990 0.328724 0.298868
0.497004 0.340868 0.311013
0.517018 0.353013 0.323157
0.537031 0.365157 0.335301
0.557045 0.377301 0.347445
0.577059 0.389445 0.359589
0.597073 0.401589 0.371733
0.617087 0.413733 0.383878
0.623955 0.417901 0.388045
0.623955 0.417901 0.388045
0.081590 0.118910 0.081590
0.089506 0.118910 0.081590
0.097384 0.118910 0.081590
0.105254 0.118910 0.081590
0.113124 0.118910 0.081590
0.124208 0.122125 0.084805
0.144222 0.134269 0.096949
0.164236 0.146413 0.109093
0.184250 0.158557 0.121238
0.204264 0.170702 0.133382
0.224278 0.182846 0.145526
0.244292 0.194990 0.157670
0.264305 0.207134 0.169814
0.284319 0.219278 0.181958
0.304333 0.231422 0.194103
0.324249 0.243507 0.206187
0.336893 0.251179 0.213859
0.356907 0.263323 0.226003
0.376920 0.275467 0.238148
0.396934 0.287611 0.250292
0.416948 0.299756 0.262436
0.436962 0.311900 0.274580
0.456976 0.324044 0.286724
0.476990 0.336188 0.298868
0.497004 0.348332 0.311013
0.517018 0.360476 0.323157
0.537031 0.372621 0.335301
0.557045 0.384765 0.347445
0.577059 0.396909 0.359589
0.597073 0.409053 0.371733
0.617087 0.421197 0.383878
0.623955 0.425365 0.388045
0.623955 0.425365 0.388045
0.093108 0.137892 0.093108
0.101024 0.137892 0.093108
0.108902 0.137892 0.093108
0.116772 0.137892 0.093108
0.124642 0.137892 0.093108
0.132511 0.137892 0.093108
0.144222 0.141733 0.096949
0.164236 0.153877 0.109093
0.184250 0.166021 0.121238
0.204264 0.178165 0.133382
0.224278 0.190310 0.145526
0.244292 0.202454 0.157670
0.264305 0.214598 0.169814
0.284319 0.226742 0.181958
0.304333 0.238886 0.194103
0.324249 0.250971 0.206187
0.336893 0.258643 0.213859
0.356907 0.270787 0.226003
0.376920 0.282931 0.238148
0.396934 0.295075 0.250292
0.416948 0.307220 0.262436
0.436962 0.319364 0.274580
0.456976 0.331508 0.286724
0.476990 0.343652 0.298868
0.497004 0.355796 0.311013
0.517018 0.367940 0.323157
0.537031 0.380085 0.335301
0.557045 0.392229 0.347445
0.577059 0.404373 0.359589
0.597073 0.416517 0.371733
0.617087 0.428661 0.383878
0.623955 0.432829 0.388045
0.623955 0.432829 0.388045
0.104626 0.156874 0.104626
0.112542 0.156874 0.104626
0.120420 0.156874 0.104626
0.128290 0.156874 0.104626
0.136160 0.156874 0.104626
0.144029 0.156874 0.104626
0.151899 0.156874 0.104626
0.164236 0.161341 0.109093
0.184250 0.173485 0.121238
0.204264 0.185629 0.133382
0.224278 0.197774 0.145526
0.244292 0.209918 0.157670
0.264305 0.222062 0.169814
0.284319 0.234206 0.181958
0.304333 0.246350 0.194103
0.324249 0.258435 0.206187
0.336893 0.266107 0.213859
0.356907 0.278251 0.226003
0.376920 0.290395 0.238148
0.396934 0.302539 0.250292
0.416948 0.314684 0.262436
0.436962 0.326828 0.274580
0.456976 0.338972 0.286724
0.476990 0.351116 0.298868
0.497004 0.363260 0.311013
0.517018 0.375404 0.323157
0.537031 0.387549 0.335301
0.557045 0.399693 0.347445
0.577059 0.411837 0.359589
0.597073 0.423981 0.371733
0.617087 0.436125 0.383878
0.623955 0.440293 0.388045
0.623955 0.440293 0.388045
0.116144 0.175856 0.116144
0.124060 0.175856 0.116144
0.131938 0.175856 0.116144
0.139808 0.175856 0.116144
0.147678 0.175856 0.116144
0.155547 0.175856 0.116144
0.163417 0.175856 0.116144
0.171287 0.175856 0.116144
0.184250 0.180949 0.121238
0.204264 0.193093 0.133382
0.224278 0.205238 0.145526
0.244292 0.217382 0.157670
0.264305 0.229526 0.169814
0.284319 0.241670 0.181958
0.304333 0.253814 0.194103
0.324249 0.265899 0.206187
0.336893 0.273571 0.213859
0.356907 0.285715 0.226003
0.376920 0.297859 0.238148
0.396934 0.310003 0.250292
0.416948 0.322148 0.262436
0.436962 0.334292 0.274580
0.456976 0.346436 0.286724
0.476990 0.358580 0.298868
0.497004 0.370724 0.311013
0.517018 0.382868 0.323157
0.537031 0.395013 0.335301
0.557045 0.407157 0.347445
0.577059 0.419301 0.359589
0.597073 0.431445 0.371733
0.617087 0.443589 0.383878
0.623955 0.447757 0.388045
0.623955 0.447757 0.388045
0.127662 0.194838 0.127662
0.135578 0.194838 0.127662
0.143456 0.194838 0.127662
0.151326 0.194838 0.127662
0.159196 0.194838 0.127662
0.167065 0.194838 0.127662
0.174935 0.194838 0.127662
0.182805 0.194838 0.127662
0.190675 0.194838 0.127662
0.204264 0.200557 0.133382
0.224278 0.212702 0.145526
0.244292 0.224846 0.157670
0.264305 0.236990 0.169814
0.284319 0.249134 0.181958
0.304333 0.261278 0.194103
0.324249 0.273363 0.206187
0.336893 0.281035 0.213859
0.356907 0.293179 0.226003
0.376920 0.305323 0.238148
0.396934 0.317467 0.250292
0.416948 0.329612 0.262436
0.436962 0.341756 0.274580
0.456976 0.353900 0.286724
0.476990 0.366044 0.298868
0.497004 0.378188 0.311013
0.517018 0.390332 0.323157
0.537031 0.402476 0.335301
0.557045 0.414621 0.347445
0.577059 0.426765 0.359589
0.597073 0.438909 0.371733
0.617087 0.451053 0.383878
0.623955 0.455221 0.388045
0.623955 0.455221 0.388045
0.139180 0.213820 0.139180
0.147096 0.213820 0.139180
0.154974 0.213820 0.139180
0.162844 0.213820 0.139180
0.170714 0.213820 0.139180
0.178583 0.213820 0.139180
0.186453 0.213820 0.139180
0.194323 0.213820 0.139180
0.202193 0.213820 0.139180
0.210062 0.213820 0.139180
0.224278 0.220165 0.145526
0.244292 0.232310 0.157670
0.264305 0.244454 0.169814
0.284319 0.256598 0.181958
0.304333 0.268742 0.194103
0.324249 0.280827 0.206187
0.336893 0.288499 0.213859
0.356907 0.300643 0.226003
0.376920 0.312787 0.238148
0.396934 0.324931 0.250292
0.416948 0.337075 0.262436
0.436962 0.349220 0.274580
0.456976 0.361364 0.286724
0.476990 0.373508 0.298868
0.497004 0.385652 0.311013
0.517018 0.397796 0.323157
0.537031 0.409940 0.335301
0.557045 0.422085 0.347445
0.577059 0.434229 0.359589
0.597073 0.446373 0.371733
0.617087 0.458517 0.383878
0.623955 0.462685 0.388045
0.623955 0.462685 0.388045
0.150698 0.232802 0.150698
0.158614 0.232802 0.150698
0.166492 0.232802 0.150698
0.174362 0.232802 0.150698
0.182232 0.232802 0.150698
0.190101 0.232802 0.150698
0.197971 0.232802 0.150698
0.205841 0.232802 0.150698
0.213711 0.232802 0.150698
0.221580 0.232802 0.150698
0.229450 0.232802 0.150698
0.244292 0.239774 0.157670
0.264305 0.251918 0.169814
0.284319 0.264062 0.181958
0.304333 0.276206 0.194103
0.324249 0.288291 0.206187
0.336893 0.295963 0.213859
0.356907 0.308107 0.226003
0.376920 0.320251 0.238148
0.396934 0.332395 0.250292
0.416948 0.344539 0.262436
0.436962 0.356684 0.274580
0.456976 0.368828 0.286724
0.476990 0.380972 0.298868
0.497004 0.393116 0.311013
0.517018 0.405260 0.323157
0.537031 0.417404 0.335301
0.557045 0.429549 0.347445
0.577059 0.441693 0.359589
0.597073 0.453837 0.371733
0.617087 0.465981 0.383878
0.623955 0.470149 0.388045
0.623955 0.470149 0.388045
0.162216 0.251784 0.162216
0.170132 0.251784 0.162216
0.178010 0.251784 0.162216
0.185880 0.251784 0.162216
0.193750 0.251784 0.162216
0.201619 0.251784 0.162216
0.209489 0.251784 0.162216
0.217359 0.251784 0.162216
0.225229 0.251784 0.162216
0.233098 0.251784 0.162216
0.240968 0.251784 0.162216
0.248838 0.251784 0.162216
0.264305 0.259382 0.169814
0.284319 0.271526 0.181958
0.304333 0.283670 0.194103
0.324249 0.295754 0.206187
0.336893 0.303427 0.213859
0.356907 0.315571 0.226003
0.376920 0.327715 0.238148
0.396934 0.339859 0.250292
0.416948 0.352003 0.262436
0.436962 0.364148 0.274580
0.456976 0.376292 0.286724
0.476990 0.388436 0.298868
0.497004 0.400580 0.311013
0.517018 0.412724 0.323157
0.537031 0.424868 0.335301
0.557045 0.437013 0.347445
0.577059 0.449157 0.359589
0.597073 0.461301 0.371733
0.617087 0.473445 0.383878
0.623955 0.477612 0.388045
0.623955 0.477612 0.388045
0.173734 0.270766 0.173734
0.181650 0.270766 0.173734
0.189528 0.270766 0.173734
0.197398 0.270766 0.173734
0.205268 0.270766 0.173734
0.213137 0.270766 0.173734
0.221007 0.270766 0.173734
0.228877 0.270766 0.173734
0.236747 0.270766 0.173734
0.244616 0.270766 0.173734
0.252486 0.270766 0.173734
0.260356 0.270766 0.173734
0.268225 0.270766 0.173734
0.284319 0.278990 0.181958
0.304333 0.291134 0.194103
0.324249 0.303218 0.206187
0.336893 0.310891 0.213859
0.356907 0.323035 0.226003
0.376920 0.335179 0.238148
0.396934 0.347323 0.250292
0.416948 0.359467 0.262436
0.436962 0.371612 0.274580
0.456976 0.383756 0.286724
0.476990 0.395900 0.298868
0.497004 0.408044 0.311013
0.517018 0.420188 0.323157
0.537031 0.432332 0.335301
0.557045 0.444477 0.347445
0.577059 0.456621 0.359589
0.597073 0.468765 0.371733
0.617087 0.480909 0.383878
0.623955 0.485076 0.388045
0.623955 0.485076 0.388045
0.185252 0.289748 0.185252
0.193168 0.289748 0.185252
0.201046 0.289748 0.185252
0.208916 0.289748 0.185252
0.216786 0.289748 0.185252
0.224655 0.289748 0.185252
0.232525 0.289748 0.185252
0.240395 0.289748 0.185252
0.248265 0.289748 0.185252
0.256134 0.289748 0.185252
0.264004 0.289748 0.185252
0.271874 0.289748 0.185252
0.279743 0.289748 0.185252
0.287613 0.289748 0.185252
0.304333 0.298598 0.194103
0.324249 0.310682 0.206187
0.336893 0.318355 0.213859
0.356907 0.330499 0.226003
0.376920 0.342643 0.238148
0.396934 0.354787 0.250292
0.416948 0.366931 0.262436
0.436962 0.379075 0.274580
0.456976 0.391220 0.286724
0.476990 0.403364 0.298868
0.497004 0.415508 0.311013
0.517018 0.427652 0.323157
0.537031 0.439796 0.335301
0.557045 0.451940 0.347445
0.577059 0.464085 0.359589
0.597073 0.476229 0.371733
0.617087 0.488373 0.383878
0.623955 0.492540 0.388045
0.623955 0.492540 0.388045
0.196770 0.308730 0.196770
0.204686 0.308730 0.196770
0.212564 0.308730 0.196770
0.220434 0.308730 0.196770
0.228304 0.308730 0.196770
0.236173 0.308730 0.196770
0.244043 0.308730 0.196770
0.251913 0.308730 0.196770
0.259783 0.308730 0.196770
0.267652 0.308730 0.196770
0.275522 0.308730 0.196770
0.283392 0.308730 0.196770
0.291261 0.308730 0.196770
0.299131 0.308730 0.196770
0.307001 0.308730 0.196770
0.324249 0.318146 0.206187
0.336893 0.325819 0.213859
0.356907 0.337963 0.226003
0.376920 0.350107 0.238148
0.396934 0.362251 0.250292
0.416948 0.374395 0.262436
0.436962 0.386539 0.274580
0.456976 0.398684 0.286724
0.476990 0.410828 0.298868
0.497004 0.422972 0.311013
0.517018 0.435116 0.323157
0.537031 0.447260 0.335301
0.557045 0.459404 0.347445
0.577059 0.471549 0.359589
0.597073 0.483693 0.371733
0.617087 0.495837 0.383878
0.623955 0.500004 0.388045
0.623955 0.500004 0.388045
0.208180 0.327532 0.208180
0.216095 0.327532 0.208180
0.223974 0.327532 0.208180
0.231843 0.327532 0.208180
0.239713 0.327532 0.208180
0.247583 0.327532 0.208180
0.255452 0.327532 0.208180
0.263322 0.327532 0.208180
0.271192 0.327532 0.208180
0.279062 0.327532 0.208180
0.286931 0.327532 0.208180
0.294801 0.327532 0.208180
0.302671 0.327532 0.208180
0.310540 0.327532 0.208180
0.318410 0.327532 0.208180
0.326241 0.327532 0.208180
0.336893 0.333212 0.213859
0.356907 0.345356 0.226003
0.376920 0.357500 0.238148
0.396934 0.369645 0.250292
0.416948 0.381789 0.262436
0.436962 0.393933 0.274580
0.456976 0.406077 0.286724
0.476990 0.418221 0.298868
0.497004 0.430365 0.311013
0.517018 0.442510 0.323157
0.537031 0.454654 0.335301
0.557045 0.466798 0.347445
0.577059 0.478942 0.359589
0.597073 0.491086 0.371733
0.617087 0.503230 0.383878
0.623955 0.507398 0.388045
0.623955 0.507398 0.388045
0.215275 0.339225 0.215275
0.223190 0.339225 0.215275
0.231069 0.339225 0.215275
0.238938 0.339225 0.215275
0.246808 0.339225 0.215275
0.254678 0.339225 0.215275
0.262548 0.339225 0.215275
0.270417 0.339225 0.215275
0.278287 0.339225 0.215275
0.286157 0.339225 0.215275
0.294026 0.339225 0.215275
0.301896 0.339225 0.215275
0.309766 0.339225 0.215275
0.317636 0.339225 0.215275
0.325505 0.339225 0.215275
0.333336 0.339225 0.215275
0.338308 0.339225 0.215275
0.356907 0.349954 0.226003
0.376920 0.362098 0.238148
0.396934 0.374242 0.250292
0.416948 0.386387 0.262436
0.436962 0.398531 0.274580
0.456976 0.410675 0.286724
0.476990 0.422819 0.298868
0.497004 0.434963 0.311013
0.517018 0.447107 0.323157
0.537031 0.459252 0.335301
0.557045 0.471396 0.347445
0.577059 0.483540 0.359589
0.597073 0.495684 0.371733
0.617087 0.507828 0.383878
0.623955 0.511996 0.388045
0.623955 0.511996 0.388045
0.226793 0.358207 0.226793
0.234708 0.358207 0.226793
0.242587 0.358207 0.226793
0.250456 0.358207 0.226793
0.258326 0.358207 0.226793
0.266196 0.358207 0.226793
0.274066 0.358207 0.226793
0.281935 0.358207 0.226793
0.289805 0.358207 0.226793
0.297675 0.358207 0.226793
0.305544 0.358207 0.226793
0.313414 0.358207 0.226793
0.321284 0.358207 0.226793
0.329154 0.358207 0.226793
0.337023 0.358207 0.226793
0.344854 0.358207 0.226793
0.349826 0.358207 0.226793
0.357696 0.358207 0.226793
0.376920 0.369562 0.238148
0.396934 0.381706 0.250292
0.416948 0.393851 0.262436
0.436962 0.405995 0.274580
0.456976 0.418139 0.286724
0.476990 0.430283 0.298868
0.497004 0.442427 0.311013
0.517018 0.454571 0.323157
0.537031 0.466715 0.335301
0.557045 0.478860 0.347445
0.577059 0.491004 0.359589
0.597073 0.503148 0.371733
0.617087 0.515292 0.383878
0.623955 0.519460 0.388045
0.623955 0.519460 0.388045
0.238311 0.377189 0.238311
0.246226 0.377189 0.238311
0.254105 0.377189 0.238311
0.261974 0.377189 0.238311
0.269844 0.377189 0.238311
0.277714 0.377189 0.238311
0.285584 0.377189 0.238311
0.293453 0.377189 0.238311
0.301323 0.377189 0.238311
0.309193 0.377189 0.238311
0.317062 0.377189 0.238311
0.324932 0.377189 0.238311
0.332802 0.377189 0.238311
0.340672 0.377189 0.238311
0.348541 0.377189 0.238311
0.356372 0.377189 0.238311
0.361344 0.377189 0.238311
0.369214 0.377189 0.238311
0.377084 0.377189 0.238311
0.396934 0.389170 0.250292
0.416948 0.401314 0.262436
0.436962 0.413459 0.274580
0.456976 0.425603 0.286724
0.476990 0.437747 0.298868
0.497004 0.449891 0.311013
0.517018 0.462035 0.323157
0.537031 0.474179 0.335301
0.557045 0.486324 0.347445
0.577059 0.498468 0.359589
0.597073 0.510612 0.371733
0.617087 0.522756 0.383878
0.623955 0.526924 0.388045
0.623955 0.526924 0.388045
0.249829 0.396171 0.249829
0.257744 0.396171 0.249829
0.265623 0.396171 0.249829
0.273492 0.396171 0.249829
0.281362 0.396171 0.249829
0.289232 0.396171 0.249829
0.297102 0.396171 0.249829
0.304971 0.396171 0.249829
0.312841 0.396171 0.249829
0.320711 0.396171 0.249829
0.328580 0.396171 0.249829
0.336450 0.396171 0.249829
0.344320 0.396171 0.249829
0.352190 0.396171 0.249829
0.360059 0.396171 0.249829
0.367890 0.396171 0.249829
0.372862 0.396171 0.249829
0.380732 0.396171 0.249829
0.388602 0.396171 0.249829
0.396934 0.396634 0.250292
0.416948 0.408778 0.262436
0.436962 0.420923 0.274580
0.456976 0.433067 0.286724
0.476990 0.445211 0.298868
0.497004 0.457355 0.311013
0.517018 0.469499 0.323157
0.537031 0.481643 0.335301
0.557045 0.493788 0.347445
0.577059 0.505932 0.359589
0.597073 0.518076 0.371733
0.617087 0.530220 0.383878
0.623955 0.534388 0.388045
0.623955 0.534388 0.388045
0.261347 0.415153 0.261347
0.269262 0.415153 0.261347
0.277141 0.415153 0.261347
0.285010 0.415153 0.261347
0.292880 0.415153 0.261347
0.300750 0.415153 0.261347
0.308620 0.415153 0.261347
0.316489 0.415153 0.261347
0.324359 0.415153 0.261347
0.332229 0.415153 0.261347
0.340098 0.415153 0.261347
0.347968 0.415153 0.261347
0.355838 0.415153 0.261347
0.363708 0.415153 0.261347
0.371577 0.415153 0.261347
0.379408 0.415153 0.261347
0.384380 0.415153 0.261347
0.392250 0.415153 0.261347
0.400120 0.415153 0.261347
0.407989 0.415153 0.261347
0.416948 0.416242 0.262436
0.436962 0.428387 0.274580
0.456976 0.440531 0.286724
0.476990 0.452675 0.298868
0.497004 0.464819 0.311013
0.517018 0.476963 0.323157
0.537031 0.489107 0.335301
0.557045 0.501252 0.347445
0.577059 0.513396 0.359589
0.597073 0.525540 0.371733
0.617087 0.537684 0.383878
0.623955 0.541851 0.388045
0.623955 0.541851 0.388045
0.272865 0.434135 0.272865
0.280780 0.434135 0.272865
0.288659 0.434135 0.272865
0.296528 0.434135 0.272865
0.304398 0.434135 0.272865
0.312268 0.434135 0.272865
0.320138 0.434135 0.272865
0.328007 0.434135 0.272865
0.335877 0.434135 0.272865
0.343747 0.434135 0.272865
0.351617 0.434135 0.272865
0.359486 0.434135 0.272865
0.367356 0.434135 0.272865
0.375226 0.434135 0.272865
0.383095 0.434135 0.272865
0.390926 0.434135 0.272865
0.395898 0.434135 0.272865
0.403768 0.434135 0.272865
0.411638 0.434135 0.272865
0.419507 0.434135 0.272865
0.427377 0.434135 0.272865
0.436962 0.435851 0.274580
0.456976 0.447995 0.286724
0.476990 0.460139 0.298868
0.497004 0.472283 0.311013
0.517018 0.484427 0.323157
0.537031 0.496571 0.335301
0.557045 0.508716 0.347445
0.577059 0.520860 0.359589
0.597073 0.533004 0.371733
0.617087 0.545148 0.383878
0.623955 0.549315 0.388045
0.623955 0.549315 0.388045
0.284383 0.453117 0.284383
0.292298 0.453117 0.284383
0.300177 0.453117 0.284383
0.308047 0.453117 0.284383
0.315916 0.453117 0.284383
0.323786 0.453117 0.284383
0.331656 0.453117 0.284383
0.339525 0.453117 0.284383
0.347395 0.453117 0.284383
0.355265 0.453117 0.284383
0.363135 0.453117 0.284383
0.371004 0.453117 0.284383
0.378874 0.453117 0.284383
0.386744 0.453117 0.284383
0.394613 0.453117 0.284383
0.402444 0.453117 0.284383
0.407416 0.453117 0.284383
0.415286 0.453117 0.284383
0.423156 0.453117 0.284383
0.431025 0.453117 0.284383
0.438895 0.453117 0.284383
0.446765 0.453117 0.284383
0.456976 0.455459 0.286724
0.476990 0.467603 0.298868
0.497004 0.479747 0.311013
0.517018 0.491891 0.323157
0.537031 0.504035 0.335301
0.557045 0.516179 0.347445
0.577059 0.528324 0.359589
0.597073 0.540468 0.371733
0.617087 0.552612 0.383878
0.623955 0.556779 0.388045
0.623955 0.556779 0.388045
0.295901 0.472099 0.295901
0.303816 0.472099 0.295901
0.311695 0.472099 0.295901
0.319565 0.472099 0.295901
0.327434 0.472099 0.295901
0.335304 0.472099 0.295901
0.343174 0.472099 0.295901
0.351043 0.472099 0.295901
0.358913 0.472099 0.295901
0.366783 0.472099 0.295901
0.374653 0.472099 0.295901
0.382522 0.472099 0.295901
0.390392 0.472099 0.295901
0.398262 0.472099 0.295901
0.406131 0.472099 0.295901
0.413962 0.472099 0.295901
0.418934 0.472099 0.295901
0.426804 0.472099 0.295901
0.434674 0.472099 0.295901
0.442543 0.472099 0.295901
0.450413 0.472099 0.295901
0.458283 0.472099 0.295901
0.466153 0.472099 0.295901
0.476990 0.475067 0.298868
0.497004 0.487211 0.311013
0.517018 0.499355 0.323157
0.537031 0.511499 0.335301
0.557045 0.523643 0.347445
0.577059 0.535788 0.359589
0.597073 0.547932 0.371733
0.617087 0.560076 0.383878
0.623955 0.564243 0.388045
0.623955 0.564243 0.388045
0.307419 0.491081 0.307419
0.315334 0.491081 0.307419
0.323213 0.491081 0.307419
0.331083 0.491081 0.307419
0.338952 0.491081 0.307419
0.346822 0.491081 0.307419
0.354692 0.491081 0.307419
0.362561 0.491081 0.307419
0.370431 0.491081 0.307419
0.378301 0.491081 0.307419
0.386171 0.491081 0.307419
0.394040 0.491081 0.307419
0.401910 0.491081 0.307419
0.409780 0.491081 0.307419
0.417649 0.491081 0.307419
0.425480 0.491081 0.307419
0.430452 0.491081 0.307419
0.438322 0.491081 0.307419
0.446192 0.491081 0.307419
0.454061 0.491081 0.307419
0.461931 0.491081 0.307419
0.469801 0.491081 0.307419
0.477671 0.491081 0.307419
0.485540 0.491081 0.307419
0.497004 0.494675 0.311013
0.517018 0.506819 0.323157
0.537031 0.518963 0.335301
0.557045 0.531107 0.347445
0.577059 0.543252 0.359589
0.597073 0.555396 0.371733
0.617087 0.567540 0.383878
0.623955 0.571707 0.388045
0.623955 0.571707 0.388045
0.318937 0.510063 0.318937
0.326852 0.510063 0.318937
0.334731 0.510063 0.318937
0.342601 0.510063 0.318937
0.350470 0.510063 0.318937
0.358340 0.510063 0.318937
0.366210 0.510063 0.318937
0.374079 0.510063 0.318937
0.381949 0.510063 0.318937
0.389819 0.510063 0.318937
0.397689 0.510063 0.318937
0.405558 0.510063 0.318937
0.413428 0.510063 0.318937
0.421298 0.510063 0.318937
0.429167 0.510063 0.318937
0.436998 0.510063 0.318937
0.441970 0.510063 0.318937
0.449840 0.510063 0.318937
0.457710 0.510063 0.318937
0.465579 0.510063 0.318937
0.473449 0.510063 0.318937
0.481319 0.510063 0.318937
0.489189 0.510063 0.318937
0.497058 0.510063 0.318937
0.504928 0.510063 0.318937
