docs/luts/fuji_recipes/Astia_JP_Flat_Landscape.cube
TITLE "Fujifilm Recipe: JP Flat Landscape (Astia)"
# FilmSim=Astia HL=-1 SH=0 Col=-1 WB=5300K WBR=0 WBB=0
LUT_3D_SIZE 5
DOMAIN_MIN 0.0 0.0 0.0
DOMAIN_MAX 1.0 1.0 1.0
0.024000 0.024000 0.024000
0.232524 0.058415 0.058415
0.441005 0.092822 0.092822
0.628898 0.124540 0.124540
0.825148 0.157752 0.157752
0.058565 0.233435 0.058565
0.232674 0.233435 0.058565
0.441005 0.267692 0.092822
0.628898 0.299410 0.124540
0.825148 0.332622 0.157752
0.093089 0.442623 0.093089
0.267199 0.442623 0.093089
0.441272 0.442623 0.093089
0.628898 0.474073 0.124540
0.825148 0.506756 0.157752
0.124923 0.631159 0.124923
0.299032 0.631159 0.124923
0.473105 0.631159 0.124923
0.629272 0.631159 0.124923
0.825148 0.663243 0.157752
0.158253 0.828111 0.158253
0.332362 0.828111 0.158253
0.505976 0.828111 0.158253
0.661846 0.828111 0.158253
0.825638 0.828111 0.158253
0.058892 0.058892 0.235414
0.233001 0.058892 0.235414
0.441005 0.092822 0.269345
0.628898 0.124540 0.301063
0.825148 0.157752 0.334274
0.058892 0.233762 0.235414
0.267416 0.268176 0.269829
0.475570 0.302257 0.303910
0.662624 0.333892 0.335545
0.858874 0.367104 0.368756
0.093089 0.442623 0.269612
0.301613 0.477037 0.304027
0.476164 0.477514 0.304504
0.662943 0.508342 0.335871
0.859193 0.540800 0.369082
0.124923 0.631159 0.301445
0.333364 0.664738 0.335777
0.507446 0.665204 0.336253
0.663317 0.665204 0.336253
0.859193 0.697288 0.369082
0.158253 0.828111 0.334776
0.366695 0.861690 0.369108
0.540021 0.862155 0.369584
0.695891 0.862155 0.369584
0.859683 0.862155 0.369584
0.092025 0.092025 0.436172
0.266134 0.092025 0.436172
0.441005 0.092822 0.436969
0.628898 0.124540 0.468687
0.825148 0.157752 0.501692
0.092025 0.266895 0.436172
0.300549 0.301309 0.470586
0.475570 0.302257 0.471534
0.662624 0.333892 0.502960
0.858874 0.367104 0.535418
0.093089 0.442623 0.437236
0.301613 0.477037 0.471651
0.508739 0.510008 0.504945
0.695168 0.540567 0.535504
0.891335 0.572942 0.567879
0.124923 0.631159 0.469070
0.333364 0.664738 0.503187
0.539670 0.697428 0.535877
0.695541 0.697428 0.535877
0.891335 0.729430 0.567879
0.158253 0.828111 0.502182
0.366695 0.861690 0.535761
0.572162 0.894297 0.568368
0.728032 0.894297 0.568368
0.891824 0.894297 0.568368
0.125754 0.125754 0.636072
0.299863 0.125754 0.636072
0.473937 0.125754 0.636072
0.630085 0.125754 0.636072
0.825148 0.157752 0.667344
0.125754 0.300624 0.636072
0.334195 0.334956 0.669651
0.507940 0.335106 0.669798
0.663811 0.335106 0.669798
0.858874 0.367104 0.701069
0.125754 0.475287 0.636072
0.334195 0.509063 0.669651
0.541231 0.542500 0.703088
0.697352 0.542751 0.703339
0.892336 0.573943 0.734531
0.125754 0.631972 0.636072
0.334195 0.665551 0.669651
0.541231 0.698988 0.703088
0.727911 0.729798 0.733898
0.923267 0.761362 0.765463
0.158253 0.828111 0.667834
0.366695 0.861690 0.701413
0.572911 0.895046 0.734769
0.759591 0.925856 0.765579
0.924567 0.927039 0.766762
0.158253 0.158253 0.828111
0.332362 0.158253 0.828111
0.505976 0.158253 0.828111
0.661846 0.158253 0.828111
0.825638 0.158253 0.828111
0.158253 0.333123 0.828111
0.366695 0.367455 0.861690
0.539702 0.367605 0.861837
0.695572 0.367605 0.861837
0.859364 0.367605 0.861837
0.158253 0.507246 0.828111
0.366695 0.540825 0.861690
0.572911 0.574181 0.895046
0.729033 0.574432 0.895297
0.892825 0.574432 0.895297
0.158253 0.663733 0.828111
0.366695 0.697312 0.861690
0.572911 0.730669 0.895046
0.759591 0.761478 0.925856
0.923756 0.761851 0.926229
0.158253 0.828111 0.828111
0.366695 0.861690 0.861690
0.572911 0.895046 0.895046
0.759591 0.925856 0.925856
0.955759 0.958231 0.958231
