docs/luts/fuji_recipes/Astia_JP_Flat_Landscape.cube
TITLE "Fujifilm Recipe: JP Flat Landscape (Astia)"
# FilmSim=Astia HL=-1 SH=0 Col=-1 WB=5300K WBR=0 WBB=0
LUT_3D_SIZE 9
DOMAIN_MIN 0.0 0.0 0.0
DOMAIN_MAX 1.0 1.0 1.0
0.024000 0.024000 0.024000
0.128180 0.041194 0.041194
0.232524 0.058415 0.058415
0.336868 0.075636 0.075636
0.441005 0.092822 0.092822
0.530774 0.107934 0.107934
0.628898 0.124540 0.124540
0.727023 0.141146 0.141146
0.825148 0.157752 0.157752
0.041283 0.128717 0.041283
0.128269 0.128717 0.041283
0.232524 0.145850 0.058415
0.336868 0.163071 0.075636
0.441005 0.180257 0.092822
0.530774 0.195369 0.107934
0.628898 0.211975 0.124540
0.727023 0.228581 0.141146
0.825148 0.245187 0.157752
0.058565 0.233435 0.058565
0.145551 0.233435 0.058565
0.232674 0.233435 0.058565
0.336868 0.250506 0.075636
0.441005 0.267692 0.092822
0.530774 0.282804 0.107934
0.628898 0.299410 0.124540
0.727023 0.316016 0.141146
0.825148 0.332622 0.157752
0.075848 0.338152 0.075848
0.162834 0.338152 0.075848
0.249957 0.338152 0.075848
0.337080 0.338152 0.075848
0.441005 0.355127 0.092822
0.530774 0.370239 0.107934
0.628898 0.386845 0.124540
0.727023 0.403451 0.141146
0.825148 0.420056 0.157752
0.093089 0.442623 0.093089
0.180075 0.442623 0.093089
0.267199 0.442623 0.093089
0.354322 0.442623 0.093089
0.441272 0.442623 0.093089
0.530774 0.457468 0.107934
0.628898 0.474073 0.124540
0.727023 0.490527 0.141146
0.825148 0.506756 0.157752
0.108257 0.532683 0.108257
0.195243 0.532683 0.108257
0.282367 0.532683 0.108257
0.369490 0.532683 0.108257
0.456440 0.532683 0.108257
0.531089 0.532683 0.108257
0.628898 0.548596 0.124540
0.727023 0.564825 0.141146
0.825148 0.581054 0.157752
0.124923 0.631159 0.124923
0.211909 0.631159 0.124923
0.299032 0.631159 0.124923
0.386155 0.631159 0.124923
0.473105 0.631159 0.124923
0.547376 0.631159 0.124923
0.629272 0.631159 0.124923
0.727023 0.647014 0.141146
0.825148 0.663243 0.157752
0.141588 0.729635 0.141588
0.228574 0.729635 0.141588
0.315697 0.729635 0.141588
0.402821 0.729635 0.141588
0.489689 0.729635 0.141588
0.563664 0.729635 0.141588
0.645559 0.729635 0.141588
0.727455 0.729635 0.141588
0.825148 0.745432 0.157752
0.158253 0.828111 0.158253
0.245239 0.828111 0.158253
0.332362 0.828111 0.158253
0.419486 0.828111 0.158253
0.505976 0.828111 0.158253
0.579951 0.828111 0.158253
0.661846 0.828111 0.158253
0.743742 0.828111 0.158253
0.825638 0.828111 0.158253
0.041475 0.041475 0.129886
0.128461 0.041475 0.129886
0.232524 0.058415 0.146825
0.336868 0.075636 0.164046
0.441005 0.092822 0.181233
0.530774 0.107934 0.196344
0.628898 0.124540 0.212950
0.727023 0.141146 0.229556
0.825148 0.157752 0.246162
0.041475 0.128910 0.129886
0.145655 0.146104 0.147079
0.249807 0.163132 0.164108
0.354151 0.180353 0.181328
0.458288 0.197540 0.198515
0.547636 0.212610 0.213586
0.645761 0.229216 0.230191
0.743886 0.245822 0.246797
0.842011 0.262428 0.263403
0.058565 0.233435 0.146975
0.162745 0.250629 0.164169
0.250150 0.250910 0.164451
0.354344 0.267981 0.181521
0.458480 0.285168 0.198708
0.547825 0.300237 0.213778
0.645949 0.316843 0.230384
0.744074 0.333449 0.246989
0.842199 0.350055 0.263595
0.075848 0.338152 0.164258
0.180028 0.355346 0.181452
0.267432 0.355628 0.181733
0.354556 0.355628 0.181733
0.458480 0.372603 0.198708
0.547825 0.387672 0.213778
0.645949 0.404278 0.230384
0.744074 0.420884 0.246989
0.842199 0.437490 0.263595
0.093089 0.442623 0.181500
0.197269 0.459817 0.198693
0.284674 0.460098 0.198975
0.371797 0.460098 0.198975
0.458747 0.460098 0.198975
0.547825 0.474901 0.213778
0.645949 0.491349 0.230384
0.744074 0.507578 0.246989
0.842199 0.523807 0.263595
0.108257 0.532683 0.196668
0.212396 0.549459 0.213820
0.299800 0.549734 0.214101
0.386923 0.549734 0.214101
0.473873 0.549734 0.214101
0.548140 0.549734 0.214101
0.645949 0.565647 0.230384
0.744074 0.581876 0.246989
0.842199 0.598105 0.263595
0.124923 0.631159 0.213333
0.229061 0.647935 0.230485
0.316465 0.648210 0.230766
0.403589 0.648210 0.230766
0.490453 0.648210 0.230766
0.564427 0.648210 0.230766
0.646323 0.648210 0.230766
0.744074 0.664065 0.246989
0.842199 0.680294 0.263595
0.141588 0.729635 0.229998
0.245726 0.746411 0.247151
0.333131 0.746686 0.247431
0.420254 0.746686 0.247431
0.506740 0.746686 0.247431
0.580714 0.746686 0.247431
0.662610 0.746686 0.247431
0.744506 0.746686 0.247431
0.842199 0.762483 0.263595
0.158253 0.828111 0.246663
0.262392 0.844887 0.263816
0.349796 0.845162 0.264097
0.436919 0.845162 0.264097
0.523027 0.845162 0.264097
0.597002 0.845162 0.264097
0.678897 0.845162 0.264097
0.760793 0.845162 0.264097
0.842689 0.845162 0.264097
0.058892 0.058892 0.235414
0.145878 0.058892 0.235414
0.233001 0.058892 0.235414
0.336868 0.075636 0.252158
0.441005 0.092822 0.269345
0.530774 0.107934 0.284457
0.628898 0.124540 0.301063
0.727023 0.141146 0.317668
0.825148 0.157752 0.334274
0.058892 0.146327 0.235414
0.163072 0.163520 0.252608
0.250284 0.163609 0.252697
0.354151 0.180353 0.269441
0.458288 0.197540 0.286627
0.547636 0.212610 0.301698
0.645761 0.229216 0.318304
0.743886 0.245822 0.334909
0.842011 0.262428 0.351515
0.058892 0.233762 0.235414
0.163072 0.250955 0.252608
0.267416 0.268176 0.269829
0.371433 0.285071 0.286723
0.475570 0.302257 0.303910
0.564499 0.317286 0.318939
0.662624 0.333892 0.335545
0.760749 0.350498 0.352150
0.858874 0.367104 0.368756
0.075848 0.338152 0.252370
0.180028 0.355346 0.269564
0.284372 0.372567 0.286785
0.371972 0.373044 0.287262
0.475897 0.390019 0.304237
0.564818 0.405047 0.319265
0.662943 0.421653 0.335871
0.761068 0.438259 0.352476
0.859193 0.454864 0.369082
0.093089 0.442623 0.269612
0.197269 0.459817 0.286806
0.301613 0.477037 0.304027
0.389214 0.477514 0.304504
0.476164 0.477514 0.304504
0.564818 0.492113 0.319265
0.662943 0.508342 0.335871
0.761068 0.524571 0.352476
0.859193 0.540800 0.369082
0.108257 0.532683 0.284780
0.212396 0.549459 0.301932
0.316699 0.566262 0.319112
0.404298 0.566728 0.319588
0.491159 0.566728 0.319588
0.565134 0.566728 0.319588
0.662943 0.582641 0.335871
0.761068 0.598870 0.352476
0.859193 0.615099 0.369082
0.124923 0.631159 0.301445
0.229061 0.647935 0.318598
0.333364 0.664738 0.335777
0.420963 0.665204 0.336253
0.507446 0.665204 0.336253
0.581421 0.665204 0.336253
0.663317 0.665204 0.336253
0.761068 0.681059 0.352476
0.859193 0.697288 0.369082
0.141588 0.729635 0.318110
0.245726 0.746411 0.335263
0.350029 0.763214 0.352442
0.437628 0.763679 0.352918
0.523733 0.763679 0.352918
0.597708 0.763679 0.352918
0.679604 0.763679 0.352918
0.761500 0.763679 0.352918
0.859193 0.779477 0.369082
0.158253 0.828111 0.334776
0.262392 0.844887 0.351928
0.366695 0.861690 0.369108
0.454294 0.862155 0.369584
0.540021 0.862155 0.369584
0.613995 0.862155 0.369584
0.695891 0.862155 0.369584
0.777787 0.862155 0.369584
0.859683 0.862155 0.369584
0.076308 0.076308 0.340943
0.163294 0.076308 0.340943
0.250418 0.076308 0.340943
0.337541 0.076308 0.340943
0.441005 0.092822 0.357457
0.530774 0.107934 0.372569
0.628898 0.124540 0.389175
0.727023 0.141146 0.405781
0.825148 0.157752 0.422387
0.076308 0.163743 0.340943
0.180488 0.180937 0.358137
0.267700 0.181026 0.358226
0.354823 0.181026 0.358226
0.458288 0.197540 0.374740
0.547636 0.212610 0.389810
0.645761 0.229216 0.406416
0.743886 0.245822 0.423022
0.842011 0.262428 0.439628
0.076308 0.251178 0.340943
0.180488 0.268372 0.358137
0.284832 0.285593 0.375358
0.372106 0.285743 0.375508
0.475570 0.302257 0.392022
0.564499 0.317286 0.407051
0.662624 0.333892 0.423657
0.760749 0.350498 0.440263
0.858874 0.367104 0.456869
0.076308 0.338613 0.340943
0.180488 0.355807 0.358137
0.284832 0.373028 0.375358
0.389176 0.390249 0.392579
0.492728 0.406962 0.409293
0.581362 0.421962 0.424292
0.679487 0.438568 0.440898
0.777612 0.455174 0.457504
0.875737 0.471780 0.474110
0.093089 0.442623 0.357724
0.197269 0.459817 0.374918
0.301613 0.477037 0.392139
0.405936 0.494043 0.409339
0.493429 0.494699 0.410009
0.581812 0.509107 0.424752
0.679936 0.525336 0.441357
0.778061 0.541565 0.457963
0.876186 0.557794 0.474569
0.108257 0.532683 0.372892
0.212396 0.549459 0.390045
0.316699 0.566262 0.407224
0.421002 0.583065 0.424404
0.508153 0.583721 0.425075
0.582127 0.583721 0.425075
0.679936 0.599634 0.441357
0.778061 0.615863 0.457963
0.876186 0.632092 0.474569
0.124923 0.631159 0.389557
0.229061 0.647935 0.406710
0.333364 0.664738 0.423890
0.437667 0.681541 0.441069
0.524440 0.682197 0.441740
0.598414 0.682197 0.441740
0.680310 0.682197 0.441740
0.778061 0.698052 0.457963
0.876186 0.714281 0.474569
0.141588 0.729635 0.406223
0.245726 0.746411 0.423375
0.350029 0.763214 0.440555
0.454332 0.780017 0.457734
0.540727 0.780673 0.458405
0.614701 0.780673 0.458405
0.696597 0.780673 0.458405
0.778493 0.780673 0.458405
0.876186 0.796470 0.474569
0.158253 0.828111 0.422888
0.262392 0.844887 0.440040
0.366695 0.861690 0.457220
0.470997 0.878493 0.474400
0.557014 0.879149 0.475070
0.630989 0.879149 0.475070
0.712884 0.879149 0.475070
0.794780 0.879149 0.475070
0.876676 0.879149 0.475070
0.092025 0.092025 0.436172
0.179011 0.092025 0.436172
0.266134 0.092025 0.436172
0.353257 0.092025 0.436172
0.441005 0.092822 0.436969
0.530774 0.107934 0.452081
0.628898 0.124540 0.468687
0.727023 0.141146 0.485293
0.825148 0.157752 0.501692
0.092025 0.179460 0.436172
0.196205 0.196653 0.453365
0.283417 0.196742 0.453454
0.370540 0.196742 0.453454
0.458288 0.197540 0.454252
0.547636 0.212610 0.469322
0.645761 0.229216 0.485928
0.743886 0.245822 0.502326
0.842011 0.262428 0.518555
0.092025 0.266895 0.436172
0.196205 0.284088 0.453365
0.300549 0.301309 0.470586
0.387822 0.301460 0.470737
0.475570 0.302257 0.471534
0.564499 0.317286 0.486563
0.662624 0.333892 0.502960
0.760749 0.350498 0.519189
0.858874 0.367104 0.535418
0.092025 0.354329 0.436172
0.196205 0.371523 0.453365
0.300549 0.388744 0.470586
0.404893 0.405965 0.487807
0.492728 0.406962 0.488805
0.581362 0.421962 0.503594
0.679487 0.438568 0.519823
0.777612 0.455174 0.536052
0.875737 0.471780 0.552281
0.093089 0.442623 0.437236
0.197269 0.459817 0.454430
0.301613 0.477037 0.471651
0.405936 0.494043 0.488851
0.508739 0.510008 0.504945
0.597084 0.524379 0.519316
0.695168 0.540567 0.535504
0.793252 0.556755 0.551692
0.891335 0.572942 0.567879
0.108257 0.532683 0.452404
0.212396 0.549459 0.469557
0.316699 0.566262 0.486736
0.421002 0.583065 0.503703
0.523425 0.598993 0.519631
0.597399 0.598993 0.519631
0.695168 0.614866 0.535504
0.793252 0.631054 0.551692
0.891335 0.647241 0.567879
0.124923 0.631159 0.469070
0.229061 0.647935 0.486222
0.333364 0.664738 0.503187
0.437667 0.681541 0.519990
0.539670 0.697428 0.535877
0.613645 0.697428 0.535877
0.695541 0.697428 0.535877
0.793252 0.713242 0.551692
0.891335 0.729430 0.567879
0.141588 0.729635 0.485735
0.245726 0.746411 0.502672
0.350029 0.763214 0.519474
0.454332 0.780017 0.536277
0.555916 0.795862 0.552122
0.629891 0.795862 0.552122
0.711786 0.795862 0.552122
0.793682 0.795862 0.552122
0.891335 0.811619 0.567879
0.158253 0.828111 0.502182
0.262392 0.844887 0.518959
0.366695 0.861690 0.535761
0.470997 0.878493 0.552564
0.572162 0.894297 0.568368
0.646136 0.894297 0.568368
0.728032 0.894297 0.568368
0.809928 0.894297 0.568368
0.891824 0.894297 0.568368
0.108960 0.108960 0.536833
0.195946 0.108960 0.536833
0.283069 0.108960 0.536833
0.370192 0.108960 0.536833
0.457142 0.108960 0.536833
0.531776 0.108960 0.536833
0.628898 0.124540 0.552060
0.727023 0.141146 0.568289
0.825148 0.157752 0.584518
0.108960 0.196395 0.536833
0.213098 0.213547 0.553609
0.300310 0.213636 0.553696
0.387433 0.213636 0.553696
0.474383 0.213636 0.553696
0.548639 0.213636 0.553696
0.645761 0.229216 0.568923
0.743886 0.245822 0.585152
0.842011 0.262428 0.601381
0.108960 0.283830 0.536833
0.213098 0.300982 0.553609
0.317401 0.318162 0.570412
0.404674 0.318312 0.570559
0.491527 0.318312 0.570559
0.565501 0.318312 0.570559
0.662624 0.333892 0.585786
0.760749 0.350498 0.602015
0.858874 0.367104 0.618244
0.108960 0.371265 0.536833
0.213098 0.388417 0.553609
0.317401 0.405597 0.570412
0.421704 0.422776 0.587215
0.508390 0.422988 0.587422
0.582364 0.422988 0.587422
0.679487 0.438568 0.602649
0.777612 0.455174 0.618878
0.875737 0.471780 0.635107
0.108960 0.458493 0.536833
0.213098 0.475646 0.553609
0.317401 0.492650 0.570412
0.421704 0.509453 0.587215
0.524859 0.526129 0.603891
0.599085 0.526380 0.604142
0.696169 0.541568 0.619330
0.794252 0.557756 0.635518
0.892336 0.573943 0.651706
0.108960 0.533369 0.536833
0.213098 0.550146 0.553609
0.317401 0.566949 0.570412
0.421704 0.583751 0.587215
0.524859 0.600428 0.603891
0.613456 0.615050 0.618513
0.710855 0.630553 0.634016
0.808938 0.646740 0.650204
0.907022 0.662928 0.666392
0.124923 0.631159 0.552434
0.229061 0.647935 0.569210
0.333364 0.664738 0.586013
0.437667 0.681541 0.602816
0.540420 0.698177 0.619452
0.629017 0.712799 0.634074
0.711912 0.713799 0.635074
0.809623 0.729614 0.650889
0.907707 0.745801 0.667076
0.141588 0.729635 0.568721
0.245726 0.746411 0.585497
0.350029 0.763214 0.602300
0.454332 0.780017 0.619103
0.556666 0.796612 0.635698
0.645262 0.811234 0.650320
0.728158 0.812233 0.651319
0.810054 0.812233 0.651319
0.907707 0.827990 0.667076
0.158253 0.828111 0.585008
0.262392 0.844887 0.601784
0.366695 0.861690 0.618587
0.470997 0.878493 0.635390
0.572911 0.895046 0.651943
0.661508 0.909668 0.666565
0.744403 0.910668 0.667565
0.826299 0.910668 0.667565
0.908195 0.910668 0.667565
0.125754 0.125754 0.636072
0.212740 0.125754 0.636072
0.299863 0.125754 0.636072
0.386987 0.125754 0.636072
0.473937 0.125754 0.636072
0.548189 0.125754 0.636072
0.630085 0.125754 0.636072
0.727023 0.141146 0.651115
0.825148 0.157752 0.667344
0.125754 0.213189 0.636072
0.229893 0.230341 0.652848
0.317104 0.230430 0.652935
0.404228 0.230430 0.652935
0.491077 0.230430 0.652935
0.565052 0.230430 0.652935
0.646948 0.230430 0.652935
0.743886 0.245822 0.667977
0.842011 0.262428 0.684206
0.125754 0.300624 0.636072
0.229893 0.317776 0.652848
0.334195 0.334956 0.669651
0.421469 0.335106 0.669798
0.507940 0.335106 0.669798
0.581915 0.335106 0.669798
0.663811 0.335106 0.669798
0.760749 0.350498 0.684840
0.858874 0.367104 0.701069
0.125754 0.388059 0.636072
0.229893 0.405211 0.652848
0.334195 0.422391 0.669651
0.438498 0.439570 0.686454
0.524803 0.439782 0.686661
0.598778 0.439782 0.686661
0.680673 0.439782 0.686661
0.777612 0.455174 0.701703
0.875737 0.471780 0.717932
0.125754 0.475287 0.636072
0.229893 0.492260 0.652848
0.334195 0.509063 0.669651
0.438498 0.525866 0.686454
0.541231 0.542500 0.703088
0.615456 0.542751 0.703339
0.697352 0.542751 0.703339
0.794252 0.557756 0.718344
0.892336 0.573943 0.734531
0.125754 0.549783 0.636072
0.229893 0.566559 0.652848
0.334195 0.583362 0.669651
0.438498 0.600165 0.686454
0.541231 0.616799 0.703088
0.629827 0.631421 0.717710
0.712038 0.631736 0.718025
0.808938 0.646740 0.733030
0.907022 0.662928 0.749217
0.125754 0.631972 0.636072
0.229893 0.648748 0.652848
0.334195 0.665551 0.669651
0.438498 0.682353 0.686454
0.541231 0.698988 0.703088
0.629827 0.713610 0.717710
0.727911 0.729798 0.733898
0.825184 0.745175 0.749275
0.923267 0.761362 0.765463
0.141588 0.729635 0.651546
0.245726 0.746411 0.668323
0.350029 0.763214 0.685126
0.454332 0.780017 0.701928
0.556666 0.796612 0.718523
0.645262 0.811234 0.733145
0.743346 0.827421 0.749333
0.826425 0.828605 0.750516
0.924078 0.844362 0.766273
0.158253 0.828111 0.667834
0.262392 0.844887 0.684610
0.366695 0.861690 0.701413
0.470997 0.878493 0.718215
0.572911 0.895046 0.734769
0.661508 0.909668 0.749391
0.759591 0.925856 0.765579
0.842671 0.927039 0.766762
0.924567 0.927039 0.766762
0.142548 0.142548 0.735311
0.229534 0.142548 0.735311
0.316658 0.142548 0.735311
0.403781 0.142548 0.735311
0.490628 0.142548 0.735311
0.564602 0.142548 0.735311
0.646498 0.142548 0.735311
0.728394 0.142548 0.735311
0.825148 0.157752 0.750169
0.142548 0.229983 0.735311
0.246687 0.247136 0.752087
0.333899 0.247224 0.752174
0.421022 0.247224 0.752174
0.507491 0.247224 0.752174
0.581465 0.247224 0.752174
0.663361 0.247224 0.752174
0.745257 0.247224 0.752174
0.842011 0.262428 0.767032
0.142548 0.317418 0.735311
0.246687 0.334571 0.752087
0.350990 0.351750 0.768890
0.438263 0.351900 0.769036
0.524353 0.351900 0.769036
0.598328 0.351900 0.769036
0.680224 0.351900 0.769036
0.762120 0.351900 0.769036
0.858874 0.367104 0.783895
0.142548 0.404853 0.735311
0.246687 0.422006 0.752087
0.350990 0.439185 0.768890
0.455293 0.456365 0.785693
0.541216 0.456576 0.785899
0.615191 0.456576 0.785899
0.697087 0.456576 0.785899
0.778983 0.456576 0.785899
0.875737 0.471780 0.800758
0.142548 0.491897 0.735311
0.246687 0.508674 0.752087
0.350990 0.525476 0.768890
0.455293 0.542279 0.785693
0.557602 0.558872 0.802285
0.631828 0.559123 0.802536
0.713724 0.559123 0.802536
0.795620 0.559123 0.802536
0.892336 0.573943 0.817357
0.142548 0.566196 0.735311
0.246687 0.582972 0.752087
0.350990 0.599775 0.768890
0.455293 0.616578 0.785693
0.557602 0.633171 0.802285
0.646199 0.647792 0.816907
0.728410 0.648107 0.817222
0.810305 0.648107 0.817222
0.907022 0.662928 0.832043
0.142548 0.648385 0.735311
0.246687 0.665161 0.752087
0.350990 0.681964 0.768890
0.455293 0.698767 0.785693
0.557602 0.715359 0.802285
0.646199 0.729981 0.816907
0.744282 0.746169 0.833095
0.826551 0.746542 0.833468
0.923267 0.761362 0.848288
0.142548 0.730574 0.735311
0.246687 0.747350 0.752087
0.350990 0.764153 0.768890
0.455293 0.780956 0.785693
0.557602 0.797548 0.802285
0.646199 0.812170 0.816907
0.744282 0.828358 0.833095
0.842366 0.844545 0.849283
0.939513 0.859797 0.864534
0.158253 0.828111 0.750659
0.262392 0.844887 0.767435
0.366695 0.861690 0.784238
0.470997 0.878493 0.801041
0.572911 0.895046 0.817595
0.661508 0.909668 0.832216
0.759591 0.925856 0.848404
0.857675 0.942044 0.864592
0.940938 0.943411 0.865959
0.158253 0.158253 0.828111
0.245239 0.158253 0.828111
0.332362 0.158253 0.828111
0.419486 0.158253 0.828111
0.505976 0.158253 0.828111
0.579951 0.158253 0.828111
0.661846 0.158253 0.828111
0.743742 0.158253 0.828111
0.825638 0.158253 0.828111
0.158253 0.245688 0.828111
0.262392 0.262840 0.844887
0.349603 0.262929 0.844974
0.436727 0.262929 0.844974
0.522839 0.262929 0.844974
0.596813 0.262929 0.844974
0.678709 0.262929 0.844974
0.760605 0.262929 0.844974
0.842501 0.262929 0.844974
0.158253 0.333123 0.828111
0.262392 0.350275 0.844887
0.366695 0.367455 0.861690
0.453968 0.367605 0.861837
0.539702 0.367605 0.861837
0.613676 0.367605 0.861837
0.695572 0.367605 0.861837
0.777468 0.367605 0.861837
0.859364 0.367605 0.861837
0.158253 0.420558 0.828111
0.262392 0.437710 0.844887
0.366695 0.454890 0.861690
0.470997 0.472070 0.878493
0.556565 0.472281 0.878700
0.630539 0.472281 0.878700
0.712435 0.472281 0.878700
0.794331 0.472281 0.878700
0.876227 0.472281 0.878700
0.158253 0.507246 0.828111
0.262392 0.524022 0.844887
0.366695 0.540825 0.861690
0.470997 0.557627 0.878493
0.572911 0.574181 0.895046
0.647137 0.574432 0.895297
0.729033 0.574432 0.895297
0.810929 0.574432 0.895297
0.892825 0.574432 0.895297
0.158253 0.581544 0.828111
0.262392 0.598321 0.844887
0.366695 0.615123 0.861690
0.470997 0.631926 0.878493
0.572911 0.648480 0.895046
0.661508 0.663102 0.909668
0.743719 0.663417 0.909983
0.825615 0.663417 0.909983
0.907511 0.663417 0.909983
0.158253 0.663733 0.828111
0.262392 0.680510 0.844887
0.366695 0.697312 0.861690
0.470997 0.714115 0.878493
0.572911 0.730669 0.895046
0.661508 0.745291 0.909668
0.759591 0.761478 0.925856
0.841860 0.761851 0.926229
0.923756 0.761851 0.926229
0.158253 0.745922 0.828111
0.262392 0.762698 0.844887
0.366695 0.779501 0.861690
0.470997 0.796304 0.878493
0.572911 0.812857 0.895046
0.661508 0.827479 0.909668
0.759591 0.843667 0.925856
0.857675 0.859855 0.942044
0.940002 0.860286 0.942474
0.158253 0.828111 0.828111
0.262392 0.844887 0.844887
0.366695 0.861690 0.861690
0.470997 0.878493 0.878493
0.572911 0.895046 0.895046
0.661508 0.909668 0.909668
0.759591 0.925856 0.925856
0.857675 0.942044 0.942044
0.955759 0.958231 0.958231
