docs/luts/fuji_recipes/Astia_JP_Travel.cube
TITLE "Fujifilm Recipe: JP Travel (Astia)"
# FilmSim=Astia HL=-1 SH=1 Col=0 WB=Auto WBR=0 WBB=0
LUT_3D_SIZE 9
DOMAIN_MIN 0.0 0.0 0.0
DOMAIN_MAX 1.0 1.0 1.0
0.023040 0.023040 0.023040
0.133438 0.030463 0.030463
0.243635 0.037872 0.037872
0.353833 0.045281 0.045281
0.453236 0.051965 0.051965
0.581695 0.059374 0.059374
0.689597 0.066783 0.066783
0.797498 0.074192 0.074192
0.901632 0.081343 0.081343
0.030419 0.132781 0.030419
0.133438 0.132826 0.030463
0.243635 0.140235 0.037872
0.353833 0.147644 0.045281
0.453236 0.154327 0.051965
0.581695 0.161737 0.059374
0.689597 0.169146 0.066783
0.797498 0.176555 0.074192
0.901632 0.183706 0.081343
0.037797 0.242523 0.037797
0.140772 0.242523 0.037797
0.243635 0.242598 0.037872
0.353833 0.250007 0.045281
0.453236 0.256690 0.051965
0.581695 0.264100 0.059374
0.689597 0.271509 0.066783
0.797498 0.278918 0.074192
0.901632 0.286068 0.081343
0.045176 0.352264 0.045176
0.148151 0.352264 0.045176
0.250939 0.352264 0.045176
0.353833 0.352370 0.045281
0.453236 0.359053 0.051965
0.581695 0.366462 0.059374
0.689597 0.373872 0.066783
0.797498 0.381281 0.074192
0.901632 0.388431 0.081343
0.052537 0.461747 0.052537
0.155512 0.461747 0.052537
0.258300 0.461747 0.052537
0.361088 0.461747 0.052537
0.453808 0.461747 0.052537
0.581695 0.468584 0.059374
0.689597 0.475993 0.066783
0.797498 0.503331 0.074192
0.901632 0.510333 0.081343
0.059207 0.579266 0.059207
0.162182 0.579266 0.059207
0.264970 0.579266 0.059207
0.367759 0.579266 0.059207
0.460478 0.579266 0.059207
0.581695 0.579430 0.059374
0.689597 0.586685 0.066783
0.797498 0.593939 0.074192
0.901632 0.600941 0.081343
0.066586 0.686722 0.066586
0.169561 0.686722 0.066586
0.272349 0.686722 0.066586
0.375137 0.686722 0.066586
0.467857 0.686722 0.066586
0.588757 0.686722 0.066586
0.689597 0.686915 0.066783
0.797498 0.694170 0.074192
0.901632 0.701171 0.081343
0.073964 0.794177 0.073964
0.176939 0.794177 0.073964
0.279728 0.794177 0.073964
0.382516 0.794177 0.073964
0.475235 0.794177 0.073964
0.595981 0.794177 0.073964
0.696628 0.794177 0.073964
0.797498 0.794400 0.074192
0.901632 0.801402 0.081343
0.081343 0.901632 0.081343
0.184318 0.901632 0.081343
0.287106 0.901632 0.081343
0.389894 0.901632 0.081343
0.502560 0.901632 0.081343
0.603206 0.901632 0.081343
0.703853 0.901632 0.081343
0.804500 0.901632 0.081343
0.901632 0.901632 0.081343
0.030419 0.030419 0.132781
0.133438 0.030463 0.132826
0.243635 0.037872 0.140235
0.353833 0.045281 0.147644
0.453236 0.051965 0.154327
0.581695 0.059374 0.161737
0.689597 0.066783 0.169146
0.797498 0.074192 0.176555
0.901632 0.081343 0.183706
0.030419 0.132781 0.132781
0.140817 0.140204 0.140204
0.251014 0.147613 0.147613
0.361211 0.155023 0.155023
0.460614 0.161706 0.161706
0.588920 0.169115 0.169115
0.696821 0.176524 0.176524
0.804723 0.183934 0.183934
0.908857 0.191084 0.191084
0.037797 0.242523 0.140160
0.148151 0.249901 0.147539
0.251014 0.249976 0.147613
0.361211 0.257385 0.155023
0.460614 0.264069 0.161706
0.588920 0.271478 0.169115
0.696821 0.278887 0.176524
0.804723 0.286297 0.183934
0.908857 0.293447 0.191084
0.045176 0.352264 0.147539
0.155530 0.359643 0.154917
0.258318 0.359643 0.154917
0.361211 0.359748 0.155023
0.460614 0.366432 0.161706
0.588920 0.373841 0.169115
0.696821 0.381250 0.176524
0.804723 0.388659 0.183934
0.908857 0.395810 0.191084
0.052537 0.461747 0.154900
0.162891 0.469125 0.162278
0.265679 0.469125 0.162278
0.368467 0.469125 0.162278
0.461187 0.469125 0.162278
0.588920 0.475962 0.169115
0.696821 0.503301 0.176524
0.804723 0.510556 0.183934
0.908857 0.517558 0.191084
0.059207 0.579266 0.161570
0.169561 0.586491 0.168948
0.272349 0.586491 0.168948
0.375137 0.586491 0.168948
0.467857 0.586491 0.168948
0.588920 0.586655 0.169115
0.696821 0.593909 0.176524
0.804723 0.601164 0.183934
0.908857 0.608166 0.191084
0.066586 0.686722 0.168948
0.176939 0.693946 0.176327
0.279728 0.693946 0.176327
0.382516 0.693946 0.176327
0.475235 0.693946 0.176327
0.595981 0.693946 0.176327
0.696821 0.694140 0.176524
0.804723 0.701395 0.183934
0.908857 0.708396 0.191084
0.073964 0.794177 0.176327
0.184318 0.801402 0.183706
0.287106 0.801402 0.183706
0.389894 0.801402 0.183706
0.502560 0.801402 0.183706
0.603206 0.801402 0.183706
0.703853 0.801402 0.183706
0.804723 0.801625 0.183934
0.908857 0.808626 0.191084
0.081343 0.901632 0.183706
0.191697 0.908857 0.191084
0.294485 0.908857 0.191084
0.397273 0.908857 0.191084
0.509784 0.908857 0.191084
0.610431 0.908857 0.191084
0.711078 0.908857 0.191084
0.811725 0.908857 0.191084
0.908857 0.908857 0.191084
0.037797 0.037797 0.242523
0.140772 0.037797 0.242523
0.243635 0.037872 0.242598
0.353833 0.045281 0.250007
0.453236 0.051965 0.256690
0.581695 0.059374 0.264100
0.689597 0.066783 0.271509
0.797498 0.074192 0.278918
0.901632 0.081343 0.286068
0.037797 0.140160 0.242523
0.148151 0.147539 0.249901
0.251014 0.147613 0.249976
0.361211 0.155023 0.257385
0.460614 0.161706 0.264069
0.588920 0.169115 0.271478
0.696821 0.176524 0.278887
0.804723 0.183934 0.286297
0.908857 0.191084 0.293447
0.037797 0.242523 0.242523
0.148195 0.249946 0.249946
0.258392 0.257355 0.257355
0.368590 0.264764 0.264764
0.467993 0.271447 0.271447
0.596145 0.278857 0.278857
0.704046 0.286266 0.286266
0.811948 0.293675 0.293675
0.916082 0.300826 0.300826
0.045176 0.352264 0.249901
0.155574 0.359687 0.257324
0.265696 0.367021 0.264659
0.368590 0.367127 0.264764
0.467993 0.373810 0.271447
0.596145 0.381220 0.278857
0.704046 0.388629 0.286266
0.811948 0.396038 0.293675
0.916082 0.403188 0.300826
0.052537 0.461747 0.257263
0.162935 0.469169 0.264685
0.273057 0.476504 0.272020
0.375846 0.476504 0.272020
0.468565 0.476504 0.272020
0.596145 0.503271 0.278857
0.704046 0.510526 0.286266
0.811948 0.517781 0.293675
0.916082 0.524782 0.300826
0.059207 0.579266 0.263933
0.169605 0.586535 0.271356
0.279728 0.593716 0.278690
0.382516 0.593716 0.278690
0.475235 0.593716 0.278690
0.596145 0.593879 0.278857
0.704046 0.601134 0.286266
0.811948 0.608389 0.293675
0.916082 0.615391 0.300826
0.066586 0.686722 0.271311
0.176984 0.693990 0.278734
0.287106 0.701171 0.286068
0.389894 0.701171 0.286068
0.502560 0.701171 0.286068
0.603206 0.701171 0.286068
0.704046 0.701365 0.286266
0.811948 0.708619 0.293675
0.916082 0.715621 0.300826
0.073964 0.794177 0.278690
0.184362 0.801445 0.286113
0.294485 0.808626 0.293447
0.397273 0.808626 0.293447
0.509784 0.808626 0.293447
0.610431 0.808626 0.293447
0.711078 0.808626 0.293447
0.811948 0.808850 0.293675
0.916082 0.815851 0.300826
0.081343 0.901632 0.286068
0.191741 0.908900 0.293491
0.301863 0.916082 0.300826
0.404651 0.916082 0.300826
0.517009 0.916082 0.300826
0.617656 0.916082 0.300826
0.718303 0.916082 0.300826
0.818949 0.916082 0.300826
0.916082 0.916082 0.300826
0.045176 0.045176 0.352264
0.148151 0.045176 0.352264
0.250939 0.045176 0.352264
0.353833 0.045281 0.352370
0.453236 0.051965 0.359053
0.581695 0.059374 0.366462
0.689597 0.066783 0.373872
0.797498 0.074192 0.381281
0.901632 0.081343 0.388431
0.045176 0.147539 0.352264
0.155530 0.154917 0.359643
0.258318 0.154917 0.359643
0.361211 0.155023 0.359748
0.460614 0.161706 0.366432
0.588920 0.169115 0.373841
0.696821 0.176524 0.381250
0.804723 0.183934 0.388659
0.908857 0.191084 0.395810
0.045176 0.249901 0.352264
0.155574 0.257324 0.359687
0.265696 0.264659 0.367021
0.368590 0.264764 0.367127
0.467993 0.271447 0.373810
0.596145 0.278857 0.381220
0.704046 0.286266 0.388629
0.811948 0.293675 0.396038
0.916082 0.300826 0.403188
0.045176 0.352264 0.352264
0.155574 0.359687 0.359687
0.265771 0.367096 0.367096
0.375968 0.374505 0.374505
0.475372 0.381189 0.381189
0.603370 0.388598 0.388598
0.711271 0.396007 0.396007
0.819173 0.403417 0.403417
0.923306 0.410567 0.410567
0.052537 0.461747 0.359625
0.162935 0.469169 0.367048
0.273132 0.476579 0.374457
0.383224 0.503801 0.381761
0.475944 0.503801 0.381761
0.603370 0.510496 0.388598
0.711271 0.517751 0.396007
0.819173 0.525006 0.403417
0.923306 0.532007 0.410567
0.059207 0.579266 0.366296
0.169605 0.586535 0.373718
0.279802 0.593789 0.381128
0.389894 0.600941 0.388431
0.502560 0.600941 0.388431
0.603370 0.601104 0.388598
0.711271 0.608359 0.396007
0.819173 0.615614 0.403417
0.923306 0.622615 0.410567
0.066586 0.686722 0.373674
0.176984 0.693990 0.381097
0.287181 0.701245 0.388506
0.397273 0.708396 0.395810
0.509784 0.708396 0.395810
0.610431 0.708396 0.395810
0.711271 0.708589 0.396007
0.819173 0.715844 0.403417
0.923306 0.722846 0.410567
0.073964 0.794177 0.381053
0.184362 0.801445 0.388476
0.294560 0.808700 0.395885
0.404651 0.815851 0.403188
0.517009 0.815851 0.403188
0.617656 0.815851 0.403188
0.718303 0.815851 0.403188
0.819173 0.816075 0.403417
0.923306 0.823076 0.410567
0.081343 0.901632 0.388431
0.191741 0.908900 0.395854
0.301938 0.916155 0.403263
0.412030 0.923306 0.410567
0.524234 0.923306 0.410567
0.624881 0.923306 0.410567
0.725528 0.923306 0.410567
0.826174 0.923306 0.410567
0.923306 0.923306 0.410567
0.052537 0.052537 0.461747
0.155512 0.052537 0.461747
0.258300 0.052537 0.461747
0.361088 0.052537 0.461747
0.453808 0.052537 0.461747
0.581695 0.059374 0.468584
0.689597 0.066783 0.475993
0.797498 0.074192 0.503331
0.901632 0.081343 0.510333
0.052537 0.154900 0.461747
0.162891 0.162278 0.469125
0.265679 0.162278 0.469125
0.368467 0.162278 0.469125
0.461187 0.162278 0.469125
0.588920 0.169115 0.475962
0.696821 0.176524 0.503301
0.804723 0.183934 0.510556
0.908857 0.191084 0.517558
0.052537 0.257263 0.461747
0.162935 0.264685 0.469169
0.273057 0.272020 0.476504
0.375846 0.272020 0.476504
0.468565 0.272020 0.476504
0.596145 0.278857 0.503271
0.704046 0.286266 0.510526
0.811948 0.293675 0.517781
0.916082 0.300826 0.524782
0.052537 0.359625 0.461747
0.162935 0.367048 0.469169
0.273132 0.374457 0.476579
0.383224 0.381761 0.503801
0.475944 0.381761 0.503801
0.603370 0.388598 0.510496
0.711271 0.396007 0.517751
0.819173 0.403417 0.525006
0.923306 0.410567 0.532007
0.052537 0.461747 0.461747
0.162935 0.469169 0.469169
0.273132 0.476579 0.476579
0.383330 0.503905 0.503905
0.502676 0.510449 0.510449
0.610577 0.517704 0.517704
0.718479 0.524959 0.524959
0.826381 0.532214 0.532214
0.930514 0.539215 0.539215
0.059207 0.579266 0.468417
0.169605 0.586535 0.475840
0.279802 0.593789 0.503181
0.390000 0.601044 0.510436
0.509207 0.607588 0.516980
0.610577 0.608312 0.517704
0.718479 0.615567 0.524959
0.826381 0.622822 0.532214
0.930514 0.629823 0.539215
0.066586 0.686722 0.475795
0.176984 0.693990 0.503151
0.287181 0.701245 0.510406
0.397378 0.708499 0.517661
0.516432 0.715044 0.524205
0.617639 0.715604 0.524765
0.718479 0.715797 0.524959
0.826381 0.723052 0.532214
0.930514 0.730054 0.539215
0.073964 0.794177 0.503108
0.184362 0.801445 0.510376
0.294560 0.808700 0.517631
0.404757 0.815955 0.524886
0.523657 0.822499 0.531430
0.624864 0.823059 0.531990
0.725510 0.823059 0.531990
0.826381 0.823282 0.532214
0.930514 0.830284 0.539215
0.081343 0.901632 0.510333
0.191741 0.908900 0.517601
0.301938 0.916155 0.524856
0.412135 0.923410 0.532111
0.530882 0.929954 0.538655
0.632089 0.930514 0.539215
0.732735 0.930514 0.539215
0.833382 0.930514 0.539215
0.930514 0.930514 0.539215
0.059207 0.059207 0.579266
0.162182 0.059207 0.579266
0.264970 0.059207 0.579266
0.367759 0.059207 0.579266
0.460478 0.059207 0.579266
0.581695 0.059374 0.579430
0.689597 0.066783 0.586685
0.797498 0.074192 0.593939
0.901632 0.081343 0.600941
0.059207 0.161570 0.579266
0.169561 0.168948 0.586491
0.272349 0.168948 0.586491
0.375137 0.168948 0.586491
0.467857 0.168948 0.586491
0.588920 0.169115 0.586655
0.696821 0.176524 0.593909
0.804723 0.183934 0.601164
0.908857 0.191084 0.608166
0.059207 0.263933 0.579266
0.169605 0.271356 0.586535
0.279728 0.278690 0.593716
0.382516 0.278690 0.593716
0.475235 0.278690 0.593716
0.596145 0.278857 0.593879
0.704046 0.286266 0.601134
0.811948 0.293675 0.608389
0.916082 0.300826 0.615391
0.059207 0.366296 0.579266
0.169605 0.373718 0.586535
0.279802 0.381128 0.593789
0.389894 0.388431 0.600941
0.502560 0.388431 0.600941
0.603370 0.388598 0.601104
0.711271 0.396007 0.608359
0.819173 0.403417 0.615614
0.923306 0.410567 0.622615
0.059207 0.468417 0.579266
0.169605 0.475840 0.586535
0.279802 0.503181 0.593789
0.390000 0.510436 0.601044
0.509207 0.516980 0.607588
0.610577 0.517704 0.608312
0.718479 0.524959 0.615567
0.826381 0.532214 0.622822
0.930514 0.539215 0.629823
0.059207 0.579266 0.579266
0.169605 0.586535 0.586535
0.279802 0.593789 0.593789
0.390000 0.601044 0.601044
0.509207 0.607588 0.607588
0.617109 0.614843 0.614843
0.725010 0.622098 0.622098
0.832912 0.629353 0.629353
0.937045 0.636355 0.636355
0.066586 0.686722 0.586491
0.176984 0.693990 0.593759
0.287181 0.701245 0.601014
0.397378 0.708499 0.608269
0.516432 0.715044 0.614813
0.624170 0.722135 0.621905
0.725010 0.722328 0.622098
0.832912 0.729583 0.629353
0.937045 0.736585 0.636355
0.073964 0.794177 0.593716
0.184362 0.801445 0.600984
0.294560 0.808700 0.608239
0.404757 0.815955 0.615494
0.523657 0.822499 0.622038
0.631395 0.829590 0.629130
0.732042 0.829590 0.629130
0.832912 0.829814 0.629353
0.937045 0.836815 0.636355
0.081343 0.901632 0.600941
0.191741 0.908900 0.608209
0.301938 0.916155 0.615464
0.412135 0.923410 0.622719
0.530882 0.929954 0.629263
0.638620 0.937045 0.636355
0.739267 0.937045 0.636355
0.839913 0.937045 0.636355
0.937045 0.937045 0.636355
0.066586 0.066586 0.686722
0.169561 0.066586 0.686722
0.272349 0.066586 0.686722
0.375137 0.066586 0.686722
0.467857 0.066586 0.686722
0.588757 0.066586 0.686722
0.689597 0.066783 0.686915
0.797498 0.074192 0.694170
0.901632 0.081343 0.701171
0.066586 0.168948 0.686722
0.176939 0.176327 0.693946
0.279728 0.176327 0.693946
0.382516 0.176327 0.693946
0.475235 0.176327 0.693946
0.595981 0.176327 0.693946
0.696821 0.176524 0.694140
0.804723 0.183934 0.701395
0.908857 0.191084 0.708396
0.066586 0.271311 0.686722
0.176984 0.278734 0.693990
0.287106 0.286068 0.701171
0.389894 0.286068 0.701171
0.502560 0.286068 0.701171
0.603206 0.286068 0.701171
0.704046 0.286266 0.701365
0.811948 0.293675 0.708619
0.916082 0.300826 0.715621
0.066586 0.373674 0.686722
0.176984 0.381097 0.693990
0.287181 0.388506 0.701245
0.397273 0.395810 0.708396
0.509784 0.395810 0.708396
0.610431 0.395810 0.708396
0.711271 0.396007 0.708589
0.819173 0.403417 0.715844
0.923306 0.410567 0.722846
0.066586 0.475795 0.686722
0.176984 0.503151 0.693990
0.287181 0.510406 0.701245
0.397378 0.517661 0.708499
0.516432 0.524205 0.715044
0.617639 0.524765 0.715604
0.718479 0.524959 0.715797
0.826381 0.532214 0.723052
0.930514 0.539215 0.730054
0.066586 0.586491 0.686722
0.176984 0.593759 0.693990
0.287181 0.601014 0.701245
0.397378 0.608269 0.708499
0.516432 0.614813 0.715044
0.624170 0.621905 0.722135
0.725010 0.622098 0.722328
0.832912 0.629353 0.729583
0.937045 0.636355 0.736585
0.066586 0.686722 0.686722
0.176984 0.693990 0.693990
0.287181 0.701245 0.701245
0.397378 0.708499 0.708499
0.516432 0.715044 0.715044
0.624333 0.722298 0.722298
0.732235 0.729553 0.729553
0.840137 0.736808 0.736808
0.944270 0.743810 0.743810
0.073964 0.794177 0.693946
0.184362 0.801445 0.701215
0.294560 0.808700 0.708469
0.404757 0.815955 0.715724
0.523657 0.822499 0.722268
0.631558 0.829754 0.729523
0.739267 0.836815 0.736585
0.840137 0.837038 0.736808
0.944270 0.844040 0.743810
0.081343 0.901632 0.701171
0.191741 0.908900 0.708439
0.301938 0.916155 0.715694
0.412135 0.923410 0.722949
0.530882 0.929954 0.729493
0.638783 0.937209 0.736748
0.746491 0.944270 0.743810
0.847138 0.944270 0.743810
0.944270 0.944270 0.743810
0.073964 0.073964 0.794177
0.176939 0.073964 0.794177
0.279728 0.073964 0.794177
0.382516 0.073964 0.794177
0.475235 0.073964 0.794177
0.595981 0.073964 0.794177
0.696628 0.073964 0.794177
0.797498 0.074192 0.794400
0.901632 0.081343 0.801402
0.073964 0.176327 0.794177
0.184318 0.183706 0.801402
0.287106 0.183706 0.801402
0.389894 0.183706 0.801402
0.502560 0.183706 0.801402
0.603206 0.183706 0.801402
0.703853 0.183706 0.801402
0.804723 0.183934 0.801625
0.908857 0.191084 0.808626
0.073964 0.278690 0.794177
0.184362 0.286113 0.801445
0.294485 0.293447 0.808626
0.397273 0.293447 0.808626
0.509784 0.293447 0.808626
0.610431 0.293447 0.808626
0.711078 0.293447 0.808626
0.811948 0.293675 0.808850
0.916082 0.300826 0.815851
0.073964 0.381053 0.794177
0.184362 0.388476 0.801445
0.294560 0.395885 0.808700
0.404651 0.403188 0.815851
0.517009 0.403188 0.815851
0.617656 0.403188 0.815851
0.718303 0.403188 0.815851
0.819173 0.403417 0.816075
0.923306 0.410567 0.823076
0.073964 0.503108 0.794177
0.184362 0.510376 0.801445
0.294560 0.517631 0.808700
0.404757 0.524886 0.815955
0.523657 0.531430 0.822499
0.624864 0.531990 0.823059
0.725510 0.531990 0.823059
0.826381 0.532214 0.823282
0.930514 0.539215 0.830284
0.073964 0.593716 0.794177
0.184362 0.600984 0.801445
0.294560 0.608239 0.808700
0.404757 0.615494 0.815955
0.523657 0.622038 0.822499
0.631395 0.629130 0.829590
0.732042 0.629130 0.829590
0.832912 0.629353 0.829814
0.937045 0.636355 0.836815
0.073964 0.693946 0.794177
0.184362 0.701215 0.801445
0.294560 0.708469 0.808700
0.404757 0.715724 0.815955
0.523657 0.722268 0.822499
0.631558 0.729523 0.829754
0.739267 0.736585 0.836815
0.840137 0.736808 0.837038
0.944270 0.743810 0.844040
0.073964 0.794177 0.794177
0.184362 0.801445 0.801445
0.294560 0.808700 0.808700
0.404757 0.815955 0.815955
0.523657 0.822499 0.822499
0.631558 0.829754 0.829754
0.739460 0.837008 0.837008
0.847361 0.844263 0.844263
0.951495 0.851265 0.851265
0.081343 0.901632 0.801402
0.191741 0.908900 0.808670
0.301938 0.916155 0.815925
0.412135 0.923410 0.823179
0.530882 0.929954 0.829724
0.638783 0.937209 0.836978
0.746685 0.944464 0.844233
0.854363 0.951495 0.851265
0.951495 0.951495 0.851265
0.081343 0.081343 0.901632
0.184318 0.081343 0.901632
0.287106 0.081343 0.901632
0.389894 0.081343 0.901632
0.502560 0.081343 0.901632
0.603206 0.081343 0.901632
0.703853 0.081343 0.901632
0.804500 0.081343 0.901632
0.901632 0.081343 0.901632
0.081343 0.183706 0.901632
0.191697 0.191084 0.908857
0.294485 0.191084 0.908857
0.397273 0.191084 0.908857
0.509784 0.191084 0.908857
0.610431 0.191084 0.908857
0.711078 0.191084 0.908857
0.811725 0.191084 0.908857
0.908857 0.191084 0.908857
0.081343 0.286068 0.901632
0.191741 0.293491 0.908900
0.301863 0.300826 0.916082
0.404651 0.300826 0.916082
0.517009 0.300826 0.916082
0.617656 0.300826 0.916082
0.718303 0.300826 0.916082
0.818949 0.300826 0.916082
0.916082 0.300826 0.916082
0.081343 0.388431 0.901632
0.191741 0.395854 0.908900
0.301938 0.403263 0.916155
0.412030 0.410567 0.923306
0.524234 0.410567 0.923306
0.624881 0.410567 0.923306
0.725528 0.410567 0.923306
0.826174 0.410567 0.923306
0.923306 0.410567 0.923306
0.081343 0.510333 0.901632
0.191741 0.517601 0.908900
0.301938 0.524856 0.916155
0.412135 0.532111 0.923410
0.530882 0.538655 0.929954
0.632089 0.539215 0.930514
0.732735 0.539215 0.930514
0.833382 0.539215 0.930514
0.930514 0.539215 0.930514
0.081343 0.600941 0.901632
0.191741 0.608209 0.908900
0.301938 0.615464 0.916155
0.412135 0.622719 0.923410
0.530882 0.629263 0.929954
0.638620 0.636355 0.937045
0.739267 0.636355 0.937045
0.839913 0.636355 0.937045
0.937045 0.636355 0.937045
0.081343 0.701171 0.901632
0.191741 0.708439 0.908900
0.301938 0.715694 0.916155
0.412135 0.722949 0.923410
0.530882 0.729493 0.929954
0.638783 0.736748 0.937209
0.746491 0.743810 0.944270
0.847138 0.743810 0.944270
0.944270 0.743810 0.944270
0.081343 0.801402 0.901632
0.191741 0.808670 0.908900
0.301938 0.815925 0.916155
0.412135 0.823179 0.923410
0.530882 0.829724 0.929954
0.638783 0.836978 0.937209
0.746685 0.844233 0.944464
0.854363 0.851265 0.951495
0.951495 0.851265 0.951495
0.081343 0.901632 0.901632
0.191741 0.908900 0.908900
0.301938 0.916155 0.916155
0.412135 0.923410 0.923410
0.530882 0.929954 0.929954
0.638783 0.937209 0.937209
0.746685 0.944464 0.944464
0.854586 0.951718 0.951718
0.958720 0.958720 0.958720
