docs/luts/fuji_recipes/Astia_NZD_Ektar_100.cube
TITLE "Fujifilm Recipe: NZD Ektar 100 (Astia)"
# FilmSim=Astia HL=1 SH=1 Col=2 WB=Auto WBR=0 WBB=0
LUT_3D_SIZE 33
DOMAIN_MIN 0.0 0.0 0.0
DOMAIN_MAX 1.0 1.0 1.0
0.023040 0.023040 0.023040
0.055402 0.020251 0.020251
0.087624 0.017473 0.017473
0.119799 0.014700 0.014700
0.151974 0.011927 0.011927
0.184148 0.009154 0.009154
0.216323 0.006381 0.006381
0.248498 0.003608 0.003608
0.280673 0.000835 0.000835
0.310909 0.000000 0.000000
0.340311 0.000000 0.000000
0.369712 0.000000 0.000000
0.399114 0.000000 0.000000
0.428515 0.000000 0.000000
0.457917 0.000000 0.000000
0.487319 0.000000 0.000000
0.505200 0.000000 0.000000
0.554668 0.000000 0.000000
0.586365 0.000000 0.000000
0.618062 0.000000 0.000000
0.649760 0.000000 0.000000
0.681457 0.000000 0.000000
0.713155 0.000000 0.000000
0.744852 0.000000 0.000000
0.776549 0.000000 0.000000
0.808247 0.000000 0.000000
0.839944 0.000000 0.000000
0.871642 0.000000 0.000000
0.903339 0.000000 0.000000
0.935037 0.000000 0.000000
0.966734 0.000000 0.000000
0.998431 0.000000 0.000000
1.000000 0.025701 0.025701
0.020278 0.055082 0.020278
0.055402 0.055054 0.020251
0.087624 0.052277 0.017473
0.119799 0.049504 0.014700
0.151974 0.046731 0.011927
0.184148 0.043957 0.009154
0.216323 0.041184 0.006381
0.248498 0.038411 0.003608
0.280673 0.035638 0.000835
0.310909 0.034375 0.000000
0.340311 0.033866 0.000000
0.369712 0.033449 0.000000
0.399114 0.033102 0.000000
0.428515 0.032808 0.000000
0.457917 0.032556 0.000000
0.487319 0.032338 0.000000
0.505200 0.032219 0.000000
0.554668 0.031752 0.000000
0.586365 0.031589 0.000000
0.618062 0.031443 0.000000
0.649760 0.031313 0.000000
0.681457 0.031196 0.000000
0.713155 0.031091 0.000000
0.744852 0.030994 0.000000
0.776549 0.030907 0.000000
0.808247 0.030826 0.000000
0.839944 0.030752 0.000000
0.871642 0.030684 0.000000
0.903339 0.030621 0.000000
0.935037 0.030562 0.000000
0.966734 0.030507 0.000000
0.998431 0.030456 0.000000
1.000000 0.054592 0.025701
0.017517 0.087123 0.017517
0.052668 0.087123 0.017517
0.087624 0.087080 0.017473
0.119799 0.084307 0.014700
0.151974 0.081534 0.011927
0.184148 0.078761 0.009154
0.216323 0.075988 0.006381
0.248498 0.073214 0.003608
0.280673 0.070441 0.000835
0.310909 0.068749 0.000000
0.340311 0.067731 0.000000
0.369712 0.066898 0.000000
0.399114 0.066204 0.000000
0.428515 0.065616 0.000000
0.457917 0.065112 0.000000
0.487319 0.064676 0.000000
0.505200 0.064437 0.000000
0.554668 0.063505 0.000000
0.586365 0.063178 0.000000
0.618062 0.062887 0.000000
0.649760 0.062627 0.000000
0.681457 0.062393 0.000000
0.713155 0.062181 0.000000
0.744852 0.061989 0.000000
0.776549 0.061813 0.000000
0.808247 0.061652 0.000000
0.839944 0.061504 0.000000
0.871642 0.061368 0.000000
0.903339 0.061241 0.000000
0.935037 0.061124 0.000000
0.966734 0.061014 0.000000
0.998431 0.060912 0.000000
1.000000 0.083483 0.025701
0.014755 0.119165 0.014755
0.049906 0.119165 0.014755
0.084905 0.119165 0.014755
0.119799 0.119110 0.014700
0.151974 0.116337 0.011927
0.184148 0.113564 0.009154
0.216323 0.110791 0.006381
0.248498 0.108018 0.003608
0.280673 0.105245 0.000835
0.310909 0.103124 0.000000
0.340311 0.101597 0.000000
0.369712 0.100347 0.000000
0.399114 0.099305 0.000000
0.428515 0.098424 0.000000
0.457917 0.097668 0.000000
0.487319 0.097013 0.000000
0.505200 0.096656 0.000000
0.554668 0.095257 0.000000
0.586365 0.094766 0.000000
0.618062 0.094330 0.000000
0.649760 0.093940 0.000000
0.681457 0.093589 0.000000
0.713155 0.093272 0.000000
0.744852 0.092983 0.000000
0.776549 0.092720 0.000000
0.808247 0.092478 0.000000
0.839944 0.092256 0.000000
0.871642 0.092051 0.000000
0.903339 0.091862 0.000000
0.935037 0.091685 0.000000
0.966734 0.091521 0.000000
0.998431 0.091368 0.000000
1.000000 0.112373 0.025701
0.011993 0.151207 0.011993
0.047145 0.151207 0.011993
0.082144 0.151207 0.011993
0.117092 0.151207 0.011993
0.151974 0.151141 0.011927
0.184148 0.148368 0.009154
0.216323 0.145594 0.006381
0.248498 0.142821 0.003608
0.280673 0.140048 0.000835
0.310909 0.137499 0.000000
0.340311 0.135462 0.000000
0.369712 0.133796 0.000000
0.399114 0.132407 0.000000
0.428515 0.131232 0.000000
0.457917 0.130224 0.000000
0.487319 0.129351 0.000000
0.505200 0.128875 0.000000
0.554668 0.127009 0.000000
0.586365 0.126355 0.000000
0.618062 0.125774 0.000000
0.649760 0.125254 0.000000
0.681457 0.124786 0.000000
0.713155 0.124363 0.000000
0.744852 0.123978 0.000000
0.776549 0.123627 0.000000
0.808247 0.123305 0.000000
0.839944 0.123008 0.000000
0.871642 0.122735 0.000000
0.903339 0.122482 0.000000
0.935037 0.122247 0.000000
0.966734 0.122028 0.000000
0.998431 0.121824 0.000000
1.000000 0.141264 0.025701
0.009232 0.183248 0.009232
0.044383 0.183248 0.009232
0.079382 0.183248 0.009232
0.114330 0.183248 0.009232
0.149278 0.183248 0.009232
0.184148 0.183171 0.009154
0.216323 0.180398 0.006381
0.248498 0.177625 0.003608
0.280673 0.174851 0.000835
0.310909 0.171873 0.000000
0.340311 0.169328 0.000000
0.369712 0.167245 0.000000
0.399114 0.165509 0.000000
0.428515 0.164040 0.000000
0.457917 0.162781 0.000000
0.487319 0.161689 0.000000
0.505200 0.161094 0.000000
0.554668 0.158761 0.000000
0.586365 0.157944 0.000000
0.618062 0.157217 0.000000
0.649760 0.156567 0.000000
0.681457 0.155982 0.000000
0.713155 0.155453 0.000000
0.744852 0.154972 0.000000
0.776549 0.154533 0.000000
0.808247 0.154131 0.000000
0.839944 0.153761 0.000000
0.871642 0.153419 0.000000
0.903339 0.153103 0.000000
0.935037 0.152809 0.000000
0.966734 0.152535 0.000000
0.998431 0.152280 0.000000
1.000000 0.170154 0.025701
0.006470 0.215290 0.006470
0.041621 0.215290 0.006470
0.076620 0.215290 0.006470
0.111568 0.215290 0.006470
0.146516 0.215290 0.006470
0.181464 0.215290 0.006470
0.216323 0.215201 0.006381
0.248498 0.212428 0.003608
0.280673 0.209655 0.000835
0.310909 0.206248 0.000000
0.340311 0.203194 0.000000
0.369712 0.200694 0.000000
0.399114 0.198611 0.000000
0.428515 0.196848 0.000000
0.457917 0.195337 0.000000
0.487319 0.194027 0.000000
0.505200 0.193312 0.000000
0.554668 0.190514 0.000000
0.586365 0.189533 0.000000
0.618062 0.188661 0.000000
0.649760 0.187881 0.000000
0.681457 0.187179 0.000000
0.713155 0.186544 0.000000
0.744852 0.185967 0.000000
0.776549 0.185440 0.000000
0.808247 0.184957 0.000000
0.839944 0.184513 0.000000
0.871642 0.184103 0.000000
0.903339 0.183723 0.000000
0.935037 0.183371 0.000000
0.966734 0.183042 0.000000
0.998431 0.182736 0.000000
1.000000 0.199045 0.025701
0.003708 0.247332 0.003708
0.038860 0.247332 0.003708
0.073859 0.247332 0.003708
0.108807 0.247332 0.003708
0.143755 0.247332 0.003708
0.178703 0.247332 0.003708
0.213650 0.247332 0.003708
0.248498 0.247231 0.003608
0.280673 0.244458 0.000835
0.310909 0.240623 0.000000
0.340311 0.237059 0.000000
0.369712 0.234143 0.000000
0.399114 0.231713 0.000000
0.428515 0.229656 0.000000
0.457917 0.227893 0.000000
0.487319 0.226365 0.000000
0.505200 0.225531 0.000000
0.554668 0.222266 0.000000
0.586365 0.221121 0.000000
0.618062 0.220104 0.000000
0.649760 0.219194 0.000000
0.681457 0.218375 0.000000
0.713155 0.217635 0.000000
0.744852 0.216961 0.000000
0.776549 0.216347 0.000000
0.808247 0.215783 0.000000
0.839944 0.215265 0.000000
0.871642 0.214786 0.000000
0.903339 0.214344 0.000000
0.935037 0.213932 0.000000
0.966734 0.213550 0.000000
0.998431 0.213192 0.000000
1.000000 0.227935 0.025701
0.000946 0.279374 0.000946
0.036098 0.279374 0.000946
0.071097 0.279374 0.000946
0.106045 0.279374 0.000946
0.140993 0.279374 0.000946
0.175941 0.279374 0.000946
0.210889 0.279374 0.000946
0.245837 0.279374 0.000946
0.280673 0.279262 0.000835
0.310909 0.274998 0.000000
0.340311 0.270925 0.000000
0.369712 0.267592 0.000000
0.399114 0.264814 0.000000
0.428515 0.262464 0.000000
0.457917 0.260449 0.000000
0.487319 0.258702 0.000000
0.505200 0.257750 0.000000
0.554668 0.254018 0.000000
0.586365 0.252710 0.000000
0.618062 0.251548 0.000000
0.649760 0.250508 0.000000
0.681457 0.249572 0.000000
0.713155 0.248725 0.000000
0.744852 0.247956 0.000000
0.776549 0.247253 0.000000
0.808247 0.246609 0.000000
0.839944 0.246017 0.000000
0.871642 0.245470 0.000000
0.903339 0.244964 0.000000
0.935037 0.244494 0.000000
0.966734 0.244057 0.000000
0.998431 0.243648 0.000000
1.000000 0.256826 0.025701
0.000000 0.309600 0.000000
0.034744 0.309600 0.000000
0.069337 0.309600 0.000000
0.103880 0.309600 0.000000
0.138423 0.309600 0.000000
0.172966 0.309600 0.000000
0.207509 0.309600 0.000000
0.242052 0.309600 0.000000
0.276595 0.309600 0.000000
0.310909 0.309372 0.000000
0.340311 0.304790 0.000000
0.369712 0.301041 0.000000
0.399114 0.297916 0.000000
0.428515 0.295272 0.000000
0.457917 0.293005 0.000000
0.487319 0.291040 0.000000
0.505200 0.289968 0.000000
0.554668 0.285771 0.000000
0.586365 0.284299 0.000000
0.618062 0.282991 0.000000
0.649760 0.281821 0.000000
0.681457 0.280768 0.000000
0.713155 0.279816 0.000000
0.744852 0.278950 0.000000
0.776549 0.278160 0.000000
0.808247 0.277435 0.000000
0.839944 0.276769 0.000000
0.871642 0.276154 0.000000
0.903339 0.275585 0.000000
0.935037 0.275056 0.000000
0.966734 0.274564 0.000000
0.998431 0.274104 0.000000
1.000000 0.285716 0.025701
0.000000 0.338880 0.000000
0.034227 0.338880 0.000000
0.068305 0.338880 0.000000
0.102334 0.338880 0.000000
0.136363 0.338880 0.000000
0.170392 0.338880 0.000000
0.204421 0.338880 0.000000
0.238449 0.338880 0.000000
0.272478 0.338880 0.000000
0.306507 0.338880 0.000000
0.340311 0.338656 0.000000
0.369712 0.334490 0.000000
0.399114 0.331018 0.000000
0.428515 0.328080 0.000000
0.457917 0.325561 0.000000
0.487319 0.323378 0.000000
0.505200 0.322187 0.000000
0.554668 0.317523 0.000000
0.586365 0.315888 0.000000
0.618062 0.314434 0.000000
0.649760 0.313134 0.000000
0.681457 0.311965 0.000000
0.713155 0.310906 0.000000
0.744852 0.309945 0.000000
0.776549 0.309066 0.000000
0.808247 0.308262 0.000000
0.839944 0.307521 0.000000
0.871642 0.306838 0.000000
0.903339 0.306205 0.000000
0.935037 0.305618 0.000000
0.966734 0.305071 0.000000
0.998431 0.304560 0.000000
1.000000 0.314607 0.025701
0.000000 0.368160 0.000000
0.033804 0.368160 0.000000
0.067461 0.368160 0.000000
0.101069 0.368160 0.000000
0.134677 0.368160 0.000000
0.168285 0.368160 0.000000
0.201894 0.368160 0.000000
0.235502 0.368160 0.000000
0.269110 0.368160 0.000000
0.302718 0.368160 0.000000
0.336326 0.368160 0.000000
0.369712 0.367939 0.000000
0.399114 0.364120 0.000000
0.428515 0.360888 0.000000
0.457917 0.358117 0.000000
0.487319 0.355716 0.000000
0.505200 0.354406 0.000000
0.554668 0.349275 0.000000
0.586365 0.347476 0.000000
0.618062 0.345878 0.000000
0.649760 0.344448 0.000000
0.681457 0.343161 0.000000
0.713155 0.341997 0.000000
0.744852 0.340939 0.000000
0.776549 0.339973 0.000000
0.808247 0.339088 0.000000
0.839944 0.338273 0.000000
0.871642 0.337522 0.000000
0.903339 0.336826 0.000000
0.935037 0.336179 0.000000
0.966734 0.335578 0.000000
0.998431 0.335016 0.000000
1.000000 0.343497 0.025701
0.000000 0.397440 0.000000
0.033451 0.397440 0.000000
0.066757 0.397440 0.000000
0.100015 0.397440 0.000000
0.133273 0.397440 0.000000
0.166530 0.397440 0.000000
0.199788 0.397440 0.000000
0.233045 0.397440 0.000000
0.266303 0.397440 0.000000
0.299561 0.397440 0.000000
0.332818 0.397440 0.000000
0.366076 0.397440 0.000000
0.399114 0.397222 0.000000
0.428515 0.393696 0.000000
0.457917 0.390673 0.000000
0.487319 0.388054 0.000000
0.505200 0.386625 0.000000
0.554668 0.381027 0.000000
0.586365 0.379065 0.000000
0.618062 0.377321 0.000000
0.649760 0.375761 0.000000
0.681457 0.374358 0.000000
0.713155 0.373088 0.000000
0.744852 0.371933 0.000000
0.776549 0.370880 0.000000
0.808247 0.369914 0.000000
0.839944 0.369025 0.000000
0.871642 0.368205 0.000000
0.903339 0.367446 0.000000
0.935037 0.366741 0.000000
0.966734 0.366085 0.000000
0.998431 0.365472 0.000000
1.000000 0.372388 0.025701
0.000000 0.426720 0.000000
0.033153 0.426720 0.000000
0.066162 0.426720 0.000000
0.099123 0.426720 0.000000
0.132084 0.426720 0.000000
0.165045 0.426720 0.000000
0.198006 0.426720 0.000000
0.230967 0.426720 0.000000
0.263928 0.426720 0.000000
0.296889 0.426720 0.000000
0.329850 0.426720 0.000000
0.362811 0.426720 0.000000
0.395772 0.426720 0.000000
0.428515 0.426504 0.000000
0.457917 0.423229 0.000000
0.487319 0.420391 0.000000
0.505200 0.418843 0.000000
0.554668 0.412780 0.000000
0.586365 0.410654 0.000000
0.618062 0.408765 0.000000
0.649760 0.407075 0.000000
0.681457 0.405554 0.000000
0.713155 0.404178 0.000000
0.744852 0.402928 0.000000
0.776549 0.401786 0.000000
0.808247 0.400740 0.000000
0.839944 0.399778 0.000000
0.871642 0.398889 0.000000
0.903339 0.398067 0.000000
0.935037 0.397303 0.000000
0.966734 0.396592 0.000000
0.998431 0.395928 0.000000
1.000000 0.401279 0.025701
0.000000 0.456000 0.000000
0.032897 0.456000 0.000000
0.065652 0.456000 0.000000
0.098358 0.456000 0.000000
0.131065 0.456000 0.000000
0.163772 0.456000 0.000000
0.196479 0.456000 0.000000
0.229185 0.456000 0.000000
0.261892 0.456000 0.000000
0.294599 0.456000 0.000000
0.327306 0.456000 0.000000
0.360012 0.456000 0.000000
0.392719 0.456000 0.000000
0.425426 0.456000 0.000000
0.457917 0.455785 0.000000
0.487319 0.452729 0.000000
0.505200 0.451062 0.000000
0.554668 0.444532 0.000000
0.586365 0.442243 0.000000
0.618062 0.440208 0.000000
0.649760 0.438388 0.000000
0.681457 0.436751 0.000000
0.713155 0.435269 0.000000
0.744852 0.433922 0.000000
0.776549 0.432693 0.000000
0.808247 0.431566 0.000000
0.839944 0.430530 0.000000
0.871642 0.429573 0.000000
0.903339 0.428687 0.000000
0.935037 0.427865 0.000000
0.966734 0.427099 0.000000
0.998431 0.426385 0.000000
1.000000 0.430169 0.025701
0.000000 0.485280 0.000000
0.032676 0.485280 0.000000
0.065209 0.485280 0.000000
0.097696 0.485280 0.000000
0.130182 0.485280 0.000000
0.162669 0.485280 0.000000
0.195155 0.485280 0.000000
0.227641 0.485280 0.000000
0.260128 0.485280 0.000000
0.292614 0.485280 0.000000
0.325101 0.485280 0.000000
0.357587 0.485280 0.000000
0.390073 0.485280 0.000000
0.422560 0.485280 0.000000
0.455046 0.485280 0.000000
0.487319 0.485067 0.000000
0.505200 0.483281 0.000000
0.554668 0.476284 0.000000
0.586365 0.473831 0.000000
0.618062 0.471652 0.000000
0.649760 0.469702 0.000000
0.681457 0.467947 0.000000
0.713155 0.466360 0.000000
0.744852 0.464917 0.000000
0.776549 0.463600 0.000000
0.808247 0.462392 0.000000
0.839944 0.461282 0.000000
0.871642 0.460257 0.000000
0.903339 0.459308 0.000000
0.935037 0.458427 0.000000
0.966734 0.457606 0.000000
0.998431 0.456841 0.000000
1.000000 0.459060 0.025701
0.000000 0.514284 0.000000
0.032483 0.514284 0.000000
0.064826 0.514284 0.000000
0.097121 0.514284 0.000000
0.129416 0.514284 0.000000
0.161712 0.514284 0.000000
0.194007 0.514284 0.000000
0.226302 0.514284 0.000000
0.258598 0.514284 0.000000
0.290893 0.514284 0.000000
0.323188 0.514284 0.000000
0.355484 0.514284 0.000000
0.387779 0.514284 0.000000
0.420074 0.514284 0.000000
0.452370 0.514284 0.000000
0.484665 0.514284 0.000000
0.504306 0.514284 0.000000
0.554668 0.507737 0.000000
0.586365 0.505122 0.000000
0.618062 0.502798 0.000000
0.649760 0.500719 0.000000
0.681457 0.498849 0.000000
0.713155 0.497157 0.000000
0.744852 0.495619 0.000000
0.776549 0.494214 0.000000
0.808247 0.492927 0.000000
0.839944 0.491744 0.000000
0.871642 0.514786 0.000000
0.903339 0.513909 0.000000
0.935037 0.513108 0.000000
0.966734 0.512373 0.000000
0.998431 0.511700 0.000000
1.000000 0.511249 0.025701
0.000000 0.532320 0.000000
0.032375 0.532320 0.000000
0.064610 0.532320 0.000000
0.096798 0.532320 0.000000
0.128986 0.532320 0.000000
0.161174 0.532320 0.000000
0.193362 0.532320 0.000000
0.225550 0.532320 0.000000
0.257738 0.532320 0.000000
0.289926 0.532320 0.000000
0.322114 0.532320 0.000000
0.354302 0.532320 0.000000
0.386490 0.532320 0.000000
0.418678 0.532320 0.000000
0.450866 0.532320 0.000000
0.483054 0.532320 0.000000
0.502630 0.532320 0.000000
0.554668 0.527296 0.000000
0.586365 0.549334 0.000000
0.618062 0.546997 0.000000
0.649760 0.544924 0.000000
0.681457 0.543077 0.000000
0.713155 0.541422 0.000000
0.744852 0.539934 0.000000
0.776549 0.538591 0.000000
0.808247 0.537374 0.000000
0.839944 0.536269 0.000000
0.871642 0.535262 0.000000
0.903339 0.534343 0.000000
0.935037 0.533503 0.000000
0.966734 0.532732 0.000000
0.998431 0.532024 0.000000
1.000000 0.530529 0.025701
0.000000 0.583774 0.000000
0.031917 0.583774 0.000000
0.063696 0.583774 0.000000
0.095429 0.583774 0.000000
0.127162 0.583774 0.000000
0.158895 0.583774 0.000000
0.190627 0.583774 0.000000
0.222360 0.583774 0.000000
0.254093 0.583774 0.000000
0.285825 0.583774 0.000000
0.317558 0.583774 0.000000
0.349291 0.583774 0.000000
0.381023 0.583774 0.000000
0.412756 0.583774 0.000000
0.444489 0.583774 0.000000
0.476221 0.583774 0.000000
0.495521 0.583774 0.000000
0.552207 0.583774 0.000000
0.586365 0.583556 0.000000
0.618062 0.581061 0.000000
0.649760 0.578847 0.000000
0.681457 0.576873 0.000000
0.713155 0.575104 0.000000
0.744852 0.573511 0.000000
0.776549 0.572073 0.000000
0.808247 0.570769 0.000000
0.839944 0.569584 0.000000
0.871642 0.568503 0.000000
0.903339 0.567516 0.000000
0.935037 0.566611 0.000000
0.966734 0.565781 0.000000
0.998431 0.565018 0.000000
1.000000 0.561827 0.025701
0.000000 0.615340 0.000000
0.031770 0.615340 0.000000
0.063402 0.615340 0.000000
0.094988 0.615340 0.000000
0.126574 0.615340 0.000000
0.158160 0.615340 0.000000
0.189746 0.615340 0.000000
0.221332 0.615340 0.000000
0.252918 0.615340 0.000000
0.284504 0.615340 0.000000
0.316090 0.615340 0.000000
0.347676 0.615340 0.000000
0.379262 0.615340 0.000000
0.410848 0.615340 0.000000
0.442434 0.615340 0.000000
0.474020 0.615340 0.000000
0.493230 0.615340 0.000000
0.549843 0.615340 0.000000
0.584061 0.615340 0.000000
0.618062 0.615124 0.000000
0.649760 0.612770 0.000000
0.681457 0.610669 0.000000
0.713155 0.608785 0.000000
0.744852 0.607089 0.000000
0.776549 0.605555 0.000000
0.808247 0.604164 0.000000
0.839944 0.602899 0.000000
0.871642 0.601744 0.000000
0.903339 0.600688 0.000000
0.935037 0.599720 0.000000
0.966734 0.598831 0.000000
0.998431 0.598012 0.000000
1.000000 0.593125 0.025701
0.000000 0.646906 0.000000
0.031638 0.646906 0.000000
0.063138 0.646906 0.000000
0.094593 0.646906 0.000000
0.126048 0.646906 0.000000
0.157503 0.646906 0.000000
0.188957 0.646906 0.000000
0.220412 0.646906 0.000000
0.251867 0.646906 0.000000
0.283322 0.646906 0.000000
0.314776 0.646906 0.000000
0.346231 0.646906 0.000000
0.377686 0.646906 0.000000
0.409140 0.646906 0.000000
0.440595 0.646906 0.000000
0.472050 0.646906 0.000000
0.491180 0.646906 0.000000
0.547746 0.646906 0.000000
0.581822 0.646906 0.000000
0.615898 0.646906 0.000000
0.649760 0.646693 0.000000
0.681457 0.644465 0.000000
0.713155 0.642467 0.000000
0.744852 0.640666 0.000000
0.776549 0.639037 0.000000
0.808247 0.637559 0.000000
0.839944 0.636213 0.000000
0.871642 0.634985 0.000000
0.903339 0.633860 0.000000
0.935037 0.632828 0.000000
0.966734 0.631880 0.000000
0.998431 0.631006 0.000000
1.000000 0.624423 0.025701
0.000000 0.678472 0.000000
0.031519 0.678472 0.000000
0.062901 0.678472 0.000000
0.094238 0.678472 0.000000
0.125575 0.678472 0.000000
0.156911 0.678472 0.000000
0.188248 0.678472 0.000000
0.219585 0.678472 0.000000
0.250921 0.678472 0.000000
0.282258 0.678472 0.000000
0.313595 0.678472 0.000000
0.344931 0.678472 0.000000
0.376268 0.678472 0.000000
0.407604 0.678472 0.000000
0.438941 0.678472 0.000000
0.470278 0.678472 0.000000
0.489336 0.678472 0.000000
0.545877 0.678472 0.000000
0.579825 0.678472 0.000000
0.613773 0.678472 0.000000
0.647721 0.678472 0.000000
0.681457 0.678262 0.000000
0.713155 0.676148 0.000000
0.744852 0.674243 0.000000
0.776549 0.672520 0.000000
0.808247 0.670954 0.000000
0.839944 0.669528 0.000000
0.871642 0.668225 0.000000
0.903339 0.667032 0.000000
0.935037 0.665937 0.000000
0.966734 0.664929 0.000000
0.998431 0.664000 0.000000
1.000000 0.655721 0.025701
0.000000 0.710039 0.000000
0.031412 0.710039 0.000000
0.062687 0.710039 0.000000
0.093917 0.710039 0.000000
0.125147 0.710039 0.000000
0.156376 0.710039 0.000000
0.187606 0.710039 0.000000
0.218836 0.710039 0.000000
0.250066 0.710039 0.000000
0.281296 0.710039 0.000000
0.312525 0.710039 0.000000
0.343755 0.710039 0.000000
0.374985 0.710039 0.000000
0.406215 0.710039 0.000000
0.437445 0.710039 0.000000
0.468675 0.710039 0.000000
0.487668 0.710039 0.000000
0.544203 0.710039 0.000000
0.578035 0.710039 0.000000
0.611868 0.710039 0.000000
0.645700 0.710039 0.000000
0.679532 0.710039 0.000000
0.713155 0.709830 0.000000
0.744852 0.707821 0.000000
0.776549 0.706002 0.000000
0.808247 0.704349 0.000000
0.839944 0.702843 0.000000
0.871642 0.701466 0.000000
0.903339 0.700204 0.000000
0.935037 0.699045 0.000000
0.966734 0.697979 0.000000
0.998431 0.696994 0.000000
1.000000 0.687019 0.025701
0.000000 0.741605 0.000000
0.031314 0.741605 0.000000
0.062492 0.741605 0.000000
0.093625 0.741605 0.000000
0.124758 0.741605 0.000000
0.155890 0.741605 0.000000
0.187023 0.741605 0.000000
0.218156 0.741605 0.000000
0.249288 0.741605 0.000000
0.280421 0.741605 0.000000
0.311554 0.741605 0.000000
0.342687 0.741605 0.000000
0.373819 0.741605 0.000000
0.404952 0.741605 0.000000
0.436085 0.741605 0.000000
0.467217 0.741605 0.000000
0.486152 0.741605 0.000000
0.542697 0.741605 0.000000
0.576424 0.741605 0.000000
0.610152 0.741605 0.000000
0.643879 0.741605 0.000000
0.677606 0.741605 0.000000
0.711333 0.741605 0.000000
0.744852 0.741398 0.000000
0.776549 0.739484 0.000000
0.808247 0.737744 0.000000
0.839944 0.736158 0.000000
0.871642 0.734707 0.000000
0.903339 0.733377 0.000000
0.935037 0.732154 0.000000
0.966734 0.731028 0.000000
0.998431 0.729989 0.000000
1.000000 0.718317 0.025701
0.000000 0.773171 0.000000
0.031225 0.773171 0.000000
0.062314 0.773171 0.000000
0.093358 0.773171 0.000000
0.124402 0.773171 0.000000
0.155446 0.773171 0.000000
0.186491 0.773171 0.000000
0.217535 0.773171 0.000000
0.248579 0.773171 0.000000
0.279623 0.773171 0.000000
0.310667 0.773171 0.000000
0.341711 0.773171 0.000000
0.372755 0.773171 0.000000
0.403799 0.773171 0.000000
0.434843 0.773171 0.000000
0.465887 0.773171 0.000000
0.484768 0.773171 0.000000
0.541338 0.773171 0.000000
0.574969 0.773171 0.000000
0.608600 0.773171 0.000000
0.642231 0.773171 0.000000
0.675862 0.773171 0.000000
0.709493 0.773171 0.000000
0.743124 0.773171 0.000000
0.776549 0.772966 0.000000
0.808247 0.771139 0.000000
0.839944 0.769473 0.000000
0.871642 0.767948 0.000000
0.903339 0.766549 0.000000
0.935037 0.765263 0.000000
0.966734 0.764077 0.000000
0.998431 0.762983 0.000000
1.000000 0.749615 0.025701
0.000000 0.804737 0.000000
0.031143 0.804737 0.000000
0.062151 0.804737 0.000000
0.093114 0.804737 0.000000
0.124077 0.804737 0.000000
0.155040 0.804737 0.000000
0.186003 0.804737 0.000000
0.216965 0.804737 0.000000
0.247928 0.804737 0.000000
0.278891 0.804737 0.000000
0.309854 0.804737 0.000000
0.340817 0.804737 0.000000
0.371780 0.804737 0.000000
0.402742 0.804737 0.000000
0.433705 0.804737 0.000000
0.464668 0.804737 0.000000
0.483499 0.804737 0.000000
0.540107 0.804737 0.000000
0.573650 0.804737 0.000000
0.607193 0.804737 0.000000
0.640736 0.804737 0.000000
0.674279 0.804737 0.000000
0.707822 0.804737 0.000000
0.741365 0.804737 0.000000
0.774908 0.804737 0.000000
0.808247 0.804534 0.000000
0.839944 0.802787 0.000000
0.871642 0.801188 0.000000
0.903339 0.799721 0.000000
0.935037 0.798371 0.000000
0.966734 0.797127 0.000000
0.998431 0.795977 0.000000
1.000000 0.780913 0.025701
0.000000 0.836304 0.000000
0.031068 0.836304 0.000000
0.062001 0.836304 0.000000
0.092889 0.836304 0.000000
0.123777 0.836304 0.000000
0.154665 0.836304 0.000000
0.185554 0.836304 0.000000
0.216442 0.836304 0.000000
0.247330 0.836304 0.000000
0.278218 0.836304 0.000000
0.309106 0.836304 0.000000
0.339994 0.836304 0.000000
0.370882 0.836304 0.000000
0.401770 0.836304 0.000000
0.432659 0.836304 0.000000
0.463547 0.836304 0.000000
0.482332 0.836304 0.000000
0.538988 0.836304 0.000000
0.572450 0.836304 0.000000
0.605912 0.836304 0.000000
0.639374 0.836304 0.000000
0.672836 0.836304 0.000000
0.706299 0.836304 0.000000
0.739761 0.836304 0.000000
