docs/luts/fuji_recipes/Astia_MT_Astia.cube
TITLE "Fujifilm Recipe: MT Astia (Astia)"
# FilmSim=Astia HL=0 SH=0 Col=-4 WB=Auto WBR=2 WBB=0
LUT_3D_SIZE 5
DOMAIN_MIN 0.0 0.0 0.0
DOMAIN_MAX 1.0 1.0 1.0
0.024000 0.024000 0.024000
0.184250 0.121238 0.121238
0.336893 0.213859 0.213859
0.497004 0.311013 0.311013
0.623955 0.388045 0.388045
0.116144 0.175856 0.116144
0.184250 0.180949 0.121238
0.336893 0.273571 0.213859
0.497004 0.370724 0.311013
0.623955 0.447757 0.388045
0.208180 0.327532 0.208180
0.271192 0.327532 0.208180
0.336893 0.333212 0.213859
0.497004 0.430365 0.311013
0.623955 0.507398 0.388045
0.295901 0.472099 0.295901
0.358913 0.472099 0.295901
0.418934 0.472099 0.295901
0.497004 0.487211 0.311013
0.623955 0.564243 0.388045
0.388045 0.623955 0.388045
0.451057 0.623955 0.388045
0.511078 0.623955 0.388045
0.574036 0.623955 0.388045
0.623955 0.623955 0.388045
0.116144 0.116144 0.175856
0.184250 0.121238 0.180949
0.336893 0.213859 0.273571
0.497004 0.311013 0.370724
0.623955 0.388045 0.447757
0.116144 0.175856 0.175856
0.276394 0.273093 0.273093
0.429037 0.365715 0.365715
0.589148 0.462868 0.462868
0.716099 0.539901 0.539901
0.208180 0.327532 0.267891
0.363336 0.419677 0.360035
0.429037 0.425356 0.365715
0.589148 0.522510 0.462868
0.716099 0.599542 0.539901
0.295901 0.472099 0.355612
0.451057 0.564243 0.447757
0.511078 0.564243 0.447757
0.589148 0.579355 0.462868
0.716099 0.656388 0.539901
0.388045 0.623955 0.447757
0.543201 0.716099 0.539901
0.603223 0.716099 0.539901
0.666180 0.716099 0.539901
0.716099 0.716099 0.539901
0.208180 0.208180 0.327532
0.271192 0.208180 0.327532
0.336893 0.213859 0.333212
0.497004 0.311013 0.430365
0.623955 0.388045 0.507398
0.208180 0.267891 0.327532
0.363336 0.360035 0.419677
0.429037 0.365715 0.425356
0.589148 0.462868 0.522510
0.716099 0.539901 0.599542
0.208180 0.327532 0.327532
0.368429 0.424770 0.424770
0.521072 0.517392 0.517392
0.681183 0.614545 0.614545
0.808135 0.691577 0.691577
0.295901 0.472099 0.415254
0.456151 0.569337 0.512491
0.603114 0.656279 0.599433
0.681183 0.671390 0.614545
0.808135 0.748423 0.691577
0.388045 0.623955 0.507398
0.548295 0.721193 0.604635
0.695258 0.808135 0.691577
0.758216 0.808135 0.691577
0.808135 0.808135 0.691577
0.295901 0.295901 0.472099
0.358913 0.295901 0.472099
0.418934 0.295901 0.472099
0.497004 0.311013 0.487211
0.623955 0.388045 0.564243
0.295901 0.355612 0.472099
0.451057 0.447757 0.564243
0.511078 0.447757 0.564243
0.589148 0.462868 0.579355
0.716099 0.539901 0.656388
0.295901 0.415254 0.472099
0.456151 0.512491 0.569337
0.603114 0.599433 0.656279
0.681183 0.614545 0.671390
0.808135 0.691577 0.748423
0.295901 0.472099 0.472099
0.456151 0.569337 0.569337
0.608793 0.661958 0.661958
0.768904 0.759112 0.759112
0.895856 0.836144 0.836144
0.388045 0.623955 0.564243
0.548295 0.721193 0.661481
0.700938 0.813814 0.754103
0.845937 0.895856 0.836144
0.895856 0.895856 0.836144
0.388045 0.388045 0.623955
0.451057 0.388045 0.623955
0.511078 0.388045 0.623955
0.574036 0.388045 0.623955
0.623955 0.388045 0.623955
0.388045 0.447757 0.623955
0.543201 0.539901 0.716099
0.603223 0.539901 0.716099
0.666180 0.539901 0.716099
0.716099 0.539901 0.716099
0.388045 0.507398 0.623955
0.548295 0.604635 0.721193
0.695258 0.691577 0.808135
0.758216 0.691577 0.808135
0.808135 0.691577 0.808135
0.388045 0.564243 0.623955
0.548295 0.661481 0.721193
0.700938 0.754103 0.813814
0.845937 0.836144 0.895856
0.895856 0.836144 0.895856
0.388045 0.623955 0.623955
0.548295 0.721193 0.721193
0.700938 0.813814 0.813814
0.861049 0.910968 0.910968
0.988000 0.988000 0.988000
