docs/luts/fuji_recipes/Astia_VM_P160.cube
TITLE "Fujifilm Recipe: VM P160 (Astia)"
# FilmSim=Astia HL=-2 SH=-1 Col=-3 WB=Auto WBR=6 WBB=-3
LUT_3D_SIZE 33
DOMAIN_MIN 0.0 0.0 0.0
DOMAIN_MAX 1.0 1.0 1.0
0.063040 0.063040 0.063040
0.092985 0.075811 0.075811
0.119508 0.087123 0.087123
0.145581 0.098243 0.098243
0.171654 0.109363 0.109363
0.197727 0.120483 0.120483
0.223800 0.131603 0.131603
0.249873 0.142723 0.142723
0.275946 0.153843 0.153843
0.302019 0.164963 0.164963
0.328092 0.176083 0.176083
0.354165 0.187203 0.187203
0.380238 0.198323 0.198323
0.398235 0.205998 0.205998
0.408132 0.211135 0.211135
0.432085 0.221471 0.221471
0.456038 0.231807 0.231807
0.479991 0.242143 0.242143
0.503944 0.252479 0.252479
0.527897 0.262814 0.262814
0.551850 0.273150 0.273150
0.575803 0.283486 0.283486
0.599756 0.293822 0.293822
0.623709 0.304158 0.304158
0.647662 0.314494 0.314494
0.671615 0.324829 0.324829
0.672239 0.325099 0.325099
0.672239 0.325099 0.325099
0.672239 0.325099 0.325099
0.672239 0.325099 0.325099
0.672239 0.325099 0.325099
0.672239 0.325099 0.325099
0.672239 0.325099 0.325099
0.074044 0.088841 0.074044
0.092985 0.090608 0.075811
0.119508 0.101920 0.087123
0.145581 0.113040 0.098243
0.171654 0.124160 0.109363
0.197727 0.135280 0.120483
0.223800 0.146400 0.131603
0.249873 0.157520 0.142723
0.275946 0.168640 0.153843
0.302019 0.179760 0.164963
0.328092 0.190880 0.176083
0.354165 0.202000 0.187203
0.380238 0.213120 0.198323
0.398235 0.220796 0.205998
0.408132 0.225932 0.211135
0.432085 0.236268 0.221471
0.456038 0.246604 0.231807
0.479991 0.256940 0.242143
0.503944 0.267276 0.252479
0.527897 0.277612 0.262814
0.551850 0.287947 0.273150
0.575803 0.298283 0.283486
0.599756 0.308619 0.293822
0.623709 0.318955 0.304158
0.647662 0.329291 0.314494
0.671615 0.339627 0.324829
0.672239 0.339896 0.325099
0.672239 0.339896 0.325099
0.672239 0.339896 0.325099
0.672239 0.339896 0.325099
0.672239 0.339896 0.325099
0.672239 0.339896 0.325099
0.672239 0.339896 0.325099
0.083840 0.111809 0.083840
0.101013 0.111809 0.083840
0.119508 0.115093 0.087123
0.145581 0.126213 0.098243
0.171654 0.137333 0.109363
0.197727 0.148452 0.120483
0.223800 0.159572 0.131603
0.249873 0.170692 0.142723
0.275946 0.181812 0.153843
0.302019 0.192932 0.164963
0.328092 0.204052 0.176083
0.354165 0.215172 0.187203
0.380238 0.226292 0.198323
0.398235 0.233968 0.205998
0.408132 0.239105 0.211135
0.432085 0.249441 0.221471
0.456038 0.259776 0.231807
0.479991 0.270112 0.242143
0.503944 0.280448 0.252479
0.527897 0.290784 0.262814
0.551850 0.301120 0.273150
0.575803 0.311456 0.283486
0.599756 0.321791 0.293822
0.623709 0.332127 0.304158
0.647662 0.342463 0.314494
0.671615 0.352799 0.324829
0.672239 0.353069 0.325099
0.672239 0.353069 0.325099
0.672239 0.353069 0.325099
0.672239 0.353069 0.325099
0.672239 0.353069 0.325099
0.672239 0.353069 0.325099
0.672239 0.353069 0.325099
0.093469 0.134388 0.093469
0.110643 0.134388 0.093469
0.125854 0.134388 0.093469
0.145581 0.139161 0.098243
0.171654 0.150281 0.109363
0.197727 0.161401 0.120483
0.223800 0.172521 0.131603
0.249873 0.183641 0.142723
0.275946 0.194761 0.153843
0.302019 0.205881 0.164963
0.328092 0.217001 0.176083
0.354165 0.228121 0.187203
0.380238 0.239241 0.198323
0.398235 0.246917 0.205998
0.408132 0.252054 0.211135
0.432085 0.262389 0.221471
0.456038 0.272725 0.231807
0.479991 0.283061 0.242143
0.503944 0.293397 0.252479
0.527897 0.303733 0.262814
0.551850 0.314069 0.273150
0.575803 0.324404 0.283486
0.599756 0.334740 0.293822
0.623709 0.345076 0.304158
0.647662 0.355412 0.314494
0.671615 0.365748 0.324829
0.672239 0.366017 0.325099
0.672239 0.366017 0.325099
0.672239 0.366017 0.325099
0.672239 0.366017 0.325099
0.672239 0.366017 0.325099
0.672239 0.366017 0.325099
0.672239 0.366017 0.325099
0.103099 0.156966 0.103099
0.120272 0.156966 0.103099
0.135483 0.156966 0.103099
0.150437 0.156966 0.103099
0.171654 0.163230 0.109363
0.197727 0.174350 0.120483
0.223800 0.185470 0.131603
0.249873 0.196590 0.142723
0.275946 0.207710 0.153843
0.302019 0.218830 0.164963
0.328092 0.229950 0.176083
0.354165 0.241070 0.187203
0.380238 0.252190 0.198323
0.398235 0.259866 0.205998
0.408132 0.265002 0.211135
0.432085 0.275338 0.221471
0.456038 0.285674 0.231807
0.479991 0.296010 0.242143
0.503944 0.306346 0.252479
0.527897 0.316682 0.262814
0.551850 0.327017 0.273150
0.575803 0.337353 0.283486
0.599756 0.347689 0.293822
0.623709 0.358025 0.304158
0.647662 0.368361 0.314494
0.671615 0.378697 0.324829
0.672239 0.378966 0.325099
0.672239 0.378966 0.325099
0.672239 0.378966 0.325099
0.672239 0.378966 0.325099
0.672239 0.378966 0.325099
0.672239 0.378966 0.325099
0.672239 0.378966 0.325099
0.112728 0.179544 0.112728
0.129902 0.179544 0.112728
0.145113 0.179544 0.112728
0.160066 0.179544 0.112728
0.175019 0.179544 0.112728
0.197727 0.187299 0.120483
0.223800 0.198419 0.131603
0.249873 0.209539 0.142723
0.275946 0.220659 0.153843
0.302019 0.231779 0.164963
0.328092 0.242899 0.176083
0.354165 0.254019 0.187203
0.380238 0.265139 0.198323
0.398235 0.272815 0.205998
0.408132 0.277951 0.211135
0.432085 0.288287 0.221471
0.456038 0.298623 0.231807
0.479991 0.308959 0.242143
0.503944 0.319295 0.252479
0.527897 0.329630 0.262814
0.551850 0.339966 0.273150
0.575803 0.350302 0.283486
0.599756 0.360638 0.293822
0.623709 0.370974 0.304158
0.647662 0.381310 0.314494
0.671615 0.391646 0.324829
0.672239 0.391915 0.325099
0.672239 0.391915 0.325099
0.672239 0.391915 0.325099
0.672239 0.391915 0.325099
0.672239 0.391915 0.325099
0.672239 0.391915 0.325099
0.672239 0.391915 0.325099
0.122358 0.202123 0.122358
0.139531 0.202123 0.122358
0.154742 0.202123 0.122358
0.169696 0.202123 0.122358
0.184649 0.202123 0.122358
0.199602 0.202123 0.122358
0.223800 0.211368 0.131603
0.249873 0.222488 0.142723
0.275946 0.233608 0.153843
0.302019 0.244728 0.164963
0.328092 0.255848 0.176083
0.354165 0.266968 0.187203
0.380238 0.278088 0.198323
0.398235 0.285763 0.205998
0.408132 0.290900 0.211135
0.432085 0.301236 0.221471
0.456038 0.311572 0.231807
0.479991 0.321908 0.242143
0.503944 0.332244 0.252479
0.527897 0.342579 0.262814
0.551850 0.352915 0.273150
0.575803 0.363251 0.283486
0.599756 0.373587 0.293822
0.623709 0.383923 0.304158
0.647662 0.394259 0.314494
0.671615 0.404594 0.324829
0.672239 0.404864 0.325099
0.672239 0.404864 0.325099
0.672239 0.404864 0.325099
0.672239 0.404864 0.325099
0.672239 0.404864 0.325099
0.672239 0.404864 0.325099
0.672239 0.404864 0.325099
0.131987 0.224701 0.131987
0.149161 0.224701 0.131987
0.164372 0.224701 0.131987
0.179325 0.224701 0.131987
0.194278 0.224701 0.131987
0.209231 0.224701 0.131987
0.224184 0.224701 0.131987
0.249873 0.235437 0.142723
0.275946 0.246557 0.153843
0.302019 0.257677 0.164963
0.328092 0.268797 0.176083
0.354165 0.279917 0.187203
0.380238 0.291037 0.198323
0.398235 0.298712 0.205998
0.408132 0.303849 0.211135
0.432085 0.314185 0.221471
0.456038 0.324521 0.231807
0.479991 0.334857 0.242143
0.503944 0.345192 0.252479
0.527897 0.355528 0.262814
0.551850 0.365864 0.273150
0.575803 0.376200 0.283486
0.599756 0.386536 0.293822
0.623709 0.396872 0.304158
0.647662 0.407207 0.314494
0.671615 0.417543 0.324829
0.672239 0.417813 0.325099
0.672239 0.417813 0.325099
0.672239 0.417813 0.325099
0.672239 0.417813 0.325099
0.672239 0.417813 0.325099
0.672239 0.417813 0.325099
0.672239 0.417813 0.325099
0.141617 0.247280 0.141617
0.158790 0.247280 0.141617
0.174002 0.247280 0.141617
0.188955 0.247280 0.141617
0.203908 0.247280 0.141617
0.218861 0.247280 0.141617
0.233814 0.247280 0.141617
0.249873 0.248386 0.142723
0.275946 0.259506 0.153843
0.302019 0.270626 0.164963
0.328092 0.281746 0.176083
0.354165 0.292865 0.187203
0.380238 0.303985 0.198323
0.398235 0.311661 0.205998
0.408132 0.316798 0.211135
0.432085 0.327134 0.221471
0.456038 0.337470 0.231807
0.479991 0.347805 0.242143
0.503944 0.358141 0.252479
0.527897 0.368477 0.262814
0.551850 0.378813 0.273150
0.575803 0.389149 0.283486
0.599756 0.399485 0.293822
0.623709 0.409820 0.304158
0.647662 0.420156 0.314494
0.671615 0.430492 0.324829
0.672239 0.430762 0.325099
0.672239 0.430762 0.325099
0.672239 0.430762 0.325099
0.672239 0.430762 0.325099
0.672239 0.430762 0.325099
0.672239 0.430762 0.325099
0.672239 0.430762 0.325099
0.151246 0.269858 0.151246
0.168420 0.269858 0.151246
0.183631 0.269858 0.151246
0.198584 0.269858 0.151246
0.213537 0.269858 0.151246
0.228490 0.269858 0.151246
0.243443 0.269858 0.151246
0.258396 0.269858 0.151246
0.275946 0.272454 0.153843
0.302019 0.283574 0.164963
0.328092 0.294694 0.176083
0.354165 0.305814 0.187203
0.380238 0.316934 0.198323
0.398235 0.324610 0.205998
0.408132 0.329747 0.211135
0.432085 0.340083 0.221471
0.456038 0.350418 0.231807
0.479991 0.360754 0.242143
0.503944 0.371090 0.252479
0.527897 0.381426 0.262814
0.551850 0.391762 0.273150
0.575803 0.402098 0.283486
0.599756 0.412434 0.293822
0.623709 0.422769 0.304158
0.647662 0.433105 0.314494
0.671615 0.443441 0.324829
0.672239 0.443711 0.325099
0.672239 0.443711 0.325099
0.672239 0.443711 0.325099
0.672239 0.443711 0.325099
0.672239 0.443711 0.325099
0.672239 0.443711 0.325099
0.672239 0.443711 0.325099
0.160876 0.292436 0.160876
0.178050 0.292436 0.160876
0.193261 0.292436 0.160876
0.208214 0.292436 0.160876
0.223167 0.292436 0.160876
0.238120 0.292436 0.160876
0.253073 0.292436 0.160876
0.268026 0.292436 0.160876
0.282979 0.292436 0.160876
0.302019 0.296523 0.164963
0.328092 0.307643 0.176083
0.354165 0.318763 0.187203
0.380238 0.329883 0.198323
0.398235 0.337559 0.205998
0.408132 0.342696 0.211135
0.432085 0.353031 0.221471
0.456038 0.363367 0.231807
0.479991 0.373703 0.242143
0.503944 0.384039 0.252479
0.527897 0.394375 0.262814
0.551850 0.404711 0.273150
0.575803 0.415047 0.283486
0.599756 0.425382 0.293822
0.623709 0.435718 0.304158
0.647662 0.446054 0.314494
0.671615 0.456390 0.324829
0.672239 0.456660 0.325099
0.672239 0.456660 0.325099
0.672239 0.456660 0.325099
0.672239 0.456660 0.325099
0.672239 0.456660 0.325099
0.672239 0.456660 0.325099
0.672239 0.456660 0.325099
0.170505 0.315015 0.170505
0.187679 0.315015 0.170505
0.202890 0.315015 0.170505
0.217843 0.315015 0.170505
0.232796 0.315015 0.170505
0.247749 0.315015 0.170505
0.262702 0.315015 0.170505
0.277655 0.315015 0.170505
0.292609 0.315015 0.170505
0.307562 0.315015 0.170505
0.328092 0.320592 0.176083
0.354165 0.331712 0.187203
0.380238 0.342832 0.198323
0.398235 0.350508 0.205998
0.408132 0.355645 0.211135
0.432085 0.365980 0.221471
0.456038 0.376316 0.231807
0.479991 0.386652 0.242143
0.503944 0.396988 0.252479
0.527897 0.407324 0.262814
0.551850 0.417660 0.273150
0.575803 0.427995 0.283486
0.599756 0.438331 0.293822
0.623709 0.448667 0.304158
0.647662 0.459003 0.314494
0.671615 0.469339 0.324829
0.672239 0.469608 0.325099
0.672239 0.469608 0.325099
0.672239 0.469608 0.325099
0.672239 0.469608 0.325099
0.672239 0.469608 0.325099
0.672239 0.469608 0.325099
0.672239 0.469608 0.325099
0.180135 0.337593 0.180135
0.197309 0.337593 0.180135
0.212520 0.337593 0.180135
0.227473 0.337593 0.180135
0.242426 0.337593 0.180135
0.257379 0.337593 0.180135
0.272332 0.337593 0.180135
0.287285 0.337593 0.180135
0.302238 0.337593 0.180135
0.317191 0.337593 0.180135
0.332144 0.337593 0.180135
0.354165 0.344661 0.187203
0.380238 0.355781 0.198323
0.398235 0.363457 0.205998
0.408132 0.368593 0.211135
0.432085 0.378929 0.221471
0.456038 0.389265 0.231807
0.479991 0.399601 0.242143
0.503944 0.409937 0.252479
0.527897 0.420273 0.262814
0.551850 0.430608 0.273150
0.575803 0.440944 0.283486
0.599756 0.451280 0.293822
0.623709 0.461616 0.304158
0.647662 0.471952 0.314494
0.671615 0.482288 0.324829
0.672239 0.482557 0.325099
0.672239 0.482557 0.325099
0.672239 0.482557 0.325099
0.672239 0.482557 0.325099
0.672239 0.482557 0.325099
0.672239 0.482557 0.325099
0.672239 0.482557 0.325099
0.189765 0.360172 0.189765
0.206938 0.360172 0.189765
0.222149 0.360172 0.189765
0.237102 0.360172 0.189765
0.252055 0.360172 0.189765
0.267008 0.360172 0.189765
0.281961 0.360172 0.189765
0.296915 0.360172 0.189765
0.311868 0.360172 0.189765
0.326821 0.360172 0.189765
0.341774 0.360172 0.189765
0.356727 0.360172 0.189765
0.380238 0.368730 0.198323
0.398235 0.376406 0.205998
0.408132 0.381542 0.211135
0.432085 0.391878 0.221471
0.456038 0.402214 0.231807
0.479991 0.412550 0.242143
0.503944 0.422886 0.252479
0.527897 0.433221 0.262814
0.551850 0.443557 0.273150
0.575803 0.453893 0.283486
0.599756 0.464229 0.293822
0.623709 0.474565 0.304158
0.647662 0.484901 0.314494
0.671615 0.495237 0.324829
0.672239 0.495506 0.325099
0.672239 0.495506 0.325099
0.672239 0.495506 0.325099
0.672239 0.495506 0.325099
0.672239 0.495506 0.325099
0.672239 0.495506 0.325099
0.672239 0.495506 0.325099
0.199394 0.382750 0.199394
0.216568 0.382750 0.199394
0.231779 0.382750 0.199394
0.246732 0.382750 0.199394
0.261685 0.382750 0.199394
0.276638 0.382750 0.199394
0.291591 0.382750 0.199394
0.306544 0.382750 0.199394
0.321497 0.382750 0.199394
0.336450 0.382750 0.199394
0.351403 0.382750 0.199394
0.366356 0.382750 0.199394
0.381309 0.382750 0.199394
0.398235 0.389354 0.205998
0.408132 0.394491 0.211135
0.432085 0.404827 0.221471
0.456038 0.415163 0.231807
0.479991 0.425499 0.242143
0.503944 0.435835 0.252479
0.527897 0.446170 0.262814
0.551850 0.456506 0.273150
0.575803 0.466842 0.283486
0.599756 0.477178 0.293822
0.623709 0.487514 0.304158
0.647662 0.497850 0.314494
0.671615 0.508185 0.324829
0.672239 0.508455 0.325099
0.672239 0.508455 0.325099
0.672239 0.508455 0.325099
0.672239 0.508455 0.325099
0.672239 0.508455 0.325099
0.672239 0.508455 0.325099
0.672239 0.508455 0.325099
0.205579 0.397253 0.205579
0.222753 0.397253 0.205579
0.237964 0.397253 0.205579
0.252917 0.397253 0.205579
0.267870 0.397253 0.205579
0.282823 0.397253 0.205579
0.297776 0.397253 0.205579
0.312729 0.397253 0.205579
0.327682 0.397253 0.205579
0.342635 0.397253 0.205579
0.357589 0.397253 0.205579
0.372542 0.397253 0.205579
0.387495 0.397253 0.205579
0.398235 0.397672 0.205998
0.408132 0.402809 0.211135
0.432085 0.413144 0.221471
0.456038 0.423480 0.231807
0.479991 0.433816 0.242143
0.503944 0.434892 0.252479
0.527897 0.445138 0.262814
0.551850 0.455384 0.273150
0.575803 0.465630 0.283486
0.599756 0.475876 0.293822
0.623709 0.486122 0.304158
0.647662 0.496368 0.314494
0.671615 0.506614 0.324829
0.672239 0.506882 0.325099
0.672239 0.506882 0.325099
0.672239 0.506882 0.325099
0.672239 0.506882 0.325099
0.672239 0.506882 0.325099
0.672239 0.506882 0.325099
0.672239 0.506882 0.325099
0.209360 0.404018 0.209360
0.226534 0.404018 0.209360
0.241745 0.404018 0.209360
0.256698 0.404018 0.209360
0.271651 0.404018 0.209360
0.286604 0.404018 0.209360
0.301557 0.404018 0.209360
0.316510 0.404018 0.209360
0.331463 0.404018 0.209360
0.346416 0.404018 0.209360
0.361369 0.404018 0.209360
0.376323 0.404018 0.209360
0.391276 0.404018 0.209360
0.401597 0.404018 0.209360
0.408132 0.405778 0.211135
0.432085 0.416024 0.221471
0.456038 0.426270 0.231807
0.479991 0.436516 0.242143
0.503944 0.446762 0.252479
0.527897 0.457008 0.262814
0.551850 0.467254 0.273150
0.575803 0.477500 0.283486
0.599756 0.487746 0.293822
0.623709 0.497992 0.304158
0.647662 0.508238 0.314494
0.671615 0.518484 0.324829
0.672239 0.518751 0.325099
0.672239 0.518751 0.325099
0.672239 0.518751 0.325099
0.672239 0.518751 0.325099
0.672239 0.518751 0.325099
0.672239 0.518751 0.325099
0.672239 0.518751 0.325099
0.218311 0.424761 0.218311
0.235484 0.424761 0.218311
0.250695 0.424761 0.218311
0.265648 0.424761 0.218311
0.280602 0.424761 0.218311
0.295555 0.424761 0.218311
0.310508 0.424761 0.218311
0.325461 0.424761 0.218311
0.340414 0.424761 0.218311
0.355367 0.424761 0.218311
0.370320 0.424761 0.218311
0.385273 0.424761 0.218311
0.400226 0.424761 0.218311
0.410548 0.424761 0.218311
0.415245 0.424761 0.218311
0.432085 0.427894 0.221471
0.456038 0.438140 0.231807
0.479991 0.448386 0.242143
0.503944 0.458632 0.252479
0.527897 0.468878 0.262814
0.551850 0.479124 0.273150
0.575803 0.489370 0.283486
0.599756 0.499616 0.293822
0.623709 0.509862 0.304158
0.647662 0.520108 0.314494
0.671615 0.530354 0.324829
0.672239 0.530621 0.325099
0.672239 0.530621 0.325099
0.672239 0.530621 0.325099
0.672239 0.530621 0.325099
0.672239 0.530621 0.325099
0.672239 0.530621 0.325099
0.672239 0.530621 0.325099
0.227261 0.445503 0.227261
0.244435 0.445503 0.227261
0.259646 0.445503 0.227261
0.274599 0.445503 0.227261
0.289552 0.445503 0.227261
0.304505 0.445503 0.227261
0.319458 0.445503 0.227261
0.334411 0.445503 0.227261
0.349364 0.445503 0.227261
0.364317 0.445503 0.227261
0.379270 0.445503 0.227261
0.394224 0.445503 0.227261
0.409177 0.445503 0.227261
0.419498 0.445503 0.227261
0.424118 0.445503 0.227261
0.437825 0.445503 0.227261
0.456038 0.450009 0.231807
0.479991 0.460255 0.242143
0.503944 0.470501 0.252479
0.527897 0.480747 0.262814
0.551850 0.490993 0.273150
0.575803 0.501240 0.283486
0.599756 0.511486 0.293822
0.623709 0.521732 0.304158
0.647662 0.531978 0.314494
0.671615 0.542224 0.324829
0.672239 0.542491 0.325099
0.672239 0.542491 0.325099
0.672239 0.542491 0.325099
0.672239 0.542491 0.325099
0.672239 0.542491 0.325099
0.672239 0.542491 0.325099
0.672239 0.542491 0.325099
0.236212 0.466246 0.236212
0.253385 0.466246 0.236212
0.268596 0.466246 0.236212
0.283550 0.466246 0.236212
0.298503 0.466246 0.236212
0.313456 0.466246 0.236212
0.328409 0.466246 0.236212
0.343362 0.466246 0.236212
0.358315 0.466246 0.236212
0.373268 0.466246 0.236212
0.388221 0.466246 0.236212
0.403174 0.466246 0.236212
0.418127 0.466246 0.236212
0.428449 0.466246 0.236212
0.432990 0.466246 0.236212
0.446697 0.466246 0.236212
0.460404 0.466246 0.236212
0.479991 0.472125 0.242143
0.503944 0.482371 0.252479
0.527897 0.492617 0.262814
0.551850 0.502863 0.273150
0.575803 0.513109 0.283486
0.599756 0.523355 0.293822
0.623709 0.533601 0.304158
0.647662 0.543847 0.314494
0.671615 0.554093 0.324829
0.672239 0.554361 0.325099
0.672239 0.554361 0.325099
0.672239 0.554361 0.325099
0.672239 0.554361 0.325099
0.672239 0.554361 0.325099
0.672239 0.554361 0.325099
0.672239 0.554361 0.325099
0.245162 0.486988 0.245162
0.262336 0.486988 0.245162
0.277547 0.486988 0.245162
0.292500 0.486988 0.245162
0.307453 0.486988 0.245162
0.322406 0.486988 0.245162
0.337359 0.486988 0.245162
0.352312 0.486988 0.245162
0.367265 0.486988 0.245162
0.382218 0.486988 0.245162
0.397171 0.486988 0.245162
0.412125 0.486988 0.245162
0.427078 0.486988 0.245162
0.428156 0.486988 0.245162
0.441863 0.486988 0.245162
0.455570 0.486988 0.245162
0.469277 0.486988 0.245162
0.482984 0.486988 0.245162
0.503944 0.494241 0.252479
0.527897 0.504487 0.262814
0.551850 0.514733 0.273150
0.575803 0.524979 0.283486
0.599756 0.535225 0.293822
0.623709 0.545471 0.304158
0.647662 0.555717 0.314494
0.671615 0.565963 0.324829
0.672239 0.566231 0.325099
0.672239 0.566231 0.325099
0.672239 0.566231 0.325099
0.672239 0.566231 0.325099
0.672239 0.566231 0.325099
0.672239 0.566231 0.325099
0.672239 0.566231 0.325099
0.254113 0.507731 0.254113
0.271286 0.507731 0.254113
0.286497 0.507731 0.254113
0.301451 0.507731 0.254113
0.316404 0.507731 0.254113
0.331357 0.507731 0.254113
0.346310 0.507731 0.254113
0.361263 0.507731 0.254113
0.376216 0.507731 0.254113
0.391169 0.507731 0.254113
0.406122 0.507731 0.254113
0.421075 0.507731 0.254113
0.436028 0.507731 0.254113
0.437029 0.507731 0.254113
0.450736 0.507731 0.254113
0.464443 0.507731 0.254113
0.478150 0.507731 0.254113
0.491857 0.507731 0.254113
0.505564 0.507731 0.254113
0.527897 0.516357 0.262814
0.551850 0.526603 0.273150
0.575803 0.536849 0.283486
0.599756 0.547095 0.293822
0.623709 0.557341 0.304158
0.647662 0.567587 0.314494
0.671615 0.577833 0.324829
0.672239 0.578100 0.325099
0.672239 0.578100 0.325099
0.672239 0.578100 0.325099
0.672239 0.578100 0.325099
0.672239 0.578100 0.325099
0.672239 0.578100 0.325099
0.672239 0.578100 0.325099
0.263063 0.528473 0.263063
0.280237 0.528473 0.263063
0.295448 0.528473 0.263063
0.310401 0.528473 0.263063
0.325354 0.528473 0.263063
0.340307 0.528473 0.263063
0.355260 0.528473 0.263063
0.370213 0.528473 0.263063
0.385166 0.528473 0.263063
0.400119 0.528473 0.263063
0.415072 0.528473 0.263063
0.430026 0.528473 0.263063
0.444979 0.528473 0.263063
0.445901 0.528473 0.263063
0.459608 0.528473 0.263063
0.473315 0.528473 0.263063
0.487022 0.528473 0.263063
0.500729 0.528473 0.263063
0.514436 0.528473 0.263063
0.528143 0.528473 0.263063
0.551850 0.538473 0.273150
0.575803 0.548719 0.283486
0.599756 0.558965 0.293822
0.623709 0.569211 0.304158
0.647662 0.579457 0.314494
0.671615 0.589703 0.324829
0.672239 0.589970 0.325099
0.672239 0.589970 0.325099
0.672239 0.589970 0.325099
0.672239 0.589970 0.325099
0.672239 0.589970 0.325099
0.672239 0.589970 0.325099
0.672239 0.589970 0.325099
0.272014 0.549216 0.272014
0.289187 0.549216 0.272014
0.304398 0.549216 0.272014
0.319352 0.549216 0.272014
0.334305 0.549216 0.272014
0.349258 0.549216 0.272014
0.364211 0.549216 0.272014
0.379164 0.549216 0.272014
0.394117 0.549216 0.272014
0.409070 0.549216 0.272014
0.424023 0.549216 0.272014
0.438976 0.549216 0.272014
0.453929 0.549216 0.272014
0.454774 0.549216 0.272014
0.468481 0.549216 0.272014
0.482188 0.549216 0.272014
0.495895 0.549216 0.272014
0.509602 0.549216 0.272014
0.523309 0.549216 0.272014
0.537016 0.549216 0.272014
0.551850 0.550342 0.273150
0.575803 0.560589 0.283486
0.599756 0.570835 0.293822
0.623709 0.581081 0.304158
0.647662 0.591327 0.314494
0.671615 0.601573 0.324829
0.672239 0.601840 0.325099
0.672239 0.601840 0.325099
0.672239 0.601840 0.325099
0.672239 0.601840 0.325099
0.672239 0.601840 0.325099
0.672239 0.601840 0.325099
0.672239 0.601840 0.325099
0.280964 0.569958 0.280964
0.298138 0.569958 0.280964
0.313349 0.569958 0.280964
0.328302 0.569958 0.280964
0.343255 0.569958 0.280964
0.358208 0.569958 0.280964
0.373161 0.569958 0.280964
0.388114 0.569958 0.280964
0.403067 0.569958 0.280964
0.418020 0.569958 0.280964
0.432973 0.569958 0.280964
0.447927 0.569958 0.280964
0.462880 0.569958 0.280964
0.463647 0.569958 0.280964
0.477354 0.569958 0.280964
0.491061 0.569958 0.280964
0.504768 0.569958 0.280964
0.518475 0.569958 0.280964
0.532182 0.569958 0.280964
0.545889 0.569958 0.280964
0.559596 0.569958 0.280964
0.575803 0.572458 0.283486
0.599756 0.582704 0.293822
0.623709 0.592950 0.304158
0.647662 0.603196 0.314494
0.671615 0.613442 0.324829
0.672239 0.613710 0.325099
0.672239 0.613710 0.325099
0.672239 0.613710 0.325099
0.672239 0.613710 0.325099
0.672239 0.613710 0.325099
0.672239 0.613710 0.325099
0.672239 0.613710 0.325099
0.289915 0.590701 0.289915
0.307088 0.590701 0.289915
0.322299 0.590701 0.289915
0.337253 0.590701 0.289915
0.352206 0.590701 0.289915
0.367159 0.590701 0.289915
0.382112 0.590701 0.289915
0.397065 0.590701 0.289915
0.412018 0.590701 0.289915
0.426971 0.590701 0.289915
0.441924 0.590701 0.289915
0.456877 0.590701 0.289915
0.471830 0.590701 0.289915
0.472520 0.590701 0.289915
0.486227 0.590701 0.289915
0.499934 0.590701 0.289915
0.513641 0.590701 0.289915
0.527348 0.590701 0.289915
0.541054 0.590701 0.289915
0.554761 0.590701 0.289915
0.568468 0.590701 0.289915
0.582175 0.590701 0.289915
0.599756 0.594574 0.293822
0.623709 0.604820 0.304158
0.647662 0.615066 0.314494
0.671615 0.625312 0.324829
0.672239 0.625580 0.325099
0.672239 0.625580 0.325099
0.672239 0.625580 0.325099
0.672239 0.625580 0.325099
0.672239 0.625580 0.325099
0.672239 0.625580 0.325099
0.672239 0.625580 0.325099
0.298865 0.611444 0.298865
0.316039 0.611444 0.298865
0.331250 0.611444 0.298865
0.346203 0.611444 0.298865
0.361156 0.611444 0.298865
0.376109 0.611444 0.298865
0.391062 0.611444 0.298865
0.406015 0.611444 0.298865
0.420968 0.611444 0.298865
0.435921 0.611444 0.298865
0.450874 0.611444 0.298865
0.465828 0.611444 0.298865
0.480781 0.611444 0.298865
0.481392 0.611444 0.298865
0.495099 0.611444 0.298865
0.508806 0.611444 0.298865
0.522513 0.611444 0.298865
0.536220 0.611444 0.298865
0.549927 0.611444 0.298865
0.563634 0.611444 0.298865
0.577341 0.611444 0.298865
0.591048 0.611444 0.298865
0.604755 0.611444 0.298865
0.623709 0.616690 0.304158
0.647662 0.626936 0.314494
