docs/luts/fuji_recipes/Astia_VM_Astia_Fujipro_Color_Cast.cube
TITLE "Fujifilm Recipe: VM Astia Fujipro Color Cast (Astia)"
# FilmSim=Astia HL=-1 SH=-1 Col=-2 WB=Auto WBR=-2 WBB=-3
LUT_3D_SIZE 9
DOMAIN_MIN 0.0 0.0 0.0
DOMAIN_MAX 1.0 1.0 1.0
0.063040 0.063040 0.063040
0.177098 0.095270 0.095270
0.282807 0.125141 0.125141
0.388515 0.155012 0.155012
0.467980 0.178555 0.178555
0.571518 0.207950 0.207950
0.675056 0.237344 0.237344
0.728391 0.252486 0.252486
0.728391 0.252486 0.252486
0.096777 0.182430 0.096777
0.178605 0.182430 0.096777
0.282807 0.210794 0.125141
0.388515 0.240665 0.155012
0.467980 0.264208 0.178555
0.571518 0.293603 0.207950
0.675056 0.322997 0.237344
0.728391 0.338139 0.252486
0.728391 0.338139 0.252486
0.128090 0.293241 0.128090
0.209918 0.293241 0.128090
0.285755 0.293241 0.128090
0.388515 0.320163 0.155012
0.467980 0.343707 0.178555
0.571518 0.373101 0.207950
0.675056 0.402496 0.237344
0.728391 0.417637 0.252486
0.728391 0.417637 0.252486
0.159402 0.404053 0.159402
0.241230 0.404053 0.159402
0.317068 0.404053 0.159402
0.392905 0.404053 0.159402
0.467980 0.423206 0.178555
0.571518 0.452600 0.207950
0.675056 0.481994 0.237344
0.728391 0.497136 0.252486
0.728391 0.497136 0.252486
0.184295 0.488197 0.184295
0.266123 0.488197 0.184295
0.341961 0.488197 0.184295
0.417798 0.488197 0.184295
0.473697 0.488197 0.184295
0.571518 0.511760 0.207950
0.675056 0.541041 0.237344
0.728391 0.556124 0.252486
0.728391 0.556124 0.252486
0.215109 0.596733 0.215109
0.296936 0.596733 0.215109
0.372774 0.596733 0.215109
0.448612 0.596733 0.215109
0.504391 0.596733 0.215109
0.578649 0.596733 0.215109
0.675056 0.618883 0.237344
0.728391 0.633966 0.252486
0.728391 0.633966 0.252486
0.245922 0.705270 0.245922
0.327750 0.705270 0.245922
0.403587 0.705270 0.245922
0.479425 0.705270 0.245922
0.535085 0.705270 0.245922
0.609343 0.705270 0.245922
0.683600 0.705270 0.245922
0.728391 0.711809 0.252486
0.728391 0.711809 0.252486
0.261795 0.761180 0.261795
0.343623 0.761180 0.261795
0.419460 0.761180 0.261795
0.495298 0.761180 0.261795
0.550897 0.761180 0.261795
0.625154 0.761180 0.261795
0.699412 0.761180 0.261795
0.737664 0.761180 0.261795
0.737664 0.761180 0.261795
0.261795 0.761180 0.261795
0.343623 0.761180 0.261795
0.419460 0.761180 0.261795
0.495298 0.761180 0.261795
0.550897 0.761180 0.261795
0.625154 0.761180 0.261795
0.699412 0.761180 0.261795
0.737664 0.761180 0.261795
0.737664 0.761180 0.261795
0.094247 0.094247 0.173475
0.177098 0.095270 0.174499
0.282807 0.125141 0.204370
0.388515 0.155012 0.234241
0.467980 0.178555 0.257784
0.571518 0.207950 0.287179
0.675056 0.237344 0.316573
0.728391 0.252486 0.331715
0.728391 0.252486 0.331715
0.096777 0.182430 0.176006
0.209811 0.213636 0.207212
0.314013 0.242000 0.235576
0.419721 0.271871 0.265447
0.499034 0.295381 0.288957
0.602572 0.324776 0.318352
0.706110 0.354170 0.347746
0.759445 0.369312 0.362888
0.759445 0.369312 0.362888
0.128090 0.293241 0.207318
0.241124 0.324448 0.238525
0.316962 0.324448 0.238525
0.419721 0.351370 0.265447
0.499034 0.374880 0.288957
0.602572 0.404274 0.318352
0.706110 0.433669 0.347746
0.759445 0.448811 0.362888
0.759445 0.448811 0.362888
0.159402 0.404053 0.238631
0.272437 0.435259 0.269838
0.348274 0.435259 0.269838
0.424112 0.435259 0.269838
0.499034 0.454379 0.288957
0.602572 0.483773 0.318352
0.706110 0.513167 0.347746
0.759445 0.528309 0.362888
0.759445 0.528309 0.362888
0.184295 0.488197 0.263524
0.297296 0.519251 0.294697
0.373134 0.519251 0.294697
0.448971 0.519251 0.294697
0.504751 0.519251 0.294697
0.602572 0.542814 0.318352
0.706110 0.572095 0.347746
0.759445 0.587178 0.362888
0.759445 0.587178 0.362888
0.215109 0.596733 0.294337
0.328110 0.627788 0.325510
0.403947 0.627788 0.325510
0.479785 0.627788 0.325510
0.535445 0.627788 0.325510
0.609703 0.627788 0.325510
0.706110 0.649937 0.347746
0.759445 0.665020 0.362888
0.759445 0.665020 0.362888
0.245922 0.705270 0.325151
0.358923 0.736324 0.356324
0.434761 0.736324 0.356324
0.510598 0.736324 0.356324
0.566139 0.736324 0.356324
0.640397 0.736324 0.356324
0.714655 0.736324 0.356324
0.759445 0.742863 0.362888
0.759445 0.742863 0.362888
0.261795 0.761180 0.341024
0.374796 0.792234 0.372197
0.450633 0.792234 0.372197
0.526471 0.792234 0.372197
0.581951 0.792234 0.372197
0.656208 0.792234 0.372197
0.730466 0.792234 0.372197
0.768718 0.792234 0.372197
0.768718 0.792234 0.372197
0.261795 0.761180 0.341024
0.374796 0.792234 0.372197
0.450633 0.792234 0.372197
0.526471 0.792234 0.372197
0.581951 0.792234 0.372197
0.656208 0.792234 0.372197
0.730466 0.792234 0.372197
0.768718 0.792234 0.372197
0.768718 0.792234 0.372197
0.123211 0.123211 0.275976
0.205039 0.123211 0.275976
0.282807 0.125141 0.277906
0.388515 0.155012 0.307777
0.467980 0.178555 0.331321
0.571518 0.207950 0.360715
0.675056 0.237344 0.390109
0.728391 0.252486 0.405251
0.728391 0.252486 0.405251
0.123211 0.208864 0.275976
0.237269 0.241094 0.308206
0.316543 0.244531 0.311643
0.422252 0.274401 0.341514
0.501552 0.297909 0.365021
0.605090 0.327303 0.394416
0.708628 0.356698 0.423810
0.761963 0.371839 0.438952
0.761963 0.371839 0.438952
0.128090 0.293241 0.280855
0.242148 0.325471 0.313085
0.345926 0.353412 0.341026
0.448686 0.380334 0.367948
0.527857 0.403813 0.391427
0.631395 0.433208 0.420821
0.734933 0.462602 0.450216
0.788268 0.477744 0.465357
0.788268 0.477744 0.465357
0.159402 0.404053 0.312168
0.273461 0.436283 0.344398
0.377239 0.464224 0.372338
0.453076 0.464224 0.372338
0.527857 0.483312 0.391427
0.631395 0.512706 0.420821
0.734933 0.542101 0.450216
0.788268 0.557243 0.465357
0.788268 0.557243 0.465357
0.184295 0.488197 0.337060
0.298319 0.520270 0.369256
0.402067 0.548074 0.397167
0.477904 0.548074 0.397167
0.533574 0.548074 0.397167
0.631395 0.571637 0.420821
0.734933 0.600918 0.450216
0.788268 0.616001 0.465357
0.788268 0.616001 0.465357
0.215109 0.596733 0.367874
0.329132 0.628806 0.400069
0.432880 0.656610 0.427980
0.508718 0.656610 0.427980
0.564268 0.656610 0.427980
0.638526 0.656610 0.427980
0.734933 0.678760 0.450216
0.788268 0.693843 0.465357
0.788268 0.693843 0.465357
0.245922 0.705270 0.398687
0.359946 0.737343 0.430883
0.463694 0.765147 0.458793
0.539531 0.765147 0.458793
0.594962 0.765147 0.458793
0.669220 0.765147 0.458793
0.743477 0.765147 0.458793
0.788268 0.771686 0.465357
0.788268 0.771686 0.465357
0.261795 0.761180 0.414560
0.375818 0.793253 0.446756
0.479567 0.821057 0.474666
0.555404 0.821057 0.474666
0.610774 0.821057 0.474666
0.685031 0.821057 0.474666
0.759289 0.821057 0.474666
0.797541 0.821057 0.474666
0.797541 0.821057 0.474666
0.261795 0.761180 0.414560
0.375818 0.793253 0.446756
0.479567 0.821057 0.474666
0.555404 0.821057 0.474666
0.610774 0.821057 0.474666
0.685031 0.821057 0.474666
0.759289 0.821057 0.474666
0.797541 0.821057 0.474666
0.797541 0.821057 0.474666
0.152175 0.152175 0.378477
0.234003 0.152175 0.378477
0.309841 0.152175 0.378477
0.388515 0.155012 0.381313
0.467980 0.178555 0.404857
0.571518 0.207950 0.434251
0.675056 0.237344 0.463646
0.728391 0.252486 0.478787
0.728391 0.252486 0.478787
0.152175 0.237828 0.378477
0.266233 0.270058 0.410707
0.343578 0.271565 0.412213
0.422252 0.274401 0.415050
0.501552 0.297909 0.438557
0.605090 0.327303 0.467952
0.708628 0.356698 0.497346
0.761963 0.371839 0.512488
0.761963 0.371839 0.512488
0.152175 0.317327 0.378477
0.266233 0.349557 0.410707
0.371942 0.379428 0.440578
0.453564 0.385213 0.446363
0.532712 0.408687 0.469837
0.636250 0.438081 0.499231
0.739788 0.467476 0.528625
0.793123 0.482617 0.543767
0.793123 0.482617 0.543767
0.159402 0.404053 0.385704
0.273461 0.436283 0.417934
0.379169 0.466154 0.447805
0.482041 0.493188 0.474839
0.556680 0.512245 0.493897
0.660218 0.541640 0.523291
0.763756 0.558208 0.552685
0.817091 0.573291 0.567827
0.817091 0.573291 0.567827
0.184295 0.488197 0.410596
0.298319 0.520270 0.442792
0.403995 0.549995 0.472631
0.506838 0.576897 0.499636
0.562397 0.576897 0.499636
0.660218 0.600460 0.523291
0.763756 0.629740 0.552685
0.817091 0.644824 0.567827
0.817091 0.644824 0.567827
0.215109 0.596733 0.441410
0.329132 0.628806 0.473606
0.434808 0.658531 0.503444
0.537651 0.685433 0.530450
0.593091 0.685433 0.530450
0.667349 0.685433 0.530450
0.763756 0.707583 0.552685
0.817091 0.722666 0.567827
0.817091 0.722666 0.567827
0.245922 0.705270 0.472223
0.359946 0.737343 0.504419
0.465622 0.767068 0.534258
0.568465 0.793970 0.561263
0.623785 0.793970 0.561263
0.698043 0.793970 0.561263
0.772300 0.793970 0.561263
0.817091 0.800508 0.567827
0.817091 0.800508 0.567827
0.261795 0.761180 0.488096
0.375818 0.793253 0.520292
0.481495 0.822978 0.550131
0.584337 0.849880 0.577136
0.639596 0.849880 0.577136
0.713854 0.849880 0.577136
0.788112 0.849880 0.577136
0.826363 0.849880 0.577136
0.826363 0.849880 0.577136
0.261795 0.761180 0.488096
0.375818 0.793253 0.520292
0.481495 0.822978 0.550131
0.584337 0.849880 0.577136
0.639596 0.849880 0.577136
0.713854 0.849880 0.577136
0.788112 0.849880 0.577136
0.826363 0.849880 0.577136
0.826363 0.849880 0.577136
0.174872 0.174872 0.455006
0.256700 0.174872 0.455006
0.332538 0.174872 0.455006
0.408375 0.174872 0.455006
0.467980 0.178555 0.458675
0.571518 0.207950 0.487955
0.675056 0.237344 0.517236
0.728391 0.252486 0.532319
0.728391 0.252486 0.532319
0.174872 0.260525 0.455006
0.288896 0.292721 0.487079
0.366238 0.294226 0.488578
0.442076 0.294226 0.488578
0.501552 0.297909 0.492247
0.605090 0.327303 0.521527
0.708628 0.356698 0.550808
0.761963 0.371839 0.565891
0.761963 0.371839 0.565891
0.174872 0.340024 0.455006
0.288896 0.372219 0.487079
0.394572 0.402058 0.516804
0.473355 0.405003 0.519738
0.532712 0.408687 0.523407
0.636250 0.438081 0.552687
0.739788 0.467476 0.581968
0.793123 0.482617 0.597051
0.793123 0.482617 0.597051
0.174872 0.419522 0.455006
0.288896 0.451718 0.487079
0.394572 0.481557 0.516804
0.500248 0.511396 0.546528
0.563871 0.519465 0.554567
0.667410 0.548859 0.583847
0.767332 0.561784 0.609512
0.820651 0.576851 0.624579
0.820651 0.576851 0.624579
0.184295 0.488197 0.464392
0.298319 0.520270 0.496465
0.403995 0.549995 0.526190
0.509671 0.579720 0.555915
0.584831 0.599330 0.575526
0.682626 0.622868 0.599063
0.786132 0.652116 0.628312
0.839450 0.667183 0.643378
0.839450 0.667183 0.643378
0.215109 0.596733 0.495086
0.329132 0.628806 0.527159
0.434808 0.658531 0.556884
0.540485 0.688256 0.586609
0.615491 0.707833 0.606186
0.689749 0.707833 0.606186
0.786132 0.729959 0.628312
0.839450 0.745025 0.643378
0.839450 0.745025 0.643378
0.245922 0.705270 0.525780
0.359946 0.737343 0.557853
0.465622 0.767068 0.587578
0.571298 0.796793 0.617303
0.646152 0.816336 0.636847
0.720409 0.816336 0.636847
0.794667 0.816336 0.636847
0.839450 0.822868 0.643378
0.839450 0.822868 0.643378
0.261795 0.761180 0.541592
0.375818 0.793253 0.573665
0.481495 0.822978 0.603389
0.587171 0.852702 0.633114
0.661946 0.872229 0.652641
0.736203 0.872229 0.652641
0.810461 0.872229 0.652641
0.848713 0.872229 0.652641
0.848713 0.872229 0.652641
0.261795 0.761180 0.541592
0.375818 0.793253 0.573665
0.481495 0.822978 0.603389
0.587171 0.852702 0.633114
0.661946 0.872229 0.652641
0.736203 0.872229 0.652641
0.810461 0.872229 0.652641
0.848713 0.872229 0.652641
0.848713 0.872229 0.652641
0.203375 0.203375 0.555402
0.285203 0.203375 0.555402
0.361040 0.203375 0.555402
0.436878 0.203375 0.555402
0.492703 0.203375 0.555402
0.571518 0.207950 0.559960
0.675056 0.237344 0.589240
0.728391 0.252486 0.604323
0.728391 0.252486 0.604323
0.203375 0.289027 0.555402
0.317398 0.321223 0.587475
0.394741 0.322728 0.588974
0.470578 0.322728 0.588974
0.526275 0.322728 0.588974
0.605090 0.327303 0.593532
0.708628 0.356698 0.622812
0.761963 0.371839 0.637895
0.761963 0.371839 0.637895
0.203375 0.368526 0.555402
0.317398 0.400722 0.587475
0.423075 0.430561 0.617200
0.501857 0.433506 0.620134
0.557435 0.433506 0.620134
0.636250 0.438081 0.624692
0.739788 0.467476 0.653972
0.793123 0.482617 0.669055
0.793123 0.482617 0.669055
0.203375 0.448025 0.555402
0.317398 0.480220 0.587475
0.423075 0.510059 0.617200
0.528751 0.539898 0.646925
0.588594 0.544284 0.651294
0.667410 0.548859 0.655851
0.767332 0.561784 0.681517
0.820651 0.576851 0.696583
0.820651 0.576851 0.696583
0.203375 0.507203 0.555402
0.317398 0.539275 0.587475
0.423075 0.569000 0.617200
0.528751 0.598725 0.646925
0.607480 0.621980 0.670180
0.692002 0.632244 0.680443
0.795508 0.661492 0.709692
0.848826 0.676559 0.724759
0.848826 0.676559 0.724759
0.215109 0.596733 0.567091
0.329132 0.628806 0.599163
0.434808 0.658531 0.628888
0.540485 0.688256 0.658613
0.619156 0.711498 0.681856
0.718110 0.736194 0.706551
0.814493 0.758320 0.728677
0.867811 0.773386 0.743743
0.867811 0.773386 0.743743
0.245922 0.705270 0.597785
0.359946 0.737343 0.629858
0.465622 0.767068 0.659582
0.571298 0.796793 0.689307
0.649817 0.820001 0.712516
0.748770 0.844697 0.737212
0.823028 0.844697 0.737212
0.867811 0.851229 0.743743
0.867811 0.851229 0.743743
0.261795 0.761180 0.613596
0.375818 0.793253 0.645669
0.481495 0.822978 0.675394
0.587171 0.852702 0.705119
0.665611 0.875894 0.728310
0.764564 0.900590 0.753006
0.838822 0.900590 0.753006
0.877074 0.900590 0.753006
0.877074 0.900590 0.753006
0.261795 0.761180 0.613596
0.375818 0.793253 0.645669
0.481495 0.822978 0.675394
0.587171 0.852702 0.705119
0.665611 0.875894 0.728310
0.764564 0.900590 0.753006
0.838822 0.900590 0.753006
0.877074 0.900590 0.753006
0.877074 0.900590 0.753006
0.231877 0.231877 0.655798
0.313705 0.231877 0.655798
0.389543 0.231877 0.655798
0.465380 0.231877 0.655798
0.521095 0.231877 0.655798
0.595352 0.231877 0.655798
0.675056 0.237344 0.661244
0.728391 0.252486 0.676328
0.728391 0.252486 0.676328
0.231877 0.317530 0.655798
0.345901 0.349726 0.687871
0.423243 0.351230 0.689370
0.499081 0.351230 0.689370
0.554667 0.351230 0.689370
0.628924 0.351230 0.689370
0.708628 0.356698 0.694816
0.761963 0.371839 0.709900
0.761963 0.371839 0.709900
0.231877 0.397028 0.655798
0.345901 0.429224 0.687871
0.451577 0.459063 0.717596
0.530360 0.462008 0.720530
0.585827 0.462008 0.720530
0.660084 0.462008 0.720530
0.739788 0.467476 0.725976
0.793123 0.482617 0.741059
0.793123 0.482617 0.741059
0.231877 0.476527 0.655798
0.345901 0.508723 0.687871
0.451577 0.538562 0.717596
0.556784 0.555115 0.746852
0.613377 0.556344 0.748081
0.687635 0.556344 0.748081
0.767332 0.561784 0.753521
0.820651 0.576851 0.768588
0.820651 0.576851 0.768588
0.231877 0.535595 0.655798
0.345901 0.567667 0.687871
0.451577 0.597392 0.717596
0.557253 0.627117 0.747321
0.635841 0.650341 0.770545
0.715810 0.656052 0.776256
0.795508 0.661492 0.781696
0.848826 0.676559 0.796763
0.848826 0.676559 0.796763
0.231877 0.613437 0.655798
0.345901 0.645510 0.687871
0.451577 0.675235 0.717596
0.557253 0.704960 0.747321
0.635841 0.728184 0.770545
0.739347 0.757432 0.799794
0.826168 0.769995 0.812357
0.879487 0.785062 0.827423
0.879487 0.785062 0.827423
0.245922 0.705270 0.669789
0.359946 0.737343 0.701862
0.465622 0.767068 0.731587
0.571298 0.796793 0.761312
0.649817 0.820001 0.784520
0.753323 0.849250 0.813769
0.851389 0.873058 0.837577
0.896172 0.879590 0.844109
0.896172 0.879590 0.844109
0.261795 0.761180 0.685600
0.375818 0.793253 0.717673
0.481495 0.822978 0.747398
0.587171 0.852702 0.777123
0.665611 0.875894 0.800314
0.769117 0.905142 0.829563
0.867183 0.928951 0.853371
0.905435 0.928951 0.853371
0.905435 0.928951 0.853371
0.261795 0.761180 0.685600
0.375818 0.793253 0.717673
0.481495 0.822978 0.747398
0.587171 0.852702 0.777123
0.665611 0.875894 0.800314
0.769117 0.905142 0.829563
0.867183 0.928951 0.853371
0.905435 0.928951 0.853371
0.905435 0.928951 0.853371
0.246559 0.246559 0.707515
0.328387 0.246559 0.707515
0.404225 0.246559 0.707515
0.480062 0.246559 0.707515
0.535720 0.246559 0.707515
0.609978 0.246559 0.707515
0.684235 0.246559 0.707515
0.728391 0.252486 0.713419
0.728391 0.252486 0.713419
0.246559 0.332212 0.707515
0.360583 0.364408 0.739588
0.437925 0.365913 0.741087
0.513763 0.365913 0.741087
0.569292 0.365913 0.741087
0.643550 0.365913 0.741087
0.717807 0.365913 0.741087
0.761963 0.371839 0.746991
0.761963 0.371839 0.746991
0.246559 0.411711 0.707515
0.360583 0.443907 0.739588
0.466259 0.473745 0.769313
0.545042 0.476691 0.772247
0.600452 0.476691 0.772247
0.674710 0.476691 0.772247
0.748967 0.476691 0.772247
0.793123 0.482617 0.778151
0.793123 0.482617 0.778151
0.246559 0.491209 0.707515
0.360583 0.523405 0.739588
0.466259 0.553244 0.769313
0.571450 0.569724 0.798552
0.627987 0.570954 0.799782
0.702244 0.570954 0.799782
0.776502 0.570954 0.799782
0.820651 0.576851 0.805679
0.820651 0.576851 0.805679
0.246559 0.550220 0.707515
0.360583 0.582293 0.739588
0.466259 0.612018 0.769313
0.571936 0.641743 0.799038
0.650451 0.664951 0.822246
0.730420 0.670662 0.827957
0.804677 0.670662 0.827957
0.848826 0.676559 0.833854
0.848826 0.676559 0.833854
0.246559 0.628062 0.707515
0.360583 0.660135 0.739588
0.466259 0.689860 0.769313
0.571936 0.719585 0.799038
0.650451 0.742793 0.822246
0.753957 0.772042 0.851494
0.835338 0.779165 0.858617
0.879487 0.785062 0.864515
0.879487 0.785062 0.864515
0.246559 0.705905 0.707515
0.360583 0.737978 0.739588
0.466259 0.767703 0.769313
0.571936 0.797427 0.799038
0.650451 0.820636 0.822246
0.753957 0.849884 0.851494
0.857463 0.879132 0.880743
0.910147 0.893565 0.895175
0.910147 0.893565 0.895175
0.261795 0.761180 0.722691
0.375818 0.793253 0.754764
0.481495 0.822978 0.784489
0.587171 0.852702 0.814214
0.665611 0.875894 0.837405
0.769117 0.905142 0.866654
0.872623 0.934391 0.895902
0.920044 0.943560 0.905072
0.920044 0.943560 0.905072
0.261795 0.761180 0.722691
0.375818 0.793253 0.754764
0.481495 0.822978 0.784489
0.587171 0.852702 0.814214
0.665611 0.875894 0.837405
0.769117 0.905142 0.866654
0.872623 0.934391 0.895902
0.920044 0.943560 0.905072
0.920044 0.943560 0.905072
0.246559 0.246559 0.707515
0.328387 0.246559 0.707515
0.404225 0.246559 0.707515
0.480062 0.246559 0.707515
0.535720 0.246559 0.707515
0.609978 0.246559 0.707515
0.684235 0.246559 0.707515
0.728391 0.252486 0.713419
0.728391 0.252486 0.713419
0.246559 0.332212 0.707515
0.360583 0.364408 0.739588
0.437925 0.365913 0.741087
0.513763 0.365913 0.741087
0.569292 0.365913 0.741087
0.643550 0.365913 0.741087
0.717807 0.365913 0.741087
0.761963 0.371839 0.746991
0.761963 0.371839 0.746991
0.246559 0.411711 0.707515
0.360583 0.443907 0.739588
0.466259 0.473745 0.769313
0.545042 0.476691 0.772247
0.600452 0.476691 0.772247
0.674710 0.476691 0.772247
0.748967 0.476691 0.772247
0.793123 0.482617 0.778151
0.793123 0.482617 0.778151
0.246559 0.491209 0.707515
0.360583 0.523405 0.739588
0.466259 0.553244 0.769313
0.571450 0.569724 0.798552
0.627987 0.570954 0.799782
0.702244 0.570954 0.799782
0.776502 0.570954 0.799782
0.820651 0.576851 0.805679
0.820651 0.576851 0.805679
0.246559 0.550220 0.707515
0.360583 0.582293 0.739588
0.466259 0.612018 0.769313
0.571936 0.641743 0.799038
0.650451 0.664951 0.822246
0.730420 0.670662 0.827957
0.804677 0.670662 0.827957
0.848826 0.676559 0.833854
0.848826 0.676559 0.833854
0.246559 0.628062 0.707515
0.360583 0.660135 0.739588
0.466259 0.689860 0.769313
0.571936 0.719585 0.799038
0.650451 0.742793 0.822246
0.753957 0.772042 0.851494
0.835338 0.779165 0.858617
0.879487 0.785062 0.864515
0.879487 0.785062 0.864515
0.246559 0.705905 0.707515
0.360583 0.737978 0.739588
0.466259 0.767703 0.769313
0.571936 0.797427 0.799038
0.650451 0.820636 0.822246
0.753957 0.849884 0.851494
0.857463 0.879132 0.880743
0.910147 0.893565 0.895175
0.910147 0.893565 0.895175
0.261795 0.761180 0.722691
0.375818 0.793253 0.754764
0.481495 0.822978 0.784489
0.587171 0.852702 0.814214
0.665611 0.875894 0.837405
0.769117 0.905142 0.866654
0.872623 0.934391 0.895902
0.920044 0.943560 0.905072
0.920044 0.943560 0.905072
0.261795 0.761180 0.722691
0.375818 0.793253 0.754764
0.481495 0.822978 0.784489
0.587171 0.852702 0.814214
0.665611 0.875894 0.837405
0.769117 0.905142 0.866654
0.872623 0.934391 0.895902
0.920044 0.943560 0.905072
0.920044 0.943560 0.905072
