docs/luts/fuji_recipes/Astia_VM_Astia_Fujipro_Color_Cast.cube
TITLE "Fujifilm Recipe: VM Astia Fujipro Color Cast (Astia)"
# FilmSim=Astia HL=-1 SH=-1 Col=-2 WB=Auto WBR=-2 WBB=-3
LUT_3D_SIZE 5
DOMAIN_MIN 0.0 0.0 0.0
DOMAIN_MAX 1.0 1.0 1.0
0.063040 0.063040 0.063040
0.282807 0.125141 0.125141
0.467980 0.178555 0.178555
0.675056 0.237344 0.237344
0.728391 0.252486 0.252486
0.128090 0.293241 0.128090
0.285755 0.293241 0.128090
0.467980 0.343707 0.178555
0.675056 0.402496 0.237344
0.728391 0.417637 0.252486
0.184295 0.488197 0.184295
0.341961 0.488197 0.184295
0.473697 0.488197 0.184295
0.675056 0.541041 0.237344
0.728391 0.556124 0.252486
0.245922 0.705270 0.245922
0.403587 0.705270 0.245922
0.535085 0.705270 0.245922
0.683600 0.705270 0.245922
0.728391 0.711809 0.252486
0.261795 0.761180 0.261795
0.419460 0.761180 0.261795
0.550897 0.761180 0.261795
0.699412 0.761180 0.261795
0.737664 0.761180 0.261795
0.123211 0.123211 0.275976
0.282807 0.125141 0.277906
0.467980 0.178555 0.331321
0.675056 0.237344 0.390109
0.728391 0.252486 0.405251
0.128090 0.293241 0.280855
0.345926 0.353412 0.341026
0.527857 0.403813 0.391427
0.734933 0.462602 0.450216
0.788268 0.477744 0.465357
0.184295 0.488197 0.337060
0.402067 0.548074 0.397167
0.533574 0.548074 0.397167
0.734933 0.600918 0.450216
0.788268 0.616001 0.465357
0.245922 0.705270 0.398687
0.463694 0.765147 0.458793
0.594962 0.765147 0.458793
0.743477 0.765147 0.458793
0.788268 0.771686 0.465357
0.261795 0.761180 0.414560
0.479567 0.821057 0.474666
0.610774 0.821057 0.474666
0.759289 0.821057 0.474666
0.797541 0.821057 0.474666
0.174872 0.174872 0.455006
0.332538 0.174872 0.455006
0.467980 0.178555 0.458675
0.675056 0.237344 0.517236
0.728391 0.252486 0.532319
0.174872 0.340024 0.455006
0.394572 0.402058 0.516804
0.532712 0.408687 0.523407
0.739788 0.467476 0.581968
0.793123 0.482617 0.597051
0.184295 0.488197 0.464392
0.403995 0.549995 0.526190
0.584831 0.599330 0.575526
0.786132 0.652116 0.628312
0.839450 0.667183 0.643378
0.245922 0.705270 0.525780
0.465622 0.767068 0.587578
0.646152 0.816336 0.636847
0.794667 0.816336 0.636847
0.839450 0.822868 0.643378
0.261795 0.761180 0.541592
0.481495 0.822978 0.603389
0.661946 0.872229 0.652641
0.810461 0.872229 0.652641
0.848713 0.872229 0.652641
0.231877 0.231877 0.655798
0.389543 0.231877 0.655798
0.521095 0.231877 0.655798
0.675056 0.237344 0.661244
0.728391 0.252486 0.676328
0.231877 0.397028 0.655798
0.451577 0.459063 0.717596
0.585827 0.462008 0.720530
0.739788 0.467476 0.725976
0.793123 0.482617 0.741059
0.231877 0.535595 0.655798
0.451577 0.597392 0.717596
0.635841 0.650341 0.770545
0.795508 0.661492 0.781696
0.848826 0.676559 0.796763
0.245922 0.705270 0.669789
0.465622 0.767068 0.731587
0.649817 0.820001 0.784520
0.851389 0.873058 0.837577
0.896172 0.879590 0.844109
0.261795 0.761180 0.685600
0.481495 0.822978 0.747398
0.665611 0.875894 0.800314
0.867183 0.928951 0.853371
0.905435 0.928951 0.853371
0.246559 0.246559 0.707515
0.404225 0.246559 0.707515
0.535720 0.246559 0.707515
0.684235 0.246559 0.707515
0.728391 0.252486 0.713419
0.246559 0.411711 0.707515
0.466259 0.473745 0.769313
0.600452 0.476691 0.772247
0.748967 0.476691 0.772247
0.793123 0.482617 0.778151
0.246559 0.550220 0.707515
0.466259 0.612018 0.769313
0.650451 0.664951 0.822246
0.804677 0.670662 0.827957
0.848826 0.676559 0.833854
0.246559 0.705905 0.707515
0.466259 0.767703 0.769313
0.650451 0.820636 0.822246
0.857463 0.879132 0.880743
0.910147 0.893565 0.895175
0.261795 0.761180 0.722691
0.481495 0.822978 0.784489
0.665611 0.875894 0.837405
0.872623 0.934391 0.895902
0.920044 0.943560 0.905072
