docs/luts/fuji_recipes/Astia_VM_P160.cube
TITLE "Fujifilm Recipe: VM P160 (Astia)"
# FilmSim=Astia HL=-2 SH=-1 Col=-3 WB=Auto WBR=6 WBB=-3
LUT_3D_SIZE 5
DOMAIN_MIN 0.0 0.0 0.0
DOMAIN_MAX 1.0 1.0 1.0
0.063040 0.063040 0.063040
0.275946 0.153843 0.153843
0.456038 0.231807 0.231807
0.647662 0.314494 0.314494
0.672239 0.325099 0.325099
0.141617 0.247280 0.141617
0.275946 0.259506 0.153843
0.456038 0.337470 0.231807
0.647662 0.420156 0.314494
0.672239 0.430762 0.325099
0.209360 0.404018 0.209360
0.331463 0.404018 0.209360
0.456038 0.426270 0.231807
0.647662 0.508238 0.314494
0.672239 0.518751 0.325099
0.280964 0.569958 0.280964
0.403067 0.569958 0.280964
0.504768 0.569958 0.280964
0.647662 0.603196 0.314494
0.672239 0.613710 0.325099
0.325099 0.672239 0.325099
0.447202 0.672239 0.325099
0.548519 0.672239 0.325099
0.658175 0.672239 0.325099
0.672239 0.672239 0.325099
0.135724 0.135724 0.233462
0.275946 0.153843 0.251581
0.456038 0.231807 0.329545
0.647662 0.314494 0.412232
0.672239 0.325099 0.422837
0.141617 0.247280 0.239355
0.348630 0.332189 0.324265
0.527789 0.409809 0.401884
0.719413 0.492495 0.484571
0.743991 0.503101 0.495176
0.209360 0.404018 0.307098
0.403802 0.475770 0.379437
0.527789 0.498022 0.401884
0.719413 0.579990 0.484571
0.743991 0.590503 0.495176
0.280964 0.569958 0.378702
0.475406 0.641710 0.451041
0.576520 0.641710 0.451041
0.719413 0.674948 0.484571
0.743991 0.685462 0.495176
0.325099 0.672239 0.422837
0.519541 0.743991 0.495176
0.620271 0.743991 0.495176
0.729927 0.743991 0.495176
0.743991 0.743991 0.495176
0.203538 0.203538 0.392466
0.325641 0.203538 0.392466
0.456038 0.231807 0.420735
0.647662 0.314494 0.493852
0.672239 0.325099 0.504365
0.203538 0.309201 0.392466
0.404218 0.387777 0.471043
0.533607 0.415674 0.489453
0.725231 0.498361 0.571421
0.749809 0.508966 0.581935
0.209360 0.404018 0.398288
0.421836 0.493657 0.479271
0.588873 0.559105 0.544719
0.780075 0.640652 0.626265
0.804599 0.651111 0.636725
0.280964 0.569958 0.460614
0.493440 0.659597 0.550253
0.637352 0.702543 0.593198
0.780075 0.735610 0.626265
0.804599 0.746069 0.636725
0.325099 0.672239 0.504365
0.537574 0.761878 0.594004
0.680879 0.804599 0.636725
0.790534 0.804599 0.636725
0.804599 0.804599 0.636725
0.264746 0.264746 0.532373
0.386849 0.264746 0.532373
0.488690 0.264746 0.532373
0.647662 0.314494 0.581688
0.672239 0.325099 0.592202
0.264746 0.370409 0.532373
0.465053 0.448613 0.609943
0.566260 0.448613 0.609943
0.725231 0.498361 0.659258
0.749809 0.508966 0.669771
0.264746 0.458923 0.532373
0.477221 0.548562 0.622012
0.632056 0.602288 0.675739
0.790774 0.651350 0.724800
0.815297 0.661809 0.735260
0.280964 0.569958 0.548450
0.493440 0.659597 0.638089
0.670188 0.735378 0.713870
0.845395 0.800930 0.779422
0.869919 0.811389 0.789881
0.325099 0.672239 0.592202
0.537574 0.761878 0.681841
0.713714 0.837434 0.757397
0.855855 0.869919 0.789881
0.869919 0.869919 0.789881
0.305571 0.305571 0.626983
0.427674 0.305571 0.626983
0.529160 0.305571 0.626983
0.647662 0.314494 0.635828
0.672239 0.325099 0.646342
0.305571 0.411233 0.626983
0.505878 0.489438 0.704553
0.606730 0.489438 0.704553
0.725231 0.498361 0.713398
0.749809 0.508966 0.723911
0.305571 0.499393 0.626983
0.518046 0.589031 0.716622
0.672318 0.642550 0.770140
0.790774 0.651350 0.778940
0.815297 0.661809 0.789400
0.305571 0.594351 0.626983
0.518046 0.683990 0.716622
0.694455 0.759645 0.792277
0.861390 0.816925 0.849557
0.885914 0.827384 0.860016
0.325099 0.672239 0.646342
0.537574 0.761878 0.735981
0.713714 0.837434 0.811537
0.896116 0.910181 0.884283
0.910181 0.910181 0.884283
