docs/luts/fuji_recipes/Astia_PS_Kodak_Ektar_100.cube
TITLE "Fujifilm Recipe: PS Kodak Ektar 100 (Astia)"
# FilmSim=Astia HL=0 SH=1 Col=3 WB=5900K WBR=-1 WBB=3
LUT_3D_SIZE 5
DOMAIN_MIN 0.0 0.0 0.0
DOMAIN_MAX 1.0 1.0 1.0
0.023040 0.023040 0.023040
0.279749 0.000000 0.000000
0.512235 0.000000 0.000000
0.761456 0.000000 0.000000
0.988438 0.000000 0.000000
0.000000 0.280320 0.000000
0.279637 0.280320 0.000000
0.512235 0.257395 0.000000
0.761456 0.247939 0.000000
0.988438 0.244336 0.000000
0.000000 0.514284 0.000000
0.256667 0.514284 0.000000
0.512033 0.514284 0.000000
0.761456 0.495585 0.000000
0.988438 0.512717 0.000000
0.000000 0.765226 0.000000
0.247257 0.765226 0.000000
0.493261 0.765226 0.000000
0.761227 0.765226 0.000000
0.988438 0.755017 0.000000
0.008611 1.000000 0.008611
0.247956 1.000000 0.008611
0.509956 1.000000 0.008611
0.746202 1.000000 0.008611
0.979285 1.000000 0.008611
0.000000 0.000000 0.293428
0.277201 0.000000 0.293428
0.512235 0.000000 0.271798
0.761456 0.000000 0.261813
0.988438 0.000000 0.258008
0.000000 0.277878 0.293428
0.254343 0.255111 0.272754
0.529311 0.217163 0.234806
0.825122 0.171189 0.188832
1.000000 0.223293 0.237551
0.000000 0.514284 0.271691
0.216139 0.531813 0.234550
0.526690 0.529447 0.232184
0.822898 0.515334 0.186555
1.000000 0.503225 0.236435
0.000000 0.765226 0.261730
0.169855 0.829654 0.188265
0.511810 0.827333 0.185889
0.822247 0.827333 0.185889
1.000000 0.756248 0.236435
0.008611 1.000000 0.261967
0.242893 1.000000 0.256985
0.506906 1.000000 0.256608
0.744623 1.000000 0.256608
0.979156 1.000000 0.256608
0.000000 0.000000 0.530059
0.255917 0.000000 0.530059
0.510538 0.000000 0.530059
0.761456 0.000000 0.536978
0.988438 0.000000 0.529858
0.000000 0.256542 0.530059
0.207884 0.208652 0.576313
0.520701 0.208553 0.576217
0.825122 0.171189 0.539676
1.000000 0.223293 0.521798
0.000000 0.512781 0.530059
0.207884 0.523558 0.576313
0.506366 0.509239 0.531357
0.779749 0.472184 0.494303
1.000000 0.479489 0.498244
0.000000 0.765226 0.536819
0.169855 0.829654 0.539122
0.469027 0.784550 0.494018
0.776253 0.781339 0.490807
1.000000 0.743419 0.495922
0.008611 1.000000 0.528975
0.242893 1.000000 0.526256
0.497578 1.000000 0.517077
0.739290 1.000000 0.516145
0.978721 1.000000 0.516145
0.000000 0.000000 0.807755
0.246428 0.000000 0.807755
0.491607 0.000000 0.807755
0.758805 0.000000 0.807755
0.988438 0.000000 0.799491
0.000000 0.247030 0.807755
0.162343 0.163111 0.879695
0.506688 0.163012 0.879598
0.817125 0.163012 0.879598
1.000000 0.223293 0.802968
0.000000 0.493768 0.807755
0.162343 0.509657 0.879695
0.461652 0.464525 0.834562
0.771720 0.464156 0.834193
1.000000 0.479489 0.793263
0.000000 0.762790 0.807755
0.162343 0.822307 0.879695
0.461652 0.777175 0.834562
0.732192 0.737278 0.794666
1.000000 0.711777 0.766693
0.008611 1.000000 0.793745
0.242893 1.000000 0.792555
0.497578 1.000000 0.788535
0.728221 1.000000 0.779133
0.977366 1.000000 0.774637
0.008611 0.008611 1.000000
0.247956 0.008611 1.000000
0.509956 0.008611 1.000000
0.746202 0.008611 1.000000
0.979285 0.008611 1.000000
0.008611 0.248541 1.000000
0.242893 0.243481 1.000000
0.507119 0.243466 1.000000
0.744733 0.243466 1.000000
0.979165 0.243466 1.000000
0.008611 0.512142 1.000000
0.242893 0.509327 1.000000
0.497578 0.499819 1.000000
0.739736 0.499712 1.000000
0.978757 0.499712 1.000000
0.008611 0.750073 1.000000
0.242893 0.748631 1.000000
0.497578 0.743760 1.000000
0.728221 0.732366 1.000000
0.977787 0.732000 1.000000
0.008611 1.000000 1.000000
0.242893 1.000000 1.000000
0.497578 1.000000 1.000000
0.728221 1.000000 1.000000
0.964278 0.991498 0.991498
