docs/luts/fuji_recipes/Astia_RR_Redscale.cube
TITLE "Fujifilm Recipe: RR Redscale (Astia)"
# FilmSim=Astia HL=1 SH=2 Col=-2 WB=10000K WBR=9 WBB=0
LUT_3D_SIZE 9
DOMAIN_MIN 0.0 0.0 0.0
DOMAIN_MAX 1.0 1.0 1.0
0.022080 0.022080 0.022080
0.142441 0.048526 0.048526
0.256596 0.074601 0.074601
0.362506 0.098869 0.098869
0.521102 0.132301 0.132301
0.649673 0.160856 0.160856
0.763311 0.170282 0.170282
0.763311 0.170282 0.170282
0.763311 0.170282 0.170282
0.040277 0.106077 0.040277
0.142441 0.113902 0.048526
0.256596 0.139397 0.074601
0.362506 0.163446 0.098869
0.521102 0.196640 0.132301
0.649673 0.225114 0.160856
0.763311 0.237427 0.170282
0.763311 0.237427 0.170282
0.763311 0.237427 0.170282
0.059217 0.189333 0.059217
0.152675 0.189333 0.059217
0.256596 0.204194 0.074601
0.362506 0.228022 0.098869
0.521102 0.260979 0.132301
0.649673 0.289373 0.160856
0.763311 0.304572 0.170282
0.763311 0.304572 0.170282
0.763311 0.304572 0.170282
0.078243 0.272502 0.078243
0.171263 0.272502 0.078243
0.260116 0.272502 0.078243
0.362506 0.292599 0.098869
0.521102 0.325318 0.132301
0.649673 0.353631 0.160856
0.763311 0.371717 0.170282
0.763311 0.371717 0.170282
0.763311 0.371717 0.170282
0.097251 0.355447 0.097251
0.190033 0.355447 0.097251
0.278658 0.355447 0.097251
0.362506 0.357023 0.098869
0.521102 0.389506 0.132301
0.649673 0.444154 0.160856
0.763311 0.466985 0.170282
0.763311 0.466985 0.170282
0.763311 0.466985 0.170282
0.120794 0.469275 0.120794
0.213284 0.469275 0.120794
0.301631 0.469275 0.120794
0.383644 0.469275 0.120794
0.521102 0.480874 0.132301
0.649673 0.509821 0.160856
0.763311 0.535601 0.170282
0.763311 0.535601 0.170282
0.763311 0.535601 0.170282
0.141600 0.562977 0.141600
0.233982 0.562977 0.141600
0.322226 0.562977 0.141600
0.430734 0.562977 0.141600
0.530488 0.562977 0.141600
0.649673 0.582460 0.160856
0.763311 0.611505 0.170282
0.763311 0.611505 0.170282
0.763311 0.611505 0.170282
0.162411 0.656674 0.162411
0.254715 0.656674 0.162411
0.342885 0.656674 0.162411
0.451906 0.656674 0.162411
0.551576 0.656674 0.162411
0.651246 0.656674 0.162411
0.763311 0.687408 0.170282
0.763311 0.687408 0.170282
0.763311 0.687408 0.170282
0.170282 0.763311 0.170282
0.266738 0.763311 0.170282
0.358873 0.763311 0.170282
0.473430 0.763311 0.170282
0.577583 0.763311 0.170282
0.681736 0.763311 0.170282
0.763311 0.763311 0.170282
0.763311 0.763311 0.170282
0.763311 0.763311 0.170282
0.037107 0.037107 0.092015
0.142441 0.048526 0.102877
0.256596 0.074601 0.128470
0.362506 0.098869 0.152556
0.521102 0.132301 0.185790
0.649673 0.160856 0.214278
0.763311 0.170282 0.226104
0.763311 0.170282 0.226104
0.763311 0.170282 0.226104
0.040277 0.106077 0.094981
0.167159 0.137088 0.125472
0.282901 0.161298 0.149960
0.389559 0.184688 0.173481
0.549479 0.217364 0.206276
0.678371 0.245544 0.234510
0.825172 0.223710 0.210772
0.825172 0.223710 0.210772
0.825172 0.223710 0.210772
0.059217 0.189333 0.113304
0.176526 0.214861 0.135352
0.282901 0.228529 0.149960
0.389559 0.251150 0.173481
0.549479 0.283119 0.206276
0.678371 0.310977 0.234510
0.825172 0.300428 0.210772
0.825172 0.300428 0.210772
0.825172 0.300428 0.210772
0.078243 0.272502 0.132076
0.194060 0.298947 0.153462
0.286115 0.298947 0.153462
0.389559 0.317611 0.173481
0.549479 0.348874 0.206276
0.678371 0.376409 0.234510
0.825172 0.377146 0.210772
0.825172 0.377146 0.210772
0.825172 0.377146 0.210772
0.097251 0.355447 0.150947
0.212145 0.382461 0.171901
0.303397 0.382461 0.171901
0.389559 0.383915 0.173481
0.549479 0.414473 0.206276
0.678371 0.469097 0.234510
0.825172 0.486597 0.210772
0.825172 0.486597 0.210772
0.825172 0.486597 0.210772
0.120794 0.469275 0.174320
0.234837 0.497481 0.194940
0.325302 0.497481 0.194940
0.436437 0.497481 0.194940
0.549479 0.508366 0.206276
0.678371 0.535963 0.234510
0.825172 0.564997 0.210772
0.825172 0.564997 0.210772
0.825172 0.564997 0.210772
0.141600 0.562977 0.195064
0.255177 0.591472 0.215457
0.345242 0.591472 0.215457
0.456502 0.591472 0.215457
0.558313 0.591472 0.215457
0.678371 0.609930 0.234510
0.825172 0.651722 0.210772
0.825172 0.651722 0.210772
0.825172 0.651722 0.210772
0.162411 0.656674 0.215830
0.275640 0.685386 0.236051
0.365406 0.685386 0.236051
0.476912 0.685386 0.236051
0.578386 0.685386 0.236051
0.679860 0.685386 0.236051
0.825172 0.738447 0.210772
0.825172 0.738447 0.210772
0.825172 0.738447 0.210772
0.170282 0.763311 0.226104
0.257200 0.825172 0.210772
0.362472 0.825172 0.210772
0.493961 0.825172 0.210772
0.612964 0.825172 0.210772
0.731967 0.825172 0.210772
0.825172 0.825172 0.210772
0.825172 0.825172 0.210772
0.825172 0.825172 0.210772
0.053791 0.053791 0.165558
0.147450 0.053791 0.165558
0.256596 0.074601 0.185679
0.362506 0.098869 0.209570
0.521102 0.132301 0.242595
0.649673 0.160856 0.271012
0.763311 0.170282 0.285386
0.763311 0.170282 0.285386
0.763311 0.170282 0.285386
0.053791 0.118989 0.165558
0.176286 0.146221 0.195413
0.287883 0.165599 0.213889
0.394747 0.188913 0.236607
0.554993 0.221522 0.268666
0.684030 0.249611 0.296508
0.829164 0.227542 0.282342
0.829164 0.227542 0.282342
0.829164 0.227542 0.282342
0.059217 0.189333 0.170743
0.197251 0.232626 0.214687
0.308126 0.252392 0.232700
0.447715 0.278938 0.259610
0.577641 0.305937 0.286810
0.731952 0.311014 0.289625
0.846071 0.320499 0.298570
0.846071 0.320499 0.298570
0.846071 0.320499 0.298570
0.078243 0.272502 0.189246
0.209830 0.316582 0.228793
0.311226 0.324373 0.236001
0.447715 0.346583 0.259610
0.577641 0.372874 0.286810
0.731952 0.385872 0.289625
0.846071 0.397245 0.298570
0.846071 0.397245 0.298570
0.846071 0.397245 0.298570
0.097251 0.355447 0.207970
0.227680 0.400685 0.246441
0.327954 0.408756 0.253571
0.447715 0.414069 0.259610
0.577641 0.467385 0.286810
0.731952 0.492533 0.289625
0.846071 0.507373 0.298570
0.846071 0.507373 0.298570
0.846071 0.507373 0.298570
0.120794 0.469275 0.231165
0.250164 0.516762 0.268723
0.349312 0.525339 0.275778
0.463128 0.525339 0.275778
0.577641 0.535789 0.286810
0.731952 0.569031 0.289625
0.846071 0.585801 0.298570
0.846071 0.585801 0.298570
0.846071 0.585801 0.298570
0.141600 0.562977 0.251842
0.270337 0.611096 0.288787
0.368843 0.619850 0.295775
0.482565 0.619850 0.295775
0.586122 0.619850 0.295775
0.731952 0.653653 0.289625
0.846071 0.672558 0.298570
0.846071 0.672558 0.298570
0.846071 0.672558 0.298570
0.162411 0.656674 0.272561
0.264708 0.731233 0.285376
0.372428 0.739757 0.290376
0.500840 0.739757 0.290376
0.617132 0.739757 0.290376
0.733425 0.739757 0.290376
0.846071 0.759314 0.298570
0.846071 0.759314 0.298570
0.846071 0.759314 0.298570
0.170282 0.763311 0.285386
0.270952 0.839497 0.292264
0.382565 0.846071 0.298570
0.514739 0.846071 0.298570
0.633786 0.846071 0.298570
0.752832 0.846071 0.298570
0.846071 0.846071 0.298570
0.846071 0.846071 0.298570
0.846071 0.846071 0.298570
0.070574 0.070574 0.239002
0.163735 0.070574 0.239002
0.256596 0.074601 0.242887
0.362506 0.098869 0.266585
0.521102 0.132301 0.299400
0.649673 0.160856 0.327745
0.763311 0.170282 0.344668
0.763311 0.170282 0.344668
0.763311 0.170282 0.344668
0.070574 0.135425 0.239002
0.191385 0.161789 0.270072
0.287883 0.165599 0.273579
0.394747 0.188913 0.295562
0.554993 0.221522 0.326939
0.684030 0.249611 0.354477
0.829164 0.227542 0.350081
0.829164 0.227542 0.350081
0.829164 0.227542 0.350081
0.070574 0.200276 0.239002
0.202774 0.241465 0.282470
0.317332 0.266559 0.304050
0.456197 0.286306 0.326924
0.586424 0.313205 0.353373
0.738779 0.317976 0.362642
0.852835 0.326984 0.372820
0.852835 0.326984 0.372820
0.852835 0.326984 0.372820
0.078243 0.272502 0.246416
0.209830 0.316582 0.289076
0.336829 0.348838 0.323547
0.473492 0.370206 0.342529
0.606263 0.394672 0.366884
0.753061 0.407287 0.377212
0.866971 0.417297 0.386366
0.866971 0.417297 0.386366
0.866971 0.417297 0.386366
0.097251 0.355447 0.264994
0.227680 0.400685 0.306081
0.355485 0.465362 0.340936
0.473492 0.466897 0.342529
0.606263 0.492642 0.366884
0.753061 0.514283 0.377212
0.866971 0.528114 0.386366
0.866971 0.528114 0.386366
0.866971 0.528114 0.386366
0.120794 0.469275 0.288009
0.250164 0.516762 0.327722
0.372523 0.551714 0.358099
0.488585 0.551714 0.358099
0.606263 0.563134 0.366884
0.753061 0.590576 0.377212
0.866971 0.606579 0.386366
0.866971 0.606579 0.386366
0.866971 0.606579 0.386366
0.141600 0.562977 0.308620
0.270337 0.611096 0.347441
0.381777 0.658056 0.366265
0.507282 0.658056 0.366265
0.621014 0.658056 0.366265
0.753061 0.674972 0.377212
0.866971 0.693376 0.386366
0.866971 0.693376 0.386366
0.866971 0.693376 0.386366
0.162411 0.656674 0.329291
0.264708 0.731233 0.351076
0.393812 0.760837 0.377991
0.522522 0.760837 0.377991
0.638521 0.760837 0.377991
0.754521 0.760837 0.377991
0.866971 0.780173 0.386366
0.866971 0.780173 0.386366
0.866971 0.780173 0.386366
0.170282 0.763311 0.344668
0.270952 0.839497 0.360014
0.402610 0.866971 0.386366
0.535484 0.866971 0.386366
0.654586 0.866971 0.386366
0.773688 0.866971 0.386366
0.866971 0.866971 0.386366
0.866971 0.866971 0.386366
0.866971 0.866971 0.386366
0.087387 0.087387 0.312416
0.180277 0.087387 0.312416
0.269006 0.087387 0.312416
0.362506 0.098869 0.323599
0.521102 0.132301 0.356205
0.649673 0.160856 0.384478
0.763311 0.170282 0.403950
0.763311 0.170282 0.403950
0.763311 0.170282 0.403950
0.087387 0.152050 0.312416
0.207119 0.177821 0.344267
0.299212 0.177821 0.344267
0.394747 0.188913 0.354516
0.554993 0.221522 0.385212
0.684030 0.249611 0.412445
0.829164 0.227542 0.417819
0.829164 0.227542 0.417819
0.829164 0.227542 0.417819
0.087387 0.216712 0.312416
0.218363 0.256619 0.357107
0.326908 0.271324 0.373049
0.456197 0.286306 0.386977
0.586424 0.313205 0.412762
0.738779 0.317976 0.428681
0.852835 0.326984 0.440588
0.852835 0.326984 0.440588
0.852835 0.326984 0.440588
0.087387 0.281375 0.312416
0.218363 0.324514 0.357107
0.353932 0.365941 0.396080
0.484885 0.380731 0.413906
0.622869 0.399873 0.434729
0.762711 0.417157 0.452944
0.876507 0.426424 0.463294
0.876507 0.426424 0.463294
0.876507 0.426424 0.463294
0.097251 0.355447 0.322018
0.227680 0.400685 0.365721
0.360991 0.471354 0.407302
0.499922 0.493896 0.435157
0.634847 0.515640 0.446995
0.774229 0.536269 0.464739
0.887872 0.548802 0.474160
0.887872 0.548802 0.474160
0.887872 0.548802 0.474160
0.120794 0.469275 0.344853
0.250164 0.516762 0.386721
0.377994 0.557865 0.423904
0.513322 0.579766 0.438743
0.634847 0.589598 0.446995
0.774229 0.612301 0.464739
0.887872 0.627316 0.474160
0.887872 0.627316 0.474160
0.887872 0.627316 0.474160
0.141600 0.562977 0.365398
0.270337 0.611096 0.406094
0.387129 0.663238 0.436295
0.529758 0.679751 0.453266
0.642901 0.679751 0.453266
0.774229 0.696407 0.464739
0.887872 0.714168 0.474160
0.887872 0.714168 0.474160
0.887872 0.714168 0.474160
0.162411 0.656674 0.386021
0.264708 0.731233 0.416777
0.398979 0.765896 0.449147
0.544425 0.781970 0.465554
0.660050 0.781970 0.465554
0.775674 0.781970 0.465554
0.887872 0.801020 0.474160
0.887872 0.801020 0.474160
0.887872 0.801020 0.474160
0.170282 0.763311 0.403950
0.270952 0.839497 0.427765
0.407404 0.871979 0.458957
0.556176 0.887872 0.474160
0.675354 0.887872 0.474160
0.794531 0.887872 0.474160
0.887872 0.887872 0.474160
0.887872 0.887872 0.474160
0.887872 0.887872 0.474160
0.107543 0.107543 0.409579
0.200126 0.107543 0.409579
0.288563 0.107543 0.409579
0.370660 0.107543 0.409579
0.521102 0.132301 0.434541
0.649673 0.160856 0.463545
0.763311 0.170282 0.487247
0.763311 0.170282 0.487247
0.763311 0.170282 0.487247
0.107543 0.171992 0.409579
0.226314 0.197301 0.442934
0.317513 0.197301 0.442934
0.402175 0.197301 0.442934
0.554993 0.221522 0.466194
0.684030 0.249611 0.493850
0.829164 0.227542 0.513720
0.829164 0.227542 0.513720
0.829164 0.227542 0.513720
0.107543 0.236441 0.409579
0.237429 0.275263 0.456548
0.344744 0.289833 0.473515
0.459543 0.289833 0.473515
0.586424 0.313205 0.495926
0.738779 0.317976 0.522123
0.852835 0.326984 0.537253
0.852835 0.326984 0.537253
0.852835 0.326984 0.537253
0.107543 0.300891 0.409579
0.237429 0.342408 0.456548
0.365963 0.379121 0.496949
0.488170 0.384096 0.502364
0.622869 0.399873 0.525182
0.762711 0.417157 0.546776
0.876507 0.426424 0.560738
0.876507 0.426424 0.560738
0.876507 0.426424 0.560738
0.107543 0.365188 0.409579
0.237429 0.409394 0.456548
0.365963 0.476190 0.496949
0.525669 0.519643 0.538588
0.655468 0.537223 0.558886
0.793912 0.557301 0.579625
0.907167 0.568202 0.591380
0.907167 0.568202 0.591380
0.907167 0.568202 0.591380
0.120794 0.469275 0.422909
0.250164 0.516762 0.468638
0.377994 0.557865 0.508617
0.545851 0.603983 0.558770
0.662942 0.618193 0.566650
0.800979 0.640301 0.587135
0.914059 0.653534 0.598211
0.914059 0.653534 0.598211
0.914059 0.653534 0.598211
0.141600 0.562977 0.443968
0.270337 0.611096 0.488156
0.387129 0.663238 0.527707
0.553666 0.702391 0.568549
0.670934 0.707401 0.573820
0.800979 0.723758 0.587135
0.914059 0.740376 0.598211
0.914059 0.740376 0.598211
0.914059 0.740376 0.598211
0.162411 0.656674 0.465129
0.264708 0.731233 0.509399
0.398979 0.765896 0.543125
0.567735 0.803847 0.582981
0.687635 0.808654 0.588091
0.802405 0.808654 0.588091
0.914059 0.827218 0.598211
0.914059 0.827218 0.598211
0.914059 0.827218 0.598211
0.170282 0.763311 0.487247
0.270952 0.839497 0.523997
0.407404 0.871979 0.556250
0.577747 0.909359 0.593554
0.701566 0.914059 0.598211
0.820729 0.914059 0.598211
0.914059 0.914059 0.598211
0.914059 0.914059 0.598211
0.914059 0.914059 0.598211
0.125908 0.125908 0.492311
0.218368 0.125908 0.492311
0.306686 0.125908 0.492311
0.388673 0.125908 0.492311
0.521102 0.132301 0.498755
0.649673 0.160856 0.527678
0.763311 0.170282 0.554262
0.763311 0.170282 0.554262
0.763311 0.170282 0.554262
0.125908 0.190271 0.492311
0.244106 0.215249 0.526084
0.334814 0.215249 0.526084
0.446505 0.215249 0.526084
0.554993 0.221522 0.532069
0.684030 0.249611 0.559380
0.829164 0.227542 0.590294
0.829164 0.227542 0.590294
0.829164 0.227542 0.590294
0.125908 0.254634 0.492311
0.255105 0.292698 0.539971
0.361641 0.307126 0.557320
0.476170 0.307126 0.557320
0.586424 0.313205 0.563061
0.738779 0.317976 0.596775
0.852835 0.326984 0.613860
0.852835 0.326984 0.613860
0.852835 0.326984 0.613860
0.125908 0.318997 0.492311
0.255105 0.359415 0.539971
0.382691 0.395745 0.581320
0.504822 0.397877 0.589682
0.622869 0.399873 0.597649
0.762711 0.417157 0.621180
0.876507 0.426424 0.637391
0.876507 0.426424 0.637391
0.876507 0.426424 0.637391
0.125908 0.383208 0.492311
0.255105 0.453250 0.539971
0.382691 0.492611 0.581320
0.550350 0.544323 0.625929
0.655468 0.537223 0.630534
0.793912 0.557301 0.653461
0.907167 0.568202 0.668037
0.907167 0.568202 0.668037
0.907167 0.568202 0.668037
0.125908 0.474425 0.492311
0.255105 0.521430 0.539971
0.382691 0.562353 0.581320
0.552723 0.610855 0.628303
0.681595 0.642341 0.659789
0.817940 0.658237 0.678630
0.930509 0.669825 0.691187
0.930509 0.669825 0.691187
0.930509 0.669825 0.691187
0.141600 0.562977 0.508152
0.270337 0.611096 0.554460
0.387129 0.663238 0.600802
0.553666 0.702391 0.640733
0.700961 0.732678 0.679154
0.824532 0.748004 0.685629
0.936858 0.763013 0.697460
0.936858 0.763013 0.697460
0.936858 0.763013 0.697460
0.162411 0.656674 0.529259
0.264708 0.731233 0.583670
0.398979 0.765896 0.617709
0.567735 0.803847 0.656928
0.712146 0.832125 0.686669
0.825929 0.832125 0.686669
0.936858 0.849935 0.697460
0.936858 0.849935 0.697460
0.936858 0.849935 0.697460
0.170282 0.763311 0.554262
0.270952 0.839497 0.600585
0.407404 0.871979 0.632893
0.577747 0.909359 0.670215
0.724167 0.936858 0.697460
0.843441 0.936858 0.697460
0.936858 0.936858 0.697460
0.936858 0.936858 0.697460
0.936858 0.936858 0.697460
0.144279 0.144279 0.575039
0.236650 0.144279 0.575039
0.324883 0.144279 0.575039
0.433455 0.144279 0.575039
0.533197 0.144279 0.575039
0.649673 0.160856 0.591812
0.763311 0.170282 0.621276
0.763311 0.170282 0.621276
0.763311 0.170282 0.621276
0.144279 0.208580 0.575039
0.262044 0.233305 0.609126
0.352382 0.233305 0.609126
0.464165 0.233305 0.609126
0.566286 0.233305 0.609126
0.684030 0.249611 0.624910
0.829164 0.227542 0.666868
0.829164 0.227542 0.666868
0.829164 0.227542 0.666868
0.144279 0.272881 0.575039
0.272947 0.310355 0.623228
0.376141 0.320514 0.645030
0.493576 0.320514 0.645030
0.600271 0.320514 0.645030
0.738779 0.317976 0.671427
0.852835 0.326984 0.690468
0.852835 0.326984 0.690468
0.852835 0.326984 0.690468
0.144279 0.337182 0.575039
0.272947 0.376745 0.623228
0.388796 0.402837 0.676313
0.519527 0.407668 0.680990
0.633273 0.407668 0.680990
0.762711 0.417157 0.695584
0.876507 0.426424 0.714044
0.876507 0.426424 0.714044
0.876507 0.426424 0.714044
0.144279 0.401331 0.575039
0.272947 0.470671 0.623228
0.388796 0.507635 0.676313
0.553175 0.546208 0.712983
0.665755 0.546208 0.712983
0.793912 0.557301 0.727297
0.907167 0.568202 0.744694
0.907167 0.568202 0.744694
0.907167 0.568202 0.744694
0.144279 0.492993 0.575039
0.272947 0.538516 0.623228
0.388796 0.582649 0.676313
0.555628 0.622773 0.715301
0.691163 0.646264 0.737892
0.817940 0.658237 0.751866
0.930509 0.669825 0.767906
0.930509 0.669825 0.767906
0.930509 0.669825 0.767906
0.144279 0.565681 0.575039
0.272947 0.613566 0.623228
0.388796 0.665630 0.676313
0.555628 0.704748 0.715301
0.713148 0.744866 0.754002
0.845011 0.769402 0.779921
0.956335 0.782234 0.793441
0.956335 0.782234 0.793441
0.956335 0.782234 0.793441
0.162411 0.656674 0.593389
0.264708 0.731233 0.657940
0.398979 0.765896 0.692294
0.567735 0.803847 0.730874
0.720890 0.840377 0.768427
0.849921 0.856029 0.784812
0.959660 0.872577 0.796705
0.959660 0.872577 0.796705
0.959660 0.872577 0.796705
0.170282 0.763311 0.621276
0.270952 0.839497 0.677172
0.407404 0.871979 0.709537
0.577747 0.909359 0.746877
0.731999 0.944792 0.782059
0.866070 0.959660 0.796705
0.959660 0.959660 0.796705
0.959660 0.959660 0.796705
0.959660 0.959660 0.796705
0.162653 0.162653 0.657763
0.254957 0.162653 0.657763
0.343126 0.162653 0.657763
0.452153 0.162653 0.657763
0.551822 0.162653 0.657763
0.651491 0.162653 0.657763
0.763311 0.170282 0.688290
0.763311 0.170282 0.688290
0.763311 0.170282 0.688290
0.162653 0.226907 0.657763
0.275824 0.246540 0.696990
0.367873 0.246540 0.696990
0.482330 0.246540 0.696990
0.586386 0.246540 0.696990
0.690442 0.246540 0.696990
0.829164 0.227542 0.743442
0.829164 0.227542 0.743442
0.829164 0.227542 0.743442
0.162653 0.291162 0.657763
0.264204 0.306255 0.733069
0.379453 0.318853 0.747790
0.508009 0.318853 0.747790
0.624242 0.318853 0.747790
0.740475 0.318853 0.747790
0.852835 0.326984 0.767075
0.852835 0.326984 0.767075
0.852835 0.326984 0.767075
0.162653 0.355416 0.657763
0.264204 0.380886 0.733069
0.399100 0.413398 0.767107
0.532645 0.418074 0.771682
0.648517 0.418074 0.771682
0.764390 0.418074 0.771682
0.876507 0.426424 0.790697
0.876507 0.426424 0.790697
0.876507 0.426424 0.790697
0.162653 0.445986 0.657763
0.264204 0.487091 0.733069
0.399100 0.520736 0.767107
0.565499 0.558381 0.802807
0.680534 0.558381 0.802807
0.795568 0.558381 0.802807
0.907167 0.568202 0.821352
0.907167 0.568202 0.821352
0.907167 0.568202 0.821352
0.162653 0.511648 0.657763
0.264204 0.563357 0.733069
0.399100 0.597124 0.767107
0.567880 0.636505 0.805046
0.705416 0.659406 0.826746
0.819563 0.659406 0.826746
0.930509 0.669825 0.844625
0.930509 0.669825 0.844625
0.930509 0.669825 0.844625
0.162653 0.584283 0.657763
0.264204 0.647722 0.733069
0.399100 0.681624 0.767107
0.567880 0.720288 0.805046
0.721055 0.757977 0.841555
0.846589 0.770719 0.853669
0.956335 0.782234 0.870297
0.956335 0.782234 0.870297
0.956335 0.782234 0.870297
0.162653 0.656919 0.657763
0.264204 0.732088 0.733069
0.399100 0.766124 0.767107
0.567880 0.804071 0.805046
0.721055 0.840594 0.841555
0.873574 0.878876 0.879702
0.982182 0.894623 0.895641
0.982182 0.894623 0.895641
0.982182 0.894623 0.895641
0.170282 0.763311 0.688290
0.270952 0.839497 0.753760
0.407404 0.871979 0.786180
0.577747 0.909359 0.823539
0.731999 0.944792 0.858839
0.886228 0.980248 0.893782
0.982483 0.982483 0.895930
0.982483 0.982483 0.895930
0.982483 0.982483 0.895930
