docs/luts/fuji_recipes/BG_NZD_Ilford_HP-5.cube
TITLE "Fujifilm Recipe: NZD Ilford HP-5 (BG)"
# FilmSim=BG HL=2 SH=1 Col=0 WB=Auto WBR=0 WBB=0
LUT_3D_SIZE 9
DOMAIN_MIN 0.0 0.0 0.0
DOMAIN_MAX 1.0 1.0 1.0
0.000000 0.000000 0.000000
0.032920 0.032920 0.032920
0.092140 0.092140 0.092140
0.151542 0.151542 0.151542
0.210944 0.210944 0.210944
0.270345 0.270345 0.270345
0.329747 0.329747 0.329747
0.389149 0.389149 0.389149
0.448550 0.448550 0.448550
0.105326 0.105326 0.105326
0.119505 0.119505 0.119505
0.149740 0.149740 0.149740
0.191849 0.191849 0.191849
0.240744 0.240744 0.240744
0.293406 0.293406 0.293406
0.348244 0.348244 0.348244
0.404405 0.404405 0.404405
0.461416 0.461416 0.461416
0.215137 0.215137 0.215137
0.222212 0.222212 0.222212
0.239161 0.239161 0.239161
0.266372 0.266372 0.266372
0.302069 0.302069 0.302069
0.344098 0.344098 0.344098
0.390635 0.390635 0.390635
0.440340 0.440340 0.440340
0.513822 0.513822 0.513822
0.324947 0.324947 0.324947
0.329366 0.329366 0.329366
0.340304 0.340304 0.340304
0.358817 0.358817 0.358817
0.384660 0.384660 0.384660
0.416970 0.416970 0.416970
0.454649 0.454649 0.454649
0.518701 0.518701 0.518701
0.569712 0.569712 0.569712
0.434757 0.434757 0.434757
0.437860 0.437860 0.437860
0.445637 0.445637 0.445637
0.459101 0.459101 0.459101
0.478474 0.478474 0.478474
0.526483 0.526483 0.526483
0.560527 0.560527 0.560527
0.599691 0.599691 0.599691
0.643219 0.643219 0.643219
0.572637 0.572637 0.572637
0.575269 0.575269 0.575269
0.581903 0.581903 0.581903
0.593515 0.593515 0.593515
0.610492 0.610492 0.610492
0.632896 0.632896 0.632896
0.660535 0.660535 0.660535
0.693046 0.693046 0.693046
0.729962 0.729962 0.729962
0.696174 0.696174 0.696174
0.698253 0.698253 0.698253
0.703513 0.703513 0.703513
0.712775 0.712775 0.712775
0.726441 0.726441 0.726441
0.744687 0.744687 0.744687
0.767509 0.767509 0.767509
0.794758 0.794758 0.794758
0.826178 0.826178 0.826178
0.819710 0.819710 0.819710
0.821410 0.821410 0.821410
0.825718 0.825718 0.825718
0.833331 0.833331 0.833331
0.844626 0.844626 0.844626
0.859820 0.859820 0.859820
0.878995 0.878995 0.878995
0.902122 0.902122 0.902122
0.929083 0.929083 0.929083
0.943246 0.943246 0.943246
0.944672 0.944672 0.944672
0.948288 0.948288 0.948288
0.954693 0.954693 0.954693
0.964231 0.964231 0.964231
0.977124 0.977124 0.977124
0.993493 0.993493 0.993493
1.000000 1.000000 1.000000
1.000000 1.000000 1.000000
0.011180 0.011180 0.011180
0.043820 0.043820 0.043820
0.097771 0.097771 0.097771
0.155075 0.155075 0.155075
0.213429 0.213429 0.213429
0.272220 0.272220 0.272220
0.331230 0.331230 0.331230
0.390361 0.390361 0.390361
0.449567 0.449567 0.449567
0.110336 0.110336 0.110336
0.123965 0.123965 0.123965
0.153317 0.153317 0.153317
0.194607 0.194607 0.194607
0.242886 0.242886 0.242886
0.295110 0.295110 0.295110
0.349632 0.349632 0.349632
0.405562 0.405562 0.405562
0.462398 0.462398 0.462398
0.217568 0.217568 0.217568
0.224558 0.224558 0.224558
0.241320 0.241320 0.241320
0.268280 0.268280 0.268280
0.303715 0.303715 0.303715
0.345507 0.345507 0.345507
0.391841 0.391841 0.391841
0.441380 0.441380 0.441380
0.514840 0.514840 0.514840
0.326455 0.326455 0.326455
0.330850 0.330850 0.330850
0.341731 0.341731 0.341731
0.360156 0.360156 0.360156
0.385890 0.385890 0.385890
0.418084 0.418084 0.418084
0.455649 0.455649 0.455649
0.519707 0.519707 0.519707
0.570612 0.570612 0.570612
0.435814 0.435814 0.435814
0.438907 0.438907 0.438907
0.446662 0.446662 0.446662
0.460088 0.460088 0.460088
0.479411 0.479411 0.479411
0.527472 0.527472 0.527472
0.561445 0.561445 0.561445
0.600539 0.600539 0.600539
0.643998 0.643998 0.643998
0.573533 0.573533 0.573533
0.576159 0.576159 0.576159
0.582781 0.582781 0.582781
0.594373 0.594373 0.594373
0.611322 0.611322 0.611322
0.633690 0.633690 0.633690
0.661289 0.661289 0.661289
0.693757 0.693757 0.693757
0.730629 0.730629 0.730629
0.696881 0.696881 0.696881
0.698958 0.698958 0.698958
0.704211 0.704211 0.704211
0.713462 0.713462 0.713462
0.727112 0.727112 0.727112
0.745338 0.745338 0.745338
0.768136 0.768136 0.768136
0.795358 0.795358 0.795358
0.826750 0.826750 0.826750
0.820288 0.820288 0.820288
0.821986 0.821986 0.821986
0.826290 0.826290 0.826290
0.833897 0.833897 0.833897
0.845183 0.845183 0.845183
0.860364 0.860364 0.860364
0.879524 0.879524 0.879524
0.902635 0.902635 0.902635
0.929577 0.929577 0.929577
0.943731 0.943731 0.943731
0.945155 0.945155 0.945155
0.948769 0.948769 0.948769
0.955170 0.955170 0.955170
0.964702 0.964702 0.964702
0.977587 0.977587 0.977587
0.993947 0.993947 0.993947
1.000000 1.000000 1.000000
1.000000 1.000000 1.000000
0.039619 0.039619 0.039619
0.066097 0.066097 0.066097
0.110918 0.110918 0.110918
0.163711 0.163711 0.163711
0.219614 0.219614 0.219614
0.276926 0.276926 0.276926
0.334968 0.334968 0.334968
0.393426 0.393426 0.393426
0.452142 0.452142 0.452142
0.122203 0.122203 0.122203
0.134660 0.134660 0.134660
0.162051 0.162051 0.162051
0.201439 0.201439 0.201439
0.248245 0.248245 0.248245
0.299395 0.299395 0.299395
0.353135 0.353135 0.353135
0.408486 0.408486 0.408486
0.464884 0.464884 0.464884
0.223625 0.223625 0.223625
0.230406 0.230406 0.230406
0.246718 0.246718 0.246718
0.273066 0.273066 0.273066
0.307858 0.307858 0.307858
0.349061 0.349061 0.349061
0.394892 0.394892 0.394892
0.444014 0.444014 0.444014
0.517419 0.517419 0.517419
0.330259 0.330259 0.330259
0.334594 0.334594 0.334594
0.345332 0.345332 0.345332
0.363536 0.363536 0.363536
0.388998 0.388998 0.388998
0.420901 0.420901 0.420901
0.458181 0.458181 0.458181
0.522258 0.522258 0.522258
0.572897 0.572897 0.572897
0.438490 0.438490 0.438490
0.441560 0.441560 0.441560
0.449258 0.449258 0.449258
0.462590 0.462590 0.462590
0.502010 0.502010 0.502010
0.529980 0.529980 0.529980
0.563775 0.563775 0.563775
0.602689 0.602689 0.602689
0.645975 0.645975 0.645975
0.575804 0.575804 0.575804
0.578418 0.578418 0.578418
0.585010 0.585010 0.585010
0.596550 0.596550 0.596550
0.613426 0.613426 0.613426
0.635706 0.635706 0.635706
0.663204 0.663204 0.663204
0.695563 0.695563 0.695563
0.732324 0.732324 0.732324
0.698677 0.698677 0.698677
0.700747 0.700747 0.700747
0.705984 0.705984 0.705984
0.715207 0.715207 0.715207
0.728817 0.728817 0.728817
0.746992 0.746992 0.746992
0.769730 0.769730 0.769730
0.796884 0.796884 0.796884
0.828205 0.828205 0.828205
0.821756 0.821756 0.821756
0.823451 0.823451 0.823451
0.827746 0.827746 0.827746
0.835336 0.835336 0.835336
0.846598 0.846598 0.846598
0.861748 0.861748 0.861748
0.880870 0.880870 0.880870
0.903938 0.903938 0.903938
0.930832 0.930832 0.930832
0.944962 0.944962 0.944962
0.946384 0.946384 0.946384
0.949992 0.949992 0.949992
0.956383 0.956383 0.956383
0.965900 0.965900 0.965900
0.978765 0.978765 0.978765
0.995100 0.995100 0.995100
1.000000 1.000000 1.000000
1.000000 1.000000 1.000000
0.077496 0.077496 0.077496
0.095496 0.095496 0.095496
0.131261 0.131261 0.131261
0.178015 0.178015 0.178015
0.230181 0.230181 0.230181
0.285093 0.285093 0.285093
0.341512 0.341512 0.341512
0.398820 0.398820 0.398820
0.456688 0.456688 0.456688
0.140947 0.140947 0.140947
0.151860 0.151860 0.151860
0.176499 0.176499 0.176499
0.213024 0.213024 0.213024
0.257483 0.257483 0.257483
0.306860 0.306860 0.306860
0.359280 0.359280 0.359280
0.413639 0.413639 0.413639
0.469276 0.469276 0.469276
0.233986 0.233986 0.233986
0.240437 0.240437 0.240437
0.256020 0.256020 0.256020
0.281364 0.281364 0.281364
0.315085 0.315085 0.315085
0.355291 0.355291 0.355291
0.400262 0.400262 0.400262
0.448664 0.448664 0.448664
0.521982 0.521982 0.521982
0.336913 0.336913 0.336913
0.341146 0.341146 0.341146
0.351643 0.351643 0.351643
0.369471 0.369471 0.369471
0.394467 0.394467 0.394467
0.425867 0.425867 0.425867
0.462653 0.462653 0.462653
0.526772 0.526772 0.526772
0.576946 0.576946 0.576946
0.443212 0.443212 0.443212
0.446242 0.446242 0.446242
0.453840 0.453840 0.453840
0.467009 0.467009 0.467009
0.506736 0.506736 0.506736
0.534417 0.534417 0.534417
0.567901 0.567901 0.567901
0.606500 0.606500 0.606500
0.649482 0.649482 0.649482
0.579828 0.579828 0.579828
0.582421 0.582421 0.582421
0.588959 0.588959 0.588959
0.600408 0.600408 0.600408
0.617158 0.617158 0.617158
0.639281 0.639281 0.639281
0.666601 0.666601 0.666601
0.698769 0.698769 0.698769
0.735334 0.735334 0.735334
0.701866 0.701866 0.701866
0.703925 0.703925 0.703925
0.709133 0.709133 0.709133
0.718306 0.718306 0.718306
0.731845 0.731845 0.731845
0.749930 0.749930 0.749930
0.772561 0.772561 0.772561
0.799597 0.799597 0.799597
0.830790 0.830790 0.830790
0.824367 0.824367 0.824367
0.826055 0.826055 0.826055
0.830333 0.830333 0.830333
0.837894 0.837894 0.837894
0.849113 0.849113 0.849113
0.864208 0.864208 0.864208
0.883264 0.883264 0.883264
0.906255 0.906255 0.906255
0.933066 0.933066 0.933066
0.947153 0.947153 0.947153
0.948571 0.948571 0.948571
0.952169 0.952169 0.952169
0.958541 0.958541 0.958541
0.968031 0.968031 0.968031
0.980860 0.980860 0.980860
0.997152 0.997152 0.997152
1.000000 1.000000 1.000000
1.000000 1.000000 1.000000
0.115372 0.115372 0.115372
0.128483 0.128483 0.128483
0.156981 0.156981 0.156981
0.197456 0.197456 0.197456
0.245113 0.245113 0.245113
0.296886 0.296886 0.296886
0.351082 0.351082 0.351082
0.406771 0.406771 0.406771
0.463425 0.463425 0.463425
0.165123 0.165123 0.165123
0.174465 0.174465 0.174465
0.196103 0.196103 0.196103
0.229232 0.229232 0.229232
0.270701 0.270701 0.270701
0.317701 0.317701 0.317701
0.368293 0.368293 0.368293
0.421245 0.421245 0.421245
0.475789 0.475789 0.475789
0.248658 0.248658 0.248658
0.254684 0.254684 0.254684
0.269321 0.269321 0.269321
0.293334 0.293334 0.293334
0.325600 0.325600 0.325600
0.364424 0.364424 0.364424
0.408178 0.408178 0.408178
0.455549 0.455549 0.455549
0.528762 0.528762 0.528762
0.346637 0.346637 0.346637
0.350728 0.350728 0.350728
0.360889 0.360889 0.360889
0.378188 0.378188 0.378188
0.402524 0.402524 0.402524
0.433208 0.433208 0.433208
0.469282 0.469282 0.469282
0.533480 0.533480 0.533480
0.582975 0.582975 0.582975
0.450202 0.450202 0.450202
0.453174 0.453174 0.453174
0.460629 0.460629 0.460629
0.473562 0.473562 0.473562
0.513752 0.513752 0.513752
0.541013 0.541013 0.541013
0.574044 0.574044 0.574044
0.612183 0.612183 0.612183
0.654717 0.654717 0.654717
0.585822 0.585822 0.585822
0.588384 0.588384 0.588384
0.594843 0.594843 0.594843
0.606159 0.606159 0.606159
0.622724 0.622724 0.622724
0.644617 0.644617 0.644617
0.671674 0.671674 0.671674
0.703560 0.703560 0.703560
0.739836 0.739836 0.739836
0.706631 0.706631 0.706631
0.708673 0.708673 0.708673
0.713839 0.713839 0.713839
0.722939 0.722939 0.722939
0.736373 0.736373 0.736373
0.754324 0.754324 0.754324
0.776798 0.776798 0.776798
0.803657 0.803657 0.803657
0.834662 0.834662 0.834662
0.828277 0.828277 0.828277
0.829955 0.829955 0.829955
0.834208 0.834208 0.834208
0.841725 0.841725 0.841725
0.852882 0.852882 0.852882
0.867895 0.867895 0.867895
0.886851 0.886851 0.886851
0.909728 0.909728 0.909728
0.936414 0.936414 0.936414
0.950439 0.950439 0.950439
0.951851 0.951851 0.951851
0.955432 0.955432 0.955432
0.961778 0.961778 0.961778
0.971227 0.971227 0.971227
0.984004 0.984004 0.984004
1.000000 1.000000 1.000000
1.000000 1.000000 1.000000
1.000000 1.000000 1.000000
0.153249 0.153249 0.153249
0.163312 0.163312 0.163312
0.186353 0.186353 0.186353
0.221106 0.221106 0.221106
0.264034 0.264034 0.264034
0.312210 0.312210 0.312210
0.363715 0.363715 0.363715
0.417375 0.417375 0.417375
0.472471 0.472471 0.472471
0.193178 0.193178 0.193178
0.201121 0.201121 0.201121
0.219915 0.219915 0.219915
0.249544 0.249544 0.249544
0.287688 0.287688 0.287688
0.331888 0.331888 0.331888
0.380233 0.380233 0.380233
0.431410 0.431410 0.431410
0.505114 0.505114 0.505114
0.267290 0.267290 0.267290
0.272841 0.272841 0.272841
0.286404 0.286404 0.286404
0.308867 0.308867 0.308867
0.339391 0.339391 0.339391
0.376515 0.376515 0.376515
0.418737 0.418737 0.418737
0.464788 0.464788 0.464788
0.537898 0.537898 0.537898
0.359461 0.359461 0.359461
0.363377 0.363377 0.363377
0.373119 0.373119 0.373119
0.389759 0.389759 0.389759
0.413263 0.413263 0.413263
0.443033 0.443033 0.443033
0.478189 0.478189 0.478189
0.542523 0.542523 0.542523
0.591127 0.591127 0.591127
0.459575 0.459575 0.459575
0.462471 0.462471 0.462471
0.469743 0.469743 0.469743
0.502666 0.502666 0.502666
0.523198 0.523198 0.523198
0.549910 0.549910 0.549910
0.582345 0.582345 0.582345
0.619876 0.619876 0.619876
0.661816 0.661816 0.661816
0.593927 0.593927 0.593927
0.596447 0.596447 0.596447
0.602803 0.602803 0.602803
0.613943 0.613943 0.613943
0.630262 0.630262 0.630262
0.651850 0.651850 0.651850
0.678558 0.678558 0.678558
0.710069 0.710069 0.710069
0.745958 0.745958 0.745958
0.713105 0.713105 0.713105
0.715125 0.715125 0.715125
0.720233 0.720233 0.720233
0.729236 0.729236 0.729236
0.742530 0.742530 0.742530
0.760302 0.760302 0.760302
0.782564 0.782564 0.782564
0.809186 0.809186 0.809186
0.839938 0.839938 0.839938
0.833603 0.833603 0.833603
0.835268 0.835268 0.835268
0.839487 0.839487 0.839487
0.846945 0.846945 0.846945
0.858017 0.858017 0.858017
0.872920 0.872920 0.872920
0.891742 0.891742 0.891742
0.914466 0.914466 0.914466
0.940982 0.940982 0.940982
0.954922 0.954922 0.954922
0.956326 0.956326 0.956326
0.959886 0.959886 0.959886
0.966195 0.966195 0.966195
0.975590 0.975590 0.975590
0.988295 0.988295 0.988295
1.000000 1.000000 1.000000
1.000000 1.000000 1.000000
1.000000 1.000000 1.000000
0.191126 0.191126 0.191126
0.199159 0.199159 0.199159
0.218140 0.218140 0.218140
0.248009 0.248009 0.248009
0.286390 0.286390 0.286390
0.330794 0.330794 0.330794
0.379307 0.379307 0.379307
0.430618 0.430618 0.430618
0.504345 0.504345 0.504345
0.223901 0.223901 0.223901
0.230673 0.230673 0.230673
0.246965 0.246965 0.246965
0.273285 0.273285 0.273285
0.308048 0.308048 0.308048
0.349224 0.349224 0.349224
0.395033 0.395033 0.395033
0.444136 0.444136 0.444136
0.517538 0.517538 0.517538
0.289353 0.289353 0.289353
0.294418 0.294418 0.294418
0.306865 0.306865 0.306865
0.327678 0.327678 0.327678
0.356288 0.356288 0.356288
0.391487 0.391487 0.391487
0.431929 0.431929 0.431929
0.476411 0.476411 0.476411
0.549456 0.549456 0.549456
0.375269 0.375269 0.375269
0.378986 0.378986 0.378986
0.388251 0.388251 0.388251
0.404131 0.404131 0.404131
0.426665 0.426665 0.426665
0.455355 0.455355 0.455355
0.510590 0.510590 0.510590
0.553967 0.553967 0.553967
0.601479 0.601479 0.601479
0.471359 0.471359 0.471359
0.474165 0.474165 0.474165
0.501367 0.501367 0.501367
0.515159 0.515159 0.515159
0.535131 0.535131 0.535131
0.561175 0.561175 0.561175
0.592881 0.592881 0.592881
0.629663 0.629663 0.629663
0.670868 0.670868 0.670868
0.604222 0.604222 0.604222
0.606691 0.606691 0.606691
0.612920 0.612920 0.612920
0.623843 0.623843 0.623843
0.639858 0.639858 0.639858
0.661068 0.661068 0.661068
0.687342 0.687342 0.687342
0.718383 0.718383 0.718383
0.753788 0.753788 0.753788
0.721377 0.721377 0.721377
0.723368 0.723368 0.723368
0.728406 0.728406 0.728406
0.737285 0.737285 0.737285
0.750404 0.750404 0.750404
0.767952 0.767952 0.767952
0.789947 0.789947 0.789947
0.816272 0.816272 0.816272
0.846703 0.846703 0.846703
0.840432 0.840432 0.840432
0.842080 0.842080 0.842080
0.846257 0.846257 0.846257
0.853642 0.853642 0.853642
0.864606 0.864606 0.864606
0.879369 0.879369 0.879369
0.898022 0.898022 0.898022
0.920550 0.920550 0.920550
0.946852 0.946852 0.946852
0.960685 0.960685 0.960685
0.962078 0.962078 0.962078
0.965611 0.965611 0.965611
0.971873 0.971873 0.971873
0.981199 0.981199 0.981199
0.993813 0.993813 0.993813
1.000000 1.000000 1.000000
1.000000 1.000000 1.000000
1.000000 1.000000 1.000000
0.229002 0.229002 0.229002
0.235609 0.235609 0.235609
0.251535 0.251535 0.251535
0.277355 0.277355 0.277355
0.311587 0.311587 0.311587
0.352271 0.352271 0.352271
0.397655 0.397655 0.397655
0.446405 0.446405 0.446405
0.519764 0.519764 0.519764
0.256448 0.256448 0.256448
0.262267 0.262267 0.262267
0.276439 0.276439 0.276439
0.299786 0.299786 0.299786
0.331309 0.331309 0.331309
0.369415 0.369415 0.369415
0.412526 0.412526 0.412526
0.459346 0.459346 0.459346
0.532511 0.532511 0.532511
0.314270 0.314270 0.314270
0.318867 0.318867 0.318867
0.330225 0.330225 0.330225
0.349386 0.349386 0.349386
0.376019 0.376019 0.376019
0.409167 0.409167 0.409167
0.447659 0.447659 0.447659
0.511676 0.511676 0.511676
0.563434 0.563434 0.563434
0.393848 0.393848 0.393848
0.397352 0.397352 0.397352
0.406105 0.406105 0.406105
0.421159 0.421159 0.421159
0.442627 0.442627 0.442627
0.470113 0.470113 0.470113
0.525795 0.525795 0.525795
0.567813 0.567813 0.567813
0.614058 0.614058 0.614058
0.506199 0.506199 0.506199
0.509241 0.509241 0.509241
0.516890 0.516890 0.516890
0.530210 0.530210 0.530210
0.549541 0.549541 0.549541
0.574816 0.574816 0.574816
0.605675 0.605675 0.605675
0.641580 0.641580 0.641580
0.681917 0.681917 0.681917
0.616734 0.616734 0.616734
0.619142 0.619142 0.619142
0.625222 0.625222 0.625222
0.635891 0.635891 0.635891
0.651549 0.651549 0.651549
0.672313 0.672313 0.672313
0.698074 0.698074 0.698074
0.728558 0.728558 0.728558
0.763384 0.763384 0.763384
0.731500 0.731500 0.731500
0.733457 0.733457 0.733457
0.738411 0.738411 0.738411
0.747144 0.747144 0.747144
0.760053 0.760053 0.760053
0.777332 0.777332 0.777332
0.799008 0.799008 0.799008
0.824974 0.824974 0.824974
0.855021 0.855021 0.855021
0.848827 0.848827 0.848827
0.850454 0.850454 0.850454
0.854580 0.854580 0.854580
0.861875 0.861875 0.861875
0.872710 0.872710 0.872710
0.887304 0.887304 0.887304
0.905752 0.905752 0.905752
0.928045 0.928045 0.928045
0.954086 0.954086 0.954086
0.967788 0.967788 0.967788
0.969168 0.969168 0.969168
0.972669 0.972669 0.972669
0.978873 0.978873 0.978873
0.988116 0.988116 0.988116
1.000000 1.000000 1.000000
1.000000 1.000000 1.000000
1.000000 1.000000 1.000000
1.000000 1.000000 1.000000
0.266879 0.266879 0.266879
0.272439 0.272439 0.272439
0.286024 0.286024 0.286024
0.308521 0.308521 0.308521
0.339082 0.339082 0.339082
0.376242 0.376242 0.376242
0.418498 0.418498 0.418498
0.464578 0.464578 0.464578
0.537690 0.537690 0.537690
0.290262 0.290262 0.290262
0.295309 0.295309 0.295309
0.307713 0.307713 0.307713
0.328463 0.328463 0.328463
0.356997 0.356997 0.356997
0.392118 0.392118 0.392118
0.432488 0.432488 0.432488
0.476905 0.476905 0.476905
0.549949 0.549949 0.549949
0.341506 0.341506 0.341506
0.345671 0.345671 0.345671
0.356007 0.356007 0.356007
0.373582 0.373582 0.373582
0.398263 0.398263 0.398263
0.429323 0.429323 0.429323
0.465771 0.465771 0.465771
0.529924 0.529924 0.529924
0.579777 0.579777 0.579777
0.414926 0.414926 0.414926
0.418214 0.418214 0.418214
0.426440 0.426440 0.426440
0.440639 0.440639 0.440639
0.460986 0.460986 0.460986
0.508086 0.508086 0.508086
0.543488 0.543488 0.543488
0.584011 0.584011 0.584011
0.628842 0.628842 0.628842
0.524671 0.524671 0.524671
0.527588 0.527588 0.527588
0.534930 0.534930 0.534930
0.547735 0.547735 0.547735
0.566362 0.566362 0.566362
0.590785 0.590785 0.590785
0.620699 0.620699 0.620699
0.655618 0.655618 0.655618
0.694971 0.694971 0.694971
0.631442 0.631442 0.631442
0.633783 0.633783 0.633783
0.639695 0.639695 0.639695
0.650078 0.650078 0.650078
0.665333 0.665333 0.665333
0.685591 0.685591 0.685591
0.710766 0.710766 0.710766
0.740612 0.740612 0.740612
0.774774 0.774774 0.774774
0.743496 0.743496 0.743496
0.745414 0.745414 0.745414
0.750270 0.750270 0.750270
0.758835 0.758835 0.758835
0.771503 0.771503 0.771503
0.788473 0.788473 0.788473
0.809780 0.809780 0.809780
0.835330 0.835330 0.835330
0.864929 0.864929 0.864929
0.858824 0.858824 0.858824
0.860428 0.860428 0.860428
0.864494 0.864494 0.864494
0.871686 0.871686 0.871686
0.882370 0.882370 0.882370
0.896766 0.896766 0.896766
0.914975 0.914975 0.914975
0.936991 0.936991 0.936991
0.962728 0.962728 0.962728
0.976277 0.976277 0.976277
0.977641 0.977641 0.977641
0.981104 0.981104 0.981104
0.987240 0.987240 0.987240
0.996385 0.996385 0.996385
1.000000 1.000000 1.000000
1.000000 1.000000 1.000000
1.000000 1.000000 1.000000
1.000000 1.000000 1.000000
