docs/luts/fuji_recipes/BG_NZD_Ilford_HP-5.cube
TITLE "Fujifilm Recipe: NZD Ilford HP-5 (BG)"
# FilmSim=BG HL=2 SH=1 Col=0 WB=Auto WBR=0 WBB=0
LUT_3D_SIZE 5
DOMAIN_MIN 0.0 0.0 0.0
DOMAIN_MAX 1.0 1.0 1.0
0.000000 0.000000 0.000000
0.092140 0.092140 0.092140
0.210944 0.210944 0.210944
0.329747 0.329747 0.329747
0.448550 0.448550 0.448550
0.215137 0.215137 0.215137
0.239161 0.239161 0.239161
0.302069 0.302069 0.302069
0.390635 0.390635 0.390635
0.513822 0.513822 0.513822
0.434757 0.434757 0.434757
0.445637 0.445637 0.445637
0.478474 0.478474 0.478474
0.560527 0.560527 0.560527
0.643219 0.643219 0.643219
0.696174 0.696174 0.696174
0.703513 0.703513 0.703513
0.726441 0.726441 0.726441
0.767509 0.767509 0.767509
0.826178 0.826178 0.826178
0.943246 0.943246 0.943246
0.948288 0.948288 0.948288
0.964231 0.964231 0.964231
0.993493 0.993493 0.993493
1.000000 1.000000 1.000000
0.039619 0.039619 0.039619
0.110918 0.110918 0.110918
0.219614 0.219614 0.219614
0.334968 0.334968 0.334968
0.452142 0.452142 0.452142
0.223625 0.223625 0.223625
0.246718 0.246718 0.246718
0.307858 0.307858 0.307858
0.394892 0.394892 0.394892
0.517419 0.517419 0.517419
0.438490 0.438490 0.438490
0.449258 0.449258 0.449258
0.502010 0.502010 0.502010
0.563775 0.563775 0.563775
0.645975 0.645975 0.645975
0.698677 0.698677 0.698677
0.705984 0.705984 0.705984
0.728817 0.728817 0.728817
0.769730 0.769730 0.769730
0.828205 0.828205 0.828205
0.944962 0.944962 0.944962
0.949992 0.949992 0.949992
0.965900 0.965900 0.965900
0.995100 0.995100 0.995100
1.000000 1.000000 1.000000
0.115372 0.115372 0.115372
0.156981 0.156981 0.156981
0.245113 0.245113 0.245113
0.351082 0.351082 0.351082
0.463425 0.463425 0.463425
0.248658 0.248658 0.248658
0.269321 0.269321 0.269321
0.325600 0.325600 0.325600
0.408178 0.408178 0.408178
0.528762 0.528762 0.528762
0.450202 0.450202 0.450202
0.460629 0.460629 0.460629
0.513752 0.513752 0.513752
0.574044 0.574044 0.574044
0.654717 0.654717 0.654717
0.706631 0.706631 0.706631
0.713839 0.713839 0.713839
0.736373 0.736373 0.736373
0.776798 0.776798 0.776798
0.834662 0.834662 0.834662
0.950439 0.950439 0.950439
0.955432 0.955432 0.955432
0.971227 0.971227 0.971227
1.000000 1.000000 1.000000
1.000000 1.000000 1.000000
0.191126 0.191126 0.191126
0.218140 0.218140 0.218140
0.286390 0.286390 0.286390
0.379307 0.379307 0.379307
0.504345 0.504345 0.504345
0.289353 0.289353 0.289353
0.306865 0.306865 0.306865
0.356288 0.356288 0.356288
0.431929 0.431929 0.431929
0.549456 0.549456 0.549456
0.471359 0.471359 0.471359
0.501367 0.501367 0.501367
0.535131 0.535131 0.535131
0.592881 0.592881 0.592881
0.670868 0.670868 0.670868
0.721377 0.721377 0.721377
0.728406 0.728406 0.728406
0.750404 0.750404 0.750404
0.789947 0.789947 0.789947
0.846703 0.846703 0.846703
0.960685 0.960685 0.960685
0.965611 0.965611 0.965611
0.981199 0.981199 0.981199
1.000000 1.000000 1.000000
1.000000 1.000000 1.000000
0.266879 0.266879 0.266879
0.286024 0.286024 0.286024
0.339082 0.339082 0.339082
0.418498 0.418498 0.418498
0.537690 0.537690 0.537690
0.341506 0.341506 0.341506
0.356007 0.356007 0.356007
0.398263 0.398263 0.398263
0.465771 0.465771 0.465771
0.579777 0.579777 0.579777
0.524671 0.524671 0.524671
0.534930 0.534930 0.534930
0.566362 0.566362 0.566362
0.620699 0.620699 0.620699
0.694971 0.694971 0.694971
0.743496 0.743496 0.743496
0.750270 0.750270 0.750270
0.771503 0.771503 0.771503
0.809780 0.809780 0.809780
0.864929 0.864929 0.864929
0.976277 0.976277 0.976277
0.981104 0.981104 0.981104
0.996385 0.996385 0.996385
1.000000 1.000000 1.000000
1.000000 1.000000 1.000000
