docs/luts/fuji_recipes/BG_NZD_Ilford_HP-5.cube
TITLE "Fujifilm Recipe: NZD Ilford HP-5 (BG)"
# FilmSim=BG HL=2 SH=1 Col=0 WB=Auto WBR=0 WBB=0
LUT_3D_SIZE 33
DOMAIN_MIN 0.0 0.0 0.0
DOMAIN_MAX 1.0 1.0 1.0
0.000000 0.000000 0.000000
0.005549 0.005549 0.005549
0.011828 0.011828 0.011828
0.020831 0.020831 0.020831
0.032920 0.032920 0.032920
0.047589 0.047589 0.047589
0.062439 0.062439 0.062439
0.077290 0.077290 0.077290
0.092140 0.092140 0.092140
0.106991 0.106991 0.106991
0.121841 0.121841 0.121841
0.136691 0.136691 0.136691
0.151542 0.151542 0.151542
0.166392 0.166392 0.166392
0.181243 0.181243 0.181243
0.196093 0.196093 0.196093
0.210944 0.210944 0.210944
0.225794 0.225794 0.225794
0.240644 0.240644 0.240644
0.255495 0.255495 0.255495
0.270345 0.270345 0.270345
0.285196 0.285196 0.285196
0.300046 0.300046 0.300046
0.314897 0.314897 0.314897
0.329747 0.329747 0.329747
0.344597 0.344597 0.344597
0.359448 0.359448 0.359448
0.374298 0.374298 0.374298
0.389149 0.389149 0.389149
0.403999 0.403999 0.403999
0.418850 0.418850 0.418850
0.433700 0.433700 0.433700
0.448550 0.448550 0.448550
0.024245 0.024245 0.024245
0.029794 0.029794 0.029794
0.036073 0.036073 0.036073
0.044705 0.044705 0.044705
0.054853 0.054853 0.054853
0.066117 0.066117 0.066117
0.078198 0.078198 0.078198
0.090877 0.090877 0.090877
0.103999 0.103999 0.103999
0.117451 0.117451 0.117451
0.131154 0.131154 0.131154
0.145052 0.145052 0.145052
0.159101 0.159101 0.159101
0.173271 0.173271 0.173271
0.187538 0.187538 0.187538
0.201883 0.201883 0.201883
0.216293 0.216293 0.216293
0.230757 0.230757 0.230757
0.245266 0.245266 0.245266
0.259813 0.259813 0.259813
0.274393 0.274393 0.274393
0.289000 0.289000 0.289000
0.303631 0.303631 0.303631
0.318282 0.318282 0.318282
0.332952 0.332952 0.332952
0.347638 0.347638 0.347638
0.362337 0.362337 0.362337
0.377049 0.377049 0.377049
0.391772 0.391772 0.391772
0.406504 0.406504 0.406504
0.421246 0.421246 0.421246
0.435995 0.435995 0.435995
0.450751 0.450751 0.450751
0.050421 0.050421 0.050421
0.054902 0.054902 0.054902
0.059677 0.059677 0.059677
0.066065 0.066065 0.066065
0.073953 0.073953 0.073953
0.083112 0.083112 0.083112
0.093313 0.093313 0.093313
0.104352 0.104352 0.104352
0.116059 0.116059 0.116059
0.128295 0.128295 0.128295
0.140954 0.140954 0.140954
0.153952 0.153952 0.153952
0.167223 0.167223 0.167223
0.180717 0.180717 0.180717
0.194393 0.194393 0.194393
0.208220 0.208220 0.208220
0.222173 0.222173 0.222173
0.236231 0.236231 0.236231
0.250378 0.250378 0.250378
0.264602 0.264602 0.264602
0.278890 0.278890 0.278890
0.293234 0.293234 0.293234
0.307627 0.307627 0.307627
0.322062 0.322062 0.322062
0.336534 0.336534 0.336534
0.351039 0.351039 0.351039
0.365573 0.365573 0.365573
0.380132 0.380132 0.380132
0.394714 0.394714 0.394714
0.409316 0.409316 0.409316
0.423937 0.423937 0.423937
0.438574 0.438574 0.438574
0.453226 0.453226 0.453226
0.077874 0.077874 0.077874
0.081136 0.081136 0.081136
0.084698 0.084698 0.084698
0.089591 0.089591 0.089591
0.095812 0.095812 0.095812
0.103254 0.103254 0.103254
0.111779 0.111779 0.111779
0.121240 0.121240 0.121240
0.131495 0.131495 0.131495
0.142419 0.142419 0.142419
0.153901 0.153901 0.153901
0.165849 0.165849 0.165849
0.178185 0.178185 0.178185
0.190847 0.190847 0.190847
0.203782 0.203782 0.203782
0.216948 0.216948 0.216948
0.230309 0.230309 0.230309
0.243835 0.243835 0.243835
0.257504 0.257504 0.257504
0.271296 0.271296 0.271296
0.285193 0.285193 0.285193
0.299182 0.299182 0.299182
0.313251 0.313251 0.313251
0.327391 0.327391 0.327391
0.341592 0.341592 0.341592
0.355848 0.355848 0.355848
0.370152 0.370152 0.370152
0.384500 0.384500 0.384500
0.398886 0.398886 0.398886
0.413307 0.413307 0.413307
0.427759 0.427759 0.427759
0.442239 0.442239 0.442239
0.456744 0.456744 0.456744
0.105326 0.105326 0.105326
0.107840 0.107840 0.107840
0.110619 0.110619 0.110619
0.114493 0.114493 0.114493
0.119505 0.119505 0.119505
0.125616 0.125616 0.125616
0.132755 0.132755 0.132755
0.140829 0.140829 0.140829
0.149740 0.149740 0.149740
0.159388 0.159388 0.159388
0.169678 0.169678 0.169678
0.180524 0.180524 0.180524
0.191849 0.191849 0.191849
0.203587 0.203587 0.203587
0.215680 0.215680 0.215680
0.228080 0.228080 0.228080
0.240744 0.240744 0.240744
0.253636 0.253636 0.253636
0.266727 0.266727 0.266727
0.279991 0.279991 0.279991
0.293406 0.293406 0.293406
0.306954 0.306954 0.306954
0.320618 0.320618 0.320618
0.334385 0.334385 0.334385
0.348244 0.348244 0.348244
0.362183 0.362183 0.362183
0.376195 0.376195 0.376195
0.390271 0.390271 0.390271
0.404405 0.404405 0.404405
0.418592 0.418592 0.418592
0.432826 0.432826 0.432826
0.447102 0.447102 0.447102
0.461416 0.461416 0.461416
0.132779 0.132779 0.132779
0.134795 0.134795 0.134795
0.137040 0.137040 0.137040
0.140196 0.140196 0.140196
0.144323 0.144323 0.144323
0.149419 0.149419 0.149419
0.155452 0.155452 0.155452
0.162371 0.162371 0.162371
0.170112 0.170112 0.170112
0.178604 0.178604 0.178604
0.187773 0.187773 0.187773
0.197549 0.197549 0.197549
0.207862 0.207862 0.207862
0.218652 0.218652 0.218652
0.229861 0.229861 0.229861
0.241440 0.241440 0.241440
0.253344 0.253344 0.253344
0.265534 0.265534 0.265534
0.277976 0.277976 0.277976
0.290641 0.290641 0.290641
0.303503 0.303503 0.303503
0.316539 0.316539 0.316539
0.329730 0.329730 0.329730
0.343059 0.343059 0.343059
0.356511 0.356511 0.356511
0.370073 0.370073 0.370073
0.383734 0.383734 0.383734
0.397483 0.397483 0.397483
0.411313 0.411313 0.411313
0.425215 0.425215 0.425215
0.439183 0.439183 0.439183
0.453210 0.453210 0.453210
0.467291 0.467291 0.467291
0.160231 0.160231 0.160231
0.161897 0.161897 0.161897
0.163760 0.163760 0.163760
0.166393 0.166393 0.166393
0.169860 0.169860 0.169860
0.174176 0.174176 0.174176
0.179333 0.179333 0.179333
0.185307 0.185307 0.185307
0.192060 0.192060 0.192060
0.199545 0.199545 0.199545
0.207708 0.207708 0.207708
0.216494 0.216494 0.216494
0.225848 0.225848 0.225848
0.235716 0.235716 0.235716
0.246047 0.246047 0.246047
0.256794 0.256794 0.256794
0.267915 0.267915 0.267915
0.279369 0.279369 0.279369
0.291122 0.291122 0.291122
0.303142 0.303142 0.303142
0.315401 0.315401 0.315401
0.327874 0.327874 0.327874
0.340540 0.340540 0.340540
0.353378 0.353378 0.353378
0.366372 0.366372 0.366372
0.379506 0.379506 0.379506
0.392766 0.392766 0.392766
0.406141 0.406141 0.406141
0.419619 0.419619 0.419619
0.433192 0.433192 0.433192
0.446850 0.446850 0.446850
0.460587 0.460587 0.460587
0.474394 0.474394 0.474394
0.187684 0.187684 0.187684
0.189091 0.189091 0.189091
0.190670 0.190670 0.190670
0.192909 0.192909 0.192909
0.195872 0.195872 0.195872
0.199581 0.199581 0.199581
0.204042 0.204042 0.204042
0.209247 0.209247 0.209247
0.215176 0.215176 0.215176
0.221799 0.221799 0.221799
0.229081 0.229081 0.229081
0.236979 0.236979 0.236979
0.245453 0.245453 0.245453
0.254457 0.254457 0.254457
0.263949 0.263949 0.263949
0.273888 0.273888 0.273888
0.284232 0.284232 0.284232
0.294947 0.294947 0.294947
0.305997 0.305997 0.305997
0.317351 0.317351 0.317351
0.328980 0.328980 0.328980
0.340860 0.340860 0.340860
0.352965 0.352965 0.352965
0.365276 0.365276 0.365276
0.377773 0.377773 0.377773
0.390440 0.390440 0.390440
0.403260 0.403260 0.403260
0.416220 0.416220 0.416220
0.429308 0.429308 0.429308
0.442512 0.442512 0.442512
0.455823 0.455823 0.455823
0.469232 0.469232 0.469232
0.503072 0.503072 0.503072
0.215137 0.215137 0.215137
0.216347 0.216347 0.216347
0.217708 0.217708 0.217708
0.219643 0.219643 0.219643
0.222212 0.222212 0.222212
0.225440 0.225440 0.225440
0.229342 0.229342 0.229342
0.233918 0.233918 0.233918
0.239161 0.239161 0.239161
0.245054 0.245054 0.245054
0.251573 0.251573 0.251573
0.258690 0.258690 0.258690
0.266372 0.266372 0.266372
0.274587 0.274587 0.274587
0.283298 0.283298 0.283298
0.292470 0.292470 0.292470
0.302069 0.302069 0.302069
0.312062 0.312062 0.312062
0.322418 0.322418 0.322418
0.333106 0.333106 0.333106
0.344098 0.344098 0.344098
0.355370 0.355370 0.355370
0.366898 0.366898 0.366898
0.378659 0.378659 0.378659
0.390635 0.390635 0.390635
0.402806 0.402806 0.402806
0.415157 0.415157 0.415157
0.427673 0.427673 0.427673
0.440340 0.440340 0.440340
0.453145 0.453145 0.453145
0.466078 0.466078 0.466078
0.479128 0.479128 0.479128
0.513822 0.513822 0.513822
0.242589 0.242589 0.242589
0.243646 0.243646 0.243646
0.244836 0.244836 0.244836
0.246530 0.246530 0.246530
0.248785 0.248785 0.248785
0.251626 0.251626 0.251626
0.255073 0.255073 0.255073
0.259131 0.259131 0.259131
0.263802 0.263802 0.263802
0.269075 0.269075 0.269075
0.274938 0.274938 0.274938
0.281372 0.281372 0.281372
0.288353 0.288353 0.288353
0.295855 0.295855 0.295855
0.303852 0.303852 0.303852
0.312314 0.312314 0.312314
0.321212 0.321212 0.321212
0.330517 0.330517 0.330517
0.340202 0.340202 0.340202
0.350240 0.350240 0.350240
0.360603 0.360603 0.360603
0.371270 0.371270 0.371270
0.382215 0.382215 0.382215
0.393418 0.393418 0.393418
0.404860 0.404860 0.404860
0.416521 0.416521 0.416521
0.428384 0.428384 0.428384
0.440435 0.440435 0.440435
0.452659 0.452659 0.452659
0.465042 0.465042 0.465042
0.477573 0.477573 0.477573
0.511520 0.511520 0.511520
0.525912 0.525912 0.525912
0.270042 0.270042 0.270042
0.270975 0.270975 0.270975
0.272027 0.272027 0.272027
0.273528 0.273528 0.273528
0.275527 0.275527 0.275527
0.278054 0.278054 0.278054
0.281125 0.281125 0.281125
0.284753 0.284753 0.284753
0.288942 0.288942 0.288942
0.293690 0.293690 0.293690
0.298989 0.298989 0.298989
0.304828 0.304828 0.304828
0.311190 0.311190 0.311190
0.318057 0.318057 0.318057
0.325407 0.325407 0.325407
0.333218 0.333218 0.333218
0.341466 0.341466 0.341466
0.350127 0.350127 0.350127
0.359176 0.359176 0.359176
0.368590 0.368590 0.368590
0.378345 0.378345 0.378345
0.388418 0.388418 0.388418
0.398789 0.398789 0.398789
0.409437 0.409437 0.409437
0.420343 0.420343 0.420343
0.431488 0.431488 0.431488
0.442856 0.442856 0.442856
0.454431 0.454431 0.454431
0.466198 0.466198 0.466198
0.478143 0.478143 0.478143
0.511537 0.511537 0.511537
0.525336 0.525336 0.525336
0.539296 0.539296 0.539296
0.297494 0.297494 0.297494
0.298327 0.298327 0.298327
0.299267 0.299267 0.299267
0.300608 0.300608 0.300608
0.302398 0.302398 0.302398
0.304663 0.304663 0.304663
0.307422 0.307422 0.307422
0.310689 0.310689 0.310689
0.314471 0.314471 0.314471
0.318770 0.318770 0.318770
0.323583 0.323583 0.323583
0.328903 0.328903 0.328903
0.334721 0.334721 0.334721
0.341023 0.341023 0.341023
0.347792 0.347792 0.347792
0.355012 0.355012 0.355012
0.362664 0.362664 0.362664
0.370727 0.370727 0.370727
0.379180 0.379180 0.379180
0.388004 0.388004 0.388004
0.397178 0.397178 0.397178
0.406681 0.406681 0.406681
0.416494 0.416494 0.416494
0.426598 0.426598 0.426598
0.436975 0.436975 0.436975
0.447608 0.447608 0.447608
0.458479 0.458479 0.458479
0.469575 0.469575 0.469575
0.500989 0.500989 0.500989
0.513926 0.513926 0.513926
0.527069 0.527069 0.527069
0.540403 0.540403 0.540403
0.553917 0.553917 0.553917
0.324947 0.324947 0.324947
0.325696 0.325696 0.325696
0.326543 0.326543 0.326543
0.327751 0.327751 0.327751
0.329366 0.329366 0.329366
0.331412 0.331412 0.331412
0.333908 0.333908 0.333908
0.336869 0.336869 0.336869
0.340304 0.340304 0.340304
0.344217 0.344217 0.344217
0.348610 0.348610 0.348610
0.353478 0.353478 0.353478
0.358817 0.358817 0.358817
0.364617 0.364617 0.364617
0.370867 0.370867 0.370867
0.377553 0.377553 0.377553
0.384660 0.384660 0.384660
0.392173 0.392173 0.392173
0.400074 0.400074 0.400074
0.408346 0.408346 0.408346
0.416970 0.416970 0.416970
0.425930 0.425930 0.425930
0.435208 0.435208 0.435208
0.444787 0.444787 0.444787
0.454649 0.454649 0.454649
0.464779 0.464779 0.464779
0.475161 0.475161 0.475161
0.506503 0.506503 0.506503
0.518701 0.518701 0.518701
0.531134 0.531134 0.531134
0.543790 0.543790 0.543790
0.556653 0.556653 0.556653
0.569712 0.569712 0.569712
0.352399 0.352399 0.352399
0.353079 0.353079 0.353079
0.353846 0.353846 0.353846
0.354943 0.354943 0.354943
0.356410 0.356410 0.356410
0.358270 0.358270 0.358270
0.360543 0.360543 0.360543
0.363242 0.363242 0.363242
0.366379 0.366379 0.366379
0.369959 0.369959 0.369959
0.373986 0.373986 0.373986
0.378460 0.378460 0.378460
0.383377 0.383377 0.383377
0.388731 0.388731 0.388731
0.394516 0.394516 0.394516
0.400721 0.400721 0.400721
0.407334 0.407334 0.407334
0.414343 0.414343 0.414343
0.421734 0.421734 0.421734
0.429492 0.429492 0.429492
0.437603 0.437603 0.437603
0.446050 0.446050 0.446050
0.454820 0.454820 0.454820
0.463895 0.463895 0.463895
0.473262 0.473262 0.473262
0.503267 0.503267 0.503267
0.514410 0.514410 0.514410
0.525831 0.525831 0.525831
0.537516 0.537516 0.537516
0.549450 0.549450 0.549450
0.561619 0.561619 0.561619
0.574010 0.574010 0.574010
0.586610 0.586610 0.586610
0.379852 0.379852 0.379852
0.380472 0.380472 0.380472
0.381173 0.381173 0.381173
0.382174 0.382174 0.382174
0.383514 0.383514 0.383514
0.385215 0.385215 0.385215
0.387296 0.387296 0.387296
0.389770 0.389770 0.389770
0.392649 0.392649 0.392649
0.395940 0.395940 0.395940
0.399647 0.399647 0.399647
0.403774 0.403774 0.403774
0.408318 0.408318 0.408318
0.413277 0.413277 0.413277
0.418645 0.418645 0.418645
0.424417 0.424417 0.424417
0.430582 0.430582 0.430582
0.437131 0.437131 0.437131
0.444053 0.444053 0.444053
0.451337 0.451337 0.451337
0.458969 0.458969 0.458969
0.466936 0.466936 0.466936
0.475225 0.475225 0.475225
0.504301 0.504301 0.504301
0.514305 0.514305 0.514305
0.524626 0.524626 0.524626
0.535249 0.535249 0.535249
0.546160 0.546160 0.546160
0.557343 0.557343 0.557343
0.568786 0.568786 0.568786
0.580475 0.580475 0.580475
0.592398 0.592398 0.592398
0.604542 0.604542 0.604542
0.407304 0.407304 0.407304
0.407873 0.407873 0.407873
0.408516 0.408516 0.408516
0.409436 0.409436 0.409436
0.410667 0.410667 0.410667
0.412231 0.412231 0.412231
0.414145 0.414145 0.414145
0.416424 0.416424 0.416424
0.419078 0.419078 0.419078
0.422115 0.422115 0.422115
0.425543 0.425543 0.425543
0.429363 0.429363 0.429363
0.433577 0.433577 0.433577
0.438183 0.438183 0.438183
0.443179 0.443179 0.443179
0.448560 0.448560 0.448560
0.454319 0.454319 0.454319
0.460449 0.460449 0.460449
0.466942 0.466942 0.466942
0.473787 0.473787 0.473787
0.501097 0.501097 0.501097
0.509556 0.509556 0.509556
0.518374 0.518374 0.518374
0.527540 0.527540 0.527540
0.537038 0.537038 0.537038
0.546856 0.546856 0.546856
0.556981 0.556981 0.556981
0.567399 0.567399 0.567399
0.578096 0.578096 0.578096
0.589061 0.589061 0.589061
0.600280 0.600280 0.600280
0.611742 0.611742 0.611742
0.623435 0.623435 0.623435
0.434757 0.434757 0.434757
0.435282 0.435282 0.435282
0.435875 0.435875 0.435875
0.436723 0.436723 0.436723
0.437860 0.437860 0.437860
0.439304 0.439304 0.439304
0.441073 0.441073 0.441073
0.443180 0.443180 0.443180
0.445637 0.445637 0.445637
0.448452 0.448452 0.448452
0.451632 0.451632 0.451632
0.455181 0.455181 0.455181
0.459101 0.459101 0.459101
0.463392 0.463392 0.463392
0.468053 0.468053 0.468053
0.473082 0.473082 0.473082
0.478474 0.478474 0.478474
0.504750 0.504750 0.504750
0.511612 0.511612 0.511612
0.518860 0.518860 0.518860
0.526483 0.526483 0.526483
0.534473 0.534473 0.534473
0.542818 0.542818 0.542818
0.551507 0.551507 0.551507
0.560527 0.560527 0.560527
0.569868 0.569868 0.569868
0.579517 0.579517 0.579517
0.589462 0.589462 0.589462
0.599691 0.599691 0.599691
0.610193 0.610193 0.610193
0.620956 0.620956 0.620956
0.631968 0.631968 0.631968
0.643219 0.643219 0.643219
0.462209 0.462209 0.462209
0.462695 0.462695 0.462695
0.463245 0.463245 0.463245
0.464031 0.464031 0.464031
0.465085 0.465085 0.465085
0.466424 0.466424 0.466424
0.468066 0.468066 0.468066
0.470022 0.470022 0.470022
0.472305 0.472305 0.472305
0.474924 0.474924 0.474924
0.477884 0.477884 0.477884
0.501340 0.501340 0.501340
0.505455 0.505455 0.505455
0.509965 0.509965 0.509965
0.514870 0.514870 0.514870
0.520170 0.520170 0.520170
0.525860 0.525860 0.525860
0.531936 0.531936 0.531936
0.538393 0.538393 0.538393
0.545224 0.545224 0.545224
0.552420 0.552420 0.552420
0.559975 0.559975 0.559975
0.567878 0.567878 0.567878
0.576120 0.576120 0.576120
0.584690 0.584690 0.584690
0.593580 0.593580 0.593580
0.602777 0.602777 0.602777
0.612271 0.612271 0.612271
0.622052 0.622052 0.622052
0.632109 0.632109 0.632109
0.642431 0.642431 0.642431
0.653007 0.653007 0.653007
0.663827 0.663827 0.663827
0.510869 0.510869 0.510869
0.511378 0.511378 0.511378
0.511953 0.511953 0.511953
0.512776 0.512776 0.512776
0.513879 0.513879 0.513879
0.515282 0.515282 0.515282
0.517002 0.517002 0.517002
0.519053 0.519053 0.519053
0.521448 0.521448 0.521448
0.524197 0.524197 0.524197
0.527307 0.527307 0.527307
0.530785 0.530785 0.530785
0.534635 0.534635 0.534635
0.538859 0.538859 0.538859
0.543459 0.543459 0.543459
0.548435 0.548435 0.548435
0.553784 0.553784 0.553784
0.559503 0.559503 0.559503
0.565589 0.565589 0.565589
0.572037 0.572037 0.572037
0.578839 0.578839 0.578839
0.585990 0.585990 0.585990
0.593482 0.593482 0.593482
0.601306 0.601306 0.601306
0.609455 0.609455 0.609455
0.617919 0.617919 0.617919
0.626689 0.626689 0.626689
0.635755 0.635755 0.635755
0.645108 0.645108 0.645108
0.654738 0.654738 0.654738
0.664635 0.664635 0.664635
0.674790 0.674790 0.674790
0.685194 0.685194 0.685194
0.541753 0.541753 0.541753
0.542228 0.542228 0.542228
0.542765 0.542765 0.542765
0.543533 0.543533 0.543533
0.544563 0.544563 0.544563
0.545873 0.545873 0.545873
0.547481 0.547481 0.547481
0.549398 0.549398 0.549398
0.551639 0.551639 0.551639
0.554211 0.554211 0.554211
0.557125 0.557125 0.557125
0.560385 0.560385 0.560385
0.563997 0.563997 0.563997
0.567964 0.567964 0.567964
0.572288 0.572288 0.572288
0.576969 0.576969 0.576969
0.582008 0.582008 0.582008
0.587402 0.587402 0.587402
0.593148 0.593148 0.593148
0.599243 0.599243 0.599243
0.605681 0.605681 0.605681
0.612458 0.612458 0.612458
0.619568 0.619568 0.619568
0.627003 0.627003 0.627003
0.634756 0.634756 0.634756
0.642820 0.642820 0.642820
0.651186 0.651186 0.651186
0.659846 0.659846 0.659846
0.668792 0.668792 0.668792
0.678015 0.678015 0.678015
0.687506 0.687506 0.687506
0.697257 0.697257 0.697257
0.707258 0.707258 0.707258
0.572637 0.572637 0.572637
0.573082 0.573082 0.573082
0.573585 0.573585 0.573585
0.574304 0.574304 0.574304
0.575269 0.575269 0.575269
0.576497 0.576497 0.576497
0.578003 0.578003 0.578003
0.579801 0.579801 0.579801
0.581903 0.581903 0.581903
0.584318 0.584318 0.584318
0.587054 0.587054 0.587054
0.590118 0.590118 0.590118
0.593515 0.593515 0.593515
0.597249 0.597249 0.597249
0.601322 0.601322 0.601322
0.605737 0.605737 0.605737
0.610492 0.610492 0.610492
0.615588 0.615588 0.615588
0.621023 0.621023 0.621023
0.626793 0.626793 0.626793
0.632896 0.632896 0.632896
0.639327 0.639327 0.639327
0.646081 0.646081 0.646081
0.653152 0.653152 0.653152
0.660535 0.660535 0.660535
0.668223 0.668223 0.668223
0.676209 0.676209 0.676209
0.684486 0.684486 0.684486
0.693046 0.693046 0.693046
0.701881 0.701881 0.701881
0.710985 0.710985 0.710985
0.720347 0.720347 0.720347
0.729962 0.729962 0.729962
0.603522 0.603522 0.603522
0.603939 0.603939 0.603939
0.604411 0.604411 0.604411
0.605087 0.605087 0.605087
0.605993 0.605993 0.605993
0.607147 0.607147 0.607147
0.608563 0.608563 0.608563
0.610254 0.610254 0.610254
0.612231 0.612231 0.612231
0.614503 0.614503 0.614503
0.617080 0.617080 0.617080
0.619966 0.619966 0.619966
0.623169 0.623169 0.623169
0.626691 0.626691 0.626691
0.630537 0.630537 0.630537
0.634707 0.634707 0.634707
0.639204 0.639204 0.639204
0.644027 0.644027 0.644027
0.649175 0.649175 0.649175
0.654647 0.654647 0.654647
0.660439 0.660439 0.660439
0.666549 0.666549 0.666549
0.672973 0.672973 0.672973
0.679706 0.679706 0.679706
0.686743 0.686743 0.686743
0.694078 0.694078 0.694078
0.701707 0.701707 0.701707
0.709621 0.709621 0.709621
0.717816 0.717816 0.717816
0.726283 0.726283 0.726283
0.735017 0.735017 0.735017
0.744009 0.744009 0.744009
0.753253 0.753253 0.753253
0.634406 0.634406 0.634406
0.634799 0.634799 0.634799
0.635243 0.635243 0.635243
0.635880 0.635880 0.635880
0.636734 0.636734 0.636734
0.637820 0.637820 0.637820
0.639155 0.639155 0.639155
0.640749 0.640749 0.640749
0.642613 0.642613 0.642613
0.644757 0.644757 0.644757
0.647188 0.647188 0.647188
0.649914 0.649914 0.649914
0.652939 0.652939 0.652939
0.656269 0.656269 0.656269
0.659907 0.659907 0.659907
0.663855 0.663855 0.663855
0.668115 0.668115 0.668115
0.672687 0.672687 0.672687
0.677572 0.677572 0.677572
0.682768 0.682768 0.682768
0.688273 0.688273 0.688273
0.694086 0.694086 0.694086
0.700203 0.700203 0.700203
0.706620 0.706620 0.706620
0.713333 0.713333 0.713333
0.720339 0.720339 0.720339
0.727631 0.727631 0.727631
0.735204 0.735204 0.735204
0.743053 0.743053 0.743053
0.751171 0.751171 0.751171
0.759553 0.759553 0.759553
0.768193 0.768193 0.768193
0.777082 0.777082 0.777082
0.665290 0.665290 0.665290
0.665661 0.665661 0.665661
0.666080 0.666080 0.666080
0.666681 0.666681 0.666681
0.667487 0.667487 0.667487
0.668514 0.668514 0.668514
0.669774 0.669774 0.669774
0.671280 0.671280 0.671280
0.673042 0.673042 0.673042
0.675069 0.675069 0.675069
0.677369 0.677369 0.677369
0.679948 0.679948 0.679948
0.682812 0.682812 0.682812
0.685967 0.685967 0.685967
0.689414 0.689414 0.689414
0.693158 0.693158 0.693158
0.697201 0.697201 0.697201
0.701542 0.701542 0.701542
0.706184 0.706184 0.706184
0.711126 0.711126 0.711126
0.716365 0.716365 0.716365
0.721902 0.721902 0.721902
0.727733 0.727733 0.727733
0.733856 0.733856 0.733856
0.740267 0.740267 0.740267
0.746963 0.746963 0.746963
0.753939 0.753939 0.753939
0.761191 0.761191 0.761191
0.768713 0.768713 0.768713
0.776501 0.776501 0.776501
0.784550 0.784550 0.784550
0.792853 0.792853 0.792853
0.801404 0.801404 0.801404
0.696174 0.696174 0.696174
0.696525 0.696525 0.696525
0.696922 0.696922 0.696922
0.697491 0.697491 0.697491
0.698253 0.698253 0.698253
0.699225 0.699225 0.699225
0.700418 0.700418 0.700418
0.701844 0.701844 0.701844
0.703513 0.703513 0.703513
0.705433 0.705433 0.705433
0.707613 0.707613 0.707613
0.710058 0.710058 0.710058
0.712775 0.712775 0.712775
0.715768 0.715768 0.715768
0.719042 0.719042 0.719042
0.722598 0.722598 0.722598
0.726441 0.726441 0.726441
0.730570 0.730570 0.730570
0.734988 0.734988 0.734988
0.739693 0.739693 0.739693
0.744687 0.744687 0.744687
0.749967 0.749967 0.749967
0.755533 0.755533 0.755533
0.761381 0.761381 0.761381
0.767509 0.767509 0.767509
0.773915 0.773915 0.773915
0.780594 0.780594 0.780594
0.787543 0.787543 0.787543
0.794758 0.794758 0.794758
0.802233 0.802233 0.802233
0.809965 0.809965 0.809965
0.817949 0.817949 0.817949
0.826178 0.826178 0.826178
0.727058 0.727058 0.727058
0.727391 0.727391 0.727391
0.727767 0.727767 0.727767
0.728306 0.728306 0.728306
0.729030 0.729030 0.729030
0.729951 0.729951 0.729951
0.731083 0.731083 0.731083
0.732436 0.732436 0.732436
0.734020 0.734020 0.734020
0.735843 0.735843 0.735843
0.737912 0.737912 0.737912
0.740235 0.740235 0.740235
0.742817 0.742817 0.742817
0.745662 0.745662 0.745662
0.748775 0.748775 0.748775
0.752160 0.752160 0.752160
0.755817 0.755817 0.755817
0.759751 0.759751 0.759751
0.763961 0.763961 0.763961
0.768449 0.768449 0.768449
0.773214 0.773214 0.773214
0.778255 0.778255 0.778255
0.783573 0.783573 0.783573
0.789165 0.789165 0.789165
0.795029 0.795029 0.795029
0.801163 0.801163 0.801163
0.807563 0.807563 0.807563
0.814227 0.814227 0.814227
0.821151 0.821151 0.821151
0.828331 0.828331 0.828331
0.835763 0.835763 0.835763
0.843443 0.843443 0.843443
0.851366 0.851366 0.851366
0.757942 0.757942 0.757942
0.758258 0.758258 0.758258
0.758616 0.758616 0.758616
0.759128 0.759128 0.759128
0.759815 0.759815 0.759815
0.760691 0.760691 0.760691
0.761767 0.761767 0.761767
0.763053 0.763053 0.763053
0.764559 0.764559 0.764559
0.766292 0.766292 0.766292
0.768261 0.768261 0.768261
0.770471 0.770471 0.770471
0.772928 0.772928 0.772928
0.775638 0.775638 0.775638
0.778603 0.778603 0.778603
0.781828 0.781828 0.781828
0.785316 0.785316 0.785316
0.789068 0.789068 0.789068
0.793086 0.793086 0.793086
0.797371 0.797371 0.797371
0.801923 0.801923 0.801923
0.806743 0.806743 0.806743
0.811830 0.811830 0.811830
0.817182 0.817182 0.817182
0.822799 0.822799 0.822799
