docs/luts/fuji_recipes/BR_HF_BW.cube
TITLE "Fujifilm Recipe: HF BW (BR)"
# FilmSim=BR HL=1 SH=2 Col=0 WB=Auto WBR=0 WBB=0
LUT_3D_SIZE 9
DOMAIN_MIN 0.0 0.0 0.0
DOMAIN_MAX 1.0 1.0 1.0
0.000000 0.000000 0.000000
0.040810 0.040810 0.040810
0.104289 0.104289 0.104289
0.167769 0.167769 0.167769
0.231248 0.231248 0.231248
0.294727 0.294727 0.294727
0.358206 0.358206 0.358206
0.421686 0.421686 0.421686
0.528447 0.528447 0.528447
0.085295 0.085295 0.085295
0.105099 0.105099 0.105099
0.144054 0.144054 0.144054
0.194576 0.194576 0.194576
0.250692 0.250692 0.250692
0.309620 0.309620 0.309620
0.370080 0.370080 0.370080
0.431443 0.431443 0.431443
0.537727 0.537727 0.537727
0.179667 0.179667 0.179667
0.189802 0.189802 0.189802
0.213223 0.213223 0.213223
0.248976 0.248976 0.248976
0.293611 0.293611 0.293611
0.344097 0.344097 0.344097
0.398365 0.398365 0.398365
0.455111 0.455111 0.455111
0.560504 0.560504 0.560504
0.274039 0.274039 0.274039
0.280411 0.280411 0.280411
0.295902 0.295902 0.295902
0.321347 0.321347 0.321347
0.355588 0.355588 0.355588
0.396847 0.396847 0.396847
0.443399 0.443399 0.443399
0.538261 0.538261 0.538261
0.598515 0.598515 0.598515
0.368411 0.368411 0.368411
0.372896 0.372896 0.372896
0.384024 0.384024 0.384024
0.402935 0.402935 0.402935
0.429471 0.429471 0.429471
0.503208 0.503208 0.503208
0.547434 0.547434 0.547434
0.596939 0.596939 0.596939
0.650638 0.650638 0.650638
0.503146 0.503146 0.503146
0.506972 0.506972 0.506972
0.516557 0.516557 0.516557
0.533133 0.533133 0.533133
0.556951 0.556951 0.556951
0.587717 0.587717 0.587717
0.624791 0.624791 0.624791
0.667366 0.667366 0.667366
0.714608 0.714608 0.714608
0.609827 0.609827 0.609827
0.612853 0.612853 0.612853
0.620472 0.620472 0.620472
0.633779 0.633779 0.633779
0.653171 0.653171 0.653171
0.678654 0.678654 0.678654
0.709944 0.709944 0.709944
0.746566 0.746566 0.746566
0.787945 0.787945 0.787945
0.716508 0.716508 0.716508
0.718983 0.718983 0.718983
0.725233 0.725233 0.725233
0.736214 0.736214 0.736214
0.752358 0.752358 0.752358
0.773813 0.773813 0.773813
0.800501 0.800501 0.800501
0.832171 0.832171 0.832171
0.868458 0.868458 0.868458
0.823189 0.823189 0.823189
0.825264 0.825264 0.825264
0.830517 0.830517 0.830517
0.839779 0.839779 0.839779
0.853476 0.853476 0.853476
0.871819 0.871819 0.871819
0.894842 0.894842 0.894842
0.922441 0.922441 0.922441
0.954399 0.954399 0.954399
0.010714 0.010714 0.010714
0.050099 0.050099 0.050099
0.108950 0.108950 0.108950
0.170684 0.170684 0.170684
0.233296 0.233296 0.233296
0.296271 0.296271 0.296271
0.359427 0.359427 0.359427
0.422684 0.422684 0.422684
0.529393 0.529393 0.529393
0.090852 0.090852 0.090852
0.109727 0.109727 0.109727
0.147468 0.147468 0.147468
0.197061 0.197061 0.197061
0.252559 0.252559 0.252559
0.311076 0.311076 0.311076
0.371253 0.371253 0.371253
0.432413 0.432413 0.432413
0.538653 0.538653 0.538653
0.182377 0.182377 0.182377
0.192355 0.192355 0.192355
0.215468 0.215468 0.215468
0.250858 0.250858 0.250858
0.295162 0.295162 0.295162
0.345379 0.345379 0.345379
0.399436 0.399436 0.399436
0.456017 0.456017 0.456017
0.561384 0.561384 0.561384
0.275722 0.275722 0.275722
0.282049 0.282049 0.282049
0.297439 0.297439 0.297439
0.322740 0.322740 0.322740
0.356820 0.356820 0.356820
0.397923 0.397923 0.397923
0.444336 0.444336 0.444336
0.539186 0.539186 0.539186
0.599327 0.599327 0.599327
0.369590 0.369590 0.369590
0.374058 0.374058 0.374058
0.385145 0.385145 0.385145
0.403991 0.403991 0.403991
0.430447 0.430447 0.430447
0.504211 0.504211 0.504211
0.548340 0.548340 0.548340
0.597754 0.597754 0.597754
0.651369 0.651369 0.651369
0.504150 0.504150 0.504150
0.507967 0.507967 0.507967
0.517530 0.517530 0.517530
0.534069 0.534069 0.534069
0.557837 0.557837 0.557837
0.588547 0.588547 0.588547
0.625560 0.625560 0.625560
0.668075 0.668075 0.668075
0.715258 0.715258 0.715258
0.610620 0.610620 0.610620
0.613641 0.613641 0.613641
0.621249 0.621249 0.621249
0.634535 0.634535 0.634535
0.653899 0.653899 0.653899
0.679348 0.679348 0.679348
0.710600 0.710600 0.710600
0.747181 0.747181 0.747181
0.788520 0.788520 0.788520
0.717156 0.717156 0.717156
0.719628 0.719628 0.719628
0.725871 0.725871 0.725871
0.736840 0.736840 0.736840
0.752967 0.752967 0.752967
0.774401 0.774401 0.774401
0.801064 0.801064 0.801064
0.832707 0.832707 0.832707
0.868966 0.868966 0.868966
0.823732 0.823732 0.823732
0.825806 0.825806 0.825806
0.831054 0.831054 0.831054
0.840309 0.840309 0.840309
0.853995 0.853995 0.853995
0.872323 0.872323 0.872323
0.895330 0.895330 0.895330
0.922910 0.922910 0.922910
0.954848 0.954848 0.954848
0.037968 0.037968 0.037968
0.069542 0.069542 0.069542
0.120029 0.120029 0.120029
0.177872 0.177872 0.177872
0.238418 0.238418 0.238418
0.300159 0.300159 0.300159
0.362511 0.362511 0.362511
0.425210 0.425210 0.425210
0.531791 0.531791 0.531791
0.103772 0.103772 0.103772
0.120737 0.120737 0.120737
0.155807 0.155807 0.155807
0.203233 0.203233 0.203233
0.257240 0.257240 0.257240
0.314745 0.314745 0.314745
0.374218 0.374218 0.374218
0.434869 0.434869 0.434869
0.541001 0.541001 0.541001
0.189082 0.189082 0.189082
0.198689 0.198689 0.198689
0.221065 0.221065 0.221065
0.255575 0.255575 0.255575
0.299067 0.299067 0.299067
0.348616 0.348616 0.348616
0.402146 0.402146 0.402146
0.458316 0.458316 0.458316
0.563616 0.563616 0.563616
0.279952 0.279952 0.279952
0.286168 0.286168 0.286168
0.301308 0.301308 0.301308
0.326252 0.326252 0.326252
0.359932 0.359932 0.359932
0.400646 0.400646 0.400646
0.446710 0.446710 0.446710
0.541531 0.541531 0.541531
0.601387 0.601387 0.601387
0.372571 0.372571 0.372571
0.376996 0.376996 0.376996
0.387979 0.387979 0.387979
0.406663 0.406663 0.406663
0.432917 0.432917 0.432917
0.506755 0.506755 0.506755
0.550637 0.550637 0.550637
0.599820 0.599820 0.599820
0.653227 0.653227 0.653227
0.506694 0.506694 0.506694
0.510488 0.510488 0.510488
0.519995 0.519995 0.519995
0.536441 0.536441 0.536441
0.560087 0.560087 0.560087
0.590653 0.590653 0.590653
0.627514 0.627514 0.627514
0.669874 0.669874 0.669874
0.716909 0.716909 0.716909
0.612633 0.612633 0.612633
0.615641 0.615641 0.615641
0.623219 0.623219 0.623219
0.636454 0.636454 0.636454
0.655747 0.655747 0.655747
0.681110 0.681110 0.681110
0.712265 0.712265 0.712265
0.748744 0.748744 0.748744
0.789979 0.789979 0.789979
0.718802 0.718802 0.718802
0.721267 0.721267 0.721267
0.727493 0.727493 0.727493
0.738431 0.738431 0.738431
0.754515 0.754515 0.754515
0.775895 0.775895 0.775895
0.802495 0.802495 0.802495
0.834069 0.834069 0.834069
0.870255 0.870255 0.870255
0.825113 0.825113 0.825113
0.827182 0.827182 0.827182
0.832419 0.832419 0.832419
0.841655 0.841655 0.841655
0.855313 0.855313 0.855313
0.873606 0.873606 0.873606
0.896571 0.896571 0.896571
0.924103 0.924103 0.924103
0.955990 0.955990 0.955990
0.074267 0.074267 0.074267
0.096136 0.096136 0.096136
0.137611 0.137611 0.137611
0.189959 0.189959 0.189959
0.247250 0.247250 0.247250
0.306947 0.306947 0.306947
0.367933 0.367933 0.367933
0.429670 0.429670 0.429670
0.536036 0.536036 0.536036
0.123656 0.123656 0.123656
0.138228 0.138228 0.138228
0.169609 0.169609 0.169609
0.213746 0.213746 0.213746
0.265349 0.265349 0.265349
0.321165 0.321165 0.321165
0.379434 0.379434 0.379434
0.439207 0.439207 0.439207
0.545158 0.545158 0.545158
0.200428 0.200428 0.200428
0.209459 0.209459 0.209459
0.230665 0.230665 0.230665
0.263744 0.263744 0.263744
0.305884 0.305884 0.305884
0.354299 0.354299 0.354299
0.406923 0.406923 0.406923
0.502689 0.502689 0.502689
0.567571 0.567571 0.567571
0.287312 0.287312 0.287312
0.293344 0.293344 0.293344
0.308066 0.308066 0.308066
0.332403 0.332403 0.332403
0.365400 0.365400 0.365400
0.405445 0.405445 0.405445
0.450905 0.450905 0.450905
0.545683 0.545683 0.545683
0.605038 0.605038 0.605038
0.377816 0.377816 0.377816
0.382166 0.382166 0.382166
0.392971 0.392971 0.392971
0.411375 0.411375 0.411375
0.437279 0.437279 0.437279
0.511254 0.511254 0.511254
0.554705 0.554705 0.554705
0.603484 0.603484 0.603484
0.656523 0.656523 0.656523
0.511194 0.511194 0.511194
0.514948 0.514948 0.514948
0.524356 0.524356 0.524356
0.540641 0.540641 0.540641
0.564072 0.564072 0.564072
0.594387 0.594387 0.594387
0.630978 0.630978 0.630978
0.673068 0.673068 0.673068
0.719843 0.719843 0.719843
0.616202 0.616202 0.616202
0.619189 0.619189 0.619189
0.626713 0.626713 0.626713
0.639859 0.639859 0.639859
0.659028 0.659028 0.659028
0.684238 0.684238 0.684238
0.715223 0.715223 0.715223
0.751522 0.751522 0.751522
0.792574 0.792574 0.792574
0.721726 0.721726 0.721726
0.724178 0.724178 0.724178
0.730373 0.730373 0.730373
0.741258 0.741258 0.741258
0.757266 0.757266 0.757266
0.778550 0.778550 0.778550
0.805039 0.805039 0.805039
0.836490 0.836490 0.836490
0.872548 0.872548 0.872548
0.827568 0.827568 0.827568
0.829629 0.829629 0.829629
0.834847 0.834847 0.834847
0.844049 0.844049 0.844049
0.857658 0.857658 0.857658
0.875888 0.875888 0.875888
0.898778 0.898778 0.898778
0.926226 0.926226 0.926226
0.958022 0.958022 0.958022
0.110565 0.110565 0.110565
0.126646 0.126646 0.126646
0.160399 0.160399 0.160399
0.206691 0.206691 0.206691
0.259889 0.259889 0.259889
0.316834 0.316834 0.316834
0.375910 0.375910 0.375910
0.436275 0.436275 0.436275
0.542346 0.542346 0.542346
0.148665 0.148665 0.148665
0.160925 0.160925 0.160925
0.188347 0.188347 0.188347
0.228545 0.228545 0.228545
0.277030 0.277030 0.277030
0.330542 0.330542 0.330542
0.387121 0.387121 0.387121
0.445635 0.445635 0.445635
0.551341 0.551341 0.551341
0.216261 0.216261 0.216261
0.224578 0.224578 0.224578
0.244303 0.244303 0.244303
0.275505 0.275505 0.275505
0.315810 0.315810 0.315810
0.362646 0.362646 0.362646
0.413984 0.413984 0.413984
0.509507 0.509507 0.509507
0.573458 0.573458 0.573458
0.297984 0.297984 0.297984
0.303764 0.303764 0.303764
0.317911 0.317911 0.317911
0.341408 0.341408 0.341408
0.373444 0.373444 0.373444
0.412537 0.412537 0.412537
0.457127 0.457127 0.457127
0.551859 0.551859 0.551859
0.610483 0.610483 0.610483
0.385543 0.385543 0.385543
0.389786 0.389786 0.389786
0.400338 0.400338 0.400338
0.418342 0.418342 0.418342
0.443742 0.443742 0.443742
0.517935 0.517935 0.517935
0.560760 0.560760 0.560760
0.608945 0.608945 0.608945
0.661444 0.661444 0.661444
0.517875 0.517875 0.517875
0.521571 0.521571 0.521571
0.530836 0.530836 0.530836
0.546887 0.546887 0.546887
0.570004 0.570004 0.570004
0.599951 0.599951 0.599951
0.636148 0.636148 0.636148
0.677840 0.677840 0.677840
0.724230 0.724230 0.724230
0.621525 0.621525 0.621525
0.624480 0.624480 0.624480
0.631926 0.631926 0.631926
0.644940 0.644940 0.644940
0.663926 0.663926 0.663926
0.688913 0.688913 0.688913
0.719645 0.719645 0.719645
0.755677 0.755677 0.755677
0.796459 0.796459 0.796459
0.726098 0.726098 0.726098
0.728532 0.728532 0.728532
0.734680 0.734680 0.734680
0.745485 0.745485 0.745485
0.761381 0.761381 0.761381
0.782523 0.782523 0.782523
0.808847 0.808847 0.808847
0.840117 0.840117 0.840117
0.875985 0.875985 0.875985
0.831245 0.831245 0.831245
0.833295 0.833295 0.833295
0.838483 0.838483 0.838483
0.847634 0.847634 0.847634
0.861171 0.861171 0.861171
0.879308 0.879308 0.879308
0.902087 0.902087 0.902087
0.929409 0.929409 0.929409
0.961069 0.961069 0.961069
0.146864 0.146864 0.146864
0.159270 0.159270 0.159270
0.186953 0.186953 0.186953
0.227425 0.227425 0.227425
0.276136 0.276136 0.276136
0.329819 0.329819 0.329819
0.386526 0.386526 0.386526
0.445135 0.445135 0.445135
0.550859 0.550859 0.550859
0.177113 0.177113 0.177113
0.187399 0.187399 0.187399
0.211116 0.211116 0.211116
0.247215 0.247215 0.247215
0.292163 0.292163 0.292163
0.342903 0.342903 0.342903
0.397368 0.397368 0.397368
0.454267 0.454267 0.454267
0.559686 0.559686 0.559686
0.236048 0.236048 0.236048
0.243598 0.243598 0.243598
0.261686 0.261686 0.261686
0.290731 0.290731 0.290731
0.328844 0.328844 0.328844
0.373727 0.373727 0.373727
0.423431 0.423431 0.423431
0.518682 0.518682 0.518682
0.581415 0.581415 0.581415
0.311918 0.311918 0.311918
0.317395 0.317395 0.317395
0.330845 0.330845 0.330845
0.353309 0.353309 0.353309
0.384144 0.384144 0.384144
0.422025 0.422025 0.422025
0.506209 0.506209 0.506209
0.560195 0.560195 0.560195
0.617854 0.617854 0.617854
0.395840 0.395840 0.395840
0.399949 0.399949 0.399949
0.410178 0.410178 0.410178
0.427670 0.427670 0.427670
0.452419 0.452419 0.452419
0.526932 0.526932 0.526932
0.568936 0.568936 0.568936
0.616339 0.616339 0.616339
0.668121 0.668121 0.668121
0.526874 0.526874 0.526874
0.530493 0.530493 0.530493
0.539572 0.539572 0.539572
0.555315 0.555315 0.555315
0.578020 0.578020 0.578020
0.607482 0.607482 0.607482
0.643155 0.643155 0.643155
0.684317 0.684317 0.684317
0.730193 0.730193 0.730193
0.628736 0.628736 0.628736
0.631649 0.631649 0.631649
0.638991 0.638991 0.638991
0.651829 0.651829 0.651829
0.670572 0.670572 0.670572
0.695261 0.695261 0.695261
0.725656 0.725656 0.725656
0.761330 0.761330 0.761330
0.801749 0.801749 0.801749
0.732043 0.732043 0.732043
0.734451 0.734451 0.734451
0.740537 0.740537 0.740537
0.751236 0.751236 0.751236
0.766981 0.766981 0.766981
0.787933 0.787933 0.787933
0.814034 0.814034 0.814034
0.845060 0.845060 0.845060
0.880671 0.880671 0.880671
0.836255 0.836255 0.836255
0.838289 0.838289 0.838289
0.843438 0.843438 0.843438
0.852521 0.852521 0.852521
0.865961 0.865961 0.865961
0.883972 0.883972 0.883972
0.906600 0.906600 0.906600
0.933752 0.933752 0.933752
0.965229 0.965229 0.965229
0.183162 0.183162 0.183162
0.193095 0.193095 0.193095
0.216120 0.216120 0.216120
0.251406 0.251406 0.251406
0.295614 0.295614 0.295614
0.345753 0.345753 0.345753
0.399749 0.399749 0.399749
0.456283 0.456283 0.456283
0.561641 0.561641 0.561641
0.207814 0.207814 0.207814
0.216499 0.216499 0.216499
0.236994 0.236994 0.236994
0.269180 0.269180 0.269180
0.310456 0.310456 0.310456
0.358134 0.358134 0.358134
0.410161 0.410161 0.410161
0.505811 0.505811 0.505811
0.570264 0.570264 0.570264
0.259115 0.259115 0.259115
0.265910 0.265910 0.265910
0.282345 0.282345 0.282345
0.309126 0.309126 0.309126
0.344833 0.344833 0.344833
0.387491 0.387491 0.387491
0.435279 0.435279 0.435279
0.530270 0.530270 0.530270
0.591517 0.591517 0.591517
0.328906 0.328906 0.328906
0.334049 0.334049 0.334049
0.346722 0.346722 0.346722
0.368017 0.368017 0.368017
0.397465 0.397465 0.397465
0.433921 0.433921 0.433921
0.518137 0.518137 0.518137
0.570761 0.570761 0.570761
0.627234 0.627234 0.627234
0.408692 0.408692 0.408692
0.412642 0.412642 0.412642
0.422491 0.422491 0.422491
0.439375 0.439375 0.439375
0.503784 0.503784 0.503784
0.538304 0.538304 0.538304
0.579306 0.579306 0.579306
0.625747 0.625747 0.625747
0.676640 0.676640 0.676640
0.538247 0.538247 0.538247
0.541774 0.541774 0.541774
0.550626 0.550626 0.550626
0.565993 0.565993 0.565993
0.588193 0.588193 0.588193
0.617058 0.617058 0.617058
0.652084 0.652084 0.652084
0.692586 0.692586 0.692586
0.737819 0.737819 0.737819
0.637917 0.637917 0.637917
0.640779 0.640779 0.640779
0.647992 0.647992 0.647992
0.660612 0.660612 0.660612
0.679052 0.679052 0.679052
0.703368 0.703368 0.703368
0.733342 0.733342 0.733342
0.768567 0.768567 0.768567
0.808529 0.808529 0.808529
0.739645 0.739645 0.739645
0.742022 0.742022 0.742022
0.748030 0.748030 0.748030
0.758595 0.758595 0.758595
0.774151 0.774151 0.774151
0.794863 0.794863 0.794863
0.820685 0.820685 0.820685
0.851402 0.851402 0.851402
0.886688 0.886688 0.886688
0.842682 0.842682 0.842682
0.844696 0.844696 0.844696
0.849795 0.849795 0.849795
0.858793 0.858793 0.858793
0.872108 0.872108 0.872108
0.889960 0.889960 0.889960
0.912398 0.912398 0.912398
0.939335 0.939335 0.939335
0.970578 0.970578 0.970578
0.219460 0.219460 0.219460
0.227645 0.227645 0.227645
0.247090 0.247090 0.247090
0.277929 0.277929 0.277929
0.317872 0.317872 0.317872
0.364390 0.364390 0.364390
0.415465 0.415465 0.415465
0.510941 0.510941 0.510941
0.574700 0.574700 0.574700
0.240004 0.240004 0.240004
0.247415 0.247415 0.247415
0.265201 0.265201 0.265201
0.293840 0.293840 0.293840
0.331529 0.331529 0.331529
0.376025 0.376025 0.376025
0.425401 0.425401 0.425401
0.520602 0.520602 0.520602
0.583085 0.583085 0.583085
0.284803 0.284803 0.284803
0.290896 0.290896 0.290896
0.305758 0.305758 0.305758
0.330300 0.330300 0.330300
0.363528 0.363528 0.363528
0.403800 0.403800 0.403800
0.449466 0.449466 0.449466
0.544257 0.544257 0.544257
0.603784 0.603784 0.603784
0.348644 0.348644 0.348644
0.353440 0.353440 0.353440
0.365299 0.365299 0.365299
0.385348 0.385348 0.385348
0.413289 0.413289 0.413289
0.448161 0.448161 0.448161
0.532514 0.532514 0.532514
0.583569 0.583569 0.583569
0.638656 0.638656 0.638656
0.423998 0.423998 0.423998
0.427773 0.427773 0.427773
0.437198 0.437198 0.437198
0.453402 0.453402 0.453402
0.518645 0.518645 0.518645
0.552043 0.552043 0.552043
0.591887 0.591887 0.591887
0.637203 0.637203 0.637203
0.687045 0.687045 0.687045
0.551988 0.551988 0.551988
0.555408 0.555408 0.555408
0.563998 0.563998 0.563998
0.578931 0.578931 0.578931
0.600544 0.600544 0.600544
0.628710 0.628710 0.628710
0.662974 0.662974 0.662974
0.702696 0.702696 0.702696
0.747163 0.747163 0.747163
0.649105 0.649105 0.649105
0.651906 0.651906 0.651906
0.658967 0.658967 0.658967
0.671329 0.671329 0.671329
0.689412 0.689412 0.689412
0.713286 0.713286 0.713286
0.742757 0.742757 0.742757
0.777444 0.777444 0.777444
0.816857 0.816857 0.816857
0.748960 0.748960 0.748960
0.751300 0.751300 0.751300
0.757215 0.757215 0.757215
0.767620 0.767620 0.767620
0.782948 0.782948 0.782948
0.803373 0.803373 0.803373
0.828857 0.828857 0.828857
0.859203 0.859203 0.859203
0.894095 0.894095 0.894095
0.850586 0.850586 0.850586
0.852576 0.852576 0.852576
0.857615 0.857615 0.857615
0.866508 0.866508 0.866508
0.879674 0.879674 0.879674
0.897332 0.897332 0.897332
0.919539 0.919539 0.919539
0.946215 0.946215 0.946215
0.977175 0.977175 0.977175
0.255759 0.255759 0.255759
0.262656 0.262656 0.262656
0.279316 0.279316 0.279316
0.306411 0.306411 0.306411
0.342458 0.342458 0.342458
0.385435 0.385435 0.385435
0.433501 0.433501 0.433501
0.528526 0.528526 0.528526
0.589993 0.589993 0.589993
0.273203 0.273203 0.273203
0.279598 0.279598 0.279598
0.295139 0.295139 0.295139
0.320657 0.320657 0.320657
0.354978 0.354978 0.354978
0.396314 0.396314 0.396314
0.442935 0.442935 0.442935
0.537803 0.537803 0.537803
0.598114 0.598114 0.598114
0.312545 0.312545 0.312545
0.318009 0.318009 0.318009
0.331429 0.331429 0.331429
0.353848 0.353848 0.353848
0.384630 0.384630 0.384630
0.422458 0.422458 0.422458
0.506642 0.506642 0.506642
0.560577 0.560577 0.560577
0.618193 0.618193 0.618193
0.370788 0.370788 0.370788
0.375238 0.375238 0.375238
0.386283 0.386283 0.386283
0.405064 0.405064 0.405064
0.431438 0.431438 0.431438
0.505232 0.505232 0.505232
0.549261 0.549261 0.549261
0.598583 0.598583 0.598583
0.652114 0.652114 0.652114
0.441601 0.441601 0.441601
0.445190 0.445190 0.445190
0.454165 0.454165 0.454165
0.510896 0.510896 0.510896
0.535923 0.535923 0.535923
0.568089 0.568089 0.568089
0.606647 0.606647 0.606647
0.650698 0.650698 0.650698
0.699349 0.699349 0.699349
0.568036 0.568036 0.568036
0.571338 0.571338 0.571338
0.579639 0.579639 0.579639
0.594089 0.594089 0.594089
0.615047 0.615047 0.615047
0.642428 0.642428 0.642428
0.675830 0.675830 0.675830
0.714661 0.714661 0.714661
0.758250 0.758250 0.758250
0.662299 0.662299 0.662299
0.665030 0.665030 0.665030
0.671919 0.671919 0.671919
0.683989 0.683989 0.683989
0.701663 0.701663 0.701663
0.725032 0.725032 0.725032
0.753926 0.753926 0.753926
0.787993 0.787993 0.787993
0.826769 0.826769 0.826769
0.760013 0.760013 0.760013
0.762310 0.762310 0.762310
0.768117 0.768117 0.768117
0.778338 0.778338 0.778338
0.793403 0.793403 0.793403
0.813495 0.813495 0.813495
0.838588 0.838588 0.838588
0.868500 0.868500 0.868500
0.902934 0.902934 0.902934
0.860003 0.860003 0.860003
0.861965 0.861965 0.861965
0.866934 0.866934 0.866934
0.875706 0.875706 0.875706
0.888697 0.888697 0.888697
0.906130 0.906130 0.906130
0.928067 0.928067 0.928067
0.954436 0.954436 0.954436
0.985063 0.985063 0.985063
