docs/luts/fuji_recipes/BR_HF_BW.cube
TITLE "Fujifilm Recipe: HF BW (BR)"
# FilmSim=BR HL=1 SH=2 Col=0 WB=Auto WBR=0 WBB=0
LUT_3D_SIZE 33
DOMAIN_MIN 0.0 0.0 0.0
DOMAIN_MAX 1.0 1.0 1.0
0.000000 0.000000 0.000000
0.006907 0.006907 0.006907
0.014722 0.014722 0.014722
0.025929 0.025929 0.025929
0.040810 0.040810 0.040810
0.056680 0.056680 0.056680
0.072550 0.072550 0.072550
0.088420 0.088420 0.088420
0.104289 0.104289 0.104289
0.120159 0.120159 0.120159
0.136029 0.136029 0.136029
0.151899 0.151899 0.151899
0.167769 0.167769 0.167769
0.183638 0.183638 0.183638
0.199508 0.199508 0.199508
0.215378 0.215378 0.215378
0.231248 0.231248 0.231248
0.247118 0.247118 0.247118
0.262988 0.262988 0.262988
0.278857 0.278857 0.278857
0.294727 0.294727 0.294727
0.310597 0.310597 0.310597
0.326467 0.326467 0.326467
0.342337 0.342337 0.342337
0.358206 0.358206 0.358206
0.374076 0.374076 0.374076
0.389946 0.389946 0.389946
0.405816 0.405816 0.405816
0.421686 0.421686 0.421686
0.437556 0.437556 0.437556
0.453425 0.453425 0.453425
0.510508 0.510508 0.510508
0.528447 0.528447 0.528447
0.017889 0.017889 0.017889
0.024796 0.024796 0.024796
0.032611 0.032611 0.032611
0.043399 0.043399 0.043399
0.055703 0.055703 0.055703
0.068969 0.068969 0.068969
0.082890 0.082890 0.082890
0.097267 0.097267 0.097267
0.111968 0.111968 0.111968
0.126904 0.126904 0.126904
0.142015 0.142015 0.142015
0.157260 0.157260 0.157260
0.172606 0.172606 0.172606
0.188034 0.188034 0.188034
0.203526 0.203526 0.203526
0.219070 0.219070 0.219070
0.234656 0.234656 0.234656
0.250278 0.250278 0.250278
0.265928 0.265928 0.265928
0.281604 0.281604 0.281604
0.297300 0.297300 0.297300
0.313014 0.313014 0.313014
0.328744 0.328744 0.328744
0.344487 0.344487 0.344487
0.360242 0.360242 0.360242
0.376006 0.376006 0.376006
0.391780 0.391780 0.391780
0.407562 0.407562 0.407562
0.423350 0.423350 0.423350
0.439145 0.439145 0.439145
0.454945 0.454945 0.454945
0.512153 0.512153 0.512153
0.530025 0.530025 0.530025
0.038110 0.038110 0.038110
0.044481 0.044481 0.044481
0.051037 0.051037 0.051037
0.059515 0.059515 0.059515
0.069634 0.069634 0.069634
0.081026 0.081026 0.081026
0.093380 0.093380 0.093380
0.106460 0.106460 0.106460
0.120086 0.120086 0.120086
0.134128 0.134128 0.134128
0.148490 0.148490 0.148490
0.163101 0.163101 0.163101
0.177909 0.177909 0.177909
0.192875 0.192875 0.192875
0.207968 0.207968 0.207968
0.223164 0.223164 0.223164
0.238445 0.238445 0.238445
0.253798 0.253798 0.253798
0.269211 0.269211 0.269211
0.284674 0.284674 0.284674
0.300180 0.300180 0.300180
0.315723 0.315723 0.315723
0.331298 0.331298 0.331298
0.346901 0.346901 0.346901
0.362527 0.362527 0.362527
0.378176 0.378176 0.378176
0.393842 0.393842 0.393842
0.409526 0.409526 0.409526
0.425224 0.425224 0.425224
0.440935 0.440935 0.440935
0.456658 0.456658 0.456658
0.514008 0.514008 0.514008
0.531804 0.531804 0.531804
0.061702 0.061702 0.061702
0.066378 0.066378 0.066378
0.071371 0.071371 0.071371
0.078068 0.078068 0.078068
0.086358 0.086358 0.086358
0.096007 0.096007 0.096007
0.106779 0.106779 0.106779
0.118457 0.118457 0.118457
0.130860 0.130860 0.130860
0.143843 0.143843 0.143843
0.157289 0.157289 0.157289
0.171107 0.171107 0.171107
0.185226 0.185226 0.185226
0.199590 0.199590 0.199590
0.214156 0.214156 0.214156
0.228888 0.228888 0.228888
0.243760 0.243760 0.243760
0.258749 0.258749 0.258749
0.273836 0.273836 0.273836
0.289008 0.289008 0.289008
0.304252 0.304252 0.304252
0.319558 0.319558 0.319558
0.334919 0.334919 0.334919
0.350326 0.350326 0.350326
0.365775 0.365775 0.365775
0.381259 0.381259 0.381259
0.396776 0.396776 0.396776
0.412322 0.412322 0.412322
0.427892 0.427892 0.427892
0.443486 0.443486 0.443486
0.459099 0.459099 0.459099
0.516652 0.516652 0.516652
0.534342 0.534342 0.534342
0.085295 0.085295 0.085295
0.088913 0.088913 0.088913
0.092854 0.092854 0.092854
0.098253 0.098253 0.098253
0.105099 0.105099 0.105099
0.113262 0.113262 0.113262
0.122585 0.122585 0.122585
0.132900 0.132900 0.132900
0.144054 0.144054 0.144054
0.155907 0.155907 0.155907
0.168342 0.168342 0.168342
0.181259 0.181259 0.181259
0.194576 0.194576 0.194576
0.208228 0.208228 0.208228
0.222160 0.222160 0.222160
0.236327 0.236327 0.236327
0.250692 0.250692 0.250692
0.265227 0.265227 0.265227
0.279906 0.279906 0.279906
0.294709 0.294709 0.294709
0.309620 0.309620 0.309620
0.324623 0.324623 0.324623
0.339707 0.339707 0.339707
0.354862 0.354862 0.354862
0.370080 0.370080 0.370080
0.385353 0.385353 0.385353
0.400674 0.400674 0.400674
0.416039 0.416039 0.416039
0.431443 0.431443 0.431443
0.446882 0.446882 0.446882
0.502659 0.502659 0.502659
0.520178 0.520178 0.520178
0.537727 0.537727 0.537727
0.108888 0.108888 0.108888
0.111796 0.111796 0.111796
0.115001 0.115001 0.115001
0.119450 0.119450 0.119450
0.125180 0.125180 0.125180
0.132130 0.132130 0.132130
0.140203 0.140203 0.140203
0.149284 0.149284 0.149284
0.159253 0.159253 0.159253
0.169993 0.169993 0.169993
0.181397 0.181397 0.181397
0.193368 0.193368 0.193368
0.205824 0.205824 0.205824
0.218693 0.218693 0.218693
0.231916 0.231916 0.231916
0.245440 0.245440 0.245440
0.259223 0.259223 0.259223
0.273230 0.273230 0.273230
0.287429 0.287429 0.287429
0.301796 0.301796 0.301796
0.316308 0.316308 0.316308
0.330947 0.330947 0.330947
0.345698 0.345698 0.345698
0.360548 0.360548 0.360548
0.375484 0.375484 0.375484
0.390497 0.390497 0.390497
0.405579 0.405579 0.405579
0.420722 0.420722 0.420722
0.435920 0.435920 0.435920
0.451168 0.451168 0.451168
0.507302 0.507302 0.507302
0.524634 0.524634 0.524634
0.542007 0.542007 0.542007
0.132481 0.132481 0.132481
0.134887 0.134887 0.134887
0.137557 0.137557 0.137557
0.141296 0.141296 0.141296
0.146162 0.146162 0.146162
0.152135 0.152135 0.152135
0.159161 0.159161 0.159161
0.167166 0.167166 0.167166
0.176063 0.176063 0.176063
0.185761 0.185761 0.185761
0.196168 0.196168 0.196168
0.207200 0.207200 0.207200
0.218779 0.218779 0.218779
0.230835 0.230835 0.230835
0.243307 0.243307 0.243307
0.256140 0.256140 0.256140
0.269288 0.269288 0.269288
0.282712 0.282712 0.282712
0.296376 0.296376 0.296376
0.310250 0.310250 0.310250
0.324310 0.324310 0.324310
0.338533 0.338533 0.338533
0.352900 0.352900 0.352900
0.367395 0.367395 0.367395
0.382004 0.382004 0.382004
0.396714 0.396714 0.396714
0.411515 0.411515 0.411515
0.426396 0.426396 0.426396
0.441351 0.441351 0.441351
0.456372 0.456372 0.456372
0.512946 0.512946 0.512946
0.530054 0.530054 0.530054
0.547217 0.547217 0.547217
0.156074 0.156074 0.156074
0.158109 0.158109 0.158109
0.160379 0.160379 0.160379
0.163574 0.163574 0.163574
0.167764 0.167764 0.167764
0.172949 0.172949 0.172949
0.179107 0.179107 0.179107
0.186192 0.186192 0.186192
0.194144 0.194144 0.194144
0.202896 0.202896 0.202896
0.212375 0.212375 0.212375
0.222510 0.222510 0.222510
0.233232 0.233232 0.233232
0.244477 0.244477 0.244477
0.256186 0.256186 0.256186
0.268306 0.268306 0.268306
0.280790 0.280790 0.280790
0.293595 0.293595 0.293595
0.306684 0.306684 0.306684
0.320026 0.320026 0.320026
0.333592 0.333592 0.333592
0.347356 0.347356 0.347356
0.361297 0.361297 0.361297
0.375397 0.375397 0.375397
0.389638 0.389638 0.389638
0.404005 0.404005 0.404005
0.418487 0.418487 0.418487
0.433071 0.433071 0.433071
0.447748 0.447748 0.447748
0.502836 0.502836 0.502836
0.519608 0.519608 0.519608
0.536458 0.536458 0.536458
0.553379 0.553379 0.553379
0.179667 0.179667 0.179667
0.181419 0.181419 0.181419
0.183379 0.183379 0.183379
0.186150 0.186150 0.186150
0.189802 0.189802 0.189802
0.194349 0.194349 0.194349
0.199788 0.199788 0.199788
0.206092 0.206092 0.206092
0.213223 0.213223 0.213223
0.221133 0.221133 0.221133
0.229767 0.229767 0.229767
0.239067 0.239067 0.239067
0.248976 0.248976 0.248976
0.259436 0.259436 0.259436
0.270395 0.270395 0.270395
0.281801 0.281801 0.281801
0.293611 0.293611 0.293611
0.305780 0.305780 0.305780
0.318273 0.318273 0.318273
0.331056 0.331056 0.331056
0.344097 0.344097 0.344097
0.357371 0.357371 0.357371
0.370854 0.370854 0.370854
0.384525 0.384525 0.384525
0.398365 0.398365 0.398365
0.412357 0.412357 0.412357
0.426488 0.426488 0.426488
0.440742 0.440742 0.440742
0.455111 0.455111 0.455111
0.510831 0.510831 0.510831
0.527295 0.527295 0.527295
0.543855 0.543855 0.543855
0.560504 0.560504 0.560504
0.203260 0.203260 0.203260
0.204790 0.204790 0.204790
0.206506 0.206506 0.206506
0.208938 0.208938 0.208938
0.212156 0.212156 0.212156
0.216181 0.216181 0.216181
0.221020 0.221020 0.221020
0.226663 0.226663 0.226663
0.233085 0.233085 0.233085
0.240254 0.240254 0.240254
0.248130 0.248130 0.248130
0.256666 0.256666 0.256666
0.265818 0.265818 0.265818
0.275535 0.275535 0.275535
0.285772 0.285772 0.285772
0.296482 0.296482 0.296482
0.307624 0.307624 0.307624
0.319158 0.319158 0.319158
0.331047 0.331047 0.331047
0.343256 0.343256 0.343256
0.355757 0.355757 0.355757
0.368520 0.368520 0.368520
0.381522 0.381522 0.381522
0.394740 0.394740 0.394740
0.408153 0.408153 0.408153
0.421744 0.421744 0.421744
0.435496 0.435496 0.435496
0.449394 0.449394 0.449394
0.503874 0.503874 0.503874
0.519875 0.519875 0.519875
0.536002 0.536002 0.536002
0.552244 0.552244 0.552244
0.568592 0.568592 0.568592
0.226853 0.226853 0.226853
0.228205 0.228205 0.228205
0.229724 0.229724 0.229724
0.231882 0.231882 0.231882
0.234744 0.234744 0.234744
0.238337 0.238337 0.238337
0.242674 0.242674 0.242674
0.247754 0.247754 0.247754
0.253565 0.253565 0.253565
0.260085 0.260085 0.260085
0.267285 0.267285 0.267285
0.275132 0.275132 0.275132
0.283587 0.283587 0.283587
0.292612 0.292612 0.292612
0.302166 0.302166 0.302166
0.312210 0.312210 0.312210
0.322705 0.322705 0.322705
0.333614 0.333614 0.333614
0.344902 0.344902 0.344902
0.356538 0.356538 0.356538
0.368491 0.368491 0.368491
0.380734 0.380734 0.380734
0.393241 0.393241 0.393241
0.405989 0.405989 0.405989
0.418957 0.418957 0.418957
0.432126 0.432126 0.432126
0.445479 0.445479 0.445479
0.459000 0.459000 0.459000
0.514329 0.514329 0.514329
0.529948 0.529948 0.529948
0.545713 0.545713 0.545713
0.561612 0.561612 0.561612
0.577636 0.577636 0.577636
0.250446 0.250446 0.250446
0.251653 0.251653 0.251653
0.253010 0.253010 0.253010
0.254942 0.254942 0.254942
0.257509 0.257509 0.257509
0.260741 0.260741 0.260741
0.264654 0.264654 0.264654
0.269254 0.269254 0.269254
0.274536 0.274536 0.274536
0.280488 0.280488 0.280488
0.287090 0.287090 0.287090
0.294316 0.294316 0.294316
0.302138 0.302138 0.302138
0.310525 0.310525 0.310525
0.319441 0.319441 0.319441
0.328855 0.328855 0.328855
0.338730 0.338730 0.338730
0.349036 0.349036 0.349036
0.359738 0.359738 0.359738
0.370808 0.370808 0.370808
0.382216 0.382216 0.382216
0.393936 0.393936 0.393936
0.405942 0.405942 0.405942
0.418212 0.418212 0.418212
0.430724 0.430724 0.430724
0.443459 0.443459 0.443459
0.456399 0.456399 0.456399
0.510769 0.510769 0.510769
0.525805 0.525805 0.525805
0.541021 0.541021 0.541021
0.556404 0.556404 0.556404
0.571940 0.571940 0.571940
0.587618 0.587618 0.587618
0.274039 0.274039 0.274039
0.275125 0.275125 0.275125
0.276348 0.276348 0.276348
0.278091 0.278091 0.278091
0.280411 0.280411 0.280411
0.283338 0.283338 0.283338
0.286890 0.286890 0.286890
0.291078 0.291078 0.291078
0.295902 0.295902 0.295902
0.301356 0.301356 0.301356
0.307427 0.307427 0.307427
0.314098 0.314098 0.314098
0.321347 0.321347 0.321347
0.329149 0.329149 0.329149
0.337475 0.337475 0.337475
0.346298 0.346298 0.346298
0.355588 0.355588 0.355588
0.365317 0.365317 0.365317
0.375455 0.375455 0.375455
0.385974 0.385974 0.385974
0.396847 0.396847 0.396847
0.408050 0.408050 0.408050
0.419557 0.419557 0.419557
0.431347 0.431347 0.431347
0.443399 0.443399 0.443399
0.455692 0.455692 0.455692
0.509279 0.509279 0.509279
0.523662 0.523662 0.523662
0.538261 0.538261 0.538261
0.553060 0.553060 0.553060
0.568044 0.568044 0.568044
0.583200 0.583200 0.583200
0.598515 0.598515 0.598515
0.297632 0.297632 0.297632
0.298617 0.298617 0.298617
0.299727 0.299727 0.299727
0.301310 0.301310 0.301310
0.303420 0.303420 0.303420
0.306086 0.306086 0.306086
0.309329 0.309329 0.309329
0.313160 0.313160 0.313160
0.317585 0.317585 0.317585
0.322603 0.322603 0.322603
0.328204 0.328204 0.328204
0.334379 0.334379 0.334379
0.341110 0.341110 0.341110
0.348378 0.348378 0.348378
0.356161 0.356161 0.356161
0.364436 0.364436 0.364436
0.373177 0.373177 0.373177
0.382360 0.382360 0.382360
0.391958 0.391958 0.391958
0.401946 0.401946 0.401946
0.412301 0.412301 0.412301
0.422998 0.422998 0.422998
0.434014 0.434014 0.434014
0.445328 0.445328 0.445328
0.456920 0.456920 0.456920
0.509913 0.509913 0.509913
0.523580 0.523580 0.523580
0.537499 0.537499 0.537499
0.551652 0.551652 0.551652
0.566024 0.566024 0.566024
0.580598 0.580598 0.580598
0.595362 0.595362 0.595362
0.610300 0.610300 0.610300
0.321225 0.321225 0.321225
0.322124 0.322124 0.322124
0.323137 0.323137 0.323137
0.324584 0.324584 0.324584
0.326514 0.326514 0.326514
0.328957 0.328957 0.328957
0.331932 0.331932 0.331932
0.335453 0.335453 0.335453
0.339530 0.339530 0.339530
0.344162 0.344162 0.344162
0.349347 0.349347 0.349347
0.355077 0.355077 0.355077
0.361341 0.361341 0.361341
0.368124 0.368124 0.368124
0.375409 0.375409 0.375409
0.383177 0.383177 0.383177
0.391406 0.391406 0.391406
0.400075 0.400075 0.400075
0.409161 0.409161 0.409161
0.418643 0.418643 0.418643
0.428499 0.428499 0.428499
0.438705 0.438705 0.438705
0.449242 0.449242 0.449242
0.500101 0.500101 0.500101
0.512691 0.512691 0.512691
0.525588 0.525588 0.525588
0.538772 0.538772 0.538772
0.552226 0.552226 0.552226
0.565930 0.565930 0.565930
0.579868 0.579868 0.579868
0.594025 0.594025 0.594025
0.608387 0.608387 0.608387
0.622940 0.622940 0.622940
0.344818 0.344818 0.344818
0.345643 0.345643 0.345643
0.346573 0.346573 0.346573
0.347902 0.347902 0.347902
0.349677 0.349677 0.349677
0.351925 0.351925 0.351925
0.354668 0.354668 0.354668
0.357919 0.357919 0.357919
0.361688 0.361688 0.361688
0.365980 0.365980 0.365980
0.370794 0.370794 0.370794
0.376126 0.376126 0.376126
0.381969 0.381969 0.381969
0.388312 0.388312 0.388312
0.395141 0.395141 0.395141
0.402440 0.402440 0.402440
0.410194 0.410194 0.410194
0.418382 0.418382 0.418382
0.426987 0.426987 0.426987
0.435989 0.435989 0.435989
0.445367 0.445367 0.445367
0.455102 0.455102 0.455102
0.505850 0.505850 0.505850
0.517598 0.517598 0.517598
0.529685 0.529685 0.529685
0.542091 0.542091 0.542091
0.554798 0.554798 0.554798
0.567788 0.567788 0.567788
0.581042 0.581042 0.581042
0.594546 0.594546 0.594546
0.608282 0.608282 0.608282
0.622238 0.622238 0.622238
0.636399 0.636399 0.636399
0.368411 0.368411 0.368411
0.369172 0.369172 0.369172
0.370030 0.370030 0.370030
0.371257 0.371257 0.371257
0.372896 0.372896 0.372896
0.374975 0.374975 0.374975
0.377513 0.377513 0.377513
0.380526 0.380526 0.380526
0.384024 0.384024 0.384024
0.388014 0.388014 0.388014
0.392497 0.392497 0.392497
0.397472 0.397472 0.397472
0.402935 0.402935 0.402935
0.408877 0.408877 0.408877
0.415289 0.415289 0.415289
0.422159 0.422159 0.422159
0.429471 0.429471 0.429471
0.437212 0.437212 0.437212
0.445365 0.445365 0.445365
0.453913 0.453913 0.453913
0.503208 0.503208 0.503208
0.513703 0.513703 0.513703
0.524586 0.524586 0.524586
0.535836 0.535836 0.535836
0.547434 0.547434 0.547434
0.559361 0.559361 0.559361
0.571599 0.571599 0.571599
0.584131 0.584131 0.584131
0.596939 0.596939 0.596939
0.610009 0.610009 0.610009
0.623325 0.623325 0.623325
0.636872 0.636872 0.636872
0.650638 0.650638 0.650638
0.392004 0.392004 0.392004
0.392709 0.392709 0.392709
0.393504 0.393504 0.393504
0.394641 0.394641 0.394641
0.396162 0.396162 0.396162
0.398091 0.398091 0.398091
0.400449 0.400449 0.400449
0.403252 0.403252 0.403252
0.406509 0.406509 0.406509
0.410229 0.410229 0.410229
0.414416 0.414416 0.414416
0.419070 0.419070 0.419070
0.424189 0.424189 0.424189
0.429768 0.429768 0.429768
0.435799 0.435799 0.435799
0.442273 0.442273 0.442273
0.449178 0.449178 0.449178
0.456502 0.456502 0.456502
0.504784 0.504784 0.504784
0.513964 0.513964 0.513964
0.523568 0.523568 0.523568
0.533579 0.533579 0.533579
0.543979 0.543979 0.543979
0.554751 0.554751 0.554751
0.565876 0.565876 0.565876
0.577337 0.577337 0.577337
0.589117 0.589117 0.589117
0.601200 0.601200 0.601200
0.613569 0.613569 0.613569
0.626210 0.626210 0.626210
0.639108 0.639108 0.639108
0.652248 0.652248 0.652248
0.665618 0.665618 0.665618
0.415597 0.415597 0.415597
0.416252 0.416252 0.416252
0.416992 0.416992 0.416992
0.418050 0.418050 0.418050
0.419466 0.419466 0.419466
0.421264 0.421264 0.421264
0.423462 0.423462 0.423462
0.426077 0.426077 0.426077
0.429120 0.429120 0.429120
0.432599 0.432599 0.432599
0.436520 0.436520 0.436520
0.440884 0.440884 0.440884
0.445692 0.445692 0.445692
0.450939 0.450939 0.450939
0.456622 0.456622 0.456622
0.503088 0.503088 0.503088
0.510469 0.510469 0.510469
0.518311 0.518311 0.518311
0.526603 0.526603 0.526603
0.535330 0.535330 0.535330
0.544477 0.544477 0.544477
0.554028 0.554028 0.554028
0.563968 0.563968 0.563968
0.574282 0.574282 0.574282
0.584951 0.584951 0.584951
0.595962 0.595962 0.595962
0.607298 0.607298 0.607298
0.618943 0.618943 0.618943
0.630882 0.630882 0.630882
0.643101 0.643101 0.643101
0.655586 0.655586 0.655586
0.668323 0.668323 0.668323
0.681300 0.681300 0.681300
0.439190 0.439190 0.439190
0.439801 0.439801 0.439801
0.440492 0.440492 0.440492
0.441481 0.441481 0.441481
0.442803 0.442803 0.442803
0.444483 0.444483 0.444483
0.446539 0.446539 0.446539
0.448987 0.448987 0.448987
0.451838 0.451838 0.451838
0.455100 0.455100 0.455100
0.458781 0.458781 0.458781
0.503260 0.503260 0.503260
0.508374 0.508374 0.508374
0.513965 0.513965 0.513965
0.520028 0.520028 0.520028
0.526557 0.526557 0.526557
0.533545 0.533545 0.533545
0.540982 0.540982 0.540982
0.548857 0.548857 0.548857
0.557160 0.557160 0.557160
0.565876 0.565876 0.565876
0.574993 0.574993 0.574993
0.584497 0.584497 0.584497
0.594373 0.594373 0.594373
0.604607 0.604607 0.604607
0.615184 0.615184 0.615184
0.626089 0.626089 0.626089
0.637310 0.637310 0.637310
0.648830 0.648830 0.648830
0.660636 0.660636 0.660636
0.672716 0.672716 0.672716
0.685056 0.685056 0.685056
0.697642 0.697642 0.697642
0.503146 0.503146 0.503146
0.503793 0.503793 0.503793
0.504525 0.504525 0.504525
0.505571 0.505571 0.505571
0.506972 0.506972 0.506972
0.508753 0.508753 0.508753
0.510933 0.510933 0.510933
0.513530 0.513530 0.513530
0.516557 0.516557 0.516557
0.520025 0.520025 0.520025
0.523941 0.523941 0.523941
0.528309 0.528309 0.528309
0.533133 0.533133 0.533133
0.538412 0.538412 0.538412
0.544144 0.544144 0.544144
0.550326 0.550326 0.550326
0.556951 0.556951 0.556951
0.564011 0.564011 0.564011
0.571499 0.571499 0.571499
0.579405 0.579405 0.579405
0.587717 0.587717 0.587717
0.596424 0.596424 0.596424
0.605514 0.605514 0.605514
0.614974 0.614974 0.614974
0.624791 0.624791 0.624791
0.634952 0.634952 0.634952
0.645444 0.645444 0.645444
0.656253 0.656253 0.656253
0.667366 0.667366 0.667366
0.678771 0.678771 0.678771
0.690454 0.690454 0.690454
0.702404 0.702404 0.702404
0.714608 0.714608 0.714608
0.529816 0.529816 0.529816
0.530424 0.530424 0.530424
0.531111 0.531111 0.531111
0.532094 0.532094 0.532094
0.533411 0.533411 0.533411
0.535085 0.535085 0.535085
0.537135 0.537135 0.537135
0.539579 0.539579 0.539579
0.542430 0.542430 0.542430
0.545698 0.545698 0.545698
0.549391 0.549391 0.549391
0.553516 0.553516 0.553516
0.558074 0.558074 0.558074
0.563068 0.563068 0.563068
0.568497 0.568497 0.568497
0.574358 0.574358 0.574358
0.580647 0.580647 0.580647
0.587359 0.587359 0.587359
0.594486 0.594486 0.594486
0.602020 0.602020 0.602020
0.609953 0.609953 0.609953
0.618274 0.618274 0.618274
0.626972 0.626972 0.626972
0.636037 0.636037 0.636037
0.645457 0.645457 0.645457
0.655220 0.655220 0.655220
0.665315 0.665315 0.665315
0.675728 0.675728 0.675728
0.686447 0.686447 0.686447
0.697462 0.697462 0.697462
0.708759 0.708759 0.708759
0.720328 0.720328 0.720328
0.732156 0.732156 0.732156
0.556486 0.556486 0.556486
0.557059 0.557059 0.557059
0.557706 0.557706 0.557706
0.558632 0.558632 0.558632
0.559872 0.559872 0.559872
0.561450 0.561450 0.561450
0.563384 0.563384 0.563384
0.565689 0.565689 0.565689
0.568380 0.568380 0.568380
0.571467 0.571467 0.571467
0.574958 0.574958 0.574958
0.578859 0.578859 0.578859
0.583175 0.583175 0.583175
0.587907 0.587907 0.587907
0.593057 0.593057 0.593057
0.598623 0.598623 0.598623
0.604601 0.604601 0.604601
0.610989 0.610989 0.610989
0.617780 0.617780 0.617780
0.624967 0.624967 0.624967
0.632544 0.632544 0.632544
0.640501 0.640501 0.640501
0.648830 0.648830 0.648830
0.657521 0.657521 0.657521
0.666564 0.666564 0.666564
0.675947 0.675947 0.675947
0.685660 0.685660 0.685660
0.695693 0.695693 0.695693
0.706033 0.706033 0.706033
0.716670 0.716670 0.716670
0.727593 0.727593 0.727593
0.738791 0.738791 0.738791
0.750252 0.750252 0.750252
0.583157 0.583157 0.583157
0.583697 0.583697 0.583697
0.584308 0.584308 0.584308
0.585182 0.585182 0.585182
0.586354 0.586354 0.586354
0.587844 0.587844 0.587844
0.589672 0.589672 0.589672
0.591852 0.591852 0.591852
0.594397 0.594397 0.594397
0.597318 0.597318 0.597318
0.600625 0.600625 0.600625
0.604322 0.604322 0.604322
0.608415 0.608415 0.608415
0.612908 0.612908 0.612908
0.617800 0.617800 0.617800
0.623093 0.623093 0.623093
0.628784 0.628784 0.628784
0.634871 0.634871 0.634871
0.641348 0.641348 0.641348
0.648212 0.648212 0.648212
0.655455 0.655455 0.655455
0.663070 0.663070 0.663070
0.671051 0.671051 0.671051
0.679387 0.679387 0.679387
0.688071 0.688071 0.688071
0.697092 0.697092 0.697092
0.706442 0.706442 0.706442
0.716109 0.716109 0.716109
0.726084 0.726084 0.726084
0.736357 0.736357 0.736357
0.746918 0.746918 0.746918
0.757755 0.757755 0.757755
0.768860 0.768860 0.768860
0.609827 0.609827 0.609827
0.610338 0.610338 0.610338
0.610916 0.610916 0.610916
0.611744 0.611744 0.611744
0.612853 0.612853 0.612853
0.614264 0.614264 0.614264
0.615995 0.615995 0.615995
0.618060 0.618060 0.618060
0.620472 0.620472 0.620472
0.623243 0.623243 0.623243
0.626380 0.626380 0.626380
0.629890 0.629890 0.629890
0.633779 0.633779 0.633779
0.638051 0.638051 0.638051
0.642706 0.642706 0.642706
0.647746 0.647746 0.647746
0.653171 0.653171 0.653171
0.658977 0.658977 0.658977
0.665163 0.665163 0.665163
0.671724 0.671724 0.671724
0.678654 0.678654 0.678654
0.685948 0.685948 0.685948
0.693599 0.693599 0.693599
0.701601 0.701601 0.701601
0.709944 0.709944 0.709944
0.718621 0.718621 0.718621
0.727623 0.727623 0.727623
0.736941 0.736941 0.736941
0.746566 0.746566 0.746566
0.756488 0.756488 0.756488
0.766698 0.766698 0.766698
0.777187 0.777187 0.777187
0.787945 0.787945 0.787945
0.636497 0.636497 0.636497
0.636982 0.636982 0.636982
0.637530 0.637530 0.637530
0.638315 0.638315 0.638315
0.639367 0.639367 0.639367
0.640705 0.640705 0.640705
0.642348 0.642348 0.642348
0.644308 0.644308 0.644308
0.646599 0.646599 0.646599
0.649231 0.649231 0.649231
0.652213 0.652213 0.652213
0.655552 0.655552 0.655552
0.659253 0.659253 0.659253
0.663320 0.663320 0.663320
0.667756 0.667756 0.667756
0.672563 0.672563 0.672563
0.677739 0.677739 0.677739
0.683286 0.683286 0.683286
0.689199 0.689199 0.689199
0.695476 0.695476 0.695476
0.702113 0.702113 0.702113
0.709105 0.709105 0.709105
0.716446 0.716446 0.716446
0.724131 0.724131 0.724131
0.732151 0.732151 0.732151
0.740501 0.740501 0.740501
0.749172 0.749172 0.749172
0.758156 0.758156 0.758156
0.767445 0.767445 0.767445
0.777030 0.777030 0.777030
0.786903 0.786903 0.786903
0.797055 0.797055 0.797055
0.807477 0.807477 0.807477
0.663167 0.663167 0.663167
0.663628 0.663628 0.663628
0.664149 0.664149 0.664149
0.664894 0.664894 0.664894
0.665894 0.665894 0.665894
0.667166 0.667166 0.667166
0.668728 0.668728 0.668728
0.670592 0.670592 0.670592
0.672772 0.672772 0.672772
0.675277 0.675277 0.675277
0.678116 0.678116 0.678116
0.681296 0.681296 0.681296
0.684823 0.684823 0.684823
0.688702 0.688702 0.688702
0.692935 0.692935 0.692935
0.697524 0.697524 0.697524
0.702471 0.702471 0.702471
0.707774 0.707774 0.707774
0.713433 0.713433 0.713433
0.719445 0.719445 0.719445
0.725807 0.725807 0.725807
0.732515 0.732515 0.732515
0.739564 0.739564 0.739564
0.746948 0.746948 0.746948
0.754663 0.754663 0.754663
