docs/luts/fuji_recipes/BR_HF_BW.cube
TITLE "Fujifilm Recipe: HF BW (BR)"
# FilmSim=BR HL=1 SH=2 Col=0 WB=Auto WBR=0 WBB=0
LUT_3D_SIZE 5
DOMAIN_MIN 0.0 0.0 0.0
DOMAIN_MAX 1.0 1.0 1.0
0.000000 0.000000 0.000000
0.104289 0.104289 0.104289
0.231248 0.231248 0.231248
0.358206 0.358206 0.358206
0.528447 0.528447 0.528447
0.179667 0.179667 0.179667
0.213223 0.213223 0.213223
0.293611 0.293611 0.293611
0.398365 0.398365 0.398365
0.560504 0.560504 0.560504
0.368411 0.368411 0.368411
0.384024 0.384024 0.384024
0.429471 0.429471 0.429471
0.547434 0.547434 0.547434
0.650638 0.650638 0.650638
0.609827 0.609827 0.609827
0.620472 0.620472 0.620472
0.653171 0.653171 0.653171
0.709944 0.709944 0.709944
0.787945 0.787945 0.787945
0.823189 0.823189 0.823189
0.830517 0.830517 0.830517
0.853476 0.853476 0.853476
0.894842 0.894842 0.894842
0.954399 0.954399 0.954399
0.037968 0.037968 0.037968
0.120029 0.120029 0.120029
0.238418 0.238418 0.238418
0.362511 0.362511 0.362511
0.531791 0.531791 0.531791
0.189082 0.189082 0.189082
0.221065 0.221065 0.221065
0.299067 0.299067 0.299067
0.402146 0.402146 0.402146
0.563616 0.563616 0.563616
0.372571 0.372571 0.372571
0.387979 0.387979 0.387979
0.432917 0.432917 0.432917
0.550637 0.550637 0.550637
0.653227 0.653227 0.653227
0.612633 0.612633 0.612633
0.623219 0.623219 0.623219
0.655747 0.655747 0.655747
0.712265 0.712265 0.712265
0.789979 0.789979 0.789979
0.825113 0.825113 0.825113
0.832419 0.832419 0.832419
0.855313 0.855313 0.855313
0.896571 0.896571 0.896571
0.955990 0.955990 0.955990
0.110565 0.110565 0.110565
0.160399 0.160399 0.160399
0.259889 0.259889 0.259889
0.375910 0.375910 0.375910
0.542346 0.542346 0.542346
0.216261 0.216261 0.216261
0.244303 0.244303 0.244303
0.315810 0.315810 0.315810
0.413984 0.413984 0.413984
0.573458 0.573458 0.573458
0.385543 0.385543 0.385543
0.400338 0.400338 0.400338
0.443742 0.443742 0.443742
0.560760 0.560760 0.560760
0.661444 0.661444 0.661444
0.621525 0.621525 0.621525
0.631926 0.631926 0.631926
0.663926 0.663926 0.663926
0.719645 0.719645 0.719645
0.796459 0.796459 0.796459
0.831245 0.831245 0.831245
0.838483 0.838483 0.838483
0.861171 0.861171 0.861171
0.902087 0.902087 0.902087
0.961069 0.961069 0.961069
0.183162 0.183162 0.183162
0.216120 0.216120 0.216120
0.295614 0.295614 0.295614
0.399749 0.399749 0.399749
0.561641 0.561641 0.561641
0.259115 0.259115 0.259115
0.282345 0.282345 0.282345
0.344833 0.344833 0.344833
0.435279 0.435279 0.435279
0.591517 0.591517 0.591517
0.408692 0.408692 0.408692
0.422491 0.422491 0.422491
0.503784 0.503784 0.503784
0.579306 0.579306 0.579306
0.676640 0.676640 0.676640
0.637917 0.637917 0.637917
0.647992 0.647992 0.647992
0.679052 0.679052 0.679052
0.733342 0.733342 0.733342
0.808529 0.808529 0.808529
0.842682 0.842682 0.842682
0.849795 0.849795 0.849795
0.872108 0.872108 0.872108
0.912398 0.912398 0.912398
0.970578 0.970578 0.970578
0.255759 0.255759 0.255759
0.279316 0.279316 0.279316
0.342458 0.342458 0.342458
0.433501 0.433501 0.433501
0.589993 0.589993 0.589993
0.312545 0.312545 0.312545
0.331429 0.331429 0.331429
0.384630 0.384630 0.384630
0.506642 0.506642 0.506642
0.618193 0.618193 0.618193
0.441601 0.441601 0.441601
0.454165 0.454165 0.454165
0.535923 0.535923 0.535923
0.606647 0.606647 0.606647
0.699349 0.699349 0.699349
0.662299 0.662299 0.662299
0.671919 0.671919 0.671919
0.701663 0.701663 0.701663
0.753926 0.753926 0.753926
0.826769 0.826769 0.826769
0.860003 0.860003 0.860003
0.866934 0.866934 0.866934
0.888697 0.888697 0.888697
0.928067 0.928067 0.928067
0.985063 0.985063 0.985063
