docs/luts/fuji_recipes/BR_VM_Monochrome_R.cube
TITLE "Fujifilm Recipe: VM Monochrome R (BR)"
# FilmSim=BR HL=0 SH=3 Col=0 WB=Auto WBR=0 WBB=0
LUT_3D_SIZE 9
DOMAIN_MIN 0.0 0.0 0.0
DOMAIN_MAX 1.0 1.0 1.0
0.000000 0.000000 0.000000
0.039036 0.039036 0.039036
0.099755 0.099755 0.099755
0.160474 0.160474 0.160474
0.221194 0.221194 0.221194
0.281913 0.281913 0.281913
0.342632 0.342632 0.342632
0.403352 0.403352 0.403352
0.527353 0.527353 0.527353
0.081587 0.081587 0.081587
0.100529 0.100529 0.100529
0.137791 0.137791 0.137791
0.186116 0.186116 0.186116
0.239793 0.239793 0.239793
0.296158 0.296158 0.296158
0.353990 0.353990 0.353990
0.412685 0.412685 0.412685
0.536276 0.536276 0.536276
0.171856 0.171856 0.171856
0.181549 0.181549 0.181549
0.203952 0.203952 0.203952
0.238151 0.238151 0.238151
0.280845 0.280845 0.280845
0.329136 0.329136 0.329136
0.381045 0.381045 0.381045
0.435323 0.435323 0.435323
0.558177 0.558177 0.558177
0.262124 0.262124 0.262124
0.268219 0.268219 0.268219
0.283036 0.283036 0.283036
0.307376 0.307376 0.307376
0.340128 0.340128 0.340128
0.379593 0.379593 0.379593
0.424120 0.424120 0.424120
0.536789 0.536789 0.536789
0.594726 0.594726 0.594726
0.352393 0.352393 0.352393
0.356684 0.356684 0.356684
0.367327 0.367327 0.367327
0.385416 0.385416 0.385416
0.410799 0.410799 0.410799
0.503084 0.503084 0.503084
0.545609 0.545609 0.545609
0.593211 0.593211 0.593211
0.644844 0.644844 0.644844
0.503025 0.503025 0.503025
0.506704 0.506704 0.506704
0.515920 0.515920 0.515920
0.531859 0.531859 0.531859
0.554760 0.554760 0.554760
0.584343 0.584343 0.584343
0.619991 0.619991 0.619991
0.660929 0.660929 0.660929
0.706353 0.706353 0.706353
0.605603 0.605603 0.605603
0.608512 0.608512 0.608512
0.615839 0.615839 0.615839
0.628634 0.628634 0.628634
0.647280 0.647280 0.647280
0.671783 0.671783 0.671783
0.701869 0.701869 0.701869
0.737083 0.737083 0.737083
0.776870 0.776870 0.776870
0.708181 0.708181 0.708181
0.710560 0.710560 0.710560
0.716570 0.716570 0.716570
0.727129 0.727129 0.727129
0.742652 0.742652 0.742652
0.763282 0.763282 0.763282
0.788944 0.788944 0.788944
0.819396 0.819396 0.819396
0.854287 0.854287 0.854287
0.810759 0.810759 0.810759
0.812754 0.812754 0.812754
0.817805 0.817805 0.817805
0.826711 0.826711 0.826711
0.839881 0.839881 0.839881
0.857518 0.857518 0.857518
0.879656 0.879656 0.879656
0.906193 0.906193 0.906193
0.936922 0.936922 0.936922
0.010248 0.010248 0.010248
0.047921 0.047921 0.047921
0.104213 0.104213 0.104213
0.163263 0.163263 0.163263
0.223153 0.223153 0.223153
0.283390 0.283390 0.283390
0.343800 0.343800 0.343800
0.404306 0.404306 0.404306
0.528263 0.528263 0.528263
0.086902 0.086902 0.086902
0.104956 0.104956 0.104956
0.141057 0.141057 0.141057
0.188493 0.188493 0.188493
0.241578 0.241578 0.241578
0.297551 0.297551 0.297551
0.355111 0.355111 0.355111
0.413612 0.413612 0.413612
0.537166 0.537166 0.537166
0.174447 0.174447 0.174447
0.183991 0.183991 0.183991
0.206100 0.206100 0.206100
0.239951 0.239951 0.239951
0.282329 0.282329 0.282329
0.330363 0.330363 0.330363
0.382069 0.382069 0.382069
0.436191 0.436191 0.436191
0.559023 0.559023 0.559023
0.263734 0.263734 0.263734
0.269786 0.269786 0.269786
0.284506 0.284506 0.284506
0.308707 0.308707 0.308707
0.341306 0.341306 0.341306
0.380622 0.380622 0.380622
0.425017 0.425017 0.425017
0.537679 0.537679 0.537679
0.595507 0.595507 0.595507
0.353521 0.353521 0.353521
0.357795 0.357795 0.357795
0.368399 0.368399 0.368399
0.386426 0.386426 0.386426
0.411732 0.411732 0.411732
0.504049 0.504049 0.504049
0.546480 0.546480 0.546480
0.593994 0.593994 0.593994
0.645547 0.645547 0.645547
0.503990 0.503990 0.503990
0.507660 0.507660 0.507660
0.516855 0.516855 0.516855
0.532758 0.532758 0.532758
0.555613 0.555613 0.555613
0.585141 0.585141 0.585141
0.620731 0.620731 0.620731
0.661610 0.661610 0.661610
0.706979 0.706979 0.706979
0.606365 0.606365 0.606365
0.609270 0.609270 0.609270
0.616585 0.616585 0.616585
0.629361 0.629361 0.629361
0.647980 0.647980 0.647980
0.672450 0.672450 0.672450
0.702500 0.702500 0.702500
0.737674 0.737674 0.737674
0.777423 0.777423 0.777423
0.708804 0.708804 0.708804
0.711181 0.711181 0.711181
0.717184 0.717184 0.717184
0.727731 0.727731 0.727731
0.743238 0.743238 0.743238
0.763847 0.763847 0.763847
0.789485 0.789485 0.789485
0.819911 0.819911 0.819911
0.854775 0.854775 0.854775
0.811281 0.811281 0.811281
0.813275 0.813275 0.813275
0.818321 0.818321 0.818321
0.827220 0.827220 0.827220
0.840380 0.840380 0.840380
0.858003 0.858003 0.858003
0.880125 0.880125 0.880125
0.906644 0.906644 0.906644
0.937354 0.937354 0.937354
0.036317 0.036317 0.036317
0.066519 0.066519 0.066519
0.114810 0.114810 0.114810
0.170138 0.170138 0.170138
0.228052 0.228052 0.228052
0.287109 0.287109 0.287109
0.346750 0.346750 0.346750
0.406723 0.406723 0.406723
0.530569 0.530569 0.530569
0.099260 0.099260 0.099260
0.115487 0.115487 0.115487
0.149033 0.149033 0.149033
0.194396 0.194396 0.194396
0.246056 0.246056 0.246056
0.301061 0.301061 0.301061
0.357947 0.357947 0.357947
0.415962 0.415962 0.415962
0.539424 0.539424 0.539424
0.180861 0.180861 0.180861
0.190051 0.190051 0.190051
0.211454 0.211454 0.211454
0.244463 0.244463 0.244463
0.286064 0.286064 0.286064
0.333459 0.333459 0.333459
0.384661 0.384661 0.384661
0.438389 0.438389 0.438389
0.561170 0.561170 0.561170
0.267780 0.267780 0.267780
0.273726 0.273726 0.273726
0.288208 0.288208 0.288208
0.312067 0.312067 0.312067
0.344282 0.344282 0.344282
0.383227 0.383227 0.383227
0.427288 0.427288 0.427288
0.539934 0.539934 0.539934
0.597487 0.597487 0.597487
0.356372 0.356372 0.356372
0.360605 0.360605 0.360605
0.371110 0.371110 0.371110
0.388982 0.388982 0.388982
0.414094 0.414094 0.414094
0.506496 0.506496 0.506496
0.548689 0.548689 0.548689
0.595981 0.595981 0.595981
0.647333 0.647333 0.647333
0.506437 0.506437 0.506437
0.510085 0.510085 0.510085
0.519226 0.519226 0.519226
0.535040 0.535040 0.535040
0.557776 0.557776 0.557776
0.587167 0.587167 0.587167
0.622609 0.622609 0.622609
0.663341 0.663341 0.663341
0.708567 0.708567 0.708567
0.608301 0.608301 0.608301
0.611194 0.611194 0.611194
0.618480 0.618480 0.618480
0.631206 0.631206 0.631206
0.649757 0.649757 0.649757
0.674144 0.674144 0.674144
0.704101 0.704101 0.704101
0.739177 0.739177 0.739177
0.778826 0.778826 0.778826
0.710387 0.710387 0.710387
0.712757 0.712757 0.712757
0.718743 0.718743 0.718743
0.729261 0.729261 0.729261
0.744726 0.744726 0.744726
0.765284 0.765284 0.765284
0.790861 0.790861 0.790861
0.821220 0.821220 0.821220
0.856014 0.856014 0.856014
0.812609 0.812609 0.812609
0.814598 0.814598 0.814598
0.819634 0.819634 0.819634
0.828514 0.828514 0.828514
0.841648 0.841648 0.841648
0.859237 0.859237 0.859237
0.881318 0.881318 0.881318
0.907791 0.907791 0.907791
0.938452 0.938452 0.938452
0.071038 0.071038 0.071038
0.091957 0.091957 0.091957
0.131628 0.131628 0.131628
0.181700 0.181700 0.181700
0.236500 0.236500 0.236500
0.293601 0.293601 0.293601
0.351936 0.351936 0.351936
0.410989 0.410989 0.410989
0.534650 0.534650 0.534650
0.118279 0.118279 0.118279
0.132218 0.132218 0.132218
0.162235 0.162235 0.162235
0.204453 0.204453 0.204453
0.253812 0.253812 0.253812
0.307201 0.307201 0.307201
0.362937 0.362937 0.362937
0.420111 0.420111 0.420111
0.543421 0.543421 0.543421
0.191714 0.191714 0.191714
0.200352 0.200352 0.200352
0.220636 0.220636 0.220636
0.252277 0.252277 0.252277
0.292584 0.292584 0.292584
0.338895 0.338895 0.338895
0.389231 0.389231 0.389231
0.502586 0.502586 0.502586
0.564972 0.564972 0.564972
0.274821 0.274821 0.274821
0.280590 0.280590 0.280590
0.294672 0.294672 0.294672
0.317951 0.317951 0.317951
0.349513 0.349513 0.349513
0.387817 0.387817 0.387817
0.431301 0.431301 0.431301
0.543926 0.543926 0.543926
0.600998 0.600998 0.600998
0.361389 0.361389 0.361389
0.365550 0.365550 0.365550
0.375885 0.375885 0.375885
0.393489 0.393489 0.393489
0.418267 0.418267 0.418267
0.510821 0.510821 0.510821
0.552601 0.552601 0.552601
0.599503 0.599503 0.599503
0.650503 0.650503 0.650503
0.510763 0.510763 0.510763
0.514373 0.514373 0.514373
0.523419 0.523419 0.523419
0.539078 0.539078 0.539078
0.561608 0.561608 0.561608
0.590757 0.590757 0.590757
0.625941 0.625941 0.625941
0.666412 0.666412 0.666412
0.711388 0.711388 0.711388
0.611732 0.611732 0.611732
0.614605 0.614605 0.614605
0.621839 0.621839 0.621839
0.634480 0.634480 0.634480
0.652911 0.652911 0.652911
0.677152 0.677152 0.677152
0.706945 0.706945 0.706945
0.741848 0.741848 0.741848
0.781322 0.781322 0.781322
0.713198 0.713198 0.713198
0.715556 0.715556 0.715556
0.721512 0.721512 0.721512
0.731979 0.731979 0.731979
0.747371 0.747371 0.747371
0.767836 0.767836 0.767836
0.793306 0.793306 0.793306
0.823548 0.823548 0.823548
0.858219 0.858219 0.858219
0.814969 0.814969 0.814969
0.816951 0.816951 0.816951
0.821968 0.821968 0.821968
0.830816 0.830816 0.830816
0.843902 0.843902 0.843902
0.861431 0.861431 0.861431
0.883441 0.883441 0.883441
0.909833 0.909833 0.909833
0.940405 0.940405 0.940405
0.105758 0.105758 0.105758
0.121139 0.121139 0.121139
0.153425 0.153425 0.153425
0.197704 0.197704 0.197704
0.248590 0.248590 0.248590
0.303058 0.303058 0.303058
0.359567 0.359567 0.359567
0.417306 0.417306 0.417306
0.540718 0.540718 0.540718
0.142201 0.142201 0.142201
0.153929 0.153929 0.153929
0.180158 0.180158 0.180158
0.218608 0.218608 0.218608
0.264985 0.264985 0.264985
0.316170 0.316170 0.316170
0.370290 0.370290 0.370290
0.426259 0.426259 0.426259
0.549366 0.549366 0.549366
0.206858 0.206858 0.206858
0.214814 0.214814 0.214814
0.233681 0.233681 0.233681
0.263526 0.263526 0.263526
0.302079 0.302079 0.302079
0.346879 0.346879 0.346879
0.395984 0.395984 0.395984
0.509141 0.509141 0.509141
0.570633 0.570633 0.570633
0.285028 0.285028 0.285028
0.290556 0.290556 0.290556
0.304089 0.304089 0.304089
0.326565 0.326565 0.326565
0.357208 0.357208 0.357208
0.394601 0.394601 0.394601
0.437252 0.437252 0.437252
0.549864 0.549864 0.549864
0.606233 0.606233 0.606233
0.368780 0.368780 0.368780
0.372839 0.372839 0.372839
0.382932 0.382932 0.382932
0.400154 0.400154 0.400154
0.424449 0.424449 0.424449
0.517245 0.517245 0.517245
0.558423 0.558423 0.558423
0.604755 0.604755 0.604755
0.655235 0.655235 0.655235
0.517188 0.517188 0.517188
0.520741 0.520741 0.520741
0.529650 0.529650 0.529650
0.545083 0.545083 0.545083
0.567312 0.567312 0.567312
0.596107 0.596107 0.596107
0.630911 0.630911 0.630911
0.671000 0.671000 0.671000
0.715606 0.715606 0.715606
0.616851 0.616851 0.616851
0.619693 0.619693 0.619693
0.626852 0.626852 0.626852
0.639365 0.639365 0.639365
0.657621 0.657621 0.657621
0.681647 0.681647 0.681647
0.711197 0.711197 0.711197
0.745843 0.745843 0.745843
0.785057 0.785057 0.785057
0.717402 0.717402 0.717402
0.719742 0.719742 0.719742
0.725654 0.725654 0.725654
0.736044 0.736044 0.736044
0.751328 0.751328 0.751328
0.771657 0.771657 0.771657
0.796968 0.796968 0.796968
0.827036 0.827036 0.827036
0.861524 0.861524 0.861524
0.818505 0.818505 0.818505
0.820476 0.820476 0.820476
0.825464 0.825464 0.825464
0.834264 0.834264 0.834264
0.847280 0.847280 0.847280
0.864719 0.864719 0.864719
0.886622 0.886622 0.886622
0.912893 0.912893 0.912893
0.943336 0.943336 0.943336
0.140478 0.140478 0.140478
0.152345 0.152345 0.152345
0.178825 0.178825 0.178825
0.217537 0.217537 0.217537
0.264130 0.264130 0.264130
0.315479 0.315479 0.315479
0.369720 0.369720 0.369720
0.425782 0.425782 0.425782
0.548903 0.548903 0.548903
0.169413 0.169413 0.169413
0.179251 0.179251 0.179251
0.201937 0.201937 0.201937
0.236467 0.236467 0.236467
0.279460 0.279460 0.279460
0.327994 0.327994 0.327994
0.380092 0.380092 0.380092
0.434516 0.434516 0.434516
0.557391 0.557391 0.557391
0.225785 0.225785 0.225785
0.233006 0.233006 0.233006
0.250308 0.250308 0.250308
0.278091 0.278091 0.278091
0.314547 0.314547 0.314547
0.357478 0.357478 0.357478
0.405021 0.405021 0.405021
0.517964 0.517964 0.517964
0.578284 0.578284 0.578284
0.298356 0.298356 0.298356
0.303595 0.303595 0.303595
0.316461 0.316461 0.316461
0.337948 0.337948 0.337948
0.367442 0.367442 0.367442
0.403676 0.403676 0.403676
0.505970 0.505970 0.505970
0.557880 0.557880 0.557880
0.613321 0.613321 0.613321
0.378630 0.378630 0.378630
0.382560 0.382560 0.382560
0.392344 0.392344 0.392344
0.409076 0.409076 0.409076
0.432749 0.432749 0.432749
0.525897 0.525897 0.525897
0.566285 0.566285 0.566285
0.611865 0.611865 0.611865
0.661655 0.661655 0.661655
0.525840 0.525840 0.525840
0.529320 0.529320 0.529320
0.538050 0.538050 0.538050
0.553187 0.553187 0.553187
0.575019 0.575019 0.575019
0.603348 0.603348 0.603348
0.637649 0.637649 0.637649
0.677228 0.677228 0.677228
0.721339 0.721339 0.721339
0.623784 0.623784 0.623784
0.626586 0.626586 0.626586
0.633645 0.633645 0.633645
0.645990 0.645990 0.645990
0.664012 0.664012 0.664012
0.687751 0.687751 0.687751
0.716977 0.716977 0.716977
0.751278 0.751278 0.751278
0.790143 0.790143 0.790143
0.723118 0.723118 0.723118
0.725434 0.725434 0.725434
0.731286 0.731286 0.731286
0.741573 0.741573 0.741573
0.756712 0.756712 0.756712
0.776858 0.776858 0.776858
0.801956 0.801956 0.801956
0.831789 0.831789 0.831789
0.866030 0.866030 0.866030
0.823322 0.823322 0.823322
0.825278 0.825278 0.825278
0.830229 0.830229 0.830229
0.838963 0.838963 0.838963
0.851885 0.851885 0.851885
0.869203 0.869203 0.869203
0.890961 0.890961 0.890961
0.917070 0.917070 0.917070
0.947336 0.947336 0.947336
0.175198 0.175198 0.175198
0.184700 0.184700 0.184700
0.206724 0.206724 0.206724
0.240475 0.240475 0.240475
0.282761 0.282761 0.282761
0.330721 0.330721 0.330721
0.382369 0.382369 0.382369
0.436444 0.436444 0.436444
0.559271 0.559271 0.559271
0.198779 0.198779 0.198779
0.207086 0.207086 0.207086
0.226690 0.226690 0.226690
0.257477 0.257477 0.257477
0.296958 0.296958 0.296958
0.342563 0.342563 0.342563
0.392328 0.392328 0.392328
0.505587 0.505587 0.505587
0.567561 0.567561 0.567561
0.247849 0.247849 0.247849
0.254348 0.254348 0.254348
0.270069 0.270069 0.270069
0.295685 0.295685 0.295685
0.329841 0.329841 0.329841
0.370644 0.370644 0.370644
0.416354 0.416354 0.416354
0.529106 0.529106 0.529106
0.587997 0.587997 0.587997
0.314606 0.314606 0.314606
0.319525 0.319525 0.319525
0.331647 0.331647 0.331647
0.352016 0.352016 0.352016
0.380184 0.380184 0.380184
0.415054 0.415054 0.415054
0.517439 0.517439 0.517439
0.568039 0.568039 0.568039
0.622340 0.622340 0.622340
0.390923 0.390923 0.390923
0.394701 0.394701 0.394701
0.404122 0.404122 0.404122
0.420272 0.420272 0.420272
0.503638 0.503638 0.503638
0.536831 0.536831 0.536831
0.576256 0.576256 0.576256
0.620911 0.620911 0.620911
0.669846 0.669846 0.669846
0.536776 0.536776 0.536776
0.540167 0.540167 0.540167
0.548679 0.548679 0.548679
0.563455 0.563455 0.563455
0.584801 0.584801 0.584801
0.612555 0.612555 0.612555
0.646234 0.646234 0.646234
0.685179 0.685179 0.685179
0.728673 0.728673 0.728673
0.632612 0.632612 0.632612
0.635364 0.635364 0.635364
0.642300 0.642300 0.642300
0.654434 0.654434 0.654434
0.672165 0.672165 0.672165
0.695547 0.695547 0.695547
0.724367 0.724367 0.724367
0.758237 0.758237 0.758237
0.796662 0.796662 0.796662
0.730428 0.730428 0.730428
0.732714 0.732714 0.732714
0.738491 0.738491 0.738491
0.748649 0.748649 0.748649
0.763606 0.763606 0.763606
0.783522 0.783522 0.783522
0.808351 0.808351 0.808351
0.837887 0.837887 0.837887
0.871815 0.871815 0.871815
0.829502 0.829502 0.829502
0.831439 0.831439 0.831439
0.836342 0.836342 0.836342
0.844993 0.844993 0.844993
0.857796 0.857796 0.857796
0.874961 0.874961 0.874961
0.896536 0.896536 0.896536
0.922437 0.922437 0.922437
0.952479 0.952479 0.952479
0.209919 0.209919 0.209919
0.217747 0.217747 0.217747
0.236347 0.236347 0.236347
0.265845 0.265845 0.265845
0.304052 0.304052 0.304052
0.348547 0.348547 0.348547
0.397401 0.397401 0.397401
0.510521 0.510521 0.510521
0.571827 0.571827 0.571827
0.229569 0.229569 0.229569
0.236658 0.236658 0.236658
0.253671 0.253671 0.253671
0.281064 0.281064 0.281064
0.317114 0.317114 0.317114
0.359676 0.359676 0.359676
0.406905 0.406905 0.406905
0.519810 0.519810 0.519810
0.579890 0.579890 0.579890
0.272420 0.272420 0.272420
0.278249 0.278249 0.278249
0.292465 0.292465 0.292465
0.315939 0.315939 0.315939
0.347722 0.347722 0.347722
0.386244 0.386244 0.386244
0.429924 0.429924 0.429924
0.542555 0.542555 0.542555
0.599792 0.599792 0.599792
0.333486 0.333486 0.333486
0.338073 0.338073 0.338073
0.349417 0.349417 0.349417
0.368594 0.368594 0.368594
0.395320 0.395320 0.395320
0.428676 0.428676 0.428676
0.531263 0.531263 0.531263
0.580355 0.580355 0.580355
0.633323 0.633323 0.633323
0.405563 0.405563 0.405563
0.409174 0.409174 0.409174
0.418190 0.418190 0.418190
0.433689 0.433689 0.433689
0.517928 0.517928 0.517928
0.550041 0.550041 0.550041
0.588353 0.588353 0.588353
0.631926 0.631926 0.631926
0.679851 0.679851 0.679851
0.549988 0.549988 0.549988
0.553277 0.553277 0.553277
0.561537 0.561537 0.561537
0.575895 0.575895 0.575895
0.596677 0.596677 0.596677
0.623760 0.623760 0.623760
0.656706 0.656706 0.656706
0.694900 0.694900 0.694900
0.737657 0.737657 0.737657
0.643370 0.643370 0.643370
0.646063 0.646063 0.646063
0.652853 0.652853 0.652853
0.664740 0.664740 0.664740
0.682127 0.682127 0.682127
0.705083 0.705083 0.705083
0.733420 0.733420 0.733420
0.766773 0.766773 0.766773
0.804670 0.804670 0.804670
0.739384 0.739384 0.739384
0.741634 0.741634 0.741634
0.747322 0.747322 0.747322
0.757327 0.757327 0.757327
0.772065 0.772065 0.772065
0.791704 0.791704 0.791704
0.816209 0.816209 0.816209
0.845387 0.845387 0.845387
0.878938 0.878938 0.878938
0.837101 0.837101 0.837101
0.839015 0.839015 0.839015
0.843860 0.843860 0.843860
0.852412 0.852412 0.852412
0.865071 0.865071 0.865071
0.882050 0.882050 0.882050
0.903403 0.903403 0.903403
0.929053 0.929053 0.929053
0.958822 0.958822 0.958822
0.244639 0.244639 0.244639
0.251236 0.251236 0.251236
0.267172 0.267172 0.267172
0.293088 0.293088 0.293088
0.327568 0.327568 0.327568
0.368677 0.368677 0.368677
0.414654 0.414654 0.414654
0.527429 0.527429 0.527429
0.586531 0.586531 0.586531
0.261325 0.261325 0.261325
0.267441 0.267441 0.267441
0.282307 0.282307 0.282307
0.306715 0.306715 0.306715
0.339544 0.339544 0.339544
0.379083 0.379083 0.379083
0.423677 0.423677 0.423677
0.536349 0.536349 0.536349
0.594340 0.594340 0.594340
0.298956 0.298956 0.298956
0.304182 0.304182 0.304182
0.317019 0.317019 0.317019
0.338464 0.338464 0.338464
0.367907 0.367907 0.367907
0.404090 0.404090 0.404090
0.506386 0.506386 0.506386
0.558247 0.558247 0.558247
0.613647 0.613647 0.613647
0.354667 0.354667 0.354667
0.358924 0.358924 0.358924
0.369488 0.369488 0.369488
0.387452 0.387452 0.387452
0.412680 0.412680 0.412680
0.505031 0.505031 0.505031
0.547367 0.547367 0.547367
0.594791 0.594791 0.594791
0.646264 0.646264 0.646264
0.422401 0.422401 0.422401
0.425834 0.425834 0.425834
0.434419 0.434419 0.434419
0.510477 0.510477 0.510477
0.534541 0.534541 0.534541
0.565471 0.565471 0.565471
0.602545 0.602545 0.602545
0.644902 0.644902 0.644902
0.691682 0.691682 0.691682
0.565419 0.565419 0.565419
0.568594 0.568594 0.568594
0.576576 0.576576 0.576576
0.590470 0.590470 0.590470
0.610622 0.610622 0.610622
0.636950 0.636950 0.636950
0.669068 0.669068 0.669068
0.706405 0.706405 0.706405
0.748317 0.748317 0.748317
0.656056 0.656056 0.656056
0.658683 0.658683 0.658683
0.665306 0.665306 0.665306
0.676912 0.676912 0.676912
0.693907 0.693907 0.693907
0.716377 0.716377 0.716377
0.744159 0.744159 0.744159
0.776916 0.776916 0.776916
0.814201 0.814201 0.814201
0.750012 0.750012 0.750012
0.752221 0.752221 0.752221
0.757805 0.757805 0.757805
0.767633 0.767633 0.767633
0.782119 0.782119 0.782119
0.801437 0.801437 0.801437
0.825566 0.825566 0.825566
0.854327 0.854327 0.854327
0.887436 0.887436 0.887436
0.846157 0.846157 0.846157
0.848043 0.848043 0.848043
0.852821 0.852821 0.852821
0.861256 0.861256 0.861256
0.873747 0.873747 0.873747
0.890510 0.890510 0.890510
0.911603 0.911603 0.911603
0.936958 0.936958 0.936958
0.966407 0.966407 0.966407
