docs/luts/fuji_recipes/BR_VM_Classic_Contrast.cube
TITLE "Fujifilm Recipe: VM Classic Contrast (BR)"
# FilmSim=BR HL=2 SH=1 Col=0 WB=Auto WBR=0 WBB=0
LUT_3D_SIZE 9
DOMAIN_MIN 0.0 0.0 0.0
DOMAIN_MAX 1.0 1.0 1.0
0.000000 0.000000 0.000000
0.042584 0.042584 0.042584
0.108824 0.108824 0.108824
0.175063 0.175063 0.175063
0.241302 0.241302 0.241302
0.307541 0.307541 0.307541
0.373781 0.373781 0.373781
0.440020 0.440020 0.440020
0.529542 0.529542 0.529542
0.089004 0.089004 0.089004
0.109668 0.109668 0.109668
0.150317 0.150317 0.150317
0.203036 0.203036 0.203036
0.261592 0.261592 0.261592
0.323081 0.323081 0.323081
0.386170 0.386170 0.386170
0.450202 0.450202 0.450202
0.539178 0.539178 0.539178
0.187479 0.187479 0.187479
0.198054 0.198054 0.198054
0.222494 0.222494 0.222494
0.259801 0.259801 0.259801
0.306376 0.306376 0.306376
0.359058 0.359058 0.359058
0.415685 0.415685 0.415685
0.474898 0.474898 0.474898
0.562831 0.562831 0.562831
0.285954 0.285954 0.285954
0.292603 0.292603 0.292603
0.308767 0.308767 0.308767
0.335319 0.335319 0.335319
0.371049 0.371049 0.371049
0.414101 0.414101 0.414101
0.462677 0.462677 0.462677
0.539732 0.539732 0.539732
0.602304 0.602304 0.602304
0.384429 0.384429 0.384429
0.389109 0.389109 0.389109
0.400721 0.400721 0.400721
0.420454 0.420454 0.420454
0.448144 0.448144 0.448144
0.503331 0.503331 0.503331
0.549258 0.549258 0.549258
0.600668 0.600668 0.600668
0.656431 0.656431 0.656431
0.503267 0.503267 0.503267
0.507240 0.507240 0.507240
0.517194 0.517194 0.517194
0.534407 0.534407 0.534407
0.559141 0.559141 0.559141
0.591090 0.591090 0.591090
0.629591 0.629591 0.629591
0.673803 0.673803 0.673803
0.722862 0.722862 0.722862
0.614051 0.614051 0.614051
0.617193 0.617193 0.617193
0.625106 0.625106 0.625106
0.638925 0.638925 0.638925
0.659062 0.659062 0.659062
0.685525 0.685525 0.685525
0.718019 0.718019 0.718019
0.756049 0.756049 0.756049
0.799020 0.799020 0.799020
0.724835 0.724835 0.724835
0.727405 0.727405 0.727405
0.733896 0.733896 0.733896
0.745299 0.745299 0.745299
0.762064 0.762064 0.762064
0.784345 0.784345 0.784345
0.812059 0.812059 0.812059
0.844947 0.844947 0.844947
0.882630 0.882630 0.882630
0.835620 0.835620 0.835620
0.837775 0.837775 0.837775
0.843229 0.843229 0.843229
0.852848 0.852848 0.852848
0.867072 0.867072 0.867072
0.886119 0.886119 0.886119
0.910029 0.910029 0.910029
0.938688 0.938688 0.938688
0.971876 0.971876 0.971876
0.011180 0.011180 0.011180
0.052277 0.052277 0.052277
0.113687 0.113687 0.113687
0.178105 0.178105 0.178105
0.243439 0.243439 0.243439
0.309153 0.309153 0.309153
0.375054 0.375054 0.375054
0.441061 0.441061 0.441061
0.530524 0.530524 0.530524
0.094802 0.094802 0.094802
0.114498 0.114498 0.114498
0.153880 0.153880 0.153880
0.205629 0.205629 0.205629
0.263540 0.263540 0.263540
0.324601 0.324601 0.324601
0.387394 0.387394 0.387394
0.451214 0.451214 0.451214
0.540139 0.540139 0.540139
0.190306 0.190306 0.190306
0.200718 0.200718 0.200718
0.224836 0.224836 0.224836
0.261765 0.261765 0.261765
0.307995 0.307995 0.307995
0.360396 0.360396 0.360396
0.416803 0.416803 0.416803
0.475844 0.475844 0.475844
0.563745 0.563745 0.563745
0.287710 0.287710 0.287710
0.294312 0.294312 0.294312
0.310371 0.310371 0.310371
0.336772 0.336772 0.336772
0.372334 0.372334 0.372334
0.415224 0.415224 0.415224
0.463655 0.463655 0.463655
0.540693 0.540693 0.540693
0.603147 0.603147 0.603147
0.385659 0.385659 0.385659
0.390322 0.390322 0.390322
0.401890 0.401890 0.401890
0.421556 0.421556 0.421556
0.449162 0.449162 0.449162
0.504373 0.504373 0.504373
0.550199 0.550199 0.550199
0.601513 0.601513 0.601513
0.657191 0.657191 0.657191
0.504309 0.504309 0.504309
0.508273 0.508273 0.508273
0.518204 0.518204 0.518204
0.535379 0.535379 0.535379
0.560062 0.560062 0.560062
0.591952 0.591952 0.591952
0.630390 0.630390 0.630390
0.674539 0.674539 0.674539
0.723537 0.723537 0.723537
0.614874 0.614874 0.614874
0.618012 0.618012 0.618012
0.625912 0.625912 0.625912
0.639710 0.639710 0.639710
0.659818 0.659818 0.659818
0.686246 0.686246 0.686246
0.718700 0.718700 0.718700
0.756688 0.756688 0.756688
0.799617 0.799617 0.799617
0.725508 0.725508 0.725508
0.728075 0.728075 0.728075
0.734559 0.734559 0.734559
0.745950 0.745950 0.745950
0.762697 0.762697 0.762697
0.784955 0.784955 0.784955
0.812644 0.812644 0.812644
0.845504 0.845504 0.845504
0.883157 0.883157 0.883157
0.836184 0.836184 0.836184
0.838337 0.838337 0.838337
0.843787 0.843787 0.843787
0.853398 0.853398 0.853398
0.867610 0.867610 0.867610
0.886644 0.886644 0.886644
0.910535 0.910535 0.910535
0.939176 0.939176 0.939176
0.972342 0.972342 0.972342
0.039619 0.039619 0.039619
0.072566 0.072566 0.072566
0.125248 0.125248 0.125248
0.185606 0.185606 0.185606
0.248784 0.248784 0.248784
0.313210 0.313210 0.313210
0.378272 0.378272 0.378272
0.443698 0.443698 0.443698
0.533014 0.533014 0.533014
0.108284 0.108284 0.108284
0.125986 0.125986 0.125986
0.162582 0.162582 0.162582
0.212069 0.212069 0.212069
0.268425 0.268425 0.268425
0.328430 0.328430 0.328430
0.390488 0.390488 0.390488
0.453777 0.453777 0.453777
0.542578 0.542578 0.542578
0.197303 0.197303 0.197303
0.207328 0.207328 0.207328
0.230677 0.230677 0.230677
0.266687 0.266687 0.266687
0.312070 0.312070 0.312070
0.363773 0.363773 0.363773
0.419631 0.419631 0.419631
0.478243 0.478243 0.478243
0.566063 0.566063 0.566063
0.292123 0.292123 0.292123
0.298610 0.298610 0.298610
0.314409 0.314409 0.314409
0.340436 0.340436 0.340436
0.375581 0.375581 0.375581
0.418065 0.418065 0.418065
0.466132 0.466132 0.466132
0.543128 0.543128 0.543128
0.605286 0.605286 0.605286
0.388770 0.388770 0.388770
0.393387 0.393387 0.393387
0.404847 0.404847 0.404847
0.424344 0.424344 0.424344
0.451739 0.451739 0.451739
0.507015 0.507015 0.507015
0.552585 0.552585 0.552585
0.603659 0.603659 0.603659
0.659120 0.659120 0.659120
0.506951 0.506951 0.506951
0.510892 0.510892 0.510892
0.520764 0.520764 0.520764
0.537843 0.537843 0.537843
0.562398 0.562398 0.562398
0.594140 0.594140 0.594140
0.632418 0.632418 0.632418
0.676408 0.676408 0.676408
0.725252 0.725252 0.725252
0.616965 0.616965 0.616965
0.620089 0.620089 0.620089
0.627958 0.627958 0.627958
0.641703 0.641703 0.641703
0.661738 0.661738 0.661738
0.688076 0.688076 0.688076
0.720429 0.720429 0.720429
0.758311 0.758311 0.758311
0.801133 0.801133 0.801133
0.727218 0.727218 0.727218
0.729777 0.729777 0.729777
0.736242 0.736242 0.736242
0.747602 0.747602 0.747602
0.764304 0.764304 0.764304
0.786506 0.786506 0.786506
0.814129 0.814129 0.814129
0.846918 0.846918 0.846918
0.884495 0.884495 0.884495
0.837618 0.837618 0.837618
0.839766 0.839766 0.839766
0.845204 0.845204 0.845204
0.854796 0.854796 0.854796
0.868979 0.868979 0.868979
0.887976 0.887976 0.887976
0.911824 0.911824 0.911824
0.940415 0.940415 0.940415
0.973528 0.973528 0.973528
0.077496 0.077496 0.077496
0.100316 0.100316 0.100316
0.143594 0.143594 0.143594
0.198218 0.198218 0.198218
0.258000 0.258000 0.258000
0.320292 0.320292 0.320292
0.383930 0.383930 0.383930
0.448352 0.448352 0.448352
0.537422 0.537422 0.537422
0.129032 0.129032 0.129032
0.144238 0.144238 0.144238
0.176984 0.176984 0.176984
0.223039 0.223039 0.223039
0.276886 0.276886 0.276886
0.335128 0.335128 0.335128
0.395931 0.395931 0.395931
0.458303 0.458303 0.458303
0.546894 0.546894 0.546894
0.209143 0.209143 0.209143
0.218566 0.218566 0.218566
0.240694 0.240694 0.240694
0.275211 0.275211 0.275211
0.319183 0.319183 0.319183
0.369703 0.369703 0.369703
0.424616 0.424616 0.424616
0.502793 0.502793 0.502793
0.570170 0.570170 0.570170
0.299804 0.299804 0.299804
0.306098 0.306098 0.306098
0.321460 0.321460 0.321460
0.346856 0.346856 0.346856
0.381287 0.381287 0.381287
0.423073 0.423073 0.423073
0.470510 0.470510 0.470510
0.547440 0.547440 0.547440
0.609078 0.609078 0.609078
0.394243 0.394243 0.394243
0.398782 0.398782 0.398782
0.410056 0.410056 0.410056
0.429261 0.429261 0.429261
0.456291 0.456291 0.456291
0.511687 0.511687 0.511687
0.556810 0.556810 0.556810
0.607464 0.607464 0.607464
0.662543 0.662543 0.662543
0.511624 0.511624 0.511624
0.515522 0.515522 0.515522
0.525293 0.525293 0.525293
0.542204 0.542204 0.542204
0.566536 0.566536 0.566536
0.598017 0.598017 0.598017
0.636016 0.636016 0.636016
0.679725 0.679725 0.679725
0.728299 0.728299 0.728299
0.620671 0.620671 0.620671
0.623773 0.623773 0.623773
0.631587 0.631587 0.631587
0.645238 0.645238 0.645238
0.665144 0.665144 0.665144
0.691325 0.691325 0.691325
0.723501 0.723501 0.723501
0.761195 0.761195 0.761195
0.803827 0.803827 0.803827
0.730254 0.730254 0.730254
0.732801 0.732801 0.732801
0.739233 0.739233 0.739233
0.750537 0.750537 0.750537
0.767161 0.767161 0.767161
0.789263 0.789263 0.789263
0.816771 0.816771 0.816771
0.849432 0.849432 0.849432
0.886877 0.886877 0.886877
0.840167 0.840167 0.840167
0.842307 0.842307 0.842307
0.847725 0.847725 0.847725
0.857281 0.857281 0.857281
0.871414 0.871414 0.871414
0.890346 0.890346 0.890346
0.914116 0.914116 0.914116
0.942619 0.942619 0.942619
0.975638 0.975638 0.975638
0.115372 0.115372 0.115372
0.132152 0.132152 0.132152
0.167373 0.167373 0.167373
0.215677 0.215677 0.215677
0.271189 0.271189 0.271189
0.330609 0.330609 0.330609
0.392254 0.392254 0.392254
0.455243 0.455243 0.455243
0.543975 0.543975 0.543975
0.155128 0.155128 0.155128
0.167922 0.167922 0.167922
0.196536 0.196536 0.196536
0.238481 0.238481 0.238481
0.289075 0.289075 0.289075
0.344913 0.344913 0.344913
0.403953 0.403953 0.403953
0.465010 0.465010 0.465010
0.553315 0.553315 0.553315
0.225664 0.225664 0.225664
0.234342 0.234342 0.234342
0.254925 0.254925 0.254925
0.287483 0.287483 0.287483
0.329541 0.329541 0.329541
0.378414 0.378414 0.378414
0.431983 0.431983 0.431983
0.509872 0.509872 0.509872
0.576284 0.576284 0.576284
0.310939 0.310939 0.310939
0.316971 0.316971 0.316971
0.331733 0.331733 0.331733
0.356252 0.356252 0.356252
0.389681 0.389681 0.389681
0.430473 0.430473 0.430473
0.477002 0.477002 0.477002
0.553853 0.553853 0.553853
0.614732 0.614732 0.614732
0.402305 0.402305 0.402305
0.406734 0.406734 0.406734
0.417744 0.417744 0.417744
0.436531 0.436531 0.436531
0.463035 0.463035 0.463035
0.518625 0.518625 0.518625
0.563096 0.563096 0.563096
0.613135 0.613135 0.613135
0.667654 0.667654 0.667654
0.518563 0.518563 0.518563
0.522401 0.522401 0.522401
0.532022 0.532022 0.532022
0.548690 0.548690 0.548690
0.572697 0.572697 0.572697
0.603795 0.603795 0.603795
0.641384 0.641384 0.641384
0.684680 0.684680 0.684680
0.732854 0.732854 0.732854
0.626199 0.626199 0.626199
0.629268 0.629268 0.629268
0.637000 0.637000 0.637000
0.650514 0.650514 0.650514
0.670231 0.670231 0.670231
0.696179 0.696179 0.696179
0.728093 0.728093 0.728093
0.765510 0.765510 0.765510
0.807861 0.807861 0.807861
0.734795 0.734795 0.734795
0.737322 0.737322 0.737322
0.743706 0.743706 0.743706
0.754927 0.754927 0.754927
0.771434 0.771434 0.771434
0.793390 0.793390 0.793390
0.820726 0.820726 0.820726
0.853199 0.853199 0.853199
0.890446 0.890446 0.890446
0.843985 0.843985 0.843985
0.846114 0.846114 0.846114
0.851501 0.851501 0.851501
0.861005 0.861005 0.861005
0.875062 0.875062 0.875062
0.893897 0.893897 0.893897
0.917552 0.917552 0.917552
0.945925 0.945925 0.945925
0.978803 0.978803 0.978803
0.153249 0.153249 0.153249
0.166195 0.166195 0.166195
0.195081 0.195081 0.195081
0.237313 0.237313 0.237313
0.288142 0.288142 0.288142
0.344159 0.344159 0.344159
0.403331 0.403331 0.403331
0.464489 0.464489 0.464489
0.552815 0.552815 0.552815
0.184814 0.184814 0.184814
0.195547 0.195547 0.195547
0.220295 0.220295 0.220295
0.257964 0.257964 0.257964
0.304866 0.304866 0.304866
0.357812 0.357812 0.357812
0.414645 0.414645 0.414645
0.474018 0.474018 0.474018
0.561982 0.561982 0.561982
0.246311 0.246311 0.246311
0.254189 0.254189 0.254189
0.273063 0.273063 0.273063
0.303372 0.303372 0.303372
0.343142 0.343142 0.343142
0.389976 0.389976 0.389976
0.441841 0.441841 0.441841
0.519401 0.519401 0.519401
0.584547 0.584547 0.584547
0.325480 0.325480 0.325480
0.331195 0.331195 0.331195
0.345230 0.345230 0.345230
0.368671 0.368671 0.368671
0.400846 0.400846 0.400846
0.440374 0.440374 0.440374
0.506448 0.506448 0.506448
0.562510 0.562510 0.562510
0.622387 0.622387 0.622387
0.413051 0.413051 0.413051
0.417338 0.417338 0.417338
0.428012 0.428012 0.428012
0.446264 0.446264 0.446264
0.472090 0.472090 0.472090
0.527968 0.527968 0.527968
0.571587 0.571587 0.571587
0.620814 0.620814 0.620814
0.674588 0.674588 0.674588
0.527907 0.527907 0.527907
0.531666 0.531666 0.531666
0.541094 0.541094 0.541094
0.557442 0.557442 0.557442
0.581021 0.581021 0.581021
0.611615 0.611615 0.611615
0.648661 0.648661 0.648661
0.691406 0.691406 0.691406
0.739047 0.739047 0.739047
0.633687 0.633687 0.633687
0.636713 0.636713 0.636713
0.644337 0.644337 0.644337
0.657669 0.657669 0.657669
0.677133 0.677133 0.677133
0.702771 0.702771 0.702771
0.734335 0.734335 0.734335
0.771381 0.771381 0.771381
0.813354 0.813354 0.813354
0.740967 0.740967 0.740967
0.743468 0.743468 0.743468
0.749788 0.749788 0.749788
0.760899 0.760899 0.760899
0.777249 0.777249 0.777249
0.799007 0.799007 0.799007
0.826112 0.826112 0.826112
0.858332 0.858332 0.858332
0.895312 0.895312 0.895312
0.849188 0.849188 0.849188
0.851300 0.851300 0.851300
0.856647 0.856647 0.856647
0.866080 0.866080 0.866080
0.880036 0.880036 0.880036
0.898740 0.898740 0.898740
0.922238 0.922238 0.922238
0.950435 0.950435 0.950435
0.983123 0.983123 0.983123
0.191126 0.191126 0.191126
0.201491 0.201491 0.201491
0.225517 0.225517 0.225517
0.262336 0.262336 0.262336
0.308467 0.308467 0.308467
0.360786 0.360786 0.360786
0.417129 0.417129 0.417129
0.476121 0.476121 0.476121
0.564012 0.564012 0.564012
0.216849 0.216849 0.216849
0.225912 0.225912 0.225912
0.247298 0.247298 0.247298
0.280883 0.280883 0.280883
0.323954 0.323954 0.323954
0.373705 0.373705 0.373705
0.427994 0.427994 0.427994
0.506034 0.506034 0.506034
0.572966 0.572966 0.572966
0.270381 0.270381 0.270381
0.277471 0.277471 0.277471
0.294621 0.294621 0.294621
0.322566 0.322566 0.322566
0.359826 0.359826 0.359826
0.404339 0.404339 0.404339
0.454204 0.454204 0.454204
0.531434 0.531434 0.531434
0.595037 0.595037 0.595037
0.343207 0.343207 0.343207
0.348573 0.348573 0.348573
0.361797 0.361797 0.361797
0.384018 0.384018 0.384018
0.414746 0.414746 0.414746
0.452787 0.452787 0.452787
0.518834 0.518834 0.518834
0.573482 0.573482 0.573482
0.632128 0.632128 0.632128
0.426461 0.426461 0.426461
0.430583 0.430583 0.430583
0.440860 0.440860 0.440860
0.458478 0.458478 0.458478
0.503929 0.503929 0.503929
0.539777 0.539777 0.539777
0.582356 0.582356 0.582356
0.630584 0.630584 0.630584
0.683434 0.683434 0.683434
0.539718 0.539718 0.539718
0.543380 0.543380 0.543380
0.552573 0.552573 0.552573
0.568531 0.568531 0.568531
0.591585 0.591585 0.591585
0.621560 0.621560 0.621560
0.657933 0.657933 0.657933
0.699993 0.699993 0.699993
0.746966 0.746966 0.746966
0.643221 0.643221 0.643221
0.646193 0.646193 0.646193
0.653684 0.653684 0.653684
0.666789 0.666789 0.666789
0.685939 0.685939 0.685939
0.711190 0.711190 0.711190
0.742317 0.742317 0.742317
0.778896 0.778896 0.778896
0.820395 0.820395 0.820395
0.748862 0.748862 0.748862
0.751331 0.751331 0.751331
0.757570 0.757570 0.757570
0.768541 0.768541 0.768541
0.784695 0.784695 0.784695
0.806204 0.806204 0.806204
0.833019 0.833019 0.833019
0.864918 0.864918 0.864918
0.901560 0.901560 0.901560
0.855862 0.855862 0.855862
0.857954 0.857954 0.857954
0.863249 0.863249 0.863249
0.872592 0.872592 0.872592
0.886420 0.886420 0.886420
0.904958 0.904958 0.904958
0.928259 0.928259 0.928259
0.956232 0.956232 0.956232
0.988677 0.988677 0.988677
0.229002 0.229002 0.229002
0.237542 0.237542 0.237542
0.257833 0.257833 0.257833
0.290013 0.290013 0.290013
0.331693 0.331693 0.331693
0.380234 0.380234 0.380234
0.433529 0.433529 0.433529
0.511362 0.511362 0.511362
0.577573 0.577573 0.577573
0.250439 0.250439 0.250439
0.258172 0.258172 0.258172
0.276732 0.276732 0.276732
0.306616 0.306616 0.306616
0.345943 0.345943 0.345943
0.392374 0.392374 0.392374
0.443897 0.443897 0.443897
0.521395 0.521395 0.521395
0.586281 0.586281 0.586281
0.297185 0.297185 0.297185
0.303544 0.303544 0.303544
0.319052 0.319052 0.319052
0.344661 0.344661 0.344661
0.379333 0.379333 0.379333
0.421357 0.421357 0.421357
0.469008 0.469008 0.469008
0.545959 0.545959 0.545959
0.607775 0.607775 0.607775
0.363803 0.363803 0.363803
0.368807 0.368807 0.368807
0.381182 0.381182 0.381182
0.402102 0.402102 0.402102
0.431258 0.431258 0.431258
0.467646 0.467646 0.467646
0.533764 0.533764 0.533764
0.586783 0.586783 0.586783
0.643989 0.643989 0.643989
0.442433 0.442433 0.442433
0.446372 0.446372 0.446372
0.456207 0.456207 0.456207
0.473115 0.473115 0.473115
0.519363 0.519363 0.519363
0.554045 0.554045 0.554045
0.595421 0.595421 0.595421
0.642480 0.642480 0.642480
0.694239 0.694239 0.694239
0.553987 0.553987 0.553987
0.557539 0.557539 0.557539
0.566460 0.566460 0.566460
0.581967 0.581967 0.581967
0.604411 0.604411 0.604411
0.633661 0.633661 0.633661
0.669243 0.669243 0.669243
0.710492 0.710492 0.710492
0.756670 0.756670 0.756670
0.654840 0.654840 0.654840
0.657748 0.657748 0.657748
0.665081 0.665081 0.665081
0.677919 0.677919 0.677919
0.696697 0.696697 0.696697
0.721489 0.721489 0.721489
0.752094 0.752094 0.752094
0.788115 0.788115 0.788115
0.829044 0.829044 0.829044
0.758535 0.758535 0.758535
0.760965 0.760965 0.760965
0.767108 0.767108 0.767108
0.777913 0.777913 0.777913
0.793831 0.793831 0.793831
0.815041 0.815041 0.815041
0.841506 0.841506 0.841506
0.873018 0.873018 0.873018
0.909253 0.909253 0.909253
0.864070 0.864070 0.864070
0.866136 0.866136 0.866136
0.871369 0.871369 0.871369
0.880604 0.880604 0.880604
0.894277 0.894277 0.894277
0.912614 0.912614 0.912614
0.935675 0.935675 0.935675
0.963377 0.963377 0.963377
0.995528 0.995528 0.995528
0.266879 0.266879 0.266879
0.274075 0.274075 0.274075
0.291460 0.291460 0.291460
0.319733 0.319733 0.319733
0.357347 0.357347 0.357347
0.402193 0.402193 0.402193
0.452349 0.452349 0.452349
0.529623 0.529623 0.529623
0.593454 0.593454 0.593454
0.285082 0.285082 0.285082
0.291754 0.291754 0.291754
0.307971 0.307971 0.307971
0.334598 0.334598 0.334598
0.370412 0.370412 0.370412
0.413545 0.413545 0.413545
0.462193 0.462193 0.462193
0.539257 0.539257 0.539257
0.601888 0.601888 0.601888
0.326134 0.326134 0.326134
0.331835 0.331835 0.331835
0.345839 0.345839 0.345839
0.369233 0.369233 0.369233
0.401353 0.401353 0.401353
0.440825 0.440825 0.440825
0.506897 0.506897 0.506897
0.562907 0.562907 0.562907
0.622739 0.622739 0.622739
0.386909 0.386909 0.386909
0.391553 0.391553 0.391553
0.403078 0.403078 0.403078
0.422675 0.422675 0.422675
0.450197 0.450197 0.450197
0.505434 0.505434 0.505434
0.551156 0.551156 0.551156
0.602374 0.602374 0.602374
0.657965 0.657965 0.657965
0.460801 0.460801 0.460801
0.464546 0.464546 0.464546
0.473912 0.473912 0.473912
0.511315 0.511315 0.511315
0.537305 0.537305 0.537305
0.570708 0.570708 0.570708
0.610748 0.610748 0.610748
0.656494 0.656494 0.656494
0.707016 0.707016 0.707016
0.570653 0.570653 0.570653
0.574082 0.574082 0.574082
0.582702 0.582702 0.582702
0.597708 0.597708 0.597708
0.619472 0.619472 0.619472
0.647906 0.647906 0.647906
0.682593 0.682593 0.682593
0.722918 0.722918 0.722918
0.768182 0.768182 0.768182
0.668541 0.668541 0.668541
0.671377 0.671377 0.671377
0.678531 0.678531 0.678531
0.691065 0.691065 0.691065
0.709419 0.709419 0.709419
0.733687 0.733687 0.733687
0.763692 0.763692 0.763692
0.799069 0.799069 0.799069
0.839337 0.839337 0.839337
0.770013 0.770013 0.770013
0.772399 0.772399 0.772399
0.778430 0.778430 0.778430
0.789043 0.789043 0.789043
0.804688 0.804688 0.804688
0.825552 0.825552 0.825552
0.851611 0.851611 0.851611
0.882673 0.882673 0.882673
0.918431 0.918431 0.918431
0.873849 0.873849 0.873849
0.875887 0.875887 0.875887
0.881047 0.881047 0.881047
0.890156 0.890156 0.890156
0.903647 0.903647 0.903647
0.921751 0.921751 0.921751
0.944531 0.944531 0.944531
0.971914 0.971914 0.971914
1.000000 1.000000 1.000000
