docs/luts/fuji_recipes/BR_VM_Monochrome_R.cube
TITLE "Fujifilm Recipe: VM Monochrome R (BR)"
# FilmSim=BR HL=0 SH=3 Col=0 WB=Auto WBR=0 WBB=0
LUT_3D_SIZE 5
DOMAIN_MIN 0.0 0.0 0.0
DOMAIN_MAX 1.0 1.0 1.0
0.000000 0.000000 0.000000
0.099755 0.099755 0.099755
0.221194 0.221194 0.221194
0.342632 0.342632 0.342632
0.527353 0.527353 0.527353
0.171856 0.171856 0.171856
0.203952 0.203952 0.203952
0.280845 0.280845 0.280845
0.381045 0.381045 0.381045
0.558177 0.558177 0.558177
0.352393 0.352393 0.352393
0.367327 0.367327 0.367327
0.410799 0.410799 0.410799
0.545609 0.545609 0.545609
0.644844 0.644844 0.644844
0.605603 0.605603 0.605603
0.615839 0.615839 0.615839
0.647280 0.647280 0.647280
0.701869 0.701869 0.701869
0.776870 0.776870 0.776870
0.810759 0.810759 0.810759
0.817805 0.817805 0.817805
0.839881 0.839881 0.839881
0.879656 0.879656 0.879656
0.936922 0.936922 0.936922
0.036317 0.036317 0.036317
0.114810 0.114810 0.114810
0.228052 0.228052 0.228052
0.346750 0.346750 0.346750
0.530569 0.530569 0.530569
0.180861 0.180861 0.180861
0.211454 0.211454 0.211454
0.286064 0.286064 0.286064
0.384661 0.384661 0.384661
0.561170 0.561170 0.561170
0.356372 0.356372 0.356372
0.371110 0.371110 0.371110
0.414094 0.414094 0.414094
0.548689 0.548689 0.548689
0.647333 0.647333 0.647333
0.608301 0.608301 0.608301
0.618480 0.618480 0.618480
0.649757 0.649757 0.649757
0.704101 0.704101 0.704101
0.778826 0.778826 0.778826
0.812609 0.812609 0.812609
0.819634 0.819634 0.819634
0.841648 0.841648 0.841648
0.881318 0.881318 0.881318
0.938452 0.938452 0.938452
0.105758 0.105758 0.105758
0.153425 0.153425 0.153425
0.248590 0.248590 0.248590
0.359567 0.359567 0.359567
0.540718 0.540718 0.540718
0.206858 0.206858 0.206858
0.233681 0.233681 0.233681
0.302079 0.302079 0.302079
0.395984 0.395984 0.395984
0.570633 0.570633 0.570633
0.368780 0.368780 0.368780
0.382932 0.382932 0.382932
0.424449 0.424449 0.424449
0.558423 0.558423 0.558423
0.655235 0.655235 0.655235
0.616851 0.616851 0.616851
0.626852 0.626852 0.626852
0.657621 0.657621 0.657621
0.711197 0.711197 0.711197
0.785057 0.785057 0.785057
0.818505 0.818505 0.818505
0.825464 0.825464 0.825464
0.847280 0.847280 0.847280
0.886622 0.886622 0.886622
0.943336 0.943336 0.943336
0.175198 0.175198 0.175198
0.206724 0.206724 0.206724
0.282761 0.282761 0.282761
0.382369 0.382369 0.382369
0.559271 0.559271 0.559271
0.247849 0.247849 0.247849
0.270069 0.270069 0.270069
0.329841 0.329841 0.329841
0.416354 0.416354 0.416354
0.587997 0.587997 0.587997
0.390923 0.390923 0.390923
0.404122 0.404122 0.404122
0.503638 0.503638 0.503638
0.576256 0.576256 0.576256
0.669846 0.669846 0.669846
0.632612 0.632612 0.632612
0.642300 0.642300 0.642300
0.672165 0.672165 0.672165
0.724367 0.724367 0.724367
0.796662 0.796662 0.796662
0.829502 0.829502 0.829502
0.836342 0.836342 0.836342
0.857796 0.857796 0.857796
0.896536 0.896536 0.896536
0.952479 0.952479 0.952479
0.244639 0.244639 0.244639
0.267172 0.267172 0.267172
0.327568 0.327568 0.327568
0.414654 0.414654 0.414654
0.586531 0.586531 0.586531
0.298956 0.298956 0.298956
0.317019 0.317019 0.317019
0.367907 0.367907 0.367907
0.506386 0.506386 0.506386
0.613647 0.613647 0.613647
0.422401 0.422401 0.422401
0.434419 0.434419 0.434419
0.534541 0.534541 0.534541
0.602545 0.602545 0.602545
0.691682 0.691682 0.691682
0.656056 0.656056 0.656056
0.665306 0.665306 0.665306
0.693907 0.693907 0.693907
0.744159 0.744159 0.744159
0.814201 0.814201 0.814201
0.846157 0.846157 0.846157
0.852821 0.852821 0.852821
0.873747 0.873747 0.873747
0.911603 0.911603 0.911603
0.966407 0.966407 0.966407
