docs/luts/fuji_recipes/BR_VM_Classic_Contrast.cube
TITLE "Fujifilm Recipe: VM Classic Contrast (BR)"
# FilmSim=BR HL=2 SH=1 Col=0 WB=Auto WBR=0 WBB=0
LUT_3D_SIZE 5
DOMAIN_MIN 0.0 0.0 0.0
DOMAIN_MAX 1.0 1.0 1.0
0.000000 0.000000 0.000000
0.108824 0.108824 0.108824
0.241302 0.241302 0.241302
0.373781 0.373781 0.373781
0.529542 0.529542 0.529542
0.187479 0.187479 0.187479
0.222494 0.222494 0.222494
0.306376 0.306376 0.306376
0.415685 0.415685 0.415685
0.562831 0.562831 0.562831
0.384429 0.384429 0.384429
0.400721 0.400721 0.400721
0.448144 0.448144 0.448144
0.549258 0.549258 0.549258
0.656431 0.656431 0.656431
0.614051 0.614051 0.614051
0.625106 0.625106 0.625106
0.659062 0.659062 0.659062
0.718019 0.718019 0.718019
0.799020 0.799020 0.799020
0.835620 0.835620 0.835620
0.843229 0.843229 0.843229
0.867072 0.867072 0.867072
0.910029 0.910029 0.910029
0.971876 0.971876 0.971876
0.039619 0.039619 0.039619
0.125248 0.125248 0.125248
0.248784 0.248784 0.248784
0.378272 0.378272 0.378272
0.533014 0.533014 0.533014
0.197303 0.197303 0.197303
0.230677 0.230677 0.230677
0.312070 0.312070 0.312070
0.419631 0.419631 0.419631
0.566063 0.566063 0.566063
0.388770 0.388770 0.388770
0.404847 0.404847 0.404847
0.451739 0.451739 0.451739
0.552585 0.552585 0.552585
0.659120 0.659120 0.659120
0.616965 0.616965 0.616965
0.627958 0.627958 0.627958
0.661738 0.661738 0.661738
0.720429 0.720429 0.720429
0.801133 0.801133 0.801133
0.837618 0.837618 0.837618
0.845204 0.845204 0.845204
0.868979 0.868979 0.868979
0.911824 0.911824 0.911824
0.973528 0.973528 0.973528
0.115372 0.115372 0.115372
0.167373 0.167373 0.167373
0.271189 0.271189 0.271189
0.392254 0.392254 0.392254
0.543975 0.543975 0.543975
0.225664 0.225664 0.225664
0.254925 0.254925 0.254925
0.329541 0.329541 0.329541
0.431983 0.431983 0.431983
0.576284 0.576284 0.576284
0.402305 0.402305 0.402305
0.417744 0.417744 0.417744
0.463035 0.463035 0.463035
0.563096 0.563096 0.563096
0.667654 0.667654 0.667654
0.626199 0.626199 0.626199
0.637000 0.637000 0.637000
0.670231 0.670231 0.670231
0.728093 0.728093 0.728093
0.807861 0.807861 0.807861
0.843985 0.843985 0.843985
0.851501 0.851501 0.851501
0.875062 0.875062 0.875062
0.917552 0.917552 0.917552
0.978803 0.978803 0.978803
0.191126 0.191126 0.191126
0.225517 0.225517 0.225517
0.308467 0.308467 0.308467
0.417129 0.417129 0.417129
0.564012 0.564012 0.564012
0.270381 0.270381 0.270381
0.294621 0.294621 0.294621
0.359826 0.359826 0.359826
0.454204 0.454204 0.454204
0.595037 0.595037 0.595037
0.426461 0.426461 0.426461
0.440860 0.440860 0.440860
0.503929 0.503929 0.503929
0.582356 0.582356 0.582356
0.683434 0.683434 0.683434
0.643221 0.643221 0.643221
0.653684 0.653684 0.653684
0.685939 0.685939 0.685939
0.742317 0.742317 0.742317
0.820395 0.820395 0.820395
0.855862 0.855862 0.855862
0.863249 0.863249 0.863249
0.886420 0.886420 0.886420
0.928259 0.928259 0.928259
0.988677 0.988677 0.988677
0.266879 0.266879 0.266879
0.291460 0.291460 0.291460
0.357347 0.357347 0.357347
0.452349 0.452349 0.452349
0.593454 0.593454 0.593454
0.326134 0.326134 0.326134
0.345839 0.345839 0.345839
0.401353 0.401353 0.401353
0.506897 0.506897 0.506897
0.622739 0.622739 0.622739
0.460801 0.460801 0.460801
0.473912 0.473912 0.473912
0.537305 0.537305 0.537305
0.610748 0.610748 0.610748
0.707016 0.707016 0.707016
0.668541 0.668541 0.668541
0.678531 0.678531 0.678531
0.709419 0.709419 0.709419
0.763692 0.763692 0.763692
0.839337 0.839337 0.839337
0.873849 0.873849 0.873849
0.881047 0.881047 0.881047
0.903647 0.903647 0.903647
0.944531 0.944531 0.944531
1.000000 1.000000 1.000000
