docs/luts/fuji_recipes/BR_VM_Monochrome_R.cube
TITLE "Fujifilm Recipe: VM Monochrome R (BR)"
# FilmSim=BR HL=0 SH=3 Col=0 WB=Auto WBR=0 WBB=0
LUT_3D_SIZE 33
DOMAIN_MIN 0.0 0.0 0.0
DOMAIN_MAX 1.0 1.0 1.0
0.000000 0.000000 0.000000
0.006607 0.006607 0.006607
0.014082 0.014082 0.014082
0.024801 0.024801 0.024801
0.039036 0.039036 0.039036
0.054216 0.054216 0.054216
0.069395 0.069395 0.069395
0.084575 0.084575 0.084575
0.099755 0.099755 0.099755
0.114935 0.114935 0.114935
0.130115 0.130115 0.130115
0.145295 0.145295 0.145295
0.160474 0.160474 0.160474
0.175654 0.175654 0.175654
0.190834 0.190834 0.190834
0.206014 0.206014 0.206014
0.221194 0.221194 0.221194
0.236373 0.236373 0.236373
0.251553 0.251553 0.251553
0.266733 0.266733 0.266733
0.281913 0.281913 0.281913
0.297093 0.297093 0.297093
0.312273 0.312273 0.312273
0.327452 0.327452 0.327452
0.342632 0.342632 0.342632
0.357812 0.357812 0.357812
0.372992 0.372992 0.372992
0.388172 0.388172 0.388172
0.403352 0.403352 0.403352
0.418531 0.418531 0.418531
0.433711 0.433711 0.433711
0.510103 0.510103 0.510103
0.527353 0.527353 0.527353
0.017111 0.017111 0.017111
0.023718 0.023718 0.023718
0.031193 0.031193 0.031193
0.041512 0.041512 0.041512
0.053281 0.053281 0.053281
0.065970 0.065970 0.065970
0.079286 0.079286 0.079286
0.093038 0.093038 0.093038
0.107100 0.107100 0.107100
0.121387 0.121387 0.121387
0.135841 0.135841 0.135841
0.150422 0.150422 0.150422
0.165102 0.165102 0.165102
0.179859 0.179859 0.179859
0.194677 0.194677 0.194677
0.209545 0.209545 0.209545
0.224454 0.224454 0.224454
0.239396 0.239396 0.239396
0.254366 0.254366 0.254366
0.269360 0.269360 0.269360
0.284374 0.284374 0.284374
0.299405 0.299405 0.299405
0.314451 0.314451 0.314451
0.329509 0.329509 0.329509
0.344579 0.344579 0.344579
0.359658 0.359658 0.359658
0.374746 0.374746 0.374746
0.389841 0.389841 0.389841
0.404944 0.404944 0.404944
0.420052 0.420052 0.420052
0.435165 0.435165 0.435165
0.511686 0.511686 0.511686
0.528871 0.528871 0.528871
0.036453 0.036453 0.036453
0.042547 0.042547 0.042547
0.048818 0.048818 0.048818
0.056928 0.056928 0.056928
0.066607 0.066607 0.066607
0.077503 0.077503 0.077503
0.089320 0.089320 0.089320
0.101831 0.101831 0.101831
0.114864 0.114864 0.114864
0.128296 0.128296 0.128296
0.142034 0.142034 0.142034
0.156010 0.156010 0.156010
0.170174 0.170174 0.170174
0.184489 0.184489 0.184489
0.198925 0.198925 0.198925
0.213461 0.213461 0.213461
0.228078 0.228078 0.228078
0.242763 0.242763 0.242763
0.257506 0.257506 0.257506
0.272297 0.272297 0.272297
0.287129 0.287129 0.287129
0.301996 0.301996 0.301996
0.316894 0.316894 0.316894
0.331818 0.331818 0.331818
0.346765 0.346765 0.346765
0.361733 0.361733 0.361733
0.376719 0.376719 0.376719
0.391720 0.391720 0.391720
0.406736 0.406736 0.406736
0.421764 0.421764 0.421764
0.436803 0.436803 0.436803
0.513469 0.513469 0.513469
0.530581 0.530581 0.530581
0.059020 0.059020 0.059020
0.063492 0.063492 0.063492
0.068268 0.068268 0.068268
0.074674 0.074674 0.074674
0.082603 0.082603 0.082603
0.091833 0.091833 0.091833
0.102136 0.102136 0.102136
0.113306 0.113306 0.113306
0.125171 0.125171 0.125171
0.137589 0.137589 0.137589
0.150450 0.150450 0.150450
0.163667 0.163667 0.163667
0.177172 0.177172 0.177172
0.190912 0.190912 0.190912
0.204845 0.204845 0.204845
0.218937 0.218937 0.218937
0.233162 0.233162 0.233162
0.247499 0.247499 0.247499
0.261930 0.261930 0.261930
0.276443 0.276443 0.276443
0.291024 0.291024 0.291024
0.305665 0.305665 0.305665
0.320357 0.320357 0.320357
0.335095 0.335095 0.335095
0.349871 0.349871 0.349871
0.364683 0.364683 0.364683
0.379525 0.379525 0.379525
0.394395 0.394395 0.394395
0.409288 0.409288 0.409288
0.424204 0.424204 0.424204
0.439138 0.439138 0.439138
0.516012 0.516012 0.516012
0.533021 0.533021 0.533021
0.081587 0.081587 0.081587
0.085047 0.085047 0.085047
0.088817 0.088817 0.088817
0.093981 0.093981 0.093981
0.100529 0.100529 0.100529
0.108338 0.108338 0.108338
0.117255 0.117255 0.117255
0.127122 0.127122 0.127122
0.137791 0.137791 0.137791
0.149129 0.149129 0.149129
0.161022 0.161022 0.161022
0.173378 0.173378 0.173378
0.186116 0.186116 0.186116
0.199175 0.199175 0.199175
0.212501 0.212501 0.212501
0.226052 0.226052 0.226052
0.239793 0.239793 0.239793
0.253695 0.253695 0.253695
0.267736 0.267736 0.267736
0.281896 0.281896 0.281896
0.296158 0.296158 0.296158
0.310509 0.310509 0.310509
0.324937 0.324937 0.324937
0.339434 0.339434 0.339434
0.353990 0.353990 0.353990
0.368598 0.368598 0.368598
0.383254 0.383254 0.383254
0.397951 0.397951 0.397951
0.412685 0.412685 0.412685
0.427452 0.427452 0.427452
0.502556 0.502556 0.502556
0.519402 0.519402 0.519402
0.536276 0.536276 0.536276
0.104154 0.104154 0.104154
0.106936 0.106936 0.106936
0.110001 0.110001 0.110001
0.114257 0.114257 0.114257
0.119738 0.119738 0.119738
0.126385 0.126385 0.126385
0.134107 0.134107 0.134107
0.142794 0.142794 0.142794
0.152329 0.152329 0.152329
0.162602 0.162602 0.162602
0.173510 0.173510 0.173510
0.184961 0.184961 0.184961
0.196875 0.196875 0.196875
0.209185 0.209185 0.209185
0.221832 0.221832 0.221832
0.234769 0.234769 0.234769
0.247953 0.247953 0.247953
0.261350 0.261350 0.261350
0.274932 0.274932 0.274932
0.288674 0.288674 0.288674
0.302556 0.302556 0.302556
0.316558 0.316558 0.316558
0.330668 0.330668 0.330668
0.344872 0.344872 0.344872
0.359159 0.359159 0.359159
0.373519 0.373519 0.373519
0.387945 0.387945 0.387945
0.402430 0.402430 0.402430
0.416967 0.416967 0.416967
0.431552 0.431552 0.431552
0.507021 0.507021 0.507021
0.523687 0.523687 0.523687
0.540391 0.540391 0.540391
0.126721 0.126721 0.126721
0.129022 0.129022 0.129022
0.131577 0.131577 0.131577
0.135153 0.135153 0.135153
0.139807 0.139807 0.139807
0.145520 0.145520 0.145520
0.152241 0.152241 0.152241
0.159898 0.159898 0.159898
0.168408 0.168408 0.168408
0.177684 0.177684 0.177684
0.187639 0.187639 0.187639
0.198191 0.198191 0.198191
0.209267 0.209267 0.209267
0.220799 0.220799 0.220799
0.232728 0.232728 0.232728
0.245003 0.245003 0.245003
0.257580 0.257580 0.257580
0.270420 0.270420 0.270420
0.283490 0.283490 0.283490
0.296761 0.296761 0.296761
0.310210 0.310210 0.310210
0.323814 0.323814 0.323814
0.337557 0.337557 0.337557
0.351422 0.351422 0.351422
0.365395 0.365395 0.365395
0.379466 0.379466 0.379466
0.393623 0.393623 0.393623
0.407857 0.407857 0.407857
0.422162 0.422162 0.422162
0.436529 0.436529 0.436529
0.512448 0.512448 0.512448
0.528898 0.528898 0.528898
0.545401 0.545401 0.545401
0.149288 0.149288 0.149288
0.151235 0.151235 0.151235
0.153406 0.153406 0.153406
0.156463 0.156463 0.156463
0.160469 0.160469 0.160469
0.165430 0.165430 0.165430
0.171320 0.171320 0.171320
0.178097 0.178097 0.178097
0.185703 0.185703 0.185703
0.194074 0.194074 0.194074
0.203141 0.203141 0.203141
0.212836 0.212836 0.212836
0.223092 0.223092 0.223092
0.233848 0.233848 0.233848
0.245048 0.245048 0.245048
0.256641 0.256641 0.256641
0.268582 0.268582 0.268582
0.280830 0.280830 0.280830
0.293350 0.293350 0.293350
0.306112 0.306112 0.306112
0.319088 0.319088 0.319088
0.332253 0.332253 0.332253
0.345589 0.345589 0.345589
0.359075 0.359075 0.359075
0.372697 0.372697 0.372697
0.386440 0.386440 0.386440
0.400292 0.400292 0.400292
0.414242 0.414242 0.414242
0.428281 0.428281 0.428281
0.502727 0.502727 0.502727
0.518854 0.518854 0.518854
0.535056 0.535056 0.535056
0.551326 0.551326 0.551326
0.171856 0.171856 0.171856
0.173531 0.173531 0.173531
0.175406 0.175406 0.175406
0.178057 0.178057 0.178057
0.181549 0.181549 0.181549
0.185899 0.185899 0.185899
0.191101 0.191101 0.191101
0.197131 0.197131 0.197131
0.203952 0.203952 0.203952
0.211519 0.211519 0.211519
0.219777 0.219777 0.219777
0.228673 0.228673 0.228673
0.238151 0.238151 0.238151
0.248156 0.248156 0.248156
0.258638 0.258638 0.258638
0.269549 0.269549 0.269549
0.280845 0.280845 0.280845
0.292486 0.292486 0.292486
0.304435 0.304435 0.304435
0.316662 0.316662 0.316662
0.329136 0.329136 0.329136
0.341834 0.341834 0.341834
0.354730 0.354730 0.354730
0.367807 0.367807 0.367807
0.381045 0.381045 0.381045
0.394429 0.394429 0.394429
0.407945 0.407945 0.407945
0.421580 0.421580 0.421580
0.435323 0.435323 0.435323
0.510414 0.510414 0.510414
0.526245 0.526245 0.526245
0.542169 0.542169 0.542169
0.558177 0.558177 0.558177
0.194423 0.194423 0.194423
0.195886 0.195886 0.195886
0.197527 0.197527 0.197527
0.199854 0.199854 0.199854
0.202932 0.202932 0.202932
0.206782 0.206782 0.206782
0.211411 0.211411 0.211411
0.216808 0.216808 0.216808
0.222951 0.222951 0.222951
0.229808 0.229808 0.229808
0.237341 0.237341 0.237341
0.245507 0.245507 0.245507
0.254260 0.254260 0.254260
0.263555 0.263555 0.263555
0.273347 0.273347 0.273347
0.283592 0.283592 0.283592
0.294249 0.294249 0.294249
0.305282 0.305282 0.305282
0.316653 0.316653 0.316653
0.328332 0.328332 0.328332
0.340289 0.340289 0.340289
0.352498 0.352498 0.352498
0.364934 0.364934 0.364934
0.377577 0.377577 0.377577
0.390407 0.390407 0.390407
0.403407 0.403407 0.403407
0.416561 0.416561 0.416561
0.429855 0.429855 0.429855
0.503725 0.503725 0.503725
0.519110 0.519110 0.519110
0.534617 0.534617 0.534617
0.550235 0.550235 0.550235
0.565954 0.565954 0.565954
0.216990 0.216990 0.216990
0.218283 0.218283 0.218283
0.219736 0.219736 0.219736
0.221800 0.221800 0.221800
0.224538 0.224538 0.224538
0.227975 0.227975 0.227975
0.232123 0.232123 0.232123
0.236982 0.236982 0.236982
0.242540 0.242540 0.242540
0.248777 0.248777 0.248777
0.255664 0.255664 0.255664
0.263169 0.263169 0.263169
0.271257 0.271257 0.271257
0.279890 0.279890 0.279890
0.289029 0.289029 0.289029
0.298636 0.298636 0.298636
0.308674 0.308674 0.308674
0.319109 0.319109 0.319109
0.329907 0.329907 0.329907
0.341037 0.341037 0.341037
0.352470 0.352470 0.352470
0.364180 0.364180 0.364180
0.376143 0.376143 0.376143
0.388337 0.388337 0.388337
0.400741 0.400741 0.400741
0.413338 0.413338 0.413338
0.426110 0.426110 0.426110
0.439044 0.439044 0.439044
0.513778 0.513778 0.513778
0.528796 0.528796 0.528796
0.543954 0.543954 0.543954
0.559243 0.559243 0.559243
0.574650 0.574650 0.574650
0.239557 0.239557 0.239557
0.240711 0.240711 0.240711
0.242010 0.242010 0.242010
0.243857 0.243857 0.243857
0.246313 0.246313 0.246313
0.249405 0.249405 0.249405
0.253148 0.253148 0.253148
0.257548 0.257548 0.257548
0.262600 0.262600 0.262600
0.268293 0.268293 0.268293
0.274608 0.274608 0.274608
0.281520 0.281520 0.281520
0.289002 0.289002 0.289002
0.297024 0.297024 0.297024
0.305553 0.305553 0.305553
0.314557 0.314557 0.314557
0.324003 0.324003 0.324003
0.333860 0.333860 0.333860
0.344097 0.344097 0.344097
0.354686 0.354686 0.354686
0.365598 0.365598 0.365598
0.376808 0.376808 0.376808
0.388293 0.388293 0.388293
0.400029 0.400029 0.400029
0.411997 0.411997 0.411997
0.424178 0.424178 0.424178
0.436555 0.436555 0.436555
0.510355 0.510355 0.510355
0.524812 0.524812 0.524812
0.539443 0.539443 0.539443
0.554234 0.554234 0.554234
0.569173 0.569173 0.569173
0.584248 0.584248 0.584248
0.262124 0.262124 0.262124
0.263163 0.263163 0.263163
0.264333 0.264333 0.264333
0.266000 0.266000 0.266000
0.268219 0.268219 0.268219
0.271019 0.271019 0.271019
0.274417 0.274417 0.274417
0.278422 0.278422 0.278422
0.283036 0.283036 0.283036
0.288253 0.288253 0.288253
0.294061 0.294061 0.294061
0.300442 0.300442 0.300442
0.307376 0.307376 0.307376
0.314838 0.314838 0.314838
0.322802 0.322802 0.322802
0.331242 0.331242 0.331242
0.340128 0.340128 0.340128
0.349434 0.349434 0.349434
0.359130 0.359130 0.359130
0.369192 0.369192 0.369192
0.379593 0.379593 0.379593
0.390308 0.390308 0.390308
0.401316 0.401316 0.401316
0.412593 0.412593 0.412593
0.424120 0.424120 0.424120
0.435879 0.435879 0.435879
0.508922 0.508922 0.508922
0.522752 0.522752 0.522752
0.536789 0.536789 0.536789
0.551019 0.551019 0.551019
0.565427 0.565427 0.565427
0.580000 0.580000 0.580000
0.594726 0.594726 0.594726
0.284691 0.284691 0.284691
0.285634 0.285634 0.285634
0.286695 0.286695 0.286695
0.288209 0.288209 0.288209
0.290228 0.290228 0.290228
0.292778 0.292778 0.292778
0.295880 0.295880 0.295880
0.299545 0.299545 0.299545
0.303777 0.303777 0.303777
0.308576 0.308576 0.308576
0.313935 0.313935 0.313935
0.319841 0.319841 0.319841
0.326279 0.326279 0.326279
0.333231 0.333231 0.333231
0.340676 0.340676 0.340676
0.348591 0.348591 0.348591
0.356952 0.356952 0.356952
0.365735 0.365735 0.365735
0.374916 0.374916 0.374916
0.384470 0.384470 0.384470
0.394375 0.394375 0.394375
0.404607 0.404607 0.404607
0.415144 0.415144 0.415144
0.425966 0.425966 0.425966
0.437054 0.437054 0.437054
0.509532 0.509532 0.509532
0.522673 0.522673 0.522673
0.536056 0.536056 0.536056
0.549666 0.549666 0.549666
0.563484 0.563484 0.563484
0.577498 0.577498 0.577498
0.591694 0.591694 0.591694
0.606058 0.606058 0.606058
0.307259 0.307259 0.307259
0.308118 0.308118 0.308118
0.309088 0.309088 0.309088
0.310472 0.310472 0.310472
0.312318 0.312318 0.312318
0.314654 0.314654 0.314654
0.317500 0.317500 0.317500
0.320869 0.320869 0.320869
0.324767 0.324767 0.324767
0.329198 0.329198 0.329198
0.334158 0.334158 0.334158
0.339639 0.339639 0.339639
0.345631 0.345631 0.345631
0.352119 0.352119 0.352119
0.359087 0.359087 0.359087
0.366517 0.366517 0.366517
0.374388 0.374388 0.374388
0.382680 0.382680 0.382680
0.391372 0.391372 0.391372
0.400442 0.400442 0.400442
0.409868 0.409868 0.409868
0.419631 0.419631 0.419631
0.429710 0.429710 0.429710
0.500097 0.500097 0.500097
0.512203 0.512203 0.512203
0.524604 0.524604 0.524604
0.537281 0.537281 0.537281
0.550217 0.550217 0.550217
0.563394 0.563394 0.563394
0.576796 0.576796 0.576796
0.590409 0.590409 0.590409
0.604218 0.604218 0.604218
0.618212 0.618212 0.618212
0.329826 0.329826 0.329826
0.330615 0.330615 0.330615
0.331505 0.331505 0.331505
0.332776 0.332776 0.332776
0.334474 0.334474 0.334474
0.336624 0.336624 0.336624
0.339247 0.339247 0.339247
0.342357 0.342357 0.342357
0.345962 0.345962 0.345962
0.350067 0.350067 0.350067
0.354672 0.354672 0.354672
0.359773 0.359773 0.359773
0.365362 0.365362 0.365362
0.371429 0.371429 0.371429
0.377961 0.377961 0.377961
0.384943 0.384943 0.384943
0.392359 0.392359 0.392359
0.400192 0.400192 0.400192
0.408423 0.408423 0.408423
0.417033 0.417033 0.417033
0.426003 0.426003 0.426003
0.435315 0.435315 0.435315
0.505625 0.505625 0.505625
0.516921 0.516921 0.516921
0.528543 0.528543 0.528543
0.540472 0.540472 0.540472
0.552691 0.552691 0.552691
0.565181 0.565181 0.565181
0.577925 0.577925 0.577925
0.590909 0.590909 0.590909
0.604118 0.604118 0.604118
0.617536 0.617536 0.617536
0.631153 0.631153 0.631153
0.352393 0.352393 0.352393
0.353121 0.353121 0.353121
0.353942 0.353942 0.353942
0.355115 0.355115 0.355115
0.356684 0.356684 0.356684
0.358672 0.358672 0.358672
0.361099 0.361099 0.361099
0.363981 0.363981 0.363981
0.367327 0.367327 0.367327
0.371143 0.371143 0.371143
0.375432 0.375432 0.375432
0.380191 0.380191 0.380191
0.385416 0.385416 0.385416
0.391100 0.391100 0.391100
0.397233 0.397233 0.397233
0.403804 0.403804 0.403804
0.410799 0.410799 0.410799
0.418203 0.418203 0.418203
0.426001 0.426001 0.426001
0.434177 0.434177 0.434177
0.503084 0.503084 0.503084
0.513176 0.513176 0.513176
0.523640 0.523640 0.523640
0.534458 0.534458 0.534458
0.545609 0.545609 0.545609
0.557078 0.557078 0.557078
0.568845 0.568845 0.568845
0.580895 0.580895 0.580895
0.593211 0.593211 0.593211
0.605778 0.605778 0.605778
0.618582 0.618582 0.618582
0.631608 0.631608 0.631608
0.644844 0.644844 0.644844
0.374960 0.374960 0.374960
0.375634 0.375634 0.375634
0.376395 0.376395 0.376395
0.377483 0.377483 0.377483
0.378938 0.378938 0.378938
0.380783 0.380783 0.380783
0.383039 0.383039 0.383039
0.385719 0.385719 0.385719
0.388835 0.388835 0.388835
0.392393 0.392393 0.392393
0.396398 0.396398 0.396398
0.400850 0.400850 0.400850
0.405746 0.405746 0.405746
0.411082 0.411082 0.411082
0.416851 0.416851 0.416851
0.423043 0.423043 0.423043
0.429648 0.429648 0.429648
0.436654 0.436654 0.436654
0.504600 0.504600 0.504600
0.513427 0.513427 0.513427
0.522662 0.522662 0.522662
0.532288 0.532288 0.532288
0.542288 0.542288 0.542288
0.552645 0.552645 0.552645
0.563342 0.563342 0.563342
0.574362 0.574362 0.574362
0.585689 0.585689 0.585689
0.597307 0.597307 0.597307
0.609201 0.609201 0.609201
0.621356 0.621356 0.621356
0.633758 0.633758 0.633758
0.646393 0.646393 0.646393
0.659248 0.659248 0.659248
0.397527 0.397527 0.397527
0.398154 0.398154 0.398154
0.398862 0.398862 0.398862
0.399874 0.399874 0.399874
0.401229 0.401229 0.401229
0.402948 0.402948 0.402948
0.405051 0.405051 0.405051
0.407552 0.407552 0.407552
0.410463 0.410463 0.410463
0.413791 0.413791 0.413791
0.417541 0.417541 0.417541
0.421715 0.421715 0.421715
0.426314 0.426314 0.426314
0.431333 0.431333 0.431333
0.436769 0.436769 0.436769
0.502969 0.502969 0.502969
0.510066 0.510066 0.510066
0.517607 0.517607 0.517607
0.525580 0.525580 0.525580
0.533971 0.533971 0.533971
0.542766 0.542766 0.542766
0.551950 0.551950 0.551950
0.561508 0.561508 0.561508
0.571425 0.571425 0.571425
0.581684 0.581684 0.581684
0.592271 0.592271 0.592271
0.603171 0.603171 0.603171
0.614368 0.614368 0.614368
0.625848 0.625848 0.625848
0.637598 0.637598 0.637598
0.649602 0.649602 0.649602
0.661849 0.661849 0.661849
0.674327 0.674327 0.674327
0.420095 0.420095 0.420095
0.420680 0.420680 0.420680
0.421340 0.421340 0.421340
0.422286 0.422286 0.422286
0.423551 0.423551 0.423551
0.425158 0.425158 0.425158
0.427125 0.427125 0.427125
0.429466 0.429466 0.429466
0.432193 0.432193 0.432193
0.435314 0.435314 0.435314
0.438834 0.438834 0.438834
0.503134 0.503134 0.503134
0.508052 0.508052 0.508052
0.513428 0.513428 0.513428
0.519258 0.519258 0.519258
0.525536 0.525536 0.525536
0.532255 0.532255 0.532255
0.539406 0.539406 0.539406
0.546978 0.546978 0.546978
0.554961 0.554961 0.554961
0.563343 0.563343 0.563343
0.572109 0.572109 0.572109
0.581247 0.581247 0.581247
0.590743 0.590743 0.590743
0.600583 0.600583 0.600583
0.610754 0.610754 0.610754
0.621240 0.621240 0.621240
0.632028 0.632028 0.632028
0.643106 0.643106 0.643106
0.654458 0.654458 0.654458
0.666073 0.666073 0.666073
0.677938 0.677938 0.677938
0.690041 0.690041 0.690041
0.503025 0.503025 0.503025
0.503647 0.503647 0.503647
0.504350 0.504350 0.504350
0.505357 0.505357 0.505357
0.506704 0.506704 0.506704
0.508416 0.508416 0.508416
0.510513 0.510513 0.510513
0.513010 0.513010 0.513010
0.515920 0.515920 0.515920
0.519255 0.519255 0.519255
0.523020 0.523020 0.523020
0.527220 0.527220 0.527220
0.531859 0.531859 0.531859
0.536935 0.536935 0.536935
0.542447 0.542447 0.542447
0.548390 0.548390 0.548390
0.554760 0.554760 0.554760
0.561549 0.561549 0.561549
0.568749 0.568749 0.568749
0.576351 0.576351 0.576351
0.584343 0.584343 0.584343
0.592715 0.592715 0.592715
0.601455 0.601455 0.601455
0.610552 0.610552 0.610552
0.619991 0.619991 0.619991
0.629761 0.629761 0.629761
0.639850 0.639850 0.639850
0.650243 0.650243 0.650243
0.660929 0.660929 0.660929
0.671895 0.671895 0.671895
0.683129 0.683129 0.683129
0.694619 0.694619 0.694619
0.706353 0.706353 0.706353
0.528669 0.528669 0.528669
0.529254 0.529254 0.529254
0.529914 0.529914 0.529914
0.530860 0.530860 0.530860
0.532126 0.532126 0.532126
0.533735 0.533735 0.533735
0.535707 0.535707 0.535707
0.538057 0.538057 0.538057
0.540798 0.540798 0.540798
0.543941 0.543941 0.543941
0.547492 0.547492 0.547492
0.551457 0.551457 0.551457
0.555840 0.555840 0.555840
0.560642 0.560642 0.560642
0.565862 0.565862 0.565862
0.571498 0.571498 0.571498
0.577545 0.577545 0.577545
0.583999 0.583999 0.583999
0.590852 0.590852 0.590852
0.598096 0.598096 0.598096
0.605724 0.605724 0.605724
0.613725 0.613725 0.613725
0.622089 0.622089 0.622089
0.630805 0.630805 0.630805
0.639863 0.639863 0.639863
0.649250 0.649250 0.649250
0.658956 0.658956 0.658956
0.668969 0.668969 0.668969
0.679276 0.679276 0.679276
0.689867 0.689867 0.689867
0.700730 0.700730 0.700730
0.711854 0.711854 0.711854
0.723227 0.723227 0.723227
0.554314 0.554314 0.554314
0.554864 0.554864 0.554864
0.555486 0.555486 0.555486
0.556377 0.556377 0.556377
0.557570 0.557570 0.557570
0.559087 0.559087 0.559087
0.560946 0.560946 0.560946
0.563163 0.563163 0.563163
0.565750 0.565750 0.565750
0.568718 0.568718 0.568718
0.572075 0.572075 0.572075
0.575826 0.575826 0.575826
0.579976 0.579976 0.579976
0.584526 0.584526 0.584526
0.589478 0.589478 0.589478
0.594829 0.594829 0.594829
0.600578 0.600578 0.600578
0.606720 0.606720 0.606720
0.613250 0.613250 0.613250
0.620161 0.620161 0.620161
0.627446 0.627446 0.627446
0.635097 0.635097 0.635097
0.643106 0.643106 0.643106
0.651463 0.651463 0.651463
0.660157 0.660157 0.660157
0.669180 0.669180 0.669180
0.678519 0.678519 0.678519
0.688166 0.688166 0.688166
0.698109 0.698109 0.698109
0.708337 0.708337 0.708337
0.718839 0.718839 0.718839
0.729606 0.729606 0.729606
0.740627 0.740627 0.740627
0.579958 0.579958 0.579958
0.580478 0.580478 0.580478
0.581065 0.581065 0.581065
0.581906 0.581906 0.581906
0.583033 0.583033 0.583033
0.584466 0.584466 0.584466
0.586223 0.586223 0.586223
0.588319 0.588319 0.588319
0.590766 0.590766 0.590766
0.593575 0.593575 0.593575
0.596754 0.596754 0.596754
0.600310 0.600310 0.600310
0.604245 0.604245 0.604245
0.608565 0.608565 0.608565
0.613270 0.613270 0.613270
0.618359 0.618359 0.618359
0.623831 0.623831 0.623831
0.629683 0.629683 0.629683
0.635912 0.635912 0.635912
0.642511 0.642511 0.642511
0.649476 0.649476 0.649476
0.656799 0.656799 0.656799
0.664472 0.664472 0.664472
0.672488 0.672488 0.672488
0.680837 0.680837 0.680837
0.689512 0.689512 0.689512
0.698502 0.698502 0.698502
0.707797 0.707797 0.707797
0.717389 0.717389 0.717389
0.727267 0.727267 0.727267
0.737421 0.737421 0.737421
0.747841 0.747841 0.747841
0.758519 0.758519 0.758519
0.605603 0.605603 0.605603
0.606094 0.606094 0.606094
0.606650 0.606650 0.606650
0.607446 0.607446 0.607446
0.608512 0.608512 0.608512
0.609869 0.609869 0.609869
0.611533 0.611533 0.611533
0.613519 0.613519 0.613519
0.615839 0.615839 0.615839
0.618503 0.618503 0.618503
0.621519 0.621519 0.621519
0.624895 0.624895 0.624895
0.628634 0.628634 0.628634
0.632741 0.632741 0.632741
0.637217 0.637217 0.637217
0.642064 0.642064 0.642064
0.647280 0.647280 0.647280
0.652863 0.652863 0.652863
0.658811 0.658811 0.658811
0.665119 0.665119 0.665119
0.671783 0.671783 0.671783
0.678796 0.678796 0.678796
0.686153 0.686153 0.686153
0.693847 0.693847 0.693847
0.701869 0.701869 0.701869
0.710213 0.710213 0.710213
0.718868 0.718868 0.718868
0.727828 0.727828 0.727828
0.737083 0.737083 0.737083
0.746623 0.746623 0.746623
0.756441 0.756441 0.756441
0.766526 0.766526 0.766526
0.776870 0.776870 0.776870
0.631247 0.631247 0.631247
0.631713 0.631713 0.631713
0.632240 0.632240 0.632240
0.632995 0.632995 0.632995
0.634006 0.634006 0.634006
0.635294 0.635294 0.635294
0.636873 0.636873 0.636873
0.638758 0.638758 0.638758
0.640961 0.640961 0.640961
0.643492 0.643492 0.643492
0.646359 0.646359 0.646359
0.649569 0.649569 0.649569
0.653128 0.653128 0.653128
0.657038 0.657038 0.657038
0.661304 0.661304 0.661304
0.665926 0.665926 0.665926
0.670903 0.670903 0.670903
0.676236 0.676236 0.676236
0.681922 0.681922 0.681922
0.687958 0.687958 0.687958
0.694339 0.694339 0.694339
0.701062 0.701062 0.701062
0.708121 0.708121 0.708121
0.715510 0.715510 0.715510
0.723222 0.723222 0.723222
0.731251 0.731251 0.731251
0.739588 0.739588 0.739588
0.748227 0.748227 0.748227
0.757158 0.757158 0.757158
0.766375 0.766375 0.766375
0.775868 0.775868 0.775868
0.785630 0.785630 0.785630
0.795651 0.795651 0.795651
0.656892 0.656892 0.656892
0.657335 0.657335 0.657335
0.657835 0.657835 0.657835
0.658552 0.658552 0.658552
0.659513 0.659513 0.659513
0.660737 0.660737 0.660737
0.662238 0.662238 0.662238
0.664031 0.664031 0.664031
0.666127 0.666127 0.666127
0.668535 0.668535 0.668535
0.671265 0.671265 0.671265
0.674323 0.674323 0.674323
0.677715 0.677715 0.677715
0.681444 0.681444 0.681444
0.685514 0.685514 0.685514
0.689927 0.689927 0.689927
0.694684 0.694684 0.694684
0.699783 0.699783 0.699783
0.705224 0.705224 0.705224
0.711005 0.711005 0.711005
0.717122 0.717122 0.717122
0.723572 0.723572 0.723572
0.730350 0.730350 0.730350
0.737450 0.737450 0.737450
0.744869 0.744869 0.744869
