docs/luts/fuji_recipes/BR_VM_Classic_Contrast.cube
TITLE "Fujifilm Recipe: VM Classic Contrast (BR)"
# FilmSim=BR HL=2 SH=1 Col=0 WB=Auto WBR=0 WBB=0
LUT_3D_SIZE 33
DOMAIN_MIN 0.0 0.0 0.0
DOMAIN_MAX 1.0 1.0 1.0
0.000000 0.000000 0.000000
0.007207 0.007207 0.007207
0.015362 0.015362 0.015362
0.027056 0.027056 0.027056
0.042584 0.042584 0.042584
0.059144 0.059144 0.059144
0.075704 0.075704 0.075704
0.092264 0.092264 0.092264
0.108824 0.108824 0.108824
0.125384 0.125384 0.125384
0.141943 0.141943 0.141943
0.158503 0.158503 0.158503
0.175063 0.175063 0.175063
0.191623 0.191623 0.191623
0.208183 0.208183 0.208183
0.224742 0.224742 0.224742
0.241302 0.241302 0.241302
0.257862 0.257862 0.257862
0.274422 0.274422 0.274422
0.290982 0.290982 0.290982
0.307541 0.307541 0.307541
0.324101 0.324101 0.324101
0.340661 0.340661 0.340661
0.357221 0.357221 0.357221
0.373781 0.373781 0.373781
0.390340 0.390340 0.390340
0.406900 0.406900 0.406900
0.423460 0.423460 0.423460
0.440020 0.440020 0.440020
0.456580 0.456580 0.456580
0.473140 0.473140 0.473140
0.510912 0.510912 0.510912
0.529542 0.529542 0.529542
0.018667 0.018667 0.018667
0.025874 0.025874 0.025874
0.034029 0.034029 0.034029
0.045286 0.045286 0.045286
0.058125 0.058125 0.058125
0.071967 0.071967 0.071967
0.086494 0.086494 0.086494
0.101496 0.101496 0.101496
0.116836 0.116836 0.116836
0.132422 0.132422 0.132422
0.148190 0.148190 0.148190
0.164097 0.164097 0.164097
0.180111 0.180111 0.180111
0.196209 0.196209 0.196209
0.212375 0.212375 0.212375
0.228595 0.228595 0.228595
0.244859 0.244859 0.244859
0.261159 0.261159 0.261159
0.277491 0.277491 0.277491
0.293847 0.293847 0.293847
0.310226 0.310226 0.310226
0.326624 0.326624 0.326624
0.343037 0.343037 0.343037
0.359465 0.359465 0.359465
0.375904 0.375904 0.375904
0.392354 0.392354 0.392354
0.408814 0.408814 0.408814
0.425282 0.425282 0.425282
0.441757 0.441757 0.441757
0.458238 0.458238 0.458238
0.474726 0.474726 0.474726
0.512621 0.512621 0.512621
0.531180 0.531180 0.531180
0.039766 0.039766 0.039766
0.046415 0.046415 0.046415
0.053256 0.053256 0.053256
0.062103 0.062103 0.062103
0.072662 0.072662 0.072662
0.084548 0.084548 0.084548
0.097440 0.097440 0.097440
0.111088 0.111088 0.111088
0.125307 0.125307 0.125307
0.139959 0.139959 0.139959
0.154946 0.154946 0.154946
0.170192 0.170192 0.170192
0.185645 0.185645 0.185645
0.201261 0.201261 0.201261
0.217010 0.217010 0.217010
0.232866 0.232866 0.232866
0.248813 0.248813 0.248813
0.264833 0.264833 0.264833
0.280915 0.280915 0.280915
0.297051 0.297051 0.297051
0.313231 0.313231 0.313231
0.329450 0.329450 0.329450
0.345702 0.345702 0.345702
0.361983 0.361983 0.361983
0.378290 0.378290 0.378290
0.394618 0.394618 0.394618
0.410966 0.410966 0.410966
0.427331 0.427331 0.427331
0.443712 0.443712 0.443712
0.460106 0.460106 0.460106
0.476513 0.476513 0.476513
0.514546 0.514546 0.514546
0.533027 0.533027 0.533027
0.064385 0.064385 0.064385
0.069264 0.069264 0.069264
0.074474 0.074474 0.074474
0.081462 0.081462 0.081462
0.090112 0.090112 0.090112
0.100182 0.100182 0.100182
0.111421 0.111421 0.111421
0.123607 0.123607 0.123607
0.136550 0.136550 0.136550
0.150097 0.150097 0.150097
0.164127 0.164127 0.164127
0.178546 0.178546 0.178546
0.193279 0.193279 0.193279
0.208268 0.208268 0.208268
0.223467 0.223467 0.223467
0.238840 0.238840 0.238840
0.254358 0.254358 0.254358
0.269999 0.269999 0.269999
0.285742 0.285742 0.285742
0.301574 0.301574 0.301574
0.317481 0.317481 0.317481
0.333452 0.333452 0.333452
0.349480 0.349480 0.349480
0.365558 0.365558 0.365558
0.381678 0.381678 0.381678
0.397836 0.397836 0.397836
0.414028 0.414028 0.414028
0.430249 0.430249 0.430249
0.446496 0.446496 0.446496
0.462768 0.462768 0.462768
0.479060 0.479060 0.479060
0.517293 0.517293 0.517293
0.535663 0.535663 0.535663
0.089004 0.089004 0.089004
0.092778 0.092778 0.092778
0.096891 0.096891 0.096891
0.102525 0.102525 0.102525
0.109668 0.109668 0.109668
0.118187 0.118187 0.118187
0.127914 0.127914 0.127914
0.138679 0.138679 0.138679
0.150317 0.150317 0.150317
0.162686 0.162686 0.162686
0.175661 0.175661 0.175661
0.189139 0.189139 0.189139
0.203036 0.203036 0.203036
0.217282 0.217282 0.217282
0.231819 0.231819 0.231819
0.246602 0.246602 0.246602
0.261592 0.261592 0.261592
0.276759 0.276759 0.276759
0.292076 0.292076 0.292076
0.307523 0.307523 0.307523
0.323081 0.323081 0.323081
0.338737 0.338737 0.338737
0.354477 0.354477 0.354477
0.370291 0.370291 0.370291
0.386170 0.386170 0.386170
0.402107 0.402107 0.402107
0.418095 0.418095 0.418095
0.434128 0.434128 0.434128
0.450202 0.450202 0.450202
0.466312 0.466312 0.466312
0.502761 0.502761 0.502761
0.520954 0.520954 0.520954
0.539178 0.539178 0.539178
0.113623 0.113623 0.113623
0.116657 0.116657 0.116657
0.120001 0.120001 0.120001
0.124644 0.124644 0.124644
0.130623 0.130623 0.130623
0.137875 0.137875 0.137875
0.146299 0.146299 0.146299
0.155775 0.155775 0.155775
0.166177 0.166177 0.166177
0.177384 0.177384 0.177384
0.189284 0.189284 0.189284
0.201775 0.201775 0.201775
0.214773 0.214773 0.214773
0.228202 0.228202 0.228202
0.241999 0.241999 0.241999
0.256111 0.256111 0.256111
0.270494 0.270494 0.270494
0.285110 0.285110 0.285110
0.299926 0.299926 0.299926
0.314918 0.314918 0.314918
0.330061 0.330061 0.330061
0.345337 0.345337 0.345337
0.360729 0.360729 0.360729
0.376224 0.376224 0.376224
0.391809 0.391809 0.391809
0.407475 0.407475 0.407475
0.423213 0.423213 0.423213
0.439015 0.439015 0.439015
0.454873 0.454873 0.454873
0.470784 0.470784 0.470784
0.507583 0.507583 0.507583
0.525581 0.525581 0.525581
0.543623 0.543623 0.543623
0.138241 0.138241 0.138241
0.140752 0.140752 0.140752
0.143538 0.143538 0.143538
0.147440 0.147440 0.147440
0.152517 0.152517 0.152517
0.158749 0.158749 0.158749
0.166081 0.166081 0.166081
0.174434 0.174434 0.174434
0.183718 0.183718 0.183718
0.193837 0.193837 0.193837
0.204697 0.204697 0.204697
0.216209 0.216209 0.216209
0.228291 0.228291 0.228291
0.240872 0.240872 0.240872
0.253885 0.253885 0.253885
0.267276 0.267276 0.267276
0.280997 0.280997 0.280997
0.295004 0.295004 0.295004
0.309262 0.309262 0.309262
0.323740 0.323740 0.323740
0.338411 0.338411 0.338411
0.353252 0.353252 0.353252
0.368244 0.368244 0.368244
0.383369 0.383369 0.383369
0.398613 0.398613 0.398613
0.413962 0.413962 0.413962
0.429406 0.429406 0.429406
0.444935 0.444935 0.444935
0.460540 0.460540 0.460540
0.476214 0.476214 0.476214
0.513444 0.513444 0.513444
0.531210 0.531210 0.531210
0.549033 0.549033 0.549033
0.162860 0.162860 0.162860
0.164983 0.164983 0.164983
0.167352 0.167352 0.167352
0.170686 0.170686 0.170686
0.175058 0.175058 0.175058
0.180469 0.180469 0.180469
0.186894 0.186894 0.186894
0.194287 0.194287 0.194287
0.202585 0.202585 0.202585
0.211718 0.211718 0.211718
0.221609 0.221609 0.221609
0.232185 0.232185 0.232185
0.243373 0.243373 0.243373
0.255107 0.255107 0.255107
0.267325 0.267325 0.267325
0.279972 0.279972 0.279972
0.292998 0.292998 0.292998
0.306360 0.306360 0.306360
0.320019 0.320019 0.320019
0.333940 0.333940 0.333940
0.348096 0.348096 0.348096
0.362458 0.362458 0.362458
0.377006 0.377006 0.377006
0.391718 0.391718 0.391718
0.406578 0.406578 0.406578
0.421571 0.421571 0.421571
0.436682 0.436682 0.436682
0.451900 0.451900 0.451900
0.467215 0.467215 0.467215
0.502945 0.502945 0.502945
0.520362 0.520362 0.520362
0.537860 0.537860 0.537860
0.555432 0.555432 0.555432
0.187479 0.187479 0.187479
0.189307 0.189307 0.189307
0.191352 0.191352 0.191352
0.194244 0.194244 0.194244
0.198054 0.198054 0.198054
0.202799 0.202799 0.202799
0.208474 0.208474 0.208474
0.215052 0.215052 0.215052
0.222494 0.222494 0.222494
0.230748 0.230748 0.230748
0.239757 0.239757 0.239757
0.249462 0.249462 0.249462
0.259801 0.259801 0.259801
0.270716 0.270716 0.270716
0.282151 0.282151 0.282151
0.294054 0.294054 0.294054
0.306376 0.306376 0.306376
0.319075 0.319075 0.319075
0.332111 0.332111 0.332111
0.345449 0.345449 0.345449
0.359058 0.359058 0.359058
0.372909 0.372909 0.372909
0.386979 0.386979 0.386979
0.401244 0.401244 0.401244
0.415685 0.415685 0.415685
0.430286 0.430286 0.430286
0.445031 0.445031 0.445031
0.459905 0.459905 0.459905
0.474898 0.474898 0.474898
0.511248 0.511248 0.511248
0.528345 0.528345 0.528345
0.545542 0.545542 0.545542
0.562831 0.562831 0.562831
0.212098 0.212098 0.212098
0.213694 0.213694 0.213694
0.215484 0.215484 0.215484
0.218023 0.218023 0.218023
0.221380 0.221380 0.221380
0.225580 0.225580 0.225580
0.230630 0.230630 0.230630
0.236518 0.236518 0.236518
0.243219 0.243219 0.243219
0.250700 0.250700 0.250700
0.258918 0.258918 0.258918
0.267826 0.267826 0.267826
0.277375 0.277375 0.277375
0.287515 0.287515 0.287515
0.298197 0.298197 0.298197
0.309373 0.309373 0.309373
0.320999 0.320999 0.320999
0.333035 0.333035 0.333035
0.345440 0.345440 0.345440
0.358181 0.358181 0.358181
0.371225 0.371225 0.371225
0.384543 0.384543 0.384543
0.398110 0.398110 0.398110
0.411902 0.411902 0.411902
0.425899 0.425899 0.425899
0.440080 0.440080 0.440080
0.454430 0.454430 0.454430
0.468933 0.468933 0.468933
0.504023 0.504023 0.504023
0.520639 0.520639 0.520639
0.537386 0.537386 0.537386
0.554254 0.554254 0.554254
0.571231 0.571231 0.571231
0.236716 0.236716 0.236716
0.238127 0.238127 0.238127
0.239712 0.239712 0.239712
0.241964 0.241964 0.241964
0.244950 0.244950 0.244950
0.248700 0.248700 0.248700
0.253225 0.253225 0.253225
0.258526 0.258526 0.258526
0.264590 0.264590 0.264590
0.271393 0.271393 0.271393
0.278906 0.278906 0.278906
0.287094 0.287094 0.287094
0.295917 0.295917 0.295917
0.305334 0.305334 0.305334
0.315304 0.315304 0.315304
0.325784 0.325784 0.325784
0.336735 0.336735 0.336735
0.348119 0.348119 0.348119
0.359898 0.359898 0.359898
0.372040 0.372040 0.372040
0.384513 0.384513 0.384513
0.397287 0.397287 0.397287
0.410338 0.410338 0.410338
0.423640 0.423640 0.423640
0.437172 0.437172 0.437172
0.450914 0.450914 0.450914
0.464848 0.464848 0.464848
0.478957 0.478957 0.478957
0.514880 0.514880 0.514880
0.531099 0.531099 0.531099
0.547471 0.547471 0.547471
0.563982 0.563982 0.563982
0.580622 0.580622 0.580622
0.261335 0.261335 0.261335
0.262594 0.262594 0.262594
0.264011 0.264011 0.264011
0.266026 0.266026 0.266026
0.268705 0.268705 0.268705
0.272078 0.272078 0.272078
0.276161 0.276161 0.276161
0.280961 0.280961 0.280961
0.286473 0.286473 0.286473
0.292683 0.292683 0.292683
0.299572 0.299572 0.299572
0.307112 0.307112 0.307112
0.315275 0.315275 0.315275
0.324026 0.324026 0.324026
0.333330 0.333330 0.333330
0.343153 0.343153 0.343153
0.353458 0.353458 0.353458
0.364211 0.364211 0.364211
0.375379 0.375379 0.375379
0.386930 0.386930 0.386930
0.398834 0.398834 0.398834
0.411064 0.411064 0.411064
0.423592 0.423592 0.423592
0.436395 0.436395 0.436395
0.449452 0.449452 0.449452
0.462740 0.462740 0.462740
0.476242 0.476242 0.476242
0.511183 0.511183 0.511183
0.526797 0.526797 0.526797
0.542599 0.542599 0.542599
0.558573 0.558573 0.558573
0.574707 0.574707 0.574707
0.590988 0.590988 0.590988
0.285954 0.285954 0.285954
0.287087 0.287087 0.287087
0.288364 0.288364 0.288364
0.290182 0.290182 0.290182
0.292603 0.292603 0.292603
0.295657 0.295657 0.295657
0.299364 0.299364 0.299364
0.303733 0.303733 0.303733
0.308767 0.308767 0.308767
0.314458 0.314458 0.314458
0.320794 0.320794 0.320794
0.327755 0.327755 0.327755
0.335319 0.335319 0.335319
0.343459 0.343459 0.343459
0.352148 0.352148 0.352148
0.361355 0.361355 0.361355
0.371049 0.371049 0.371049
0.381200 0.381200 0.381200
0.391779 0.391779 0.391779
0.402755 0.402755 0.402755
0.414101 0.414101 0.414101
0.425791 0.425791 0.425791
0.437799 0.437799 0.437799
0.450102 0.450102 0.450102
0.462677 0.462677 0.462677
0.475504 0.475504 0.475504
0.509636 0.509636 0.509636
0.524572 0.524572 0.524572
0.539732 0.539732 0.539732
0.555101 0.555101 0.555101
0.570662 0.570662 0.570662
0.586400 0.586400 0.586400
0.602304 0.602304 0.602304
0.310573 0.310573 0.310573
0.311600 0.311600 0.311600
0.312759 0.312759 0.312759
0.314410 0.314410 0.314410
0.316612 0.316612 0.316612
0.319394 0.319394 0.319394
0.322778 0.322778 0.322778
0.326776 0.326776 0.326776
0.331394 0.331394 0.331394
0.336629 0.336629 0.336629
0.342474 0.342474 0.342474
0.348917 0.348917 0.348917
0.355941 0.355941 0.355941
0.363525 0.363525 0.363525
0.371647 0.371647 0.371647
0.380281 0.380281 0.380281
0.389402 0.389402 0.389402
0.398984 0.398984 0.398984
0.408999 0.408999 0.408999
0.419422 0.419422 0.419422
0.430227 0.430227 0.430227
0.441389 0.441389 0.441389
0.452884 0.452884 0.452884
0.464690 0.464690 0.464690
0.476786 0.476786 0.476786
0.510294 0.510294 0.510294
0.524487 0.524487 0.524487
0.538941 0.538941 0.538941
0.553639 0.553639 0.553639
0.568563 0.568563 0.568563
0.583698 0.583698 0.583698
0.599029 0.599029 0.599029
0.614543 0.614543 0.614543
0.335191 0.335191 0.335191
0.336129 0.336129 0.336129
0.337187 0.337187 0.337187
0.338696 0.338696 0.338696
0.340710 0.340710 0.340710
0.343259 0.343259 0.343259
0.346363 0.346363 0.346363
0.350038 0.350038 0.350038
0.354292 0.354292 0.354292
0.359125 0.359125 0.359125
0.364536 0.364536 0.364536
0.370515 0.370515 0.370515
0.377052 0.377052 0.377052
0.384130 0.384130 0.384130
0.391731 0.391731 0.391731
0.399836 0.399836 0.399836
0.408423 0.408423 0.408423
0.417469 0.417469 0.417469
0.426951 0.426951 0.426951
0.436845 0.436845 0.436845
0.447129 0.447129 0.447129
0.457780 0.457780 0.457780
0.468775 0.468775 0.468775
0.500105 0.500105 0.500105
0.513179 0.513179 0.513179
0.526572 0.526572 0.526572
0.540264 0.540264 0.540264
0.554234 0.554234 0.554234
0.568465 0.568465 0.568465
0.582940 0.582940 0.582940
0.597642 0.597642 0.597642
0.612556 0.612556 0.612556
0.627669 0.627669 0.627669
0.359810 0.359810 0.359810
0.360671 0.360671 0.360671
0.361642 0.361642 0.361642
0.363029 0.363029 0.363029
0.364881 0.364881 0.364881
0.367226 0.367226 0.367226
0.370088 0.370088 0.370088
0.373480 0.373480 0.373480
0.377413 0.377413 0.377413
0.381892 0.381892 0.381892
0.386915 0.386915 0.386915
0.392479 0.392479 0.392479
0.398576 0.398576 0.398576
0.405195 0.405195 0.405195
0.412321 0.412321 0.412321
0.419938 0.419938 0.419938
0.428028 0.428028 0.428028
0.436573 0.436573 0.436573
0.445552 0.445552 0.445552
0.454945 0.454945 0.454945
0.464731 0.464731 0.464731
0.474889 0.474889 0.474889
0.506075 0.506075 0.506075
0.518275 0.518275 0.518275
0.530826 0.530826 0.530826
0.543710 0.543710 0.543710
0.556906 0.556906 0.556906
0.570395 0.570395 0.570395
0.584160 0.584160 0.584160
0.598182 0.598182 0.598182
0.612447 0.612447 0.612447
0.626939 0.626939 0.626939
0.641645 0.641645 0.641645
0.384429 0.384429 0.384429
0.385223 0.385223 0.385223
0.386118 0.386118 0.386118
0.387399 0.387399 0.387399
0.389109 0.389109 0.389109
0.391278 0.391278 0.391278
0.393927 0.393927 0.393927
0.397070 0.397070 0.397070
0.400721 0.400721 0.400721
0.404884 0.404884 0.404884
0.409562 0.409562 0.409562
0.414754 0.414754 0.414754
0.420454 0.420454 0.420454
0.426655 0.426655 0.426655
0.433345 0.433345 0.433345
0.440513 0.440513 0.440513
0.448144 0.448144 0.448144
0.456221 0.456221 0.456221
0.464729 0.464729 0.464729
0.473648 0.473648 0.473648
0.503331 0.503331 0.503331
0.514230 0.514230 0.514230
0.525532 0.525532 0.525532
0.537214 0.537214 0.537214
0.549258 0.549258 0.549258
0.561644 0.561644 0.561644
0.574353 0.574353 0.574353
0.587366 0.587366 0.587366
0.600668 0.600668 0.600668
0.614240 0.614240 0.614240
0.628068 0.628068 0.628068
0.642137 0.642137 0.642137
0.656431 0.656431 0.656431
0.409047 0.409047 0.409047
0.409783 0.409783 0.409783
0.410613 0.410613 0.410613
0.411800 0.411800 0.411800
0.413386 0.413386 0.413386
0.415400 0.415400 0.415400
0.417860 0.417860 0.417860
0.420784 0.420784 0.420784
0.424183 0.424183 0.424183
0.428065 0.428065 0.428065
0.432434 0.432434 0.432434
0.437291 0.437291 0.437291
0.442632 0.442632 0.442632
0.448453 0.448453 0.448453
0.454747 0.454747 0.454747
0.461502 0.461502 0.461502
0.468707 0.468707 0.468707
0.476350 0.476350 0.476350
0.504968 0.504968 0.504968
0.514501 0.514501 0.514501
0.524474 0.524474 0.524474
0.534871 0.534871 0.534871
0.545671 0.545671 0.545671
0.556856 0.556856 0.556856
0.568409 0.568409 0.568409
0.580311 0.580311 0.580311
0.592544 0.592544 0.592544
0.605092 0.605092 0.605092
0.617937 0.617937 0.617937
0.631065 0.631065 0.631065
0.644458 0.644458 0.644458
0.658104 0.658104 0.658104
0.671988 0.671988 0.671988
0.433666 0.433666 0.433666
0.434350 0.434350 0.434350
0.435122 0.435122 0.435122
0.436227 0.436227 0.436227
0.437704 0.437704 0.437704
0.439580 0.439580 0.439580
0.441874 0.441874 0.441874
0.444602 0.444602 0.444602
0.447777 0.447777 0.447777
0.451408 0.451408 0.451408
0.455499 0.455499 0.455499
0.460053 0.460053 0.460053
0.465070 0.465070 0.465070
0.470545 0.470545 0.470545
0.476475 0.476475 0.476475
0.503207 0.503207 0.503207
0.510871 0.510871 0.510871
0.519016 0.519016 0.519016
0.527626 0.527626 0.527626
0.536689 0.536689 0.536689
0.546187 0.546187 0.546187
0.556106 0.556106 0.556106
0.566429 0.566429 0.566429
0.577139 0.577139 0.577139
0.588219 0.588219 0.588219
0.599653 0.599653 0.599653
0.611424 0.611424 0.611424
0.623517 0.623517 0.623517
0.635916 0.635916 0.635916
0.648605 0.648605 0.648605
0.661571 0.661571 0.661571
0.674797 0.674797 0.674797
0.688273 0.688273 0.688273
0.458285 0.458285 0.458285
0.458923 0.458923 0.458923
0.459644 0.459644 0.459644
0.460675 0.460675 0.460675
0.462056 0.462056 0.462056
0.463809 0.463809 0.463809
0.465954 0.465954 0.465954
0.468508 0.468508 0.468508
0.471483 0.471483 0.471483
0.474887 0.474887 0.474887
0.478728 0.478728 0.478728
0.503385 0.503385 0.503385
0.508697 0.508697 0.508697
0.514502 0.514502 0.514502
0.520798 0.520798 0.520798
0.527579 0.527579 0.527579
0.534835 0.534835 0.534835
0.542558 0.542558 0.542558
0.550737 0.550737 0.550737
0.559358 0.559358 0.559358
0.568410 0.568410 0.568410
0.577878 0.577878 0.577878
0.587747 0.587747 0.587747
0.598003 0.598003 0.598003
0.608630 0.608630 0.608630
0.619614 0.619614 0.619614
0.630939 0.630939 0.630939
0.642591 0.642591 0.642591
0.654554 0.654554 0.654554
0.666815 0.666815 0.666815
0.679359 0.679359 0.679359
0.692173 0.692173 0.692173
0.705244 0.705244 0.705244
0.503267 0.503267 0.503267
0.503939 0.503939 0.503939
0.504699 0.504699 0.504699
0.505785 0.505785 0.505785
0.507240 0.507240 0.507240
0.509089 0.509089 0.509089
0.511354 0.511354 0.511354
0.514050 0.514050 0.514050
0.517194 0.517194 0.517194
0.520795 0.520795 0.520795
0.524861 0.524861 0.524861
0.529398 0.529398 0.529398
0.534407 0.534407 0.534407
0.539890 0.539890 0.539890
0.545842 0.545842 0.545842
0.552261 0.552261 0.552261
0.559141 0.559141 0.559141
0.566473 0.566473 0.566473
0.574249 0.574249 0.574249
0.582459 0.582459 0.582459
0.591090 0.591090 0.591090
0.600132 0.600132 0.600132
0.609572 0.609572 0.609572
0.619396 0.619396 0.619396
0.629591 0.629591 0.629591
0.640142 0.640142 0.640142
0.651038 0.651038 0.651038
0.662262 0.662262 0.662262
0.673803 0.673803 0.673803
0.685647 0.685647 0.685647
0.697779 0.697779 0.697779
0.710188 0.710188 0.710188
0.722862 0.722862 0.722862
0.530963 0.530963 0.530963
0.531594 0.531594 0.531594
0.532308 0.532308 0.532308
0.533329 0.533329 0.533329
0.534696 0.534696 0.534696
0.536434 0.536434 0.536434
0.538564 0.538564 0.538564
0.541102 0.541102 0.541102
0.544062 0.544062 0.544062
0.547456 0.547456 0.547456
0.551291 0.551291 0.551291
0.555574 0.555574 0.555574
0.560308 0.560308 0.560308
0.565494 0.565494 0.565494
0.571131 0.571131 0.571131
0.577218 0.577218 0.577218
0.583749 0.583749 0.583749
0.590719 0.590719 0.590719
0.598120 0.598120 0.598120
0.605944 0.605944 0.605944
0.614182 0.614182 0.614182
0.622823 0.622823 0.622823
0.631856 0.631856 0.631856
0.641269 0.641269 0.641269
0.651052 0.651052 0.651052
0.661190 0.661190 0.661190
0.671673 0.671673 0.671673
0.682486 0.682486 0.682486
0.693618 0.693618 0.693618
0.705057 0.705057 0.705057
0.716789 0.716789 0.716789
0.728802 0.728802 0.728802
0.741085 0.741085 0.741085
0.558659 0.558659 0.558659
0.559253 0.559253 0.559253
0.559925 0.559925 0.559925
0.560887 0.560887 0.560887
0.562175 0.562175 0.562175
0.563814 0.563814 0.563814
0.565822 0.565822 0.565822
0.568216 0.568216 0.568216
0.571010 0.571010 0.571010
0.574215 0.574215 0.574215
0.577841 0.577841 0.577841
0.581892 0.581892 0.581892
0.586374 0.586374 0.586374
0.591288 0.591288 0.591288
0.596636 0.596636 0.596636
0.602416 0.602416 0.602416
0.608624 0.608624 0.608624
0.615257 0.615257 0.615257
0.622310 0.622310 0.622310
0.629774 0.629774 0.629774
0.637642 0.637642 0.637642
0.645905 0.645905 0.645905
0.654555 0.654555 0.654555
0.663580 0.663580 0.663580
0.672970 0.672970 0.672970
0.682714 0.682714 0.682714
0.692801 0.692801 0.692801
0.703219 0.703219 0.703219
0.713957 0.713957 0.713957
0.725004 0.725004 0.725004
0.736347 0.736347 0.736347
0.747975 0.747975 0.747975
0.759877 0.759877 0.759877
0.586355 0.586355 0.586355
0.586916 0.586916 0.586916
0.587550 0.587550 0.587550
0.588459 0.588459 0.588459
0.589675 0.589675 0.589675
0.591223 0.591223 0.591223
0.593121 0.593121 0.593121
0.595384 0.595384 0.595384
0.598028 0.598028 0.598028
0.601061 0.601061 0.601061
0.604495 0.604495 0.604495
0.608334 0.608334 0.608334
0.612585 0.612585 0.612585
0.617250 0.617250 0.617250
0.622331 0.622331 0.622331
0.627827 0.627827 0.627827
0.633737 0.633737 0.633737
0.640058 0.640058 0.640058
0.646785 0.646785 0.646785
0.653912 0.653912 0.653912
0.661434 0.661434 0.661434
0.669342 0.669342 0.669342
0.677630 0.677630 0.677630
0.686287 0.686287 0.686287
0.695304 0.695304 0.695304
0.704673 0.704673 0.704673
0.714382 0.714382 0.714382
0.724421 0.724421 0.724421
0.734780 0.734780 0.734780
0.745448 0.745448 0.745448
0.756414 0.756414 0.756414
0.767669 0.767669 0.767669
0.779200 0.779200 0.779200
0.614051 0.614051 0.614051
0.614582 0.614582 0.614582
0.615182 0.615182 0.615182
0.616042 0.616042 0.616042
0.617193 0.617193 0.617193
0.618659 0.618659 0.618659
0.620456 0.620456 0.620456
0.622601 0.622601 0.622601
0.625106 0.625106 0.625106
0.627983 0.627983 0.627983
0.631241 0.631241 0.631241
0.634886 0.634886 0.634886
0.638925 0.638925 0.638925
0.643360 0.643360 0.643360
0.648195 0.648195 0.648195
0.653429 0.653429 0.653429
0.659062 0.659062 0.659062
0.665092 0.665092 0.665092
0.671515 0.671515 0.671515
0.678328 0.678328 0.678328
0.685525 0.685525 0.685525
0.693100 0.693100 0.693100
0.701046 0.701046 0.701046
0.709355 0.709355 0.709355
0.718019 0.718019 0.718019
0.727030 0.727030 0.727030
0.736378 0.736378 0.736378
0.746054 0.746054 0.746054
0.756049 0.756049 0.756049
0.766353 0.766353 0.766353
0.776956 0.776956 0.776956
0.787848 0.787848 0.787848
0.799020 0.799020 0.799020
0.641747 0.641747 0.641747
0.642250 0.642250 0.642250
0.642820 0.642820 0.642820
0.643635 0.643635 0.643635
0.644727 0.644727 0.644727
0.646117 0.646117 0.646117
0.647823 0.647823 0.647823
0.649859 0.649859 0.649859
0.652238 0.652238 0.652238
0.654971 0.654971 0.654971
0.658068 0.658068 0.658068
0.661535 0.661535 0.661535
0.665378 0.665378 0.665378
0.669602 0.669602 0.669602
0.674208 0.674208 0.674208
0.679200 0.679200 0.679200
0.684576 0.684576 0.684576
0.690335 0.690335 0.690335
0.696476 0.696476 0.696476
0.702994 0.702994 0.702994
0.709886 0.709886 0.709886
0.717147 0.717147 0.717147
0.724771 0.724771 0.724771
0.732751 0.732751 0.732751
0.741080 0.741080 0.741080
0.749751 0.749751 0.749751
0.758755 0.758755 0.758755
0.768085 0.768085 0.768085
0.777731 0.777731 0.777731
0.787685 0.787685 0.787685
0.797938 0.797938 0.797938
0.808480 0.808480 0.808480
0.819303 0.819303 0.819303
0.669443 0.669443 0.669443
0.669921 0.669921 0.669921
0.670462 0.670462 0.670462
0.671236 0.671236 0.671236
0.672275 0.672275 0.672275
0.673596 0.673596 0.673596
0.675217 0.675217 0.675217
0.677154 0.677154 0.677154
0.679417 0.679417 0.679417
0.682018 0.682018 0.682018
0.684966 0.684966 0.684966
0.688269 0.688269 0.688269
0.691932 0.691932 0.691932
0.695960 0.695960 0.695960
0.700355 0.700355 0.700355
0.705121 0.705121 0.705121
0.710258 0.710258 0.710258
0.715766 0.715766 0.715766
0.721642 0.721642 0.721642
0.727885 0.727885 0.727885
0.734492 0.734492 0.734492
0.741457 0.741457 0.741457
0.748778 0.748778 0.748778
0.756447 0.756447 0.756447
