docs/luts/fuji_recipes/BW_RR_Dramatic_Monochrome.cube
TITLE "Fujifilm Recipe: RR Dramatic Monochrome (BW)"
# FilmSim=BW HL=4 SH=4 Col=0 WB=Auto WBR=0 WBB=0
LUT_3D_SIZE 9
DOMAIN_MIN 0.0 0.0 0.0
DOMAIN_MAX 1.0 1.0 1.0
0.000000 0.000000 0.000000
0.050051 0.050051 0.050051
0.116893 0.116893 0.116893
0.183734 0.183734 0.183734
0.250575 0.250575 0.250575
0.317417 0.317417 0.317417
0.384258 0.384258 0.384258
0.418690 0.418690 0.418690
0.418690 0.418690 0.418690
0.113364 0.113364 0.113364
0.131640 0.131640 0.131640
0.169165 0.169165 0.169165
0.219602 0.219602 0.219602
0.276821 0.276821 0.276821
0.337612 0.337612 0.337612
0.400402 0.400402 0.400402
0.518293 0.518293 0.518293
0.518293 0.518293 0.518293
0.224172 0.224172 0.224172
0.233396 0.233396 0.233396
0.255139 0.255139 0.255139
0.289236 0.289236 0.289236
0.332899 0.332899 0.332899
0.383274 0.383274 0.383274
0.525129 0.525129 0.525129
0.565956 0.565956 0.565956
0.565956 0.565956 0.565956
0.334980 0.334980 0.334980
0.340758 0.340758 0.340758
0.354947 0.354947 0.354947
0.378639 0.378639 0.378639
0.411152 0.411152 0.411152
0.542928 0.542928 0.542928
0.606193 0.606193 0.606193
0.641318 0.641318 0.641318
0.641318 0.641318 0.641318
0.535612 0.535612 0.535612
0.541221 0.541221 0.541221
0.555217 0.555217 0.555217
0.579246 0.579246 0.579246
0.613430 0.613430 0.613430
0.657076 0.657076 0.657076
0.709038 0.709038 0.709038
0.738625 0.738625 0.738625
0.738625 0.738625 0.738625
0.688633 0.688633 0.688633
0.692863 0.692863 0.692863
0.703498 0.703498 0.703498
0.722013 0.722013 0.722013
0.748874 0.748874 0.748874
0.783977 0.783977 0.783977
0.826813 0.826813 0.826813
0.851655 0.851655 0.851655
0.851655 0.851655 0.851655
0.841654 0.841654 0.841654
0.844998 0.844998 0.844998
0.853439 0.853439 0.853439
0.868250 0.868250 0.868250
0.889982 0.889982 0.889982
0.918792 0.918792 0.918792
0.954525 0.954525 0.954525
0.975513 0.975513 0.975513
0.975513 0.975513 0.975513
0.920478 0.920478 0.920478
0.923482 0.923482 0.923482
0.931075 0.931075 0.931075
0.944432 0.944432 0.944432
0.964111 0.964111 0.964111
0.990335 0.990335 0.990335
1.000000 1.000000 1.000000
1.000000 1.000000 1.000000
1.000000 1.000000 1.000000
0.920478 0.920478 0.920478
0.923482 0.923482 0.923482
0.931075 0.931075 0.931075
0.944432 0.944432 0.944432
0.964111 0.964111 0.964111
0.990335 0.990335 0.990335
1.000000 1.000000 1.000000
1.000000 1.000000 1.000000
1.000000 1.000000 1.000000
0.017890 0.017890 0.017890
0.062521 0.062521 0.062521
0.123229 0.123229 0.123229
0.187710 0.187710 0.187710
0.253372 0.253372 0.253372
0.319527 0.319527 0.319527
0.385926 0.385926 0.385926
0.500260 0.500260 0.500260
0.500260 0.500260 0.500260
0.119888 0.119888 0.119888
0.137280 0.137280 0.137280
0.173514 0.173514 0.173514
0.222859 0.222859 0.222859
0.279308 0.279308 0.279308
0.339569 0.339569 0.339569
0.401987 0.401987 0.401987
0.520276 0.520276 0.520276
0.520276 0.520276 0.520276
0.227353 0.227353 0.227353
0.236433 0.236433 0.236433
0.257878 0.257878 0.257878
0.291596 0.291596 0.291596
0.334890 0.334890 0.334890
0.384948 0.384948 0.384948
0.527083 0.527083 0.527083
0.567755 0.567755 0.567755
0.567755 0.567755 0.567755
0.336956 0.336956 0.336956
0.342693 0.342693 0.342693
0.356787 0.356787 0.356787
0.380338 0.380338 0.380338
0.412685 0.412685 0.412685
0.544811 0.544811 0.544811
0.607859 0.607859 0.607859
0.642881 0.642881 0.642881
0.642881 0.642881 0.642881
0.537524 0.537524 0.537524
0.543112 0.543112 0.543112
0.557054 0.557054 0.557054
0.580999 0.580999 0.580999
0.615074 0.615074 0.615074
0.658596 0.658596 0.658596
0.710430 0.710430 0.710430
0.739953 0.739953 0.739953
0.739953 0.739953 0.739953
0.690073 0.690073 0.690073
0.694293 0.694293 0.694293
0.704903 0.704903 0.704903
0.723376 0.723376 0.723376
0.750180 0.750180 0.750180
0.785215 0.785215 0.785215
0.827975 0.827975 0.827975
0.852777 0.852777 0.852777
0.852777 0.852777 0.852777
0.842791 0.842791 0.842791
0.846130 0.846130 0.846130
0.854558 0.854558 0.854558
0.869346 0.869346 0.869346
0.891046 0.891046 0.891046
0.919816 0.919816 0.919816
0.955502 0.955502 0.955502
0.976465 0.976465 0.976465
0.976465 0.976465 0.976465
0.921500 0.921500 0.921500
0.924500 0.924500 0.924500
0.932082 0.932082 0.932082
0.945423 0.945423 0.945423
0.965077 0.965077 0.965077
0.991270 0.991270 0.991270
1.000000 1.000000 1.000000
1.000000 1.000000 1.000000
1.000000 1.000000 1.000000
0.921500 0.921500 0.921500
0.924500 0.924500 0.924500
0.932082 0.932082 0.932082
0.945423 0.945423 0.945423
0.965077 0.965077 0.965077
0.991270 0.991270 0.991270
1.000000 1.000000 1.000000
1.000000 1.000000 1.000000
1.000000 1.000000 1.000000
0.057794 0.057794 0.057794
0.087587 0.087587 0.087587
0.138022 0.138022 0.138022
0.197427 0.197427 0.197427
0.260332 0.260332 0.260332
0.324822 0.324822 0.324822
0.390132 0.390132 0.390132
0.505486 0.505486 0.505486
0.505486 0.505486 0.505486
0.135058 0.135058 0.135058
0.150642 0.150642 0.150642
0.184074 0.184074 0.184074
0.230911 0.230911 0.230911
0.285521 0.285521 0.285521
0.344489 0.344489 0.344489
0.405986 0.405986 0.405986
0.525285 0.525285 0.525285
0.525285 0.525285 0.525285
0.235226 0.235226 0.235226
0.243966 0.243966 0.243966
0.264697 0.264697 0.264697
0.297502 0.297502 0.297502
0.339894 0.339894 0.339894
0.389167 0.389167 0.389167
0.532022 0.532022 0.532022
0.572306 0.572306 0.572306
0.572306 0.572306 0.572306
0.341922 0.341922 0.341922
0.347559 0.347559 0.347559
0.361419 0.361419 0.361419
0.384621 0.384621 0.384621
0.416555 0.416555 0.416555
0.549574 0.549574 0.549574
0.612076 0.612076 0.612076
0.646839 0.646839 0.646839
0.646839 0.646839 0.646839
0.542358 0.542358 0.542358
0.547891 0.547891 0.547891
0.561702 0.561702 0.561702
0.585435 0.585435 0.585435
0.619235 0.619235 0.619235
0.662446 0.662446 0.662446
0.713959 0.713959 0.713959
0.743318 0.743318 0.743318
0.743318 0.743318 0.743318
0.693723 0.693723 0.693723
0.697917 0.697917 0.697917
0.708464 0.708464 0.708464
0.726832 0.726832 0.726832
0.753493 0.753493 0.753493
0.788354 0.788354 0.788354
0.830923 0.830923 0.830923
0.855623 0.855623 0.855623
0.855623 0.855623 0.855623
0.845678 0.845678 0.845678
0.849003 0.849003 0.849003
0.857397 0.857397 0.857397
0.872128 0.872128 0.872128
0.893747 0.893747 0.893747
0.922415 0.922415 0.922415
0.957984 0.957984 0.957984
0.978883 0.978883 0.978883
0.978883 0.978883 0.978883
0.924094 0.924094 0.924094
0.927083 0.927083 0.927083
0.934640 0.934640 0.934640
0.947937 0.947937 0.947937
0.967529 0.967529 0.967529
0.993644 0.993644 0.993644
1.000000 1.000000 1.000000
1.000000 1.000000 1.000000
1.000000 1.000000 1.000000
0.924094 0.924094 0.924094
0.927083 0.927083 0.927083
0.934640 0.934640 0.934640
0.947937 0.947937 0.947937
0.967529 0.967529 0.967529
0.993644 0.993644 0.993644
1.000000 1.000000 1.000000
1.000000 1.000000 1.000000
1.000000 1.000000 1.000000
0.100414 0.100414 0.100414
0.120669 0.120669 0.120669
0.160914 0.160914 0.160914
0.213523 0.213523 0.213523
0.272222 0.272222 0.272222
0.334011 0.334011 0.334011
0.397496 0.397496 0.397496
0.514662 0.514662 0.514662
0.514662 0.514662 0.514662
0.158405 0.158405 0.158405
0.171744 0.171744 0.171744
0.201384 0.201384 0.201384
0.244509 0.244509 0.244509
0.296215 0.296215 0.296215
0.353054 0.353054 0.353054
0.412997 0.412997 0.412997
0.534089 0.534089 0.534089
0.534089 0.534089 0.534089
0.248549 0.248549 0.248549
0.256758 0.256758 0.256758
0.276364 0.276364 0.276364
0.307696 0.307696 0.307696
0.348598 0.348598 0.348598
0.396553 0.396553 0.396553
0.540706 0.540706 0.540706
0.580323 0.580323 0.580323
0.580323 0.580323 0.580323
0.350565 0.350565 0.350565
0.356033 0.356033 0.356033
0.369503 0.369503 0.369503
0.392114 0.392114 0.392114
0.504623 0.504623 0.504623
0.557956 0.557956 0.557956
0.619515 0.619515 0.619515
0.653830 0.653830 0.653830
0.653830 0.653830 0.653830
0.550862 0.550862 0.550862
0.556301 0.556301 0.556301
0.569886 0.569886 0.569886
0.593253 0.593253 0.593253
0.626578 0.626578 0.626578
0.669250 0.669250 0.669250
0.720203 0.720203 0.720203
0.749277 0.749277 0.749277
0.749277 0.749277 0.749277
0.700177 0.700177 0.700177
0.704327 0.704327 0.704327
0.714764 0.714764 0.714764
0.732948 0.732948 0.732948
0.759358 0.759358 0.759358
0.793917 0.793917 0.793917
0.836151 0.836151 0.836151
0.860672 0.860672 0.860672
0.860672 0.860672 0.860672
0.850798 0.850798 0.850798
0.854099 0.854099 0.854099
0.862434 0.862434 0.862434
0.877063 0.877063 0.877063
0.898539 0.898539 0.898539
0.927029 0.927029 0.927029
0.962392 0.962392 0.962392
0.983177 0.983177 0.983177
0.983177 0.983177 0.983177
0.928697 0.928697 0.928697
0.931669 0.931669 0.931669
0.939182 0.939182 0.939182
0.952401 0.952401 0.952401
0.971884 0.971884 0.971884
0.997860 0.997860 0.997860
1.000000 1.000000 1.000000
1.000000 1.000000 1.000000
1.000000 1.000000 1.000000
0.928697 0.928697 0.928697
0.931669 0.931669 0.931669
0.939182 0.939182 0.939182
0.952401 0.952401 0.952401
0.971884 0.971884 0.971884
0.997860 0.997860 0.997860
1.000000 1.000000 1.000000
1.000000 1.000000 1.000000
1.000000 1.000000 1.000000
0.143034 0.143034 0.143034
0.157787 0.157787 0.157787
0.189854 0.189854 0.189854
0.235399 0.235399 0.235399
0.289024 0.289024 0.289024
0.347281 0.347281 0.347281
0.408265 0.408265 0.408265
0.528143 0.528143 0.528143
0.528143 0.528143 0.528143
0.187770 0.187770 0.187770
0.198958 0.198958 0.198958
0.224625 0.224625 0.224625
0.263435 0.263435 0.263435
0.311478 0.311478 0.311478
0.365479 0.365479 0.365479
0.504521 0.504521 0.504521
0.547044 0.547044 0.547044
0.547044 0.547044 0.547044
0.267139 0.267139 0.267139
0.274694 0.274694 0.274694
0.292883 0.292883 0.292883
0.322303 0.322303 0.322303
0.361212 0.361212 0.361212
0.407353 0.407353 0.407353
0.553490 0.553490 0.553490
0.592158 0.592158 0.592158
0.592158 0.592158 0.592158
0.363095 0.363095 0.363095
0.368334 0.368334 0.368334
0.381267 0.381267 0.381267
0.403063 0.403063 0.403063
0.518390 0.518390 0.518390
0.570312 0.570312 0.570312
0.630523 0.630523 0.630523
0.664190 0.664190 0.664190
0.664190 0.664190 0.664190
0.563391 0.563391 0.563391
0.568697 0.568697 0.568697
0.581959 0.581959 0.581959
0.604804 0.604804 0.604804
0.637447 0.637447 0.637447
0.679341 0.679341 0.679341
0.729481 0.729481 0.729481
0.758141 0.758141 0.758141
0.758141 0.758141 0.758141
0.709761 0.709761 0.709761
0.713846 0.713846 0.713846
0.724123 0.724123 0.724123
0.742041 0.742041 0.742041
0.768085 0.768085 0.768085
0.802202 0.802202 0.802202
0.843945 0.843945 0.843945
0.868204 0.868204 0.868204
0.868204 0.868204 0.868204
0.858433 0.858433 0.858433
0.861699 0.861699 0.861699
0.869947 0.869947 0.869947
0.884427 0.884427 0.884427
0.905693 0.905693 0.905693
0.933921 0.933921 0.933921
0.968979 0.968979 0.968979
0.989595 0.989595 0.989595
0.989595 0.989595 0.989595
0.935574 0.935574 0.935574
0.938519 0.938519 0.938519
0.945966 0.945966 0.945966
0.959072 0.959072 0.959072
0.978394 0.978394 0.978394
1.000000 1.000000 1.000000
1.000000 1.000000 1.000000
1.000000 1.000000 1.000000
1.000000 1.000000 1.000000
0.935574 0.935574 0.935574
0.938519 0.938519 0.938519
0.945966 0.945966 0.945966
0.959072 0.959072 0.959072
0.978394 0.978394 0.978394
1.000000 1.000000 1.000000
1.000000 1.000000 1.000000
1.000000 1.000000 1.000000
1.000000 1.000000 1.000000
0.185655 0.185655 0.185655
0.196978 0.196978 0.196978
0.222905 0.222905 0.222905
0.262011 0.262011 0.262011
0.310315 0.310315 0.310315
0.364525 0.364525 0.364525
0.503425 0.503425 0.503425
0.546042 0.546042 0.546042
0.546042 0.546042 0.546042
0.221173 0.221173 0.221173
0.230536 0.230536 0.230536
0.252568 0.252568 0.252568
0.287026 0.287026 0.287026
0.331039 0.331039 0.331039
0.381714 0.381714 0.381714
0.523309 0.523309 0.523309
0.564282 0.564282 0.564282
0.564282 0.564282 0.564282
0.290372 0.290372 0.290372
0.297225 0.297225 0.297225
0.313859 0.313859 0.313859
0.341111 0.341111 0.341111
0.377675 0.377675 0.377675
0.502220 0.502220 0.502220
0.570511 0.570511 0.570511
0.607972 0.607972 0.607972
0.607972 0.607972 0.607972
0.379456 0.379456 0.379456
0.384419 0.384419 0.384419
0.396704 0.396704 0.396704
0.417501 0.417501 0.417501
0.536647 0.536647 0.536647
0.586789 0.586789 0.586789
0.645276 0.645276 0.645276
0.678108 0.678108 0.678108
0.678108 0.678108 0.678108
0.580088 0.580088 0.580088
0.585225 0.585225 0.585225
0.598077 0.598077 0.598077
0.620254 0.620254 0.620254
0.652022 0.652022 0.652022
0.692908 0.692908 0.692908
0.741989 0.741989 0.741989
0.770105 0.770105 0.770105
0.770105 0.770105 0.770105
0.722668 0.722668 0.722668
0.726669 0.726669 0.726669
0.736738 0.736738 0.736738
0.754305 0.754305 0.754305
0.779869 0.779869 0.779869
0.813404 0.813404 0.813404
0.854499 0.854499 0.854499
0.878409 0.878409 0.878409
0.878409 0.878409 0.878409
0.868776 0.868776 0.868776
0.871996 0.871996 0.871996
0.880128 0.880128 0.880128
0.894410 0.894410 0.894410
0.915398 0.915398 0.915398
0.943275 0.943275 0.943275
0.977927 0.977927 0.977927
0.998319 0.998319 0.998319
0.998319 0.998319 0.998319
0.944908 0.944908 0.944908
0.947818 0.947818 0.947818
0.955177 0.955177 0.955177
0.968132 0.968132 0.968132
0.987238 0.987238 0.987238
1.000000 1.000000 1.000000
1.000000 1.000000 1.000000
1.000000 1.000000 1.000000
1.000000 1.000000 1.000000
0.944908 0.944908 0.944908
0.947818 0.947818 0.947818
0.955177 0.955177 0.955177
0.968132 0.968132 0.968132
0.987238 0.987238 0.987238
1.000000 1.000000 1.000000
1.000000 1.000000 1.000000
1.000000 1.000000 1.000000
1.000000 1.000000 1.000000
0.228275 0.228275 0.228275
0.237314 0.237314 0.237314
0.258673 0.258673 0.258673
0.292283 0.292283 0.292283
0.335470 0.335470 0.335470
0.385436 0.385436 0.385436
0.527654 0.527654 0.527654
0.568281 0.568281 0.568281
0.568281 0.568281 0.568281
0.257221 0.257221 0.257221
0.265114 0.265114 0.265114
0.284037 0.284037 0.284037
0.314457 0.314457 0.314457
0.354417 0.354417 0.354417
0.401522 0.401522 0.401522
0.546574 0.546574 0.546574
0.585751 0.585751 0.585751
0.585751 0.585751 0.585751
0.317456 0.317456 0.317456
0.323620 0.323620 0.323620
0.338695 0.338695 0.338695
0.363699 0.363699 0.363699
0.397733 0.397733 0.397733
0.526509 0.526509 0.526509
0.591728 0.591728 0.591728
0.627770 0.627770 0.627770
0.627770 0.627770 0.627770
0.399403 0.399403 0.399403
0.404062 0.404062 0.404062
0.415626 0.415626 0.415626
0.521127 0.521127 0.521127
0.559300 0.559300 0.559300
0.607369 0.607369 0.607369
0.663813 0.663813 0.663813
0.695642 0.695642 0.695642
0.695642 0.695642 0.695642
0.600927 0.600927 0.600927
0.605865 0.605865 0.605865
0.618234 0.618234 0.618234
0.639621 0.639621 0.639621
0.670344 0.670344 0.670344
0.710020 0.710020 0.710020
0.757817 0.757817 0.757817
0.785269 0.785269 0.785269
0.785269 0.785269 0.785269
0.738981 0.738981 0.738981
0.742880 0.742880 0.742880
0.752695 0.752695 0.752695
0.769836 0.769836 0.769836
0.794813 0.794813 0.794813
0.827633 0.827633 0.827633
0.867928 0.867928 0.867928
0.891407 0.891407 0.891407
0.891407 0.891407 0.891407
0.881945 0.881945 0.881945
0.885108 0.885108 0.885108
0.893096 0.893096 0.893096
0.907133 0.907133 0.907133
0.927774 0.927774 0.927774
0.955215 0.955215 0.955215
0.989360 0.989360 0.989360
1.000000 1.000000 1.000000
1.000000 1.000000 1.000000
0.956823 0.956823 0.956823
0.959689 0.959689 0.959689
0.966938 0.966938 0.966938
0.979704 0.979704 0.979704
0.998541 0.998541 0.998541
1.000000 1.000000 1.000000
1.000000 1.000000 1.000000
1.000000 1.000000 1.000000
1.000000 1.000000 1.000000
0.956823 0.956823 0.956823
0.959689 0.959689 0.959689
0.966938 0.966938 0.966938
0.979704 0.979704 0.979704
0.998541 0.998541 0.998541
1.000000 1.000000 1.000000
1.000000 1.000000 1.000000
1.000000 1.000000 1.000000
1.000000 1.000000 1.000000
0.250230 0.250230 0.250230
0.258377 0.258377 0.258377
0.277847 0.277847 0.277847
0.308999 0.308999 0.308999
0.349717 0.349717 0.349717
0.397507 0.397507 0.397507
0.541830 0.541830 0.541830
0.581363 0.581363 0.581363
0.581363 0.581363 0.581363
0.276514 0.276514 0.276514
0.283772 0.283772 0.283772
0.301306 0.301306 0.301306
0.329823 0.329823 0.329823
0.367767 0.367767 0.367767
0.413008 0.413008 0.413008
0.560222 0.560222 0.560222
0.598405 0.598405 0.598405
0.598405 0.598405 0.598405
0.332654 0.332654 0.332654
0.338481 0.338481 0.338481
0.352782 0.352782 0.352782
0.376643 0.376643 0.376643
0.409352 0.409352 0.409352
0.540718 0.540718 0.540718
0.604241 0.604241 0.604241
0.639488 0.639488 0.639488
0.639488 0.639488 0.639488
0.410964 0.410964 0.410964
0.415460 0.415460 0.415460
0.509167 0.509167 0.509167
0.535493 0.535493 0.535493
0.572611 0.572611 0.572611
0.619526 0.619526 0.619526
0.674817 0.674817 0.674817
0.706075 0.706075 0.706075
0.706075 0.706075 0.706075
0.613228 0.613228 0.613228
0.618056 0.618056 0.618056
0.630154 0.630154 0.630154
0.651096 0.651096 0.651096
0.681227 0.681227 0.681227
0.720212 0.720212 0.720212
0.767270 0.767270 0.767270
0.794337 0.794337 0.794337
0.794337 0.794337 0.794337
0.748714 0.748714 0.748714
0.752553 0.752553 0.752553
0.762223 0.762223 0.762223
0.779118 0.779118 0.779118
0.803755 0.803755 0.803755
0.836159 0.836159 0.836159
0.875987 0.875987 0.875987
0.899213 0.899213 0.899213
0.899213 0.899213 0.899213
0.889851 0.889851 0.889851
0.892980 0.892980 0.892980
0.900885 0.900885 0.900885
0.914777 0.914777 0.914777
0.935215 0.935215 0.935215
0.962399 0.962399 0.962399
0.996246 0.996246 0.996246
1.000000 1.000000 1.000000
1.000000 1.000000 1.000000
0.963993 0.963993 0.963993
0.966833 0.966833 0.966833
0.974018 0.974018 0.974018
0.986672 0.986672 0.986672
1.000000 1.000000 1.000000
1.000000 1.000000 1.000000
1.000000 1.000000 1.000000
1.000000 1.000000 1.000000
1.000000 1.000000 1.000000
0.963993 0.963993 0.963993
0.966833 0.966833 0.966833
0.974018 0.974018 0.974018
0.986672 0.986672 0.986672
1.000000 1.000000 1.000000
1.000000 1.000000 1.000000
1.000000 1.000000 1.000000
1.000000 1.000000 1.000000
1.000000 1.000000 1.000000
0.250230 0.250230 0.250230
0.258377 0.258377 0.258377
0.277847 0.277847 0.277847
0.308999 0.308999 0.308999
0.349717 0.349717 0.349717
0.397507 0.397507 0.397507
0.541830 0.541830 0.541830
0.581363 0.581363 0.581363
0.581363 0.581363 0.581363
0.276514 0.276514 0.276514
0.283772 0.283772 0.283772
0.301306 0.301306 0.301306
0.329823 0.329823 0.329823
0.367767 0.367767 0.367767
0.413008 0.413008 0.413008
0.560222 0.560222 0.560222
0.598405 0.598405 0.598405
0.598405 0.598405 0.598405
0.332654 0.332654 0.332654
0.338481 0.338481 0.338481
0.352782 0.352782 0.352782
0.376643 0.376643 0.376643
0.409352 0.409352 0.409352
0.540718 0.540718 0.540718
0.604241 0.604241 0.604241
0.639488 0.639488 0.639488
0.639488 0.639488 0.639488
0.410964 0.410964 0.410964
0.415460 0.415460 0.415460
0.509167 0.509167 0.509167
0.535493 0.535493 0.535493
0.572611 0.572611 0.572611
0.619526 0.619526 0.619526
0.674817 0.674817 0.674817
0.706075 0.706075 0.706075
0.706075 0.706075 0.706075
0.613228 0.613228 0.613228
0.618056 0.618056 0.618056
0.630154 0.630154 0.630154
0.651096 0.651096 0.651096
0.681227 0.681227 0.681227
0.720212 0.720212 0.720212
0.767270 0.767270 0.767270
0.794337 0.794337 0.794337
0.794337 0.794337 0.794337
0.748714 0.748714 0.748714
0.752553 0.752553 0.752553
0.762223 0.762223 0.762223
0.779118 0.779118 0.779118
0.803755 0.803755 0.803755
0.836159 0.836159 0.836159
0.875987 0.875987 0.875987
0.899213 0.899213 0.899213
0.899213 0.899213 0.899213
0.889851 0.889851 0.889851
0.892980 0.892980 0.892980
0.900885 0.900885 0.900885
0.914777 0.914777 0.914777
0.935215 0.935215 0.935215
0.962399 0.962399 0.962399
0.996246 0.996246 0.996246
1.000000 1.000000 1.000000
1.000000 1.000000 1.000000
0.963993 0.963993 0.963993
0.966833 0.966833 0.966833
0.974018 0.974018 0.974018
0.986672 0.986672 0.986672
1.000000 1.000000 1.000000
1.000000 1.000000 1.000000
1.000000 1.000000 1.000000
1.000000 1.000000 1.000000
1.000000 1.000000 1.000000
0.963993 0.963993 0.963993
0.966833 0.966833 0.966833
0.974018 0.974018 0.974018
0.986672 0.986672 0.986672
1.000000 1.000000 1.000000
1.000000 1.000000 1.000000
1.000000 1.000000 1.000000
1.000000 1.000000 1.000000
1.000000 1.000000 1.000000
