docs/luts/fuji_recipes/BW_RR_Dramatic_Monochrome.cube
TITLE "Fujifilm Recipe: RR Dramatic Monochrome (BW)"
# FilmSim=BW HL=4 SH=4 Col=0 WB=Auto WBR=0 WBB=0
LUT_3D_SIZE 5
DOMAIN_MIN 0.0 0.0 0.0
DOMAIN_MAX 1.0 1.0 1.0
0.000000 0.000000 0.000000
0.116893 0.116893 0.116893
0.250575 0.250575 0.250575
0.384258 0.384258 0.384258
0.418690 0.418690 0.418690
0.224172 0.224172 0.224172
0.255139 0.255139 0.255139
0.332899 0.332899 0.332899
0.525129 0.525129 0.525129
0.565956 0.565956 0.565956
0.535612 0.535612 0.535612
0.555217 0.555217 0.555217
0.613430 0.613430 0.613430
0.709038 0.709038 0.709038
0.738625 0.738625 0.738625
0.841654 0.841654 0.841654
0.853439 0.853439 0.853439
0.889982 0.889982 0.889982
0.954525 0.954525 0.954525
0.975513 0.975513 0.975513
0.920478 0.920478 0.920478
0.931075 0.931075 0.931075
0.964111 0.964111 0.964111
1.000000 1.000000 1.000000
1.000000 1.000000 1.000000
0.057794 0.057794 0.057794
0.138022 0.138022 0.138022
0.260332 0.260332 0.260332
0.390132 0.390132 0.390132
0.505486 0.505486 0.505486
0.235226 0.235226 0.235226
0.264697 0.264697 0.264697
0.339894 0.339894 0.339894
0.532022 0.532022 0.532022
0.572306 0.572306 0.572306
0.542358 0.542358 0.542358
0.561702 0.561702 0.561702
0.619235 0.619235 0.619235
0.713959 0.713959 0.713959
0.743318 0.743318 0.743318
0.845678 0.845678 0.845678
0.857397 0.857397 0.857397
0.893747 0.893747 0.893747
0.957984 0.957984 0.957984
0.978883 0.978883 0.978883
0.924094 0.924094 0.924094
0.934640 0.934640 0.934640
0.967529 0.967529 0.967529
1.000000 1.000000 1.000000
1.000000 1.000000 1.000000
0.143034 0.143034 0.143034
0.189854 0.189854 0.189854
0.289024 0.289024 0.289024
0.408265 0.408265 0.408265
0.528143 0.528143 0.528143
0.267139 0.267139 0.267139
0.292883 0.292883 0.292883
0.361212 0.361212 0.361212
0.553490 0.553490 0.553490
0.592158 0.592158 0.592158
0.563391 0.563391 0.563391
0.581959 0.581959 0.581959
0.637447 0.637447 0.637447
0.729481 0.729481 0.729481
0.758141 0.758141 0.758141
0.858433 0.858433 0.858433
0.869947 0.869947 0.869947
0.905693 0.905693 0.905693
0.968979 0.968979 0.968979
0.989595 0.989595 0.989595
0.935574 0.935574 0.935574
0.945966 0.945966 0.945966
0.978394 0.978394 0.978394
1.000000 1.000000 1.000000
1.000000 1.000000 1.000000
0.228275 0.228275 0.228275
0.258673 0.258673 0.258673
0.335470 0.335470 0.335470
0.527654 0.527654 0.527654
0.568281 0.568281 0.568281
0.317456 0.317456 0.317456
0.338695 0.338695 0.338695
0.397733 0.397733 0.397733
0.591728 0.591728 0.591728
0.627770 0.627770 0.627770
0.600927 0.600927 0.600927
0.618234 0.618234 0.618234
0.670344 0.670344 0.670344
0.757817 0.757817 0.757817
0.785269 0.785269 0.785269
0.881945 0.881945 0.881945
0.893096 0.893096 0.893096
0.927774 0.927774 0.927774
0.989360 0.989360 0.989360
1.000000 1.000000 1.000000
0.956823 0.956823 0.956823
0.966938 0.966938 0.966938
0.998541 0.998541 0.998541
1.000000 1.000000 1.000000
1.000000 1.000000 1.000000
0.250230 0.250230 0.250230
0.277847 0.277847 0.277847
0.349717 0.349717 0.349717
0.541830 0.541830 0.541830
0.581363 0.581363 0.581363
0.332654 0.332654 0.332654
0.352782 0.352782 0.352782
0.409352 0.409352 0.409352
0.604241 0.604241 0.604241
0.639488 0.639488 0.639488
0.613228 0.613228 0.613228
0.630154 0.630154 0.630154
0.681227 0.681227 0.681227
0.767270 0.767270 0.767270
0.794337 0.794337 0.794337
0.889851 0.889851 0.889851
0.900885 0.900885 0.900885
0.935215 0.935215 0.935215
0.996246 0.996246 0.996246
1.000000 1.000000 1.000000
0.963993 0.963993 0.963993
0.974018 0.974018 0.974018
1.000000 1.000000 1.000000
1.000000 1.000000 1.000000
1.000000 1.000000 1.000000
