docs/luts/fuji_recipes/BW_RR_Dramatic_Monochrome.cube
TITLE "Fujifilm Recipe: RR Dramatic Monochrome (BW)"
# FilmSim=BW HL=4 SH=4 Col=0 WB=Auto WBR=0 WBB=0
LUT_3D_SIZE 33
DOMAIN_MIN 0.0 0.0 0.0
DOMAIN_MAX 1.0 1.0 1.0
0.000000 0.000000 0.000000
0.008879 0.008879 0.008879
0.018927 0.018927 0.018927
0.033334 0.033334 0.033334
0.050051 0.050051 0.050051
0.066762 0.066762 0.066762
0.083472 0.083472 0.083472
0.100182 0.100182 0.100182
0.116893 0.116893 0.116893
0.133603 0.133603 0.133603
0.150313 0.150313 0.150313
0.167024 0.167024 0.167024
0.183734 0.183734 0.183734
0.200444 0.200444 0.200444
0.217155 0.217155 0.217155
0.233865 0.233865 0.233865
0.250575 0.250575 0.250575
0.267286 0.267286 0.267286
0.283996 0.283996 0.283996
0.300706 0.300706 0.300706
0.317417 0.317417 0.317417
0.334127 0.334127 0.334127
0.350837 0.350837 0.350837
0.367548 0.367548 0.367548
0.384258 0.384258 0.384258
0.400968 0.400968 0.400968
0.417679 0.417679 0.417679
0.418690 0.418690 0.418690
0.418690 0.418690 0.418690
0.418690 0.418690 0.418690
0.418690 0.418690 0.418690
0.418690 0.418690 0.418690
0.418690 0.418690 0.418690
0.029871 0.029871 0.029871
0.038491 0.038491 0.038491
0.047030 0.047030 0.047030
0.057641 0.057641 0.057641
0.069862 0.069862 0.069862
0.083225 0.083225 0.083225
0.097394 0.097394 0.097394
0.112136 0.112136 0.112136
0.127293 0.127293 0.127293
0.142756 0.142756 0.142756
0.158448 0.158448 0.158448
0.174316 0.174316 0.174316
0.190321 0.190321 0.190321
0.206433 0.206433 0.206433
0.222631 0.222631 0.222631
0.238900 0.238900 0.238900
0.255225 0.255225 0.255225
0.271598 0.271598 0.271598
0.288010 0.288010 0.288010
0.304456 0.304456 0.304456
0.320930 0.320930 0.320930
0.337429 0.337429 0.337429
0.353948 0.353948 0.353948
0.370485 0.370485 0.370485
0.387038 0.387038 0.387038
0.403605 0.403605 0.403605
0.500255 0.500255 0.500255
0.501640 0.501640 0.501640
0.501640 0.501640 0.501640
0.501640 0.501640 0.501640
0.501640 0.501640 0.501640
0.501640 0.501640 0.501640
0.501640 0.501640 0.501640
0.057960 0.057960 0.057960
0.063782 0.063782 0.063782
0.069890 0.069890 0.069890
0.077933 0.077933 0.077933
0.087704 0.087704 0.087704
0.098878 0.098878 0.098878
0.111157 0.111157 0.111157
0.124294 0.124294 0.124294
0.138097 0.138097 0.138097
0.152416 0.152416 0.152416
0.167139 0.167139 0.167139
0.182181 0.182181 0.182181
0.197477 0.197477 0.197477
0.212978 0.212978 0.212978
0.228646 0.228646 0.228646
0.244450 0.244450 0.244450
0.260368 0.260368 0.260368
0.276381 0.276381 0.276381
0.292473 0.292473 0.292473
0.308632 0.308632 0.308632
0.324850 0.324850 0.324850
0.341117 0.341117 0.341117
0.357427 0.357427 0.357427
0.373775 0.373775 0.373775
0.390155 0.390155 0.390155
0.406563 0.406563 0.406563
0.504139 0.504139 0.504139
0.505513 0.505513 0.505513
0.505513 0.505513 0.505513
0.505513 0.505513 0.505513
0.505513 0.505513 0.505513
0.505513 0.505513 0.505513
0.505513 0.505513 0.505513
0.085662 0.085662 0.085662
0.089916 0.089916 0.089916
0.094515 0.094515 0.094515
0.100765 0.100765 0.100765
0.108613 0.108613 0.108613
0.117880 0.117880 0.117880
0.128361 0.128361 0.128361
0.139859 0.139859 0.139859
0.152195 0.152195 0.152195
0.165216 0.165216 0.165216
0.178797 0.178797 0.178797
0.192837 0.192837 0.192837
0.207252 0.207252 0.207252
0.221978 0.221978 0.221978
0.236962 0.236962 0.236962
0.252160 0.252160 0.252160
0.267539 0.267539 0.267539
0.283070 0.283070 0.283070
0.298731 0.298731 0.298731
0.314503 0.314503 0.314503
0.330371 0.330371 0.330371
0.346322 0.346322 0.346322
0.362344 0.362344 0.362344
0.378429 0.378429 0.378429
0.394570 0.394570 0.394570
0.410758 0.410758 0.410758
0.509653 0.509653 0.509653
0.511011 0.511011 0.511011
0.511011 0.511011 0.511011
0.511011 0.511011 0.511011
0.511011 0.511011 0.511011
0.511011 0.511011 0.511011
0.511011 0.511011 0.511011
0.113364 0.113364 0.113364
0.116647 0.116647 0.116647
0.120255 0.120255 0.120255
0.125244 0.125244 0.125244
0.131640 0.131640 0.131640
0.139358 0.139358 0.139358
0.148277 0.148277 0.148277
0.158260 0.158260 0.158260
0.169165 0.169165 0.169165
0.180863 0.180863 0.180863
0.193235 0.193235 0.193235
0.206177 0.206177 0.206177
0.219602 0.219602 0.219602
0.233436 0.233436 0.233436
0.247617 0.247617 0.247617
0.262093 0.262093 0.262093
0.276821 0.276821 0.276821
0.291764 0.291764 0.291764
0.306893 0.306893 0.306893
0.322183 0.322183 0.322183
0.337612 0.337612 0.337612
0.353162 0.353162 0.353162
0.368819 0.368819 0.368819
0.384569 0.384569 0.384569
0.400402 0.400402 0.400402
0.416308 0.416308 0.416308
0.516957 0.516957 0.516957
0.518293 0.518293 0.518293
0.518293 0.518293 0.518293
0.518293 0.518293 0.518293
0.518293 0.518293 0.518293
0.518293 0.518293 0.518293
0.518293 0.518293 0.518293
0.141066 0.141066 0.141066
0.143702 0.143702 0.143702
0.146625 0.146625 0.146625
0.150710 0.150710 0.150710
0.156017 0.156017 0.156017
0.162515 0.162515 0.162515
0.170140 0.170140 0.170140
0.178806 0.178806 0.178806
0.188414 0.188414 0.188414
0.198860 0.198860 0.198860
0.210046 0.210046 0.210046
0.221879 0.221879 0.221879
0.234275 0.234275 0.234275
0.247161 0.247161 0.247161
0.260470 0.260470 0.260470
0.274148 0.274148 0.274148
0.288144 0.288144 0.288144
0.302419 0.302419 0.302419
0.316936 0.316936 0.316936
0.331665 0.331665 0.331665
0.346579 0.346579 0.346579
0.361657 0.361657 0.361657
0.376879 0.376879 0.376879
0.392228 0.392228 0.392228
0.407691 0.407691 0.407691
0.504495 0.504495 0.504495
0.526112 0.526112 0.526112
0.527423 0.527423 0.527423
0.527423 0.527423 0.527423
0.527423 0.527423 0.527423
0.527423 0.527423 0.527423
0.527423 0.527423 0.527423
0.527423 0.527423 0.527423
0.168768 0.168768 0.168768
0.170947 0.170947 0.170947
0.173377 0.173377 0.173377
0.176796 0.176796 0.176796
0.181275 0.181275 0.181275
0.186816 0.186816 0.186816
0.193390 0.193390 0.193390
0.200946 0.200946 0.200946
0.209419 0.209419 0.209419
0.218735 0.218735 0.218735
0.228817 0.228817 0.228817
0.239587 0.239587 0.239587
0.250971 0.250971 0.250971
0.262902 0.262902 0.262902
0.275317 0.275317 0.275317
0.288159 0.288159 0.288159
0.301380 0.301380 0.301380
0.314933 0.314933 0.314933
0.328782 0.328782 0.328782
0.342892 0.342892 0.342892
0.357233 0.357233 0.357233
0.371780 0.371780 0.371780
0.386509 0.386509 0.386509
0.401402 0.401402 0.401402
0.416440 0.416440 0.416440
0.516031 0.516031 0.516031
0.537141 0.537141 0.537141
0.538423 0.538423 0.538423
0.538423 0.538423 0.538423
0.538423 0.538423 0.538423
0.538423 0.538423 0.538423
0.538423 0.538423 0.538423
0.538423 0.538423 0.538423
0.196470 0.196470 0.196470
0.198312 0.198312 0.198312
0.200374 0.200374 0.200374
0.203288 0.203288 0.203288
0.207129 0.207129 0.207129
0.211912 0.211912 0.211912
0.217633 0.217633 0.217633
0.224265 0.224265 0.224265
0.231767 0.231767 0.231767
0.240089 0.240089 0.240089
0.249173 0.249173 0.249173
0.258959 0.258959 0.258959
0.269386 0.269386 0.269386
0.280393 0.280393 0.280393
0.291926 0.291926 0.291926
0.303930 0.303930 0.303930
0.316359 0.316359 0.316359
0.329168 0.329168 0.329168
0.342317 0.342317 0.342317
0.355771 0.355771 0.355771
0.369499 0.369499 0.369499
0.383472 0.383472 0.383472
0.397665 0.397665 0.397665
0.412056 0.412056 0.412056
0.509149 0.509149 0.509149
0.529490 0.529490 0.529490
0.550032 0.550032 0.550032
0.551281 0.551281 0.551281
0.551281 0.551281 0.551281
0.551281 0.551281 0.551281
0.551281 0.551281 0.551281
0.551281 0.551281 0.551281
0.551281 0.551281 0.551281
0.224172 0.224172 0.224172
0.225757 0.225757 0.225757
0.227536 0.227536 0.227536
0.230059 0.230059 0.230059
0.233396 0.233396 0.233396
0.237574 0.237574 0.237574
0.242599 0.242599 0.242599
0.248462 0.248462 0.248462
0.255139 0.255139 0.255139
0.262599 0.262599 0.262599
0.270799 0.270799 0.270799
0.279694 0.279694 0.279694
0.289236 0.289236 0.289236
0.299375 0.299375 0.299375
0.310063 0.310063 0.310063
0.321252 0.321252 0.321252
0.332899 0.332899 0.332899
0.344961 0.344961 0.344961
0.357401 0.357401 0.357401
0.370183 0.370183 0.370183
0.383274 0.383274 0.383274
0.396647 0.396647 0.396647
0.410273 0.410273 0.410273
0.505704 0.505704 0.505704
0.525129 0.525129 0.525129
0.544817 0.544817 0.544817
0.564744 0.564744 0.564744
0.565956 0.565956 0.565956
0.565956 0.565956 0.565956
0.565956 0.565956 0.565956
0.565956 0.565956 0.565956
0.565956 0.565956 0.565956
0.565956 0.565956 0.565956
0.251874 0.251874 0.251874
0.253258 0.253258 0.253258
0.254814 0.254814 0.254814
0.257025 0.257025 0.257025
0.259960 0.259960 0.259960
0.263646 0.263646 0.263646
0.268100 0.268100 0.268100
0.273321 0.273321 0.273321
0.279299 0.279299 0.279299
0.286014 0.286014 0.286014
0.293439 0.293439 0.293439
0.301539 0.301539 0.301539
0.310277 0.310277 0.310277
0.319614 0.319614 0.319614
0.329510 0.329510 0.329510
0.339923 0.339923 0.339923
0.350816 0.350816 0.350816
0.362148 0.362148 0.362148
0.373886 0.373886 0.373886
0.385995 0.385995 0.385995
0.398444 0.398444 0.398444
0.411203 0.411203 0.411203
0.505865 0.505865 0.505865
0.524236 0.524236 0.524236
0.542936 0.542936 0.542936
0.561936 0.561936 0.561936
0.581211 0.581211 0.581211
0.582385 0.582385 0.582385
0.582385 0.582385 0.582385
0.582385 0.582385 0.582385
0.582385 0.582385 0.582385
0.582385 0.582385 0.582385
0.582385 0.582385 0.582385
0.279576 0.279576 0.279576
0.280799 0.280799 0.280799
0.282175 0.282175 0.282175
0.284135 0.284135 0.284135
0.286741 0.286741 0.286741
0.290024 0.290024 0.290024
0.294004 0.294004 0.294004
0.298686 0.298686 0.298686
0.304070 0.304070 0.304070
0.310143 0.310143 0.310143
0.316889 0.316889 0.316889
0.324284 0.324284 0.324284
0.332300 0.332300 0.332300
0.340906 0.340906 0.340906
0.350070 0.350070 0.350070
0.359757 0.359757 0.359757
0.369934 0.369934 0.369934
0.380566 0.380566 0.380566
0.391623 0.391623 0.391623
0.403071 0.403071 0.403071
0.414883 0.414883 0.414883
0.509708 0.509708 0.509708
0.526909 0.526909 0.526909
0.544504 0.544504 0.544504
0.562461 0.562461 0.562461
0.580752 0.580752 0.580752
0.599351 0.599351 0.599351
0.600485 0.600485 0.600485
0.600485 0.600485 0.600485
0.600485 0.600485 0.600485
0.600485 0.600485 0.600485
0.600485 0.600485 0.600485
0.600485 0.600485 0.600485
0.307278 0.307278 0.307278
0.308370 0.308370 0.308370
0.309599 0.309599 0.309599
0.311352 0.311352 0.311352
0.313687 0.313687 0.313687
0.316634 0.316634 0.316634
0.320216 0.320216 0.320216
0.324443 0.324443 0.324443
0.329318 0.329318 0.329318
0.334838 0.334838 0.334838
0.340992 0.340992 0.340992
0.347764 0.347764 0.347764
0.355134 0.355134 0.355134
0.363079 0.363079 0.363079
0.371572 0.371572 0.371572
0.380587 0.380587 0.380587
0.390093 0.390093 0.390093
0.400063 0.400063 0.400063
0.410468 0.410468 0.410468
0.501767 0.501767 0.501767
0.517221 0.517221 0.517221
0.533163 0.533163 0.533163
0.549560 0.549560 0.549560
0.566378 0.566378 0.566378
0.583587 0.583587 0.583587
0.601160 0.601160 0.601160
0.619070 0.619070 0.619070
0.620164 0.620164 0.620164
0.620164 0.620164 0.620164
0.620164 0.620164 0.620164
0.620164 0.620164 0.620164
0.620164 0.620164 0.620164
0.620164 0.620164 0.620164
0.334980 0.334980 0.334980
0.335962 0.335962 0.335962
0.337070 0.337070 0.337070
0.338650 0.338650 0.338650
0.340758 0.340758 0.340758
0.343424 0.343424 0.343424
0.346669 0.346669 0.346669
0.350508 0.350508 0.350508
0.354947 0.354947 0.354947
0.359987 0.359987 0.359987
0.365623 0.365623 0.365623
0.371845 0.371845 0.371845
0.378639 0.378639 0.378639
0.385988 0.385988 0.385988
0.393872 0.393872 0.393872
0.402267 0.402267 0.402267
0.411152 0.411152 0.411152
0.500692 0.500692 0.500692
0.514209 0.514209 0.514209
0.528299 0.528299 0.528299
0.542928 0.542928 0.542928
0.558063 0.558063 0.558063
0.573672 0.573672 0.573672
0.589725 0.589725 0.589725
0.606193 0.606193 0.606193
0.623049 0.623049 0.623049
0.640266 0.640266 0.640266
0.641318 0.641318 0.641318
0.641318 0.641318 0.641318
0.641318 0.641318 0.641318
0.641318 0.641318 0.641318
0.641318 0.641318 0.641318
0.641318 0.641318 0.641318
0.362682 0.362682 0.362682
0.363573 0.363573 0.363573
0.364578 0.364578 0.364578
0.366012 0.366012 0.366012
0.367928 0.367928 0.367928
0.370354 0.370354 0.370354
0.373312 0.373312 0.373312
0.376817 0.376817 0.376817
0.380879 0.380879 0.380879
0.385501 0.385501 0.385501
0.390683 0.390683 0.390683
0.396420 0.396420 0.396420
0.402701 0.402701 0.402701
0.409514 0.409514 0.409514
0.416845 0.416845 0.416845
0.506456 0.506456 0.506456
0.517933 0.517933 0.517933
0.530045 0.530045 0.530045
0.542764 0.542764 0.542764
0.556059 0.556059 0.556059
0.569901 0.569901 0.569901
0.584260 0.584260 0.584260
0.599108 0.599108 0.599108
0.614416 0.614416 0.614416
0.630156 0.630156 0.630156
0.646304 0.646304 0.646304
0.662833 0.662833 0.662833
0.663845 0.663845 0.663845
0.663845 0.663845 0.663845
0.663845 0.663845 0.663845
0.663845 0.663845 0.663845
0.663845 0.663845 0.663845
0.663845 0.663845 0.663845
0.390384 0.390384 0.390384
0.391197 0.391197 0.391197
0.392114 0.392114 0.392114
0.393425 0.393425 0.393425
0.395176 0.395176 0.395176
0.397396 0.397396 0.397396
0.400107 0.400107 0.400107
0.403323 0.403323 0.403323
0.407057 0.407057 0.407057
0.411315 0.411315 0.411315
0.416097 0.416097 0.416097
0.501937 0.501937 0.501937
0.509979 0.509979 0.509979
0.518724 0.518724 0.518724
0.528156 0.528156 0.528156
0.538257 0.538257 0.538257
0.549006 0.549006 0.549006
0.560380 0.560380 0.560380
0.572354 0.572354 0.572354
0.584902 0.584902 0.584902
0.598000 0.598000 0.598000
0.611620 0.611620 0.611620
0.625737 0.625737 0.625737
0.640325 0.640325 0.640325
0.655359 0.655359 0.655359
0.670814 0.670814 0.670814
0.686668 0.686668 0.686668
0.687639 0.687639 0.687639
0.687639 0.687639 0.687639
0.687639 0.687639 0.687639
0.687639 0.687639 0.687639
0.687639 0.687639 0.687639
0.687639 0.687639 0.687639
0.418086 0.418086 0.418086
0.418832 0.418832 0.418832
0.419674 0.419674 0.419674
0.501212 0.501212 0.501212
0.503435 0.503435 0.503435
0.506255 0.506255 0.506255
0.509701 0.509701 0.509701
0.513796 0.513796 0.513796
0.518557 0.518557 0.518557
0.523993 0.523993 0.523993
0.530110 0.530110 0.530110
0.536909 0.536909 0.536909
0.544386 0.544386 0.544386
0.552534 0.552534 0.552534
0.561341 0.561341 0.561341
0.570793 0.570793 0.570793
0.580875 0.580875 0.580875
0.591567 0.591567 0.591567
0.602849 0.602849 0.602849
0.614699 0.614699 0.614699
0.627096 0.627096 0.627096
0.640017 0.640017 0.640017
0.653437 0.653437 0.653437
0.667335 0.667335 0.667335
0.681688 0.681688 0.681688
0.696472 0.696472 0.696472
0.711666 0.711666 0.711666
0.712598 0.712598 0.712598
0.712598 0.712598 0.712598
0.712598 0.712598 0.712598
0.712598 0.712598 0.712598
0.712598 0.712598 0.712598
0.712598 0.712598 0.712598
0.535612 0.535612 0.535612
0.536562 0.536562 0.536562
0.537635 0.537635 0.537635
0.539169 0.539169 0.539169
0.541221 0.541221 0.541221
0.543827 0.543827 0.543827
0.547014 0.547014 0.547014
0.550805 0.550805 0.550805
0.555217 0.555217 0.555217
0.560261 0.560261 0.560261
0.565946 0.565946 0.565946
0.572275 0.572275 0.572275
0.579246 0.579246 0.579246
0.586856 0.586856 0.586856
0.595097 0.595097 0.595097
0.603959 0.603959 0.603959
0.613430 0.613430 0.613430
0.623494 0.623494 0.623494
0.634135 0.634135 0.634135
0.645336 0.645336 0.645336
0.657076 0.657076 0.657076
0.669337 0.669337 0.669337
0.682098 0.682098 0.682098
0.695338 0.695338 0.695338
0.709038 0.709038 0.709038
0.723175 0.723175 0.723175
0.737732 0.737732 0.737732
0.738625 0.738625 0.738625
0.738625 0.738625 0.738625
0.738625 0.738625 0.738625
0.738625 0.738625 0.738625
0.738625 0.738625 0.738625
0.738625 0.738625 0.738625
0.573867 0.573867 0.573867
0.574747 0.574747 0.574747
0.575741 0.575741 0.575741
0.577163 0.577163 0.577163
0.579066 0.579066 0.579066
0.581484 0.581484 0.581484
0.584443 0.584443 0.584443
0.587965 0.587965 0.587965
0.592069 0.592069 0.592069
0.596766 0.596766 0.596766
0.602066 0.602066 0.602066
0.607973 0.607973 0.607973
0.614490 0.614490 0.614490
0.621616 0.621616 0.621616
0.629344 0.629344 0.629344
0.637669 0.637669 0.637669
0.646580 0.646580 0.646580
0.656067 0.656067 0.656067
0.666115 0.666115 0.666115
0.676711 0.676711 0.676711
0.687838 0.687838 0.687838
0.699479 0.699479 0.699479
0.711617 0.711617 0.711617
0.724234 0.724234 0.724234
0.737310 0.737310 0.737310
0.750829 0.750829 0.750829
0.764771 0.764771 0.764771
0.765627 0.765627 0.765627
0.765627 0.765627 0.765627
0.765627 0.765627 0.765627
0.765627 0.765627 0.765627
0.765627 0.765627 0.765627
0.765627 0.765627 0.765627
0.612123 0.612123 0.612123
0.612941 0.612941 0.612941
0.613865 0.613865 0.613865
0.615188 0.615188 0.615188
0.616960 0.616960 0.616960
0.619211 0.619211 0.619211
0.621968 0.621968 0.621968
0.625252 0.625252 0.625252
0.629082 0.629082 0.629082
0.633469 0.633469 0.633469
0.638425 0.638425 0.638425
0.643955 0.643955 0.643955
0.650063 0.650063 0.650063
0.656750 0.656750 0.656750
0.664013 0.664013 0.664013
0.671847 0.671847 0.671847
0.680247 0.680247 0.680247
0.689203 0.689203 0.689203
0.698704 0.698704 0.698704
0.708738 0.708738 0.708738
0.719293 0.719293 0.719293
0.730354 0.730354 0.730354
0.741905 0.741905 0.741905
0.753932 0.753932 0.753932
0.766417 0.766417 0.766417
0.779344 0.779344 0.779344
0.792697 0.792697 0.792697
0.793518 0.793518 0.793518
0.793518 0.793518 0.793518
0.793518 0.793518 0.793518
0.793518 0.793518 0.793518
0.793518 0.793518 0.793518
0.793518 0.793518 0.793518
0.650378 0.650378 0.650378
0.651141 0.651141 0.651141
0.652004 0.652004 0.652004
0.653240 0.653240 0.653240
0.654894 0.654894 0.654894
0.656997 0.656997 0.656997
0.659575 0.659575 0.659575
0.662647 0.662647 0.662647
0.666232 0.666232 0.666232
0.670342 0.670342 0.670342
0.674988 0.674988 0.674988
0.680178 0.680178 0.680178
0.685917 0.685917 0.685917
0.692206 0.692206 0.692206
0.699046 0.699046 0.699046
0.706433 0.706433 0.706433
0.714364 0.714364 0.714364
0.722831 0.722831 0.722831
0.731826 0.731826 0.731826
0.741341 0.741341 0.741341
0.751362 0.751362 0.751362
0.761880 0.761880 0.761880
0.772881 0.772881 0.772881
0.784351 0.784351 0.784351
0.796276 0.796276 0.796276
0.808641 0.808641 0.808641
0.821432 0.821432 0.821432
0.822219 0.822219 0.822219
0.822219 0.822219 0.822219
0.822219 0.822219 0.822219
0.822219 0.822219 0.822219
0.822219 0.822219 0.822219
0.822219 0.822219 0.822219
0.688633 0.688633 0.688633
0.689348 0.689348 0.689348
0.690156 0.690156 0.690156
0.691313 0.691313 0.691313
0.692863 0.692863 0.692863
0.694834 0.694834 0.694834
0.697251 0.697251 0.697251
0.700133 0.700133 0.700133
0.703498 0.703498 0.703498
0.707359 0.707359 0.707359
0.711726 0.711726 0.711726
0.716609 0.716609 0.716609
0.722013 0.722013 0.722013
0.727942 0.727942 0.727942
0.734396 0.734396 0.734396
0.741374 0.741374 0.741374
0.748874 0.748874 0.748874
0.756892 0.756892 0.756892
0.765420 0.765420 0.765420
0.774451 0.774451 0.774451
0.783977 0.783977 0.783977
0.793988 0.793988 0.793988
0.804472 0.804472 0.804472
0.815418 0.815418 0.815418
0.826813 0.826813 0.826813
0.838645 0.838645 0.838645
0.850901 0.850901 0.850901
0.851655 0.851655 0.851655
0.851655 0.851655 0.851655
0.851655 0.851655 0.851655
0.851655 0.851655 0.851655
0.851655 0.851655 0.851655
0.851655 0.851655 0.851655
0.726888 0.726888 0.726888
0.727560 0.727560 0.727560
0.728319 0.728319 0.728319
0.729405 0.729405 0.729405
0.730862 0.730862 0.730862
0.732715 0.732715 0.732715
0.734987 0.734987 0.734987
0.737698 0.737698 0.737698
0.740864 0.740864 0.740864
0.744500 0.744500 0.744500
0.748615 0.748615 0.748615
0.753220 0.753220 0.753220
0.758320 0.758320 0.758320
0.763919 0.763919 0.763919
0.770021 0.770021 0.770021
0.776625 0.776625 0.776625
0.783730 0.783730 0.783730
0.791333 0.791333 0.791333
0.799429 0.799429 0.799429
0.808013 0.808013 0.808013
0.817077 0.817077 0.817077
0.826614 0.826614 0.826614
0.836614 0.836614 0.836614
0.847067 0.847067 0.847067
0.857963 0.857963 0.857963
0.869290 0.869290 0.869290
0.881037 0.881037 0.881037
0.881761 0.881761 0.881761
0.881761 0.881761 0.881761
0.881761 0.881761 0.881761
0.881761 0.881761 0.881761
0.881761 0.881761 0.881761
0.881761 0.881761 0.881761
0.765143 0.765143 0.765143
0.765776 0.765776 0.765776
0.766490 0.766490 0.766490
0.767514 0.767514 0.767514
0.768886 0.768886 0.768886
0.770632 0.770632 0.770632
0.772774 0.772774 0.772774
0.775330 0.775330 0.775330
0.778317 0.778317 0.778317
0.781749 0.781749 0.781749
0.785635 0.785635 0.785635
0.789987 0.789987 0.789987
0.794809 0.794809 0.794809
0.800109 0.800109 0.800109
0.805888 0.805888 0.805888
0.812148 0.812148 0.812148
0.818889 0.818889 0.818889
0.826110 0.826110 0.826110
0.833806 0.833806 0.833806
0.841975 0.841975 0.841975
0.850610 0.850610 0.850610
0.859704 0.859704 0.859704
0.869251 0.869251 0.869251
0.879241 0.879241 0.879241
0.889666 0.889666 0.889666
0.900516 0.900516 0.900516
0.911780 0.911780 0.911780
0.912475 0.912475 0.912475
0.912475 0.912475 0.912475
0.912475 0.912475 0.912475
0.912475 0.912475 0.912475
0.912475 0.912475 0.912475
0.912475 0.912475 0.912475
0.803398 0.803398 0.803398
0.803995 0.803995 0.803995
0.804670 0.804670 0.804670
0.805637 0.805637 0.805637
0.806932 0.806932 0.806932
0.808581 0.808581 0.808581
0.810605 0.810605 0.810605
0.813021 0.813021 0.813021
0.815845 0.815845 0.815845
0.819091 0.819091 0.819091
0.822769 0.822769 0.822769
0.826890 0.826890 0.826890
0.831459 0.831459 0.831459
0.836484 0.836484 0.836484
0.841967 0.841967 0.841967
0.847911 0.847911 0.847911
0.854317 0.854317 0.854317
0.861184 0.861184 0.861184
0.868510 0.868510 0.868510
0.876293 0.876293 0.876293
0.884528 0.884528 0.884528
0.893210 0.893210 0.893210
0.902332 0.902332 0.902332
0.911888 0.911888 0.911888
0.921869 0.921869 0.921869
0.932268 0.932268 0.932268
0.943076 0.943076 0.943076
0.943742 0.943742 0.943742
0.943742 0.943742 0.943742
0.943742 0.943742 0.943742
0.943742 0.943742 0.943742
0.943742 0.943742 0.943742
0.943742 0.943742 0.943742
0.841654 0.841654 0.841654
0.842218 0.842218 0.842218
0.842857 0.842857 0.842857
0.843771 0.843771 0.843771
0.844998 0.844998 0.844998
0.846559 0.846559 0.846559
0.848475 0.848475 0.848475
0.850763 0.850763 0.850763
0.853439 0.853439 0.853439
0.856515 0.856515 0.856515
0.860003 0.860003 0.860003
0.863912 0.863912 0.863912
0.868250 0.868250 0.868250
0.873022 0.873022 0.873022
0.878233 0.878233 0.878233
0.883885 0.883885 0.883885
0.889982 0.889982 0.889982
0.896522 0.896522 0.896522
0.903506 0.903506 0.903506
0.910930 0.910930 0.910930
0.918792 0.918792 0.918792
0.927088 0.927088 0.927088
0.935813 0.935813 0.935813
0.944961 0.944961 0.944961
0.954525 0.954525 0.954525
0.964498 0.964498 0.964498
0.974873 0.974873 0.974873
0.975513 0.975513 0.975513
0.975513 0.975513 0.975513
0.975513 0.975513 0.975513
0.975513 0.975513 0.975513
0.975513 0.975513 0.975513
0.975513 0.975513 0.975513
0.879909 0.879909 0.879909
0.880444 0.880444 0.880444
0.881050 0.881050 0.881050
0.881917 0.881917 0.881917
0.883080 0.883080 0.883080
0.884561 0.884561 0.884561
0.886379 0.886379 0.886379
0.888550 0.888550 0.888550
0.891090 0.891090 0.891090
0.894012 0.894012 0.894012
0.897325 0.897325 0.897325
0.901040 0.901040 0.901040
0.905164 0.905164 0.905164
0.909704 0.909704 0.909704
0.914664 0.914664 0.914664
0.920048 0.920048 0.920048
0.925859 0.925859 0.925859
0.932096 0.932096 0.932096
0.938761 0.938761 0.938761
0.945852 0.945852 0.945852
0.953366 0.953366 0.953366
0.961302 0.961302 0.961302
0.969654 0.969654 0.969654
0.978418 0.978418 0.978418
0.987590 0.987590 0.987590
0.997161 0.997161 0.997161
1.000000 1.000000 1.000000
1.000000 1.000000 1.000000
1.000000 1.000000 1.000000
1.000000 1.000000 1.000000
1.000000 1.000000 1.000000
1.000000 1.000000 1.000000
1.000000 1.000000 1.000000
0.918164 0.918164 0.918164
0.918673 0.918673 0.918673
0.919248 0.919248 0.919248
0.920072 0.920072 0.920072
0.921177 0.921177 0.921177
0.922584 0.922584 0.922584
0.924312 0.924312 0.924312
0.926377 0.926377 0.926377
0.928793 0.928793 0.928793
0.931572 0.931572 0.931572
0.934725 0.934725 0.934725
0.938261 0.938261 0.938261
0.942189 0.942189 0.942189
0.946515 0.946515 0.946515
0.951243 0.951243 0.951243
0.956379 0.956379 0.956379
0.961924 0.961924 0.961924
0.967880 0.967880 0.967880
0.974248 0.974248 0.974248
0.981028 0.981028 0.981028
0.988219 0.988219 0.988219
0.995817 0.995817 0.995817
1.000000 1.000000 1.000000
1.000000 1.000000 1.000000
