docs/luts/fuji_recipes/BYe_NZD_Acros.cube
TITLE "Fujifilm Recipe: NZD Acros (BYe)"
# FilmSim=BYe HL=0 SH=1 Col=0 WB=Auto WBR=0 WBB=0
LUT_3D_SIZE 33
DOMAIN_MIN 0.0 0.0 0.0
DOMAIN_MAX 1.0 1.0 1.0
0.000000 0.000000 0.000000
0.006824 0.006824 0.006824
0.014547 0.014547 0.014547
0.025620 0.025620 0.025620
0.040441 0.040441 0.040441
0.056628 0.056628 0.056628
0.072816 0.072816 0.072816
0.089003 0.089003 0.089003
0.105191 0.105191 0.105191
0.121379 0.121379 0.121379
0.137566 0.137566 0.137566
0.153754 0.153754 0.153754
0.169941 0.169941 0.169941
0.186129 0.186129 0.186129
0.202317 0.202317 0.202317
0.218504 0.218504 0.218504
0.234692 0.234692 0.234692
0.250879 0.250879 0.250879
0.267067 0.267067 0.267067
0.283255 0.283255 0.283255
0.299442 0.299442 0.299442
0.315630 0.315630 0.315630
0.331817 0.331817 0.331817
0.348005 0.348005 0.348005
0.364193 0.364193 0.364193
0.380380 0.380380 0.380380
0.396568 0.396568 0.396568
0.412755 0.412755 0.412755
0.428943 0.428943 0.428943
0.445131 0.445131 0.445131
0.461318 0.461318 0.461318
0.477506 0.477506 0.477506
0.514264 0.514264 0.514264
0.022314 0.022314 0.022314
0.029139 0.029139 0.029139
0.036861 0.036861 0.036861
0.047235 0.047235 0.047235
0.059155 0.059155 0.059155
0.072167 0.072167 0.072167
0.085948 0.085948 0.085948
0.100275 0.100275 0.100275
0.114995 0.114995 0.114995
0.130005 0.130005 0.130005
0.145232 0.145232 0.145232
0.160625 0.160625 0.160625
0.176147 0.176147 0.176147
0.191770 0.191770 0.191770
0.207475 0.207475 0.207475
0.223246 0.223246 0.223246
0.239071 0.239071 0.239071
0.254941 0.254941 0.254941
0.270848 0.270848 0.270848
0.286786 0.286786 0.286786
0.302751 0.302751 0.302751
0.318739 0.318739 0.318739
0.334747 0.334747 0.334747
0.350771 0.350771 0.350771
0.366811 0.366811 0.366811
0.382863 0.382863 0.382863
0.398928 0.398928 0.398928
0.415002 0.415002 0.415002
0.431085 0.431085 0.431085
0.447176 0.447176 0.447176
0.463275 0.463275 0.463275
0.479379 0.479379 0.479379
0.516136 0.516136 0.516136
0.046913 0.046913 0.046913
0.052642 0.052642 0.052642
0.058639 0.058639 0.058639
0.066523 0.066523 0.066523
0.076082 0.076082 0.076082
0.086996 0.086996 0.086996
0.098971 0.098971 0.098971
0.111768 0.111768 0.111768
0.125200 0.125200 0.125200
0.139124 0.139124 0.139124
0.153433 0.153433 0.153433
0.168044 0.168044 0.168044
0.182896 0.182896 0.182896
0.197942 0.197942 0.197942
0.213145 0.213145 0.213145
0.228478 0.228478 0.228478
0.243918 0.243918 0.243918
0.259448 0.259448 0.259448
0.275052 0.275052 0.275052
0.290721 0.290721 0.290721
0.306444 0.306444 0.306444
0.322214 0.322214 0.322214
0.338024 0.338024 0.338024
0.353870 0.353870 0.353870
0.369746 0.369746 0.369746
0.385650 0.385650 0.385650
0.401577 0.401577 0.401577
0.417525 0.417525 0.417525
0.433493 0.433493 0.433493
0.449477 0.449477 0.449477
0.465476 0.465476 0.465476
0.501551 0.501551 0.501551
0.518243 0.518243 0.518243
0.073432 0.073432 0.073432
0.077619 0.077619 0.077619
0.082141 0.082141 0.082141
0.088277 0.088277 0.088277
0.095971 0.095971 0.095971
0.105043 0.105043 0.105043
0.115289 0.115289 0.115289
0.126514 0.126514 0.126514
0.138544 0.138544 0.138544
0.151230 0.151230 0.151230
0.164451 0.164451 0.164451
0.178109 0.178109 0.178109
0.192125 0.192125 0.192125
0.206436 0.206436 0.206436
0.220991 0.220991 0.220991
0.235750 0.235750 0.235750
0.250681 0.250681 0.250681
0.265755 0.265755 0.265755
0.280953 0.280953 0.280953
0.296255 0.296255 0.296255
0.311648 0.311648 0.311648
0.327119 0.327119 0.327119
0.342658 0.342658 0.342658
0.358256 0.358256 0.358256
0.373906 0.373906 0.373906
0.389602 0.389602 0.389602
0.405339 0.405339 0.405339
0.421112 0.421112 0.421112
0.436916 0.436916 0.436916
0.452750 0.452750 0.452750
0.468610 0.468610 0.468610
0.504680 0.504680 0.504680
0.521246 0.521246 0.521246
0.099952 0.099952 0.099952
0.103185 0.103185 0.103185
0.106733 0.106733 0.106733
0.111637 0.111637 0.111637
0.117915 0.117915 0.117915
0.125483 0.125483 0.125483
0.134218 0.134218 0.134218
0.143982 0.143982 0.143982
0.154637 0.154637 0.154637
0.166054 0.166054 0.166054
0.178118 0.178118 0.178118
0.190729 0.190729 0.190729
0.203802 0.203802 0.203802
0.217264 0.217264 0.217264
0.231057 0.231057 0.231057
0.245130 0.245130 0.245130
0.259442 0.259442 0.259442
0.273960 0.273960 0.273960
0.288653 0.288653 0.288653
0.303499 0.303499 0.303499
0.318477 0.318477 0.318477
0.333569 0.333569 0.333569
0.348763 0.348763 0.348763
0.364044 0.364044 0.364044
0.379404 0.379404 0.379404
0.394833 0.394833 0.394833
0.410323 0.410323 0.410323
0.425868 0.425868 0.425868
0.441462 0.441462 0.441462
0.457099 0.457099 0.457099
0.472777 0.472777 0.472777
0.508843 0.508843 0.508843
0.525245 0.525245 0.525245
0.126471 0.126471 0.126471
0.129067 0.129067 0.129067
0.131943 0.131943 0.131943
0.135961 0.135961 0.135961
0.141175 0.141175 0.141175
0.147553 0.147553 0.147553
0.155031 0.155031 0.155031
0.163520 0.163520 0.163520
0.172921 0.172921 0.172921
0.183134 0.183134 0.183134
0.194059 0.194059 0.194059
0.205606 0.205606 0.205606
0.217694 0.217694 0.217694
0.230251 0.230251 0.230251
0.243212 0.243212 0.243212
0.256525 0.256525 0.256525
0.270142 0.270142 0.270142
0.284024 0.284024 0.284024
0.298137 0.298137 0.298137
0.312450 0.312450 0.312450
0.326940 0.326940 0.326940
0.341585 0.341585 0.341585
0.356366 0.356366 0.356366
0.371269 0.371269 0.371269
0.386278 0.386278 0.386278
0.401384 0.401384 0.401384
0.416574 0.416574 0.416574
0.431841 0.431841 0.431841
0.447176 0.447176 0.447176
0.462573 0.462573 0.462573
0.478026 0.478026 0.478026
0.514093 0.514093 0.514093
0.530290 0.530290 0.530290
0.152990 0.152990 0.152990
0.155136 0.155136 0.155136
0.157528 0.157528 0.157528
0.160892 0.160892 0.160892
0.165296 0.165296 0.165296
0.170739 0.170739 0.170739
0.177191 0.177191 0.177191
0.184602 0.184602 0.184602
0.192904 0.192904 0.192904
0.202023 0.202023 0.202023
0.211883 0.211883 0.211883
0.222407 0.222407 0.222407
0.233524 0.233524 0.233524
0.245165 0.245165 0.245165
0.257270 0.257270 0.257270
0.269786 0.269786 0.269786
0.282662 0.282662 0.282662
0.295857 0.295857 0.295857
0.309334 0.309334 0.309334
0.323059 0.323059 0.323059
0.337004 0.337004 0.337004
0.351144 0.351144 0.351144
0.365459 0.365459 0.365459
0.379928 0.379928 0.379928
0.394535 0.394535 0.394535
0.409266 0.409266 0.409266
0.424109 0.424109 0.424109
0.439051 0.439051 0.439051
0.454084 0.454084 0.454084
0.469198 0.469198 0.469198
0.504569 0.504569 0.504569
0.520460 0.520460 0.520460
0.536415 0.536415 0.536415
0.179510 0.179510 0.179510
0.181324 0.181324 0.181324
0.183354 0.183354 0.183354
0.186222 0.186222 0.186222
0.189999 0.189999 0.189999
0.194701 0.194701 0.194701
0.200320 0.200320 0.200320
0.206830 0.206830 0.206830
0.214187 0.214187 0.214187
0.222342 0.222342 0.222342
0.231237 0.231237 0.231237
0.240811 0.240811 0.240811
0.251004 0.251004 0.251004
0.261758 0.261758 0.261758
0.273016 0.273016 0.273016
0.284728 0.284728 0.284728
0.296847 0.296847 0.296847
0.309330 0.309330 0.309330
0.322139 0.322139 0.322139
0.335239 0.335239 0.335239
0.348600 0.348600 0.348600
0.362194 0.362194 0.362194
0.375998 0.375998 0.375998
0.389991 0.389991 0.389991
0.404153 0.404153 0.404153
0.418468 0.418468 0.418468
0.432921 0.432921 0.432921
0.447498 0.447498 0.447498
0.462189 0.462189 0.462189
0.476982 0.476982 0.476982
0.512364 0.512364 0.512364
0.527960 0.527960 0.527960
0.543637 0.543637 0.543637
0.206029 0.206029 0.206029
0.207591 0.207591 0.207591
0.209342 0.209342 0.209342
0.211825 0.211825 0.211825
0.215108 0.215108 0.215108
0.219217 0.219217 0.219217
0.224155 0.224155 0.224155
0.229913 0.229913 0.229913
0.236468 0.236468 0.236468
0.243784 0.243784 0.243784
0.251820 0.251820 0.251820
0.260532 0.260532 0.260532
0.269870 0.269870 0.269870
0.279785 0.279785 0.279785
0.290230 0.290230 0.290230
0.301159 0.301159 0.301159
0.312527 0.312527 0.312527
0.324295 0.324295 0.324295
0.336424 0.336424 0.336424
0.348881 0.348881 0.348881
0.361635 0.361635 0.361635
0.374656 0.374656 0.374656
0.387921 0.387921 0.387921
0.401405 0.401405 0.401405
0.415089 0.415089 0.415089
0.428954 0.428954 0.428954
0.442983 0.442983 0.442983
0.457162 0.457162 0.457162
0.471477 0.471477 0.471477
0.506164 0.506164 0.506164
0.521323 0.521323 0.521323
0.536592 0.536592 0.536592
0.551959 0.551959 0.551959
0.232548 0.232548 0.232548
0.233912 0.233912 0.233912
0.235444 0.235444 0.235444
0.237620 0.237620 0.237620
0.240508 0.240508 0.240508
0.244135 0.244135 0.244135
0.248513 0.248513 0.248513
0.253644 0.253644 0.253644
0.259515 0.259515 0.259515
0.266106 0.266106 0.266106
0.273387 0.273387 0.273387
0.281327 0.281327 0.281327
0.289886 0.289886 0.289886
0.299026 0.299026 0.299026
0.308706 0.308706 0.308706
0.318887 0.318887 0.318887
0.329529 0.329529 0.329529
0.340595 0.340595 0.340595
0.352051 0.352051 0.352051
0.363863 0.363863 0.363863
0.376001 0.376001 0.376001
0.388437 0.388437 0.388437
0.401145 0.401145 0.401145
0.414101 0.414101 0.414101
0.427284 0.427284 0.427284
0.440674 0.440674 0.440674
0.454254 0.454254 0.454254
0.468008 0.468008 0.468008
0.502001 0.502001 0.502001
0.516645 0.516645 0.516645
0.531429 0.531429 0.531429
0.546341 0.546341 0.546341
0.561371 0.561371 0.561371
0.259068 0.259068 0.259068
0.260272 0.260272 0.260272
0.261628 0.261628 0.261628
0.263557 0.263557 0.263557
0.266122 0.266122 0.266122
0.269352 0.269352 0.269352
0.273266 0.273266 0.273266
0.277869 0.277869 0.277869
0.283159 0.283159 0.283159
0.289123 0.289123 0.289123
0.295744 0.295744 0.295744
0.302997 0.302997 0.302997
0.310855 0.310855 0.310855
0.319286 0.319286 0.319286
0.328257 0.328257 0.328257
0.337736 0.337736 0.337736
0.347687 0.347687 0.347687
0.358079 0.358079 0.358079
0.368880 0.368880 0.368880
0.380058 0.380058 0.380058
0.391585 0.391585 0.391585
0.403434 0.403434 0.403434
0.415579 0.415579 0.415579
0.427997 0.427997 0.427997
0.440666 0.440666 0.440666
0.453566 0.453566 0.453566
0.466680 0.466680 0.466680
0.479989 0.479989 0.479989
0.514040 0.514040 0.514040
0.528265 0.528265 0.528265
0.542650 0.542650 0.542650
0.557183 0.557183 0.557183
0.571852 0.571852 0.571852
0.285587 0.285587 0.285587
0.286662 0.286662 0.286662
0.287873 0.287873 0.287873
0.289599 0.289599 0.289599
0.291897 0.291897 0.291897
0.294798 0.294798 0.294798
0.298321 0.298321 0.298321
0.302478 0.302478 0.302478
0.307270 0.307270 0.307270
0.312693 0.312693 0.312693
0.318736 0.318736 0.318736
0.325382 0.325382 0.325382
0.332611 0.332611 0.332611
0.340399 0.340399 0.340399
0.348721 0.348721 0.348721
0.357547 0.357547 0.357547
0.366851 0.366851 0.366851
0.376603 0.376603 0.376603
0.386775 0.386775 0.386775
0.397340 0.397340 0.397340
0.408270 0.408270 0.408270
0.419540 0.419540 0.419540
0.431126 0.431126 0.431126
0.443005 0.443005 0.443005
0.455156 0.455156 0.455156
0.467559 0.467559 0.467559
0.500204 0.500204 0.500204
0.513592 0.513592 0.513592
0.527188 0.527188 0.527188
0.540978 0.540978 0.540978
0.554947 0.554947 0.554947
0.569083 0.569083 0.569083
0.583372 0.583372 0.583372
0.312107 0.312107 0.312107
0.313074 0.313074 0.313074
0.314165 0.314165 0.314165
0.315721 0.315721 0.315721
0.317796 0.317796 0.317796
0.320419 0.320419 0.320419
0.323612 0.323612 0.323612
0.327388 0.327388 0.327388
0.331753 0.331753 0.331753
0.336706 0.336706 0.336706
0.342243 0.342243 0.342243
0.348352 0.348352 0.348352
0.355020 0.355020 0.355020
0.362228 0.362228 0.362228
0.369957 0.369957 0.369957
0.378184 0.378184 0.378184
0.386885 0.386885 0.386885
0.396036 0.396036 0.396036
0.405613 0.405613 0.405613
0.415590 0.415590 0.415590
0.425944 0.425944 0.425944
0.436651 0.436651 0.436651
0.447689 0.447689 0.447689
0.459037 0.459037 0.459037
0.470672 0.470672 0.470672
0.502685 0.502685 0.502685
0.515348 0.515348 0.515348
0.528254 0.528254 0.528254
0.541387 0.541387 0.541387
0.554732 0.554732 0.554732
0.568273 0.568273 0.568273
0.581998 0.581998 0.581998
0.595894 0.595894 0.595894
0.338626 0.338626 0.338626
0.339503 0.339503 0.339503
0.340493 0.340493 0.340493
0.341906 0.341906 0.341906
0.343792 0.343792 0.343792
0.346179 0.346179 0.346179
0.349090 0.349090 0.349090
0.352538 0.352538 0.352538
0.356533 0.356533 0.356533
0.361077 0.361077 0.361077
0.366170 0.366170 0.366170
0.371804 0.371804 0.371804
0.377971 0.377971 0.377971
0.384658 0.384658 0.384658
0.391849 0.391849 0.391849
0.399526 0.399526 0.399526
0.407670 0.407670 0.407670
0.416261 0.416261 0.416261
0.425277 0.425277 0.425277
0.434698 0.434698 0.434698
0.444502 0.444502 0.444502
0.454668 0.454668 0.454668
0.465175 0.465175 0.465175
0.476003 0.476003 0.476003
0.507429 0.507429 0.507429
0.519318 0.519318 0.519318
0.531483 0.531483 0.531483
0.543907 0.543907 0.543907
0.556574 0.556574 0.556574
0.569469 0.569469 0.569469
0.582576 0.582576 0.582576
0.595883 0.595883 0.595883
0.609376 0.609376 0.609376
0.365145 0.365145 0.365145
0.365946 0.365946 0.365946
0.366849 0.366849 0.366849
0.368140 0.368140 0.368140
0.369864 0.369864 0.369864
0.372050 0.372050 0.372050
0.374717 0.374717 0.374717
0.377882 0.377882 0.377882
0.381555 0.381555 0.381555
0.385741 0.385741 0.385741
0.390443 0.390443 0.390443
0.395656 0.395656 0.395656
0.401376 0.401376 0.401376
0.407593 0.407593 0.407593
0.414296 0.414296 0.414296
0.421471 0.421471 0.421471
0.429103 0.429103 0.429103
0.437174 0.437174 0.437174
0.445668 0.445668 0.445668
0.454565 0.454565 0.454565
0.463847 0.463847 0.463847
0.473496 0.473496 0.473496
0.503638 0.503638 0.503638
0.514394 0.514394 0.514394
0.525474 0.525474 0.525474
0.536860 0.536860 0.536860
0.548535 0.548535 0.548535
0.560482 0.560482 0.560482
0.572686 0.572686 0.572686
0.585130 0.585130 0.585130
0.597801 0.597801 0.597801
0.610685 0.610685 0.610685
0.623770 0.623770 0.623770
0.391665 0.391665 0.391665
0.392399 0.392399 0.392399
0.393229 0.393229 0.393229
0.394414 0.394414 0.394414
0.395999 0.395999 0.395999
0.398009 0.398009 0.398009
0.400466 0.400466 0.400466
0.403384 0.403384 0.403384
0.406775 0.406775 0.406775
0.410647 0.410647 0.410647
0.415002 0.415002 0.415002
0.419841 0.419841 0.419841
0.425161 0.425161 0.425161
0.430956 0.430956 0.430956
0.437217 0.437217 0.437217
0.443934 0.443934 0.443934
0.451095 0.451095 0.451095
0.458687 0.458687 0.458687
0.466694 0.466694 0.466694
0.475101 0.475101 0.475101
0.504054 0.504054 0.504054
0.513594 0.513594 0.513594
0.523499 0.523499 0.523499
0.533752 0.533752 0.533752
0.544336 0.544336 0.544336
0.555235 0.555235 0.555235
0.566431 0.566431 0.566431
0.577910 0.577910 0.577910
0.589656 0.589656 0.589656
0.601654 0.601654 0.601654
0.613891 0.613891 0.613891
0.626353 0.626353 0.626353
0.639028 0.639028 0.639028
0.418184 0.418184 0.418184
0.418862 0.418862 0.418862
0.419627 0.419627 0.419627
0.420721 0.420721 0.420721
0.422184 0.422184 0.422184
0.424042 0.424042 0.424042
0.426313 0.426313 0.426313
0.429015 0.429015 0.429015
0.432159 0.432159 0.432159
0.435752 0.435752 0.435752
0.439800 0.439800 0.439800
0.444306 0.444306 0.444306
0.449267 0.449267 0.449267
0.454681 0.454681 0.454681
0.460542 0.460542 0.460542
0.466842 0.466842 0.466842
0.473572 0.473572 0.473572
0.500751 0.500751 0.500751
0.508622 0.508622 0.508622
0.516903 0.516903 0.516903
0.525579 0.525579 0.525579
0.534637 0.534637 0.534637
0.544060 0.544060 0.544060
0.553833 0.553833 0.553833
0.563942 0.563942 0.563942
0.574370 0.574370 0.574370
0.585102 0.585102 0.585102
0.596125 0.596125 0.596125
0.607423 0.607423 0.607423
0.618982 0.618982 0.618982
0.630790 0.630790 0.630790
0.642833 0.642833 0.642833
0.655099 0.655099 0.655099
0.444703 0.444703 0.444703
0.445331 0.445331 0.445331
0.446040 0.446040 0.446040
0.447054 0.447054 0.447054
0.448411 0.448411 0.448411
0.450134 0.450134 0.450134
0.452244 0.452244 0.452244
0.454754 0.454754 0.454754
0.457678 0.457678 0.457678
0.461025 0.461025 0.461025
0.464800 0.464800 0.464800
0.469006 0.469006 0.469006
0.473646 0.473646 0.473646
0.478716 0.478716 0.478716
0.504389 0.504389 0.504389
0.510556 0.510556 0.510556
0.517155 0.517155 0.517155
0.524177 0.524177 0.524177
0.531613 0.531613 0.531613
0.539450 0.539450 0.539450
0.547677 0.547677 0.547677
0.556281 0.556281 0.556281
0.565249 0.565249 0.565249
0.574566 0.574566 0.574566
0.584220 0.584220 0.584220
0.594197 0.594197 0.594197
0.604482 0.604482 0.604482
0.615062 0.615062 0.615062
0.625924 0.625924 0.625924
0.637055 0.637055 0.637055
0.648442 0.648442 0.648442
0.660072 0.660072 0.660072
0.671935 0.671935 0.671935
0.471223 0.471223 0.471223
0.471806 0.471806 0.471806
0.472466 0.472466 0.472466
0.473409 0.473409 0.473409
0.474672 0.474672 0.474672
0.476277 0.476277 0.476277
0.478243 0.478243 0.478243
0.500608 0.500608 0.500608
0.503451 0.503451 0.503451
0.506708 0.506708 0.506708
0.510385 0.510385 0.510385
0.514487 0.514487 0.514487
0.519018 0.519018 0.519018
0.523975 0.523975 0.523975
0.529359 0.529359 0.529359
0.535164 0.535164 0.535164
0.541386 0.541386 0.541386
0.548017 0.548017 0.548017
0.555050 0.555050 0.555050
0.562475 0.562475 0.562475
0.570283 0.570283 0.570283
0.578461 0.578461 0.578461
0.586999 0.586999 0.586999
0.595885 0.595885 0.595885
0.605107 0.605107 0.605107
0.614652 0.614652 0.614652
0.624508 0.624508 0.624508
0.634662 0.634662 0.634662
0.645102 0.645102 0.645102
0.655816 0.655816 0.655816
0.666792 0.666792 0.666792
0.678018 0.678018 0.678018
0.689484 0.689484 0.689484
0.518481 0.518481 0.518481
0.519049 0.519049 0.519049
0.519690 0.519690 0.519690
0.520608 0.520608 0.520608
0.521836 0.521836 0.521836
0.523399 0.523399 0.523399
0.525313 0.525313 0.525313
0.527594 0.527594 0.527594
0.530255 0.530255 0.530255
0.533306 0.533306 0.533306
0.536754 0.536754 0.536754
0.540605 0.540605 0.540605
0.544862 0.544862 0.544862
0.549526 0.549526 0.549526
0.554597 0.554597 0.554597
0.560072 0.560072 0.560072
0.565948 0.565948 0.565948
0.572220 0.572220 0.572220
0.578881 0.578881 0.578881
0.585923 0.585923 0.585923
0.593339 0.593339 0.593339
0.601119 0.601119 0.601119
0.609254 0.609254 0.609254
0.617732 0.617732 0.617732
0.626544 0.626544 0.626544
0.635678 0.635678 0.635678
0.645123 0.645123 0.645123
0.654868 0.654868 0.654868
0.664901 0.664901 0.664901
0.675212 0.675212 0.675212
0.685789 0.685789 0.685789
0.696621 0.696621 0.696621
0.707698 0.707698 0.707698
0.546106 0.546106 0.546106
0.546637 0.546637 0.546637
0.547237 0.547237 0.547237
0.548097 0.548097 0.548097
0.549248 0.549248 0.549248
0.550713 0.550713 0.550713
0.552507 0.552507 0.552507
0.554648 0.554648 0.554648
0.557146 0.557146 0.557146
0.560012 0.560012 0.560012
0.563253 0.563253 0.563253
0.566877 0.566877 0.566877
0.570886 0.570886 0.570886
0.575283 0.575283 0.575283
0.580069 0.580069 0.580069
0.585243 0.585243 0.585243
0.590801 0.590801 0.590801
0.596741 0.596741 0.596741
0.603058 0.603058 0.603058
0.609745 0.609745 0.609745
0.616796 0.616796 0.616796
0.624204 0.624204 0.624204
0.631959 0.631959 0.631959
0.640053 0.640053 0.640053
0.648477 0.648477 0.648477
0.657221 0.657221 0.657221
0.666274 0.666274 0.666274
0.675628 0.675628 0.675628
0.685271 0.685271 0.685271
0.695193 0.695193 0.695193
0.705384 0.705384 0.705384
0.715834 0.715834 0.715834
0.726533 0.726533 0.726533
0.573730 0.573730 0.573730
0.574229 0.574229 0.574229
0.574793 0.574793 0.574793
0.575600 0.575600 0.575600
0.576682 0.576682 0.576682
0.578058 0.578058 0.578058
0.579746 0.579746 0.579746
0.581759 0.581759 0.581759
0.584110 0.584110 0.584110
0.586809 0.586809 0.586809
0.589864 0.589864 0.589864
0.593282 0.593282 0.593282
0.597066 0.597066 0.597066
0.601220 0.601220 0.601220
0.605745 0.605745 0.605745
0.610642 0.610642 0.610642
0.615908 0.615908 0.615908
0.621543 0.621543 0.621543
0.627541 0.627541 0.627541
0.633899 0.633899 0.633899
0.640610 0.640610 0.640610
0.647669 0.647669 0.647669
0.655069 0.655069 0.655069
0.662802 0.662802 0.662802
0.670859 0.670859 0.670859
0.679233 0.679233 0.679233
0.687914 0.687914 0.687914
0.696894 0.696894 0.696894
0.706163 0.706163 0.706163
0.715711 0.715711 0.715711
0.725531 0.725531 0.725531
0.735611 0.735611 0.735611
0.745943 0.745943 0.745943
0.601355 0.601355 0.601355
0.601824 0.601824 0.601824
0.602355 0.602355 0.602355
0.603116 0.603116 0.603116
0.604135 0.604135 0.604135
0.605432 0.605432 0.605432
0.607023 0.607023 0.607023
0.608921 0.608921 0.608921
0.611139 0.611139 0.611139
0.613687 0.613687 0.613687
0.616572 0.616572 0.616572
0.619802 0.619802 0.619802
0.623381 0.623381 0.623381
0.627312 0.627312 0.627312
0.631599 0.631599 0.631599
0.636242 0.636242 0.636242
0.641240 0.641240 0.641240
0.646592 0.646592 0.646592
0.652295 0.652295 0.652295
0.658347 0.658347 0.658347
0.664742 0.664742 0.664742
0.671476 0.671476 0.671476
0.678542 0.678542 0.678542
0.685935 0.685935 0.685935
0.693647 0.693647 0.693647
0.701671 0.701671 0.701671
0.709998 0.709998 0.709998
0.718622 0.718622 0.718622
0.727534 0.727534 0.727534
0.736724 0.736724 0.736724
0.746186 0.746186 0.746186
0.755909 0.755909 0.755909
0.765886 0.765886 0.765886
0.628979 0.628979 0.628979
0.629422 0.629422 0.629422
0.629924 0.629924 0.629924
0.630642 0.630642 0.630642
0.631604 0.631604 0.631604
0.632829 0.632829 0.632829
0.634332 0.634332 0.634332
0.636126 0.636126 0.636126
0.638224 0.638224 0.638224
0.640634 0.640634 0.640634
0.643364 0.643364 0.643364
0.646423 0.646423 0.646423
0.649814 0.649814 0.649814
0.653542 0.653542 0.653542
0.657610 0.657610 0.657610
0.662019 0.662019 0.662019
0.666769 0.666769 0.666769
0.671860 0.671860 0.671860
0.677291 0.677291 0.677291
0.683058 0.683058 0.683058
0.689158 0.689158 0.689158
0.695588 0.695588 0.695588
0.702342 0.702342 0.702342
0.709415 0.709415 0.709415
0.716801 0.716801 0.716801
0.724494 0.724494 0.724494
0.732487 0.732487 0.732487
0.740772 0.740772 0.740772
0.749343 0.749343 0.749343
0.758191 0.758191 0.758191
0.767309 0.767309 0.767309
0.776690 0.776690 0.776690
0.786324 0.786324 0.786324
0.656603 0.656603 0.656603
0.657023 0.657023 0.657023
0.657497 0.657497 0.657497
0.658177 0.658177 0.658177
0.659087 0.659087 0.659087
0.660247 0.660247 0.660247
0.661670 0.661670 0.661670
0.663370 0.663370 0.663370
0.665357 0.665357 0.665357
0.667641 0.667641 0.667641
0.670231 0.670231 0.670231
0.673133 0.673133 0.673133
0.676352 0.676352 0.676352
0.679893 0.679893 0.679893
0.683760 0.683760 0.683760
0.687953 0.687953 0.687953
0.692474 0.692474 0.692474
0.697324 0.697324 0.697324
0.702501 0.702501 0.702501
0.708004 0.708004 0.708004
0.713829 0.713829 0.713829
0.719975 0.719975 0.719975
0.726436 0.726436 0.726436
0.733209 0.733209 0.733209
0.740288 0.740288 0.740288
0.747668 0.747668 0.747668
0.755344 0.755344 0.755344
0.763307 0.763307 0.763307
0.771553 0.771553 0.771553
0.780075 0.780075 0.780075
0.788864 0.788864 0.788864
0.797915 0.797915 0.797915
0.807220 0.807220 0.807220
0.684228 0.684228 0.684228
0.684625 0.684625 0.684625
0.685075 0.685075 0.685075
0.685719 0.685719 0.685719
0.686583 0.686583 0.686583
0.687683 0.687683 0.687683
0.689034 0.689034 0.689034
0.690646 0.690646 0.690646
0.692533 0.692533 0.692533
0.694702 0.694702 0.694702
0.697163 0.697163 0.697163
0.699920 0.699920 0.699920
0.702982 0.702982 0.702982
0.706351 0.706351 0.706351
0.710032 0.710032 0.710032
0.714026 0.714026 0.714026
0.718336 0.718336 0.718336
0.722962 0.722962 0.722962
0.727903 0.727903 0.727903
0.733160 0.733160 0.733160
0.738729 0.738729 0.738729
0.744608 0.744608 0.744608
0.750795 0.750795 0.750795
0.757286 0.757286 0.757286
0.764076 0.764076 0.764076
0.771161 0.771161 0.771161
0.778536 0.778536 0.778536
0.786195 0.786195 0.786195
0.794132 0.794132 0.794132
0.802341 0.802341 0.802341
0.810817 0.810817 0.810817
0.819552 0.819552 0.819552
0.828540 0.828540 0.828540
0.711852 0.711852 0.711852
0.712230 0.712230 0.712230
0.712657 0.712657 0.712657
0.713269 0.713269 0.713269
0.714090 0.714090 0.714090
0.715136 0.715136 0.715136
0.716419 0.716419 0.716419
0.717953 0.717953 0.717953
0.719747 0.719747 0.719747
0.721810 0.721810 0.721810
0.724152 0.724152 0.724152
0.726777 0.726777 0.726777
0.729693 0.729693 0.729693
0.732904 0.732904 0.732904
0.736413 0.736413 0.736413
0.740223 0.740223 0.740223
0.744337 0.744337 0.744337
0.748755 0.748755 0.748755
0.753477 0.753477 0.753477
0.758504 0.758504 0.758504
0.763834 0.763834 0.763834
0.769465 0.769465 0.769465
0.775394 0.775394 0.775394
0.781620 0.781620 0.781620
0.788138 0.788138 0.788138
