docs/luts/fuji_recipes/BYe_NZD_Acros.cube
TITLE "Fujifilm Recipe: NZD Acros (BYe)"
# FilmSim=BYe HL=0 SH=1 Col=0 WB=Auto WBR=0 WBB=0
LUT_3D_SIZE 9
DOMAIN_MIN 0.0 0.0 0.0
DOMAIN_MAX 1.0 1.0 1.0
0.000000 0.000000 0.000000
0.040441 0.040441 0.040441
0.105191 0.105191 0.105191
0.169941 0.169941 0.169941
0.234692 0.234692 0.234692
0.299442 0.299442 0.299442
0.364193 0.364193 0.364193
0.428943 0.428943 0.428943
0.514264 0.514264 0.514264
0.099952 0.099952 0.099952
0.117915 0.117915 0.117915
0.154637 0.154637 0.154637
0.203802 0.203802 0.203802
0.259442 0.259442 0.259442
0.318477 0.318477 0.318477
0.379404 0.379404 0.379404
0.441462 0.441462 0.441462
0.525245 0.525245 0.525245
0.206029 0.206029 0.206029
0.215108 0.215108 0.215108
0.236468 0.236468 0.236468
0.269870 0.269870 0.269870
0.312527 0.312527 0.312527
0.361635 0.361635 0.361635
0.415089 0.415089 0.415089
0.471477 0.471477 0.471477
0.551959 0.551959 0.551959
0.312107 0.312107 0.312107
0.317796 0.317796 0.317796
0.331753 0.331753 0.331753
0.355020 0.355020 0.355020
0.386885 0.386885 0.386885
0.425944 0.425944 0.425944
0.470672 0.470672 0.470672
0.541387 0.541387 0.541387
0.595894 0.595894 0.595894
0.418184 0.418184 0.418184
0.422184 0.422184 0.422184
0.432159 0.432159 0.432159
0.449267 0.449267 0.449267
0.473572 0.473572 0.473572
0.525579 0.525579 0.525579
0.563942 0.563942 0.563942
0.607423 0.607423 0.607423
0.655099 0.655099 0.655099
0.546106 0.546106 0.546106
0.549248 0.549248 0.549248
0.557146 0.557146 0.557146
0.570886 0.570886 0.570886
0.590801 0.590801 0.590801
0.616796 0.616796 0.616796
0.648477 0.648477 0.648477
0.685271 0.685271 0.685271
0.726533 0.726533 0.726533
0.656603 0.656603 0.656603
0.659087 0.659087 0.659087
0.665357 0.665357 0.665357
0.676352 0.676352 0.676352
0.692474 0.692474 0.692474
0.713829 0.713829 0.713829
0.740288 0.740288 0.740288
0.771553 0.771553 0.771553
0.807220 0.807220 0.807220
0.767101 0.767101 0.767101
0.769132 0.769132 0.769132
0.774271 0.774271 0.774271
0.783326 0.783326 0.783326
0.796700 0.796700 0.796700
0.814582 0.814582 0.814582
0.836984 0.836984 0.836984
0.863780 0.863780 0.863780
0.894738 0.894738 0.894738
0.877598 0.877598 0.877598
0.879301 0.879301 0.879301
0.883617 0.883617 0.883617
0.891245 0.891245 0.891245
0.902565 0.902565 0.902565
0.917796 0.917796 0.917796
0.937023 0.937023 0.937023
0.960220 0.960220 0.960220
0.987272 0.987272 0.987272
0.011180 0.011180 0.011180
0.050411 0.050411 0.050411
0.110206 0.110206 0.110206
0.173080 0.173080 0.173080
0.236898 0.236898 0.236898
0.301105 0.301105 0.301105
0.365507 0.365507 0.365507
0.430018 0.430018 0.430018
0.515203 0.515203 0.515203
0.105200 0.105200 0.105200
0.122431 0.122431 0.122431
0.158098 0.158098 0.158098
0.206383 0.206383 0.206383
0.261409 0.261409 0.261409
0.320022 0.320022 0.320022
0.380655 0.380655 0.380655
0.442499 0.442499 0.442499
0.526159 0.526159 0.526159
0.208580 0.208580 0.208580
0.217540 0.217540 0.217540
0.238655 0.238655 0.238655
0.271749 0.271749 0.271749
0.314108 0.314108 0.314108
0.362961 0.362961 0.362961
0.416209 0.416209 0.416209
0.472432 0.472432 0.472432
0.552817 0.552817 0.552817
0.313690 0.313690 0.313690
0.319346 0.319346 0.319346
0.333224 0.333224 0.333224
0.356376 0.356376 0.356376
0.388106 0.388106 0.388106
0.427028 0.427028 0.427028
0.471630 0.471630 0.471630
0.542267 0.542267 0.542267
0.596673 0.596673 0.596673
0.419293 0.419293 0.419293
0.423280 0.423280 0.423280
0.433223 0.433223 0.433223
0.450282 0.450282 0.450282
0.474522 0.474522 0.474522
0.526493 0.526493 0.526493
0.564777 0.564777 0.564777
0.608182 0.608182 0.608182
0.655789 0.655789 0.655789
0.546976 0.546976 0.546976
0.550112 0.550112 0.550112
0.557994 0.557994 0.557994
0.571708 0.571708 0.571708
0.591588 0.591588 0.591588
0.617541 0.617541 0.617541
0.649175 0.649175 0.649175
0.685921 0.685921 0.685921
0.727135 0.727135 0.727135
0.657290 0.657290 0.657290
0.659771 0.659771 0.659771
0.666032 0.666032 0.666032
0.677013 0.677013 0.677013
0.693116 0.693116 0.693116
0.714446 0.714446 0.714446
0.740877 0.740877 0.740877
0.772111 0.772111 0.772111
0.807746 0.807746 0.807746
0.767662 0.767662 0.767662
0.769691 0.769691 0.769691
0.774825 0.774825 0.774825
0.783872 0.783872 0.783872
0.797234 0.797234 0.797234
0.815101 0.815101 0.815101
0.837485 0.837485 0.837485
0.864261 0.864261 0.864261
0.895197 0.895197 0.895197
0.878069 0.878069 0.878069
0.879771 0.879771 0.879771
0.884084 0.884084 0.884084
0.891707 0.891707 0.891707
0.903019 0.903019 0.903019
0.918240 0.918240 0.918240
0.937454 0.937454 0.937454
0.960638 0.960638 0.960638
0.987675 0.987675 0.987675
0.039619 0.039619 0.039619
0.071115 0.071115 0.071115
0.122086 0.122086 0.122086
0.180806 0.180806 0.180806
0.242408 0.242408 0.242408
0.305290 0.305290 0.305290
0.368828 0.368828 0.368828
0.432739 0.432739 0.432739
0.517583 0.517583 0.517583
0.117565 0.117565 0.117565
0.133249 0.133249 0.133249
0.166569 0.166569 0.166569
0.212798 0.212798 0.212798
0.266339 0.266339 0.266339
0.323917 0.323917 0.323917
0.383815 0.383815 0.383815
0.445125 0.445125 0.445125
0.528476 0.528476 0.528476
0.214922 0.214922 0.214922
0.223597 0.223597 0.223597
0.244120 0.244120 0.244120
0.276464 0.276464 0.276464
0.318089 0.318089 0.318089
0.366309 0.366309 0.366309
0.419042 0.419042 0.419042
0.474852 0.474852 0.474852
0.554994 0.554994 0.554994
0.317678 0.317678 0.317678
0.323250 0.323250 0.323250
0.336936 0.336936 0.336936
0.359800 0.359800 0.359800
0.391193 0.391193 0.391193
0.429773 0.429773 0.429773
0.474055 0.474055 0.474055
0.544498 0.544498 0.544498
0.598648 0.598648 0.598648
0.422100 0.422100 0.422100
0.426055 0.426055 0.426055
0.435919 0.435919 0.435919
0.452851 0.452851 0.452851
0.476929 0.476929 0.476929
0.528808 0.528808 0.528808
0.566896 0.566896 0.566896
0.610110 0.610110 0.610110
0.657539 0.657539 0.657539
0.549182 0.549182 0.549182
0.552303 0.552303 0.552303
0.560145 0.560145 0.560145
0.573795 0.573795 0.573795
0.593585 0.593585 0.593585
0.619432 0.619432 0.619432
0.650948 0.650948 0.650948
0.687573 0.687573 0.687573
0.728667 0.728667 0.728667
0.659035 0.659035 0.659035
0.661508 0.661508 0.661508
0.667748 0.667748 0.667748
0.678693 0.678693 0.678693
0.694745 0.694745 0.694745
0.716013 0.716013 0.716013
0.742371 0.742371 0.742371
0.773527 0.773527 0.773527
0.809081 0.809081 0.809081
0.769089 0.769089 0.769089
0.771113 0.771113 0.771113
0.776235 0.776235 0.776235
0.785261 0.785261 0.785261
0.798593 0.798593 0.798593
0.816420 0.816420 0.816420
0.838759 0.838759 0.838759
0.865483 0.865483 0.865483
0.896364 0.896364 0.896364
0.879265 0.879265 0.879265
0.880964 0.880964 0.880964
0.885270 0.885270 0.885270
0.892879 0.892879 0.892879
0.904172 0.904172 0.904172
0.919368 0.919368 0.919368
0.938552 0.938552 0.938552
0.961701 0.961701 0.961701
0.988700 0.988700 0.988700
0.077496 0.077496 0.077496
0.099223 0.099223 0.099223
0.140845 0.140845 0.140845
0.193760 0.193760 0.193760
0.251894 0.251894 0.251894
0.312588 0.312588 0.312588
0.374660 0.374660 0.374660
0.437539 0.437539 0.437539
0.521793 0.521793 0.521793
0.136941 0.136941 0.136941
0.150613 0.150613 0.150613
0.180632 0.180632 0.180632
0.223728 0.223728 0.223728
0.274876 0.274876 0.274876
0.330725 0.330725 0.330725
0.389374 0.389374 0.389374
0.449760 0.449760 0.449760
0.532578 0.532578 0.532578
0.225737 0.225737 0.225737
0.233961 0.233961 0.233961
0.253532 0.253532 0.253532
0.284646 0.284646 0.284646
0.325045 0.325045 0.325045
0.372190 0.372190 0.372190
0.424035 0.424035 0.424035
0.479130 0.479130 0.479130
0.558850 0.558850 0.558850
0.324644 0.324644 0.324644
0.330075 0.330075 0.330075
0.343434 0.343434 0.343434
0.365809 0.365809 0.365809
0.396624 0.396624 0.396624
0.434613 0.434613 0.434613
0.478341 0.478341 0.478341
0.548448 0.548448 0.548448
0.602151 0.602151 0.602151
0.427050 0.427050 0.427050
0.430948 0.430948 0.430948
0.440676 0.440676 0.440676
0.457389 0.457389 0.457389
0.501232 0.501232 0.501232
0.532906 0.532906 0.532906
0.570650 0.570650 0.570650
0.613529 0.613529 0.613529
0.660645 0.660645 0.660645
0.553090 0.553090 0.553090
0.556182 0.556182 0.556182
0.563956 0.563956 0.563956
0.577491 0.577491 0.577491
0.597126 0.597126 0.597126
0.622785 0.622785 0.622785
0.654095 0.654095 0.654095
0.690505 0.690505 0.690505
0.731387 0.731387 0.731387
0.662133 0.662133 0.662133
0.664590 0.664590 0.664590
0.670793 0.670793 0.670793
0.681675 0.681675 0.681675
0.697639 0.697639 0.697639
0.718796 0.718796 0.718796
0.745027 0.745027 0.745027
0.776044 0.776044 0.776044
0.811455 0.811455 0.811455
0.771625 0.771625 0.771625
0.773641 0.773641 0.773641
0.778741 0.778741 0.778741
0.787729 0.787729 0.787729
0.801008 0.801008 0.801008
0.818767 0.818767 0.818767
0.841023 0.841023 0.841023
0.867656 0.867656 0.867656
0.898440 0.898440 0.898440
0.881394 0.881394 0.881394
0.883088 0.883088 0.883088
0.887379 0.887379 0.887379
0.894966 0.894966 0.894966
0.906225 0.906225 0.906225
0.921375 0.921375 0.921375
0.940506 0.940506 0.940506
0.963593 0.963593 0.963593
0.990523 0.990523 0.990523
0.115372 0.115372 0.115372
0.131314 0.131314 0.131314
0.165036 0.165036 0.165036
0.211628 0.211628 0.211628
0.265435 0.265435 0.265435
0.323200 0.323200 0.323200
0.383233 0.383233 0.383233
0.444640 0.444640 0.444640
0.528048 0.528048 0.528048
0.161737 0.161737 0.161737
0.173389 0.173389 0.173389
0.199796 0.199796 0.199796
0.239120 0.239120 0.239120
0.287165 0.287165 0.287165
0.340663 0.340663 0.340663
0.397558 0.397558 0.397558
0.456625 0.456625 0.456625
0.538675 0.538675 0.538675
0.240983 0.240983 0.240983
0.248634 0.248634 0.248634
0.266977 0.266977 0.266977
0.296460 0.296460 0.296460
0.335186 0.335186 0.335186
0.380831 0.380831 0.380831
0.431415 0.431415 0.431415
0.505706 0.505706 0.505706
0.564590 0.564590 0.564590
0.334800 0.334800 0.334800
0.340036 0.340036 0.340036
0.352941 0.352941 0.352941
0.374630 0.374630 0.374630
0.404628 0.404628 0.404628
0.441774 0.441774 0.441774
0.504898 0.504898 0.504898
0.554324 0.554324 0.554324
0.607373 0.607373 0.607373
0.434366 0.434366 0.434366
0.438183 0.438183 0.438183
0.447716 0.447716 0.447716
0.464113 0.464113 0.464113
0.507809 0.507809 0.507809
0.538999 0.538999 0.538999
0.576240 0.576240 0.576240
0.618628 0.618628 0.618628
0.665284 0.665284 0.665284
0.558905 0.558905 0.558905
0.561956 0.561956 0.561956
0.569630 0.569630 0.569630
0.582998 0.582998 0.582998
0.602404 0.602404 0.602404
0.627788 0.627788 0.627788
0.658794 0.658794 0.658794
0.694888 0.694888 0.694888
0.735457 0.735457 0.735457
0.666758 0.666758 0.666758
0.669194 0.669194 0.669194
0.675343 0.675343 0.675343
0.686132 0.686132 0.686132
0.701964 0.701964 0.701964
0.722958 0.722958 0.722958
0.749000 0.749000 0.749000
0.779813 0.779813 0.779813
0.815010 0.815010 0.815010
0.775422 0.775422 0.775422
0.777425 0.777425 0.777425
0.782492 0.782492 0.782492
0.791425 0.791425 0.791425
0.804624 0.804624 0.804624
0.822281 0.822281 0.822281
0.844416 0.844416 0.844416
0.870914 0.870914 0.870914
0.901551 0.901551 0.901551
0.884585 0.884585 0.884585
0.886271 0.886271 0.886271
0.890542 0.890542 0.890542
0.898093 0.898093 0.898093
0.909301 0.909301 0.909301
0.924385 0.924385 0.924385
0.943435 0.943435 0.943435
0.966430 0.966430 0.966430
0.993260 0.993260 0.993260
0.153249 0.153249 0.153249
0.165534 0.165534 0.165534
0.193106 0.193106 0.193106
0.233687 0.233687 0.233687
0.282793 0.282793 0.282793
0.337110 0.337110 0.337110
0.394622 0.394622 0.394622
0.454157 0.454157 0.454157
0.536480 0.536480 0.536480
0.190329 0.190329 0.190329
0.200201 0.200201 0.200201
0.223171 0.223171 0.223171
0.258547 0.258547 0.258547
0.303073 0.303073 0.303073
0.353749 0.353749 0.353749
0.408458 0.408458 0.408458
0.465837 0.465837 0.465837
0.546899 0.546899 0.546899
0.260250 0.260250 0.260250
0.267268 0.267268 0.267268
0.284225 0.284225 0.284225
0.311809 0.311809 0.311809
0.348521 0.348521 0.348521
0.392306 0.392306 0.392306
0.441289 0.441289 0.441289
0.514603 0.514603 0.514603
0.572344 0.572344 0.572344
0.348153 0.348153 0.348153
0.353150 0.353150 0.353150
0.365497 0.365497 0.365497
0.386331 0.386331 0.386331
0.415300 0.415300 0.415300
0.451366 0.451366 0.451366
0.513813 0.513813 0.513813
0.562259 0.562259 0.562259
0.614444 0.614444 0.614444
0.444158 0.444158 0.444158
0.447871 0.447871 0.447871
0.457153 0.457153 0.457153
0.473142 0.473142 0.473142
0.516661 0.516661 0.516661
0.547217 0.547217 0.547217
0.583797 0.583797 0.583797
0.625537 0.625537 0.625537
0.671581 0.671581 0.671581
0.566758 0.566758 0.566758
0.569756 0.569756 0.569756
0.577298 0.577298 0.577298
0.590445 0.590445 0.590445
0.609549 0.609549 0.609549
0.634568 0.634568 0.634568
0.665170 0.665170 0.665170
0.700843 0.700843 0.700843
0.740992 0.740992 0.740992
0.673037 0.673037 0.673037
0.675444 0.675444 0.675444
0.681520 0.681520 0.681520
0.692184 0.692184 0.692184
0.707842 0.707842 0.707842
0.728616 0.728616 0.728616
0.754406 0.754406 0.754406
0.784943 0.784943 0.784943
0.819855 0.819855 0.819855
0.780590 0.780590 0.780590
0.782576 0.782576 0.782576
0.787600 0.787600 0.787600
0.796458 0.796458 0.796458
0.809550 0.809550 0.809550
0.827069 0.827069 0.827069
0.849042 0.849042 0.849042
0.875356 0.875356 0.875356
0.905797 0.905797 0.905797
0.888938 0.888938 0.888938
0.890613 0.890613 0.890613
0.894857 0.894857 0.894857
0.902360 0.902360 0.902360
0.913499 0.913499 0.913499
0.928494 0.928494 0.928494
0.947435 0.947435 0.947435
0.970305 0.970305 0.970305
0.996997 0.996997 0.996997
0.191126 0.191126 0.191126
0.200955 0.200955 0.200955
0.223839 0.223839 0.223839
0.259112 0.259112 0.259112
0.303541 0.303541 0.303541
0.354138 0.354138 0.354138
0.408784 0.408784 0.408784
0.466113 0.466113 0.466113
0.547147 0.547147 0.547147
0.221489 0.221489 0.221489
0.229885 0.229885 0.229885
0.249822 0.249822 0.249822
0.281412 0.281412 0.281412
0.322288 0.322288 0.322288
0.369855 0.369855 0.369855
0.422050 0.422050 0.422050
0.477427 0.477427 0.477427
0.557314 0.557314 0.557314
0.282955 0.282955 0.282955
0.289332 0.289332 0.289332
0.304859 0.304859 0.304859
0.330420 0.330420 0.330420
0.364908 0.364908 0.364908
0.406567 0.406567 0.406567
0.453671 0.453671 0.453671
0.525835 0.525835 0.525835
0.582183 0.582183 0.582183
0.364560 0.364560 0.364560
0.369288 0.369288 0.369288
0.381000 0.381000 0.381000
0.400855 0.400855 0.400855
0.428623 0.428623 0.428623
0.463412 0.463412 0.463412
0.525066 0.525066 0.525066
0.572320 0.572320 0.572320
0.623442 0.623442 0.623442
0.456443 0.456443 0.456443
0.460032 0.460032 0.460032
0.469013 0.469013 0.469013
0.504702 0.504702 0.504702
0.527837 0.527837 0.527837
0.557625 0.557625 0.557625
0.593395 0.593395 0.593395
0.634333 0.634333 0.634333
0.679618 0.679618 0.679618
0.576719 0.576719 0.576719
0.579652 0.579652 0.579652
0.587032 0.587032 0.587032
0.599907 0.599907 0.599907
0.618639 0.618639 0.618639
0.643207 0.643207 0.643207
0.673306 0.673306 0.673306
0.708453 0.708453 0.708453
0.748075 0.748075 0.748075
0.681052 0.681052 0.681052
0.683422 0.683422 0.683422
0.689407 0.689407 0.689407
0.699916 0.699916 0.699916
0.715356 0.715356 0.715356
0.735855 0.735855 0.735855
0.761327 0.761327 0.761327
0.791518 0.791518 0.791518
0.826069 0.826069 0.826069
0.787213 0.787213 0.787213
0.789177 0.789177 0.789177
0.794147 0.794147 0.794147
0.802910 0.802910 0.802910
0.815867 0.815867 0.815867
0.833213 0.833213 0.833213
0.854979 0.854979 0.854979
0.881061 0.881061 0.881061
0.911252 0.911252 0.911252
0.894529 0.894529 0.894529
0.896190 0.896190 0.896190
0.900399 0.900399 0.900399
0.907843 0.907843 0.907843
0.918894 0.918894 0.918894
0.933775 0.933775 0.933775
0.952578 0.952578 0.952578
0.975289 0.975289 0.975289
1.000000 1.000000 1.000000
0.229002 0.229002 0.229002
0.237098 0.237098 0.237098
0.256395 0.256395 0.256395
0.287150 0.287150 0.287150
0.327185 0.327185 0.327185
0.374007 0.374007 0.374007
0.425583 0.425583 0.425583
0.500478 0.500478 0.500478
0.560050 0.560050 0.560050
0.254387 0.254387 0.254387
0.261588 0.261588 0.261588
0.278948 0.278948 0.278948
0.307092 0.307092 0.307092
0.344405 0.344405 0.344405
0.388751 0.388751 0.388751
0.438221 0.438221 0.438221
0.511833 0.511833 0.511833
0.569926 0.569926 0.569926
0.308484 0.308484 0.308484
0.314252 0.314252 0.314252
0.328389 0.328389 0.328389
0.351924 0.351924 0.351924
0.384101 0.384101 0.384101
0.423475 0.423475 0.423475
0.468495 0.468495 0.468495
0.539388 0.539388 0.539388
0.594126 0.594126 0.594126
0.383774 0.383774 0.383774
0.388217 0.388217 0.388217
0.399253 0.399253 0.399253
0.418048 0.418048 0.418048
0.444498 0.444498 0.444498
0.477860 0.477860 0.477860
0.538643 0.538643 0.538643
0.584521 0.584521 0.584521
0.634401 0.634401 0.634401
0.471158 0.471158 0.471158
0.474608 0.474608 0.474608
0.503386 0.503386 0.503386
0.518955 0.518955 0.518955
0.541327 0.541327 0.541327
0.570227 0.570227 0.570227
0.605056 0.605056 0.605056
0.645054 0.645054 0.645054
0.689440 0.689440 0.689440
0.588804 0.588804 0.588804
0.591660 0.591660 0.591660
0.598851 0.598851 0.598851
0.611409 0.611409 0.611409
0.629705 0.629705 0.629705
0.653741 0.653741 0.653741
0.683246 0.683246 0.683246
0.717767 0.717767 0.717767
0.756761 0.756761 0.756761
0.690848 0.690848 0.690848
0.693174 0.693174 0.693174
0.699052 0.699052 0.699052
0.709376 0.709376 0.709376
0.724555 0.724555 0.724555
0.744727 0.744727 0.744727
0.769819 0.769819 0.769819
0.799594 0.799594 0.799594
0.833709 0.833709 0.833709
0.795346 0.795346 0.795346
0.797283 0.797283 0.797283
0.802188 0.802188 0.802188
0.810838 0.810838 0.810838
0.823631 0.823631 0.823631
0.840768 0.840768 0.840768
0.862285 0.862285 0.862285
0.888086 0.888086 0.888086
0.917974 0.917974 0.917974
0.901416 0.901416 0.901416
0.903061 0.903061 0.903061
0.907228 0.907228 0.907228
0.914598 0.914598 0.914598
0.925543 0.925543 0.925543
0.940285 0.940285 0.940285
0.958920 0.958920 0.958920
0.981438 0.981438 0.981438
1.000000 1.000000 1.000000
0.266879 0.266879 0.266879
0.273699 0.273699 0.273699
0.290217 0.290217 0.290217
0.317187 0.317187 0.317187
0.353234 0.353234 0.353234
0.396390 0.396390 0.396390
0.444822 0.444822 0.444822
0.517800 0.517800 0.517800
0.575139 0.575139 0.575139
0.288482 0.288482 0.288482
0.294718 0.294718 0.294718
0.309925 0.309925 0.309925
0.335027 0.335027 0.335027
0.368998 0.368998 0.368998
0.410152 0.410152 0.410152
0.456801 0.456801 0.456801
0.528688 0.528688 0.528688
0.584691 0.584691 0.584691
0.336281 0.336281 0.336281
0.341490 0.341490 0.341490
0.354332 0.354332 0.354332
0.375923 0.375923 0.375923
0.405805 0.405805 0.405805
0.442828 0.442828 0.442828
0.505876 0.505876 0.505876
0.555193 0.555193 0.555193
0.608146 0.608146 0.608146
0.405499 0.405499 0.405499
0.409653 0.409653 0.409653
0.419998 0.419998 0.419998
0.437699 0.437699 0.437699
0.462765 0.462765 0.462765
0.515207 0.515207 0.515207
0.554476 0.554476 0.554476
0.598829 0.598829 0.598829
0.647313 0.647313 0.647313
0.508528 0.508528 0.508528
0.511966 0.511966 0.511966
0.520587 0.520587 0.520587
0.535528 0.535528 0.535528
0.557063 0.557063 0.557063
0.584983 0.584983 0.584983
0.618760 0.618760 0.618760
0.657699 0.657699 0.657699
0.701061 0.701061 0.701061
0.602982 0.602982 0.602982
0.605753 0.605753 0.605753
0.612734 0.612734 0.612734
0.624935 0.624935 0.624935
0.642739 0.642739 0.642739
0.666173 0.666173 0.666173
0.695001 0.695001 0.695001
0.728807 0.728807 0.728807
0.767077 0.767077 0.767077
0.702439 0.702439 0.702439
0.704716 0.704716 0.704716
0.710470 0.710470 0.710470
0.720583 0.720583 0.720583
0.735462 0.735462 0.735462
0.755258 0.755258 0.755258
0.779910 0.779910 0.779910
0.809203 0.809203 0.809203
0.842812 0.842812 0.842812
0.805021 0.805021 0.805021
0.806928 0.806928 0.806928
0.811756 0.811756 0.811756
0.820275 0.820275 0.820275
0.832879 0.832879 0.832879
0.849772 0.849772 0.849772
0.870998 0.870998 0.870998
0.896471 0.896471 0.896471
0.926004 0.926004 0.926004
0.909639 0.909639 0.909639
0.911264 0.911264 0.911264
0.915382 0.915382 0.915382
0.922667 0.922667 0.922667
0.933487 0.933487 0.933487
0.948067 0.948067 0.948067
0.966504 0.966504 0.966504
0.988794 0.988794 0.988794
1.000000 1.000000 1.000000
