docs/luts/fuji_recipes/BYe_NZD_Acros.cube
TITLE "Fujifilm Recipe: NZD Acros (BYe)"
# FilmSim=BYe HL=0 SH=1 Col=0 WB=Auto WBR=0 WBB=0
LUT_3D_SIZE 5
DOMAIN_MIN 0.0 0.0 0.0
DOMAIN_MAX 1.0 1.0 1.0
0.000000 0.000000 0.000000
0.105191 0.105191 0.105191
0.234692 0.234692 0.234692
0.364193 0.364193 0.364193
0.514264 0.514264 0.514264
0.206029 0.206029 0.206029
0.236468 0.236468 0.236468
0.312527 0.312527 0.312527
0.415089 0.415089 0.415089
0.551959 0.551959 0.551959
0.418184 0.418184 0.418184
0.432159 0.432159 0.432159
0.473572 0.473572 0.473572
0.563942 0.563942 0.563942
0.655099 0.655099 0.655099
0.656603 0.656603 0.656603
0.665357 0.665357 0.665357
0.692474 0.692474 0.692474
0.740288 0.740288 0.740288
0.807220 0.807220 0.807220
0.877598 0.877598 0.877598
0.883617 0.883617 0.883617
0.902565 0.902565 0.902565
0.937023 0.937023 0.937023
0.987272 0.987272 0.987272
0.039619 0.039619 0.039619
0.122086 0.122086 0.122086
0.242408 0.242408 0.242408
0.368828 0.368828 0.368828
0.517583 0.517583 0.517583
0.214922 0.214922 0.214922
0.244120 0.244120 0.244120
0.318089 0.318089 0.318089
0.419042 0.419042 0.419042
0.554994 0.554994 0.554994
0.422100 0.422100 0.422100
0.435919 0.435919 0.435919
0.476929 0.476929 0.476929
0.566896 0.566896 0.566896
0.657539 0.657539 0.657539
0.659035 0.659035 0.659035
0.667748 0.667748 0.667748
0.694745 0.694745 0.694745
0.742371 0.742371 0.742371
0.809081 0.809081 0.809081
0.879265 0.879265 0.879265
0.885270 0.885270 0.885270
0.904172 0.904172 0.904172
0.938552 0.938552 0.938552
0.988700 0.988700 0.988700
0.115372 0.115372 0.115372
0.165036 0.165036 0.165036
0.265435 0.265435 0.265435
0.383233 0.383233 0.383233
0.528048 0.528048 0.528048
0.240983 0.240983 0.240983
0.266977 0.266977 0.266977
0.335186 0.335186 0.335186
0.431415 0.431415 0.431415
0.564590 0.564590 0.564590
0.434366 0.434366 0.434366
0.447716 0.447716 0.447716
0.507809 0.507809 0.507809
0.576240 0.576240 0.576240
0.665284 0.665284 0.665284
0.666758 0.666758 0.666758
0.675343 0.675343 0.675343
0.701964 0.701964 0.701964
0.749000 0.749000 0.749000
0.815010 0.815010 0.815010
0.884585 0.884585 0.884585
0.890542 0.890542 0.890542
0.909301 0.909301 0.909301
0.943435 0.943435 0.943435
0.993260 0.993260 0.993260
0.191126 0.191126 0.191126
0.223839 0.223839 0.223839
0.303541 0.303541 0.303541
0.408784 0.408784 0.408784
0.547147 0.547147 0.547147
0.282955 0.282955 0.282955
0.304859 0.304859 0.304859
0.364908 0.364908 0.364908
0.453671 0.453671 0.453671
0.582183 0.582183 0.582183
0.456443 0.456443 0.456443
0.469013 0.469013 0.469013
0.527837 0.527837 0.527837
0.593395 0.593395 0.593395
0.679618 0.679618 0.679618
0.681052 0.681052 0.681052
0.689407 0.689407 0.689407
0.715356 0.715356 0.715356
0.761327 0.761327 0.761327
0.826069 0.826069 0.826069
0.894529 0.894529 0.894529
0.900399 0.900399 0.900399
0.918894 0.918894 0.918894
0.952578 0.952578 0.952578
1.000000 1.000000 1.000000
0.266879 0.266879 0.266879
0.290217 0.290217 0.290217
0.353234 0.353234 0.353234
0.444822 0.444822 0.444822
0.575139 0.575139 0.575139
0.336281 0.336281 0.336281
0.354332 0.354332 0.354332
0.405805 0.405805 0.405805
0.505876 0.505876 0.505876
0.608146 0.608146 0.608146
0.508528 0.508528 0.508528
0.520587 0.520587 0.520587
0.557063 0.557063 0.557063
0.618760 0.618760 0.618760
0.701061 0.701061 0.701061
0.702439 0.702439 0.702439
0.710470 0.710470 0.710470
0.735462 0.735462 0.735462
0.779910 0.779910 0.779910
0.842812 0.842812 0.842812
0.909639 0.909639 0.909639
0.915382 0.915382 0.915382
0.933487 0.933487 0.933487
0.966504 0.966504 0.966504
1.000000 1.000000 1.000000
