docs/luts/fuji_recipes/Classic_RR_Kodachrome_64.cube
TITLE "Fujifilm Recipe: RR Kodachrome 64 (Classic)"
# FilmSim=Classic HL=1 SH=2 Col=0 WB=Daylight WBR=2 WBB=-5
LUT_3D_SIZE 9
DOMAIN_MIN 0.0 0.0 0.0
DOMAIN_MAX 1.0 1.0 1.0
0.000000 0.000000 0.000000
0.114436 0.014593 0.014593
0.224472 0.028625 0.028625
0.334507 0.042657 0.042657
0.484930 0.055721 0.055721
0.607092 0.069082 0.069082
0.729253 0.082444 0.082444
0.837540 0.094287 0.094287
0.837540 0.094287 0.094287
0.013818 0.108357 0.013818
0.114436 0.109132 0.014593
0.224472 0.123164 0.028625
0.334507 0.137196 0.042657
0.484930 0.150108 0.055721
0.607092 0.163455 0.069082
0.729253 0.176807 0.082444
0.837540 0.188645 0.094287
0.837540 0.188645 0.094287
0.027126 0.212714 0.027126
0.126969 0.212714 0.027126
0.224472 0.214213 0.028625
0.334507 0.228245 0.042657
0.484930 0.241011 0.055721
0.607092 0.254345 0.069082
0.729253 0.267689 0.082444
0.837540 0.279521 0.094287
0.837540 0.279521 0.094287
0.040434 0.317071 0.040434
0.140277 0.317071 0.040434
0.236280 0.317071 0.040434
0.334507 0.319295 0.042657
0.484930 0.331914 0.055721
0.607092 0.345235 0.069082
0.729253 0.358570 0.082444
0.837540 0.370396 0.094287
0.837540 0.370396 0.094287
0.054051 0.423851 0.054051
0.153894 0.423851 0.054051
0.249897 0.423851 0.054051
0.345900 0.423851 0.054051
0.484930 0.424927 0.055721
0.607092 0.478115 0.069082
0.729253 0.493711 0.082444
0.837540 0.507545 0.094287
0.837540 0.507545 0.094287
0.065586 0.575128 0.065586
0.165258 0.575128 0.065586
0.261096 0.575128 0.065586
0.356934 0.575128 0.065586
0.496426 0.575128 0.065586
0.607092 0.579203 0.069082
0.729253 0.594789 0.082444
0.837540 0.608617 0.094287
0.837540 0.608617 0.094287
0.078258 0.690986 0.078258
0.177919 0.690986 0.078258
0.273748 0.690986 0.078258
0.369576 0.690986 0.078258
0.511211 0.690986 0.078258
0.617792 0.690986 0.078258
0.729253 0.695867 0.082444
0.837540 0.709689 0.094287
0.837540 0.709689 0.094287
0.090930 0.806844 0.090930
0.190584 0.806844 0.090930
0.286405 0.806844 0.090930
0.382227 0.806844 0.090930
0.526009 0.806844 0.090930
0.632581 0.806844 0.090930
0.739154 0.806844 0.090930
0.837540 0.810761 0.094287
0.837540 0.810761 0.094287
0.093879 0.833809 0.093879
0.193532 0.833809 0.093879
0.289352 0.833809 0.093879
0.385172 0.833809 0.093879
0.529454 0.833809 0.093879
0.636025 0.833809 0.093879
0.742596 0.833809 0.093879
0.837540 0.834285 0.094287
0.837540 0.834285 0.094287
0.011940 0.011940 0.093632
0.114436 0.014593 0.096285
0.224472 0.028625 0.110317
0.334507 0.042657 0.124349
0.484930 0.055721 0.137282
0.607092 0.069082 0.150631
0.729253 0.082444 0.163985
0.837540 0.094287 0.175823
0.837540 0.094287 0.175823
0.013818 0.108357 0.095510
0.133669 0.128355 0.115484
0.245044 0.140037 0.126722
0.355846 0.153182 0.139987
0.508944 0.165280 0.152192
0.631417 0.178282 0.165242
0.753798 0.191391 0.178383
0.900295 0.166473 0.152017
0.900295 0.166473 0.152017
0.027126 0.212714 0.108818
0.144176 0.233172 0.125337
0.245044 0.234411 0.126722
0.355846 0.246701 0.139987
0.508944 0.258038 0.152192
0.631417 0.270708 0.165242
0.753798 0.283582 0.178383
0.900295 0.268932 0.152017
0.900295 0.268932 0.152017
0.040434 0.317071 0.122126
0.156522 0.338316 0.137858
0.255240 0.338316 0.137858
0.355846 0.340221 0.139987
0.508944 0.350797 0.152192
0.631417 0.363135 0.165242
0.753798 0.375774 0.178383
0.900295 0.371391 0.152017
0.900295 0.371391 0.152017
0.054051 0.423851 0.135743
0.169556 0.445573 0.150998
0.267714 0.445573 0.150998
0.365872 0.445573 0.150998
0.508944 0.445709 0.152192
0.631417 0.500260 0.165242
0.753798 0.514859 0.178383
0.900295 0.528238 0.152017
0.900295 0.528238 0.152017
0.065586 0.575128 0.147138
0.180257 0.599383 0.161816
0.277791 0.599383 0.161816
0.375325 0.599383 0.161816
0.519289 0.599383 0.161816
0.631417 0.603057 0.165242
0.753798 0.617395 0.178383
0.900295 0.642193 0.152017
0.900295 0.642193 0.152017
0.078258 0.690986 0.159801
0.192651 0.715470 0.174259
0.289928 0.715470 0.174259
0.387205 0.715470 0.174259
0.532978 0.715470 0.174259
0.641169 0.715470 0.174259
0.753798 0.719931 0.178383
0.900295 0.756148 0.152017
0.900295 0.756148 0.152017
0.090930 0.806844 0.172467
0.172328 0.866265 0.151993
0.279884 0.866265 0.151993
0.387440 0.866265 0.151993
0.551038 0.866265 0.151993
0.670662 0.866265 0.151993
0.790286 0.866265 0.151993
0.900295 0.870103 0.152017
0.900295 0.870103 0.152017
0.093879 0.833809 0.175416
0.172443 0.896145 0.152028
0.280416 0.896145 0.152028
0.388389 0.896145 0.152028
0.553187 0.896145 0.152028
0.673275 0.896145 0.152028
0.793363 0.896145 0.152028
0.900295 0.896625 0.152017
0.900295 0.896625 0.152017
0.023486 0.023486 0.184172
0.123329 0.023486 0.184172
0.224472 0.028625 0.189311
0.334507 0.042657 0.203343
0.484930 0.055721 0.216149
0.607092 0.069082 0.229487
0.729253 0.082444 0.242832
0.837540 0.094287 0.254666
0.837540 0.094287 0.254666
0.023486 0.118025 0.184172
0.143449 0.137900 0.207087
0.247913 0.142514 0.211332
0.358896 0.155597 0.223752
0.512472 0.167611 0.235173
0.635028 0.180577 0.247873
0.757470 0.193658 0.260765
0.902740 0.168519 0.242960
0.902740 0.168519 0.242960
0.027126 0.212714 0.187812
0.147705 0.237170 0.211187
0.262280 0.252002 0.227052
0.373761 0.262819 0.236820
0.529865 0.273499 0.247777
0.652919 0.285833 0.260245
0.796435 0.279840 0.252251
0.915331 0.281522 0.253486
0.915331 0.281522 0.253486
0.040434 0.317071 0.201120
0.159965 0.342575 0.222809
0.271606 0.356079 0.234843
0.373761 0.357879 0.236820
0.529865 0.367549 0.247777
0.652919 0.379392 0.260245
0.796435 0.380711 0.252251
0.915331 0.384030 0.253486
0.915331 0.384030 0.253486
0.054051 0.423851 0.214737
0.172930 0.450007 0.235378
0.281568 0.503974 0.245200
0.380868 0.503974 0.245200
0.529865 0.506697 0.247777
0.652919 0.520155 0.260245
0.796435 0.535001 0.252251
0.915331 0.543097 0.253486
0.915331 0.543097 0.253486
0.065586 0.575128 0.225996
0.183526 0.604443 0.245538
0.293128 0.620749 0.256955
0.391896 0.620749 0.256955
0.539641 0.620749 0.256955
0.652919 0.624211 0.260245
0.796435 0.647190 0.252251
0.915331 0.657106 0.253486
0.915331 0.657106 0.253486
0.078258 0.690986 0.238651
0.195879 0.720620 0.257703
0.289907 0.755097 0.251137
0.395767 0.755097 0.251137
0.556503 0.755097 0.251137
0.674241 0.755097 0.251137
0.796435 0.759380 0.252251
0.915331 0.771115 0.253486
0.915331 0.771115 0.253486
0.090930 0.806844 0.251311
0.175311 0.869718 0.243473
0.292858 0.881291 0.253472
0.400399 0.881291 0.253472
0.566108 0.881291 0.253472
0.685715 0.881291 0.253472
0.805323 0.881291 0.253472
0.915331 0.885124 0.253486
0.915331 0.885124 0.253486
0.093879 0.833809 0.254259
0.175345 0.899599 0.243779
0.293061 0.911177 0.253501
0.401077 0.911177 0.253501
0.568084 0.911177 0.253501
0.688219 0.911177 0.253501
0.808355 0.911177 0.253501
0.915331 0.911660 0.253486
0.915331 0.911660 0.253486
0.035032 0.035032 0.274712
0.134875 0.035032 0.274712
0.230878 0.035032 0.274712
0.334507 0.042657 0.282337
0.484930 0.055721 0.295015
0.607092 0.069082 0.308342
0.729253 0.082444 0.321680
0.837540 0.094287 0.333509
0.837540 0.094287 0.333509
0.035032 0.129571 0.274712
0.153910 0.148420 0.298653
0.253282 0.148420 0.298653
0.358896 0.155597 0.305143
0.512472 0.167611 0.315855
0.635028 0.180577 0.328238
0.757470 0.193658 0.340905
0.902740 0.168519 0.331858
0.902740 0.168519 0.331858
0.035032 0.220620 0.274712
0.154921 0.243793 0.299858
0.275015 0.264738 0.318932
0.379070 0.267685 0.324384
0.536136 0.278232 0.334306
0.659394 0.290497 0.346259
0.801211 0.284203 0.344100
0.920071 0.285473 0.346382
0.920071 0.285473 0.346382
0.040434 0.317071 0.280113
0.159965 0.342575 0.304402
0.278526 0.363471 0.324613
0.390890 0.375649 0.338621
0.549355 0.383363 0.344791
0.681010 0.388924 0.348659
0.811597 0.394469 0.353594
0.930370 0.396587 0.354951
0.930370 0.396587 0.354951
0.054051 0.423851 0.293730
0.172930 0.450007 0.316454
0.288309 0.512722 0.333877
0.396906 0.523305 0.342374
0.549355 0.525947 0.344791
0.681010 0.540246 0.348659
0.811597 0.550606 0.353594
0.930370 0.557901 0.354951
0.930370 0.557901 0.354951
0.065586 0.575128 0.304854
0.183526 0.604443 0.326048
0.299773 0.629788 0.345077
0.404690 0.645520 0.348689
0.560893 0.645520 0.348689
0.681010 0.650572 0.348659
0.811597 0.662605 0.353594
0.930370 0.671982 0.354951
0.930370 0.671982 0.354951
0.078258 0.690986 0.317501
0.195879 0.720620 0.337971
0.296198 0.761892 0.344487
0.409755 0.770382 0.352357
0.572230 0.770382 0.352357
0.689705 0.770382 0.352357
0.811597 0.774604 0.353594
0.930370 0.786064 0.354951
0.930370 0.786064 0.354951
0.090930 0.806844 0.330156
0.175311 0.869718 0.331970
0.298640 0.887980 0.347738
0.413379 0.896318 0.354950
0.581192 0.896318 0.354950
0.700778 0.896318 0.354950
0.820363 0.896318 0.354950
0.930370 0.900145 0.354951
0.930370 0.900145 0.354951
0.093879 0.833809 0.333102
0.175345 0.899599 0.332629
0.298666 0.917869 0.347994
0.413699 0.926213 0.354970
0.582939 0.926213 0.354970
0.703137 0.926213 0.354970
0.823336 0.926213 0.354970
0.930370 0.926697 0.354951
0.930370 0.926697 0.354951
0.046578 0.046578 0.365251
0.146421 0.046578 0.365251
0.242424 0.046578 0.365251
0.338427 0.046578 0.365251
0.484930 0.055721 0.373882
0.607092 0.069082 0.387197
0.729253 0.082444 0.400528
0.837540 0.094287 0.412352
0.837540 0.094287 0.412352
0.046578 0.141116 0.365251
0.164787 0.159331 0.389827
0.263514 0.159331 0.389827
0.362242 0.159331 0.389827
0.512472 0.167611 0.396538
0.635028 0.180577 0.408603
0.757470 0.193658 0.421045
0.902740 0.168519 0.420757
0.902740 0.168519 0.420757
0.046578 0.232166 0.365251
0.165779 0.254061 0.391085
0.281856 0.271129 0.410290
0.382242 0.271129 0.410290
0.536136 0.278232 0.416193
0.659394 0.290497 0.427694
0.801211 0.284203 0.475906
0.920071 0.285473 0.482690
0.920071 0.285473 0.482690
0.046578 0.323215 0.365251
0.165779 0.347805 0.391085
0.283847 0.368453 0.412474
0.402708 0.387467 0.429583
0.558122 0.390532 0.434579
0.688368 0.395808 0.484983
0.818705 0.400994 0.494105
0.937408 0.402421 0.499666
0.937408 0.402421 0.499666
0.054051 0.423851 0.372724
0.172930 0.450007 0.397531
0.288309 0.512722 0.415996
0.407098 0.535525 0.435292
0.569084 0.545033 0.441567
0.696424 0.556618 0.494080
0.825912 0.566191 0.502579
0.944055 0.571821 0.506752
0.944055 0.571821 0.506752
0.065586 0.575128 0.383711
0.183526 0.604443 0.406559
0.299773 0.629788 0.426723
0.413396 0.657756 0.442449
0.577947 0.662956 0.491443
0.696424 0.666193 0.494080
0.825912 0.677645 0.502579
0.944055 0.685831 0.506752
0.944055 0.685831 0.506752
0.078258 0.690986 0.396351
0.195879 0.720620 0.418239
0.296198 0.761892 0.431511
0.419165 0.780517 0.494623
0.588002 0.785027 0.500240
0.704809 0.785027 0.500240
0.825912 0.789099 0.502579
0.944055 0.799840 0.506752
0.944055 0.799840 0.506752
0.090930 0.806844 0.409000
0.175311 0.869718 0.420467
0.298640 0.887980 0.482961
0.466973 0.905114 0.500872
0.595679 0.910106 0.506029
0.714999 0.910106 0.506029
0.834319 0.910106 0.506029
0.944055 0.913849 0.506752
0.944055 0.913849 0.506752
0.093879 0.833809 0.411944
0.175345 0.899599 0.421480
0.298666 0.917869 0.484420
0.467623 0.934923 0.501727
0.596922 0.939905 0.506688
0.717019 0.939905 0.506688
0.837116 0.939905 0.506688
0.944055 0.940384 0.506752
0.944055 0.940384 0.506752
0.057087 0.057087 0.497419
0.156768 0.057087 0.497419
0.252615 0.057087 0.497419
0.348462 0.057087 0.497419
0.486521 0.057087 0.497419
0.607092 0.069082 0.511400
0.729253 0.082444 0.526993
0.837540 0.094287 0.540825
0.837540 0.094287 0.540825
0.057087 0.151472 0.497419
0.174345 0.168930 0.525008
0.272354 0.168930 0.525008
0.370363 0.168930 0.525008
0.513864 0.168930 0.525008
0.635028 0.180577 0.537504
0.757470 0.193658 0.551896
0.902740 0.168519 0.568182
0.902740 0.168519 0.568182
0.057087 0.242373 0.497419
0.175308 0.262932 0.526453
0.290096 0.279469 0.548754
0.389552 0.279469 0.548754
0.537446 0.279469 0.548754
0.659394 0.290497 0.560573
0.801211 0.284203 0.576827
0.920071 0.285473 0.585317
0.920071 0.285473 0.585317
0.057087 0.333275 0.497419
0.175308 0.355977 0.526453
0.292042 0.375853 0.551311
0.407611 0.391683 0.570826
0.559396 0.391683 0.570826
0.688368 0.395808 0.584109
0.818705 0.400994 0.594808
0.937408 0.402421 0.602378
0.937408 0.402421 0.602378
0.057087 0.426286 0.497419
0.175308 0.492378 0.526453
0.292042 0.516721 0.551311
0.410549 0.539428 0.574395
0.582393 0.559922 0.593329
0.706832 0.567628 0.603553
0.835699 0.576749 0.613338
0.953552 0.581211 0.618762
0.953552 0.581211 0.618762
0.065586 0.575128 0.507323
0.183526 0.604443 0.535217
0.299773 0.629788 0.559587
0.413396 0.657756 0.584190
0.593238 0.677697 0.604932
0.712934 0.682923 0.609961
0.841385 0.693873 0.619498
0.959032 0.700676 0.624168
0.959032 0.700676 0.624168
0.078258 0.690986 0.522107
0.195879 0.720620 0.548704
0.296198 0.761892 0.575507
0.419165 0.780517 0.594714
0.602900 0.798903 0.614779
0.721079 0.800812 0.616847
0.841385 0.804760 0.619498
0.959032 0.814743 0.624168
0.959032 0.814743 0.624168
0.090930 0.806844 0.536903
0.175311 0.869718 0.566729
0.298640 0.887980 0.585047
0.466973 0.905114 0.602762
0.609350 0.923321 0.621530
0.730346 0.925120 0.623407
0.849463 0.925120 0.623407
0.959032 0.928810 0.624168
0.959032 0.928810 0.624168
0.093879 0.833809 0.540348
0.175345 0.899599 0.568890
0.298666 0.917869 0.586986
0.467623 0.934923 0.604233
0.610044 0.953086 0.622323
0.731948 0.954879 0.624106
0.852069 0.954879 0.624106
0.959032 0.955359 0.624168
0.959032 0.955359 0.624168
0.068081 0.068081 0.597936
0.167750 0.068081 0.597936
0.263586 0.068081 0.597936
0.359422 0.068081 0.597936
0.499336 0.068081 0.597936
0.607092 0.069082 0.599103
0.729253 0.082444 0.614688
0.837540 0.094287 0.628514
0.837540 0.094287 0.628514
0.068081 0.162455 0.597936
0.184999 0.179601 0.625848
0.282693 0.179601 0.625848
0.380387 0.179601 0.625848
0.525335 0.179601 0.625848
0.635028 0.180577 0.626887
0.757470 0.193658 0.641027
0.902740 0.168519 0.667055
0.902740 0.168519 0.667055
0.068081 0.253345 0.597936
0.185950 0.273283 0.627322
0.300145 0.289566 0.650168
0.399150 0.289566 0.650168
0.548307 0.289566 0.650168
0.659394 0.290497 0.651145
0.801211 0.284203 0.674114
0.920071 0.285473 0.684248
0.920071 0.285473 0.684248
0.068081 0.344236 0.597936
0.185950 0.366019 0.627322
0.302069 0.385493 0.652794
0.411843 0.395315 0.678705
0.571383 0.395315 0.678705
0.688368 0.395808 0.679664
0.818705 0.400994 0.691884
0.937408 0.402421 0.701391
0.937408 0.402421 0.701391
0.068081 0.437237 0.597936
0.185950 0.503877 0.627322
0.302069 0.527645 0.652794
0.414701 0.550165 0.681754
0.590977 0.566839 0.697279
0.706832 0.567628 0.698210
0.835699 0.576749 0.709748
0.953552 0.581211 0.717704
0.953552 0.581211 0.717704
0.068081 0.578035 0.597936
0.185950 0.607018 0.627322
0.302069 0.632209 0.652794
0.414701 0.660110 0.681754
0.595302 0.679983 0.701395
0.725895 0.697904 0.717878
0.853106 0.706443 0.728146
0.970195 0.711670 0.734140
0.970195 0.711670 0.734140
0.078258 0.690986 0.609804
0.195879 0.720620 0.637978
0.296198 0.761892 0.672295
0.419165 0.780517 0.691199
0.602900 0.798903 0.710392
0.737448 0.816457 0.728826
0.856595 0.820261 0.731912
0.973472 0.829048 0.737351
0.973472 0.829048 0.737351
0.090930 0.806844 0.624594
0.175311 0.869718 0.665155
0.298640 0.887980 0.683455
0.466973 0.905114 0.700981
0.609350 0.923321 0.719567
0.745427 0.939625 0.736526
0.864191 0.939625 0.736526
0.973472 0.943222 0.737351
0.973472 0.943222 0.737351
0.093879 0.833809 0.628038
0.175345 0.899599 0.667710
0.298666 0.917869 0.685858
0.467623 0.934923 0.703047
0.610044 0.953086 0.721159
0.746301 0.969314 0.737295
0.866466 0.969314 0.737295
0.973472 0.969795 0.737351
0.973472 0.969795 0.737351
0.079075 0.079075 0.698453
0.178736 0.079075 0.698453
0.274563 0.079075 0.698453
0.370391 0.079075 0.698453
0.512165 0.079075 0.698453
0.618745 0.079075 0.698453
0.729253 0.082444 0.702382
0.837540 0.094287 0.716203
0.837540 0.094287 0.716203
0.079075 0.173441 0.698453
0.195737 0.190352 0.726608
0.293194 0.190352 0.726608
0.390652 0.190352 0.726608
0.537151 0.190352 0.726608
0.645543 0.190352 0.726608
0.757470 0.193658 0.730159
0.902740 0.168519 0.765928
0.902740 0.168519 0.765928
0.079075 0.264324 0.698453
0.196678 0.283792 0.728105
0.294615 0.283301 0.767945
0.400503 0.283301 0.767945
0.562099 0.283301 0.767945
0.679868 0.283301 0.767945
0.801211 0.284203 0.771401
0.920071 0.285473 0.783180
0.920071 0.285473 0.783180
0.079075 0.355207 0.698453
0.196678 0.376295 0.728105
0.296450 0.385536 0.769925
0.416702 0.399970 0.785561
0.580274 0.399970 0.785561
0.697723 0.399970 0.785561
0.818705 0.400994 0.788959
0.937408 0.402421 0.800403
0.937408 0.402421 0.800403
0.079075 0.489778 0.698453
0.196678 0.515710 0.728105
0.296450 0.539403 0.769925
0.419452 0.558682 0.788514
0.599223 0.574745 0.802912
0.715758 0.574745 0.802912
0.835699 0.576749 0.806158
0.953552 0.581211 0.816646
0.953552 0.581211 0.816646
0.079075 0.590858 0.698453
0.196678 0.618592 0.728105
0.296450 0.651066 0.769925
0.419452 0.670010 0.788514
0.603437 0.689343 0.806800
0.734300 0.704081 0.820678
0.853106 0.706443 0.823797
0.970195 0.711670 0.833168
0.970195 0.711670 0.833168
0.079075 0.691938 0.698453
0.196678 0.721474 0.728105
0.296450 0.762728 0.769925
0.419452 0.781338 0.788514
0.603437 0.799688 0.806800
0.739633 0.818673 0.825708
0.871249 0.835400 0.842396
0.986847 0.842119 0.849493
0.986847 0.842119 0.849493
0.090930 0.806844 0.712285
0.175311 0.869718 0.763582
0.298640 0.887980 0.781863
0.466973 0.905114 0.799201
0.609350 0.923321 0.817604
0.746826 0.940949 0.835613
0.879295 0.954219 0.849554
0.987921 0.957598 0.850526
0.987921 0.957598 0.850526
0.093879 0.833809 0.715727
0.175345 0.899599 0.766529
0.298666 0.917869 0.784729
0.467623 0.934923 0.801861
0.610044 0.953086 0.819994
0.747604 0.970629 0.837478
0.880807 0.983751 0.850482
0.987921 0.984236 0.850526
0.987921 0.984236 0.850526
0.081634 0.081634 0.721848
0.181293 0.081634 0.721848
0.277119 0.081634 0.721848
0.372945 0.081634 0.721848
0.515152 0.081634 0.721848
0.621730 0.081634 0.721848
0.729253 0.082444 0.722793
0.837540 0.094287 0.736613
0.837540 0.094287 0.736613
0.081634 0.175998 0.721848
0.198245 0.192863 0.750051
0.295655 0.192863 0.750051
0.393066 0.192863 0.750051
0.539938 0.192863 0.750051
0.648278 0.192863 0.750051
0.757470 0.193658 0.750904
0.902740 0.168519 0.788941
0.902740 0.168519 0.788941
0.081634 0.266880 0.721848
0.199184 0.286254 0.751553
0.295352 0.284004 0.793195
0.401556 0.284004 0.793195
0.564115 0.284004 0.793195
0.682235 0.284004 0.793195
0.801211 0.284203 0.794044
0.920071 0.285473 0.806205
0.920071 0.285473 0.806205
0.081634 0.357761 0.721848
0.199184 0.378711 0.751553
0.297163 0.386518 0.795166
0.417558 0.400769 0.810716
0.582165 0.400769 0.810716
0.700012 0.400769 0.810716
0.818705 0.400994 0.811553
0.937408 0.402421 0.823448
0.937408 0.402421 0.823448
0.081634 0.492765 0.721848
0.199184 0.518500 0.751553
0.297163 0.541332 0.795166
0.420270 0.560463 0.813650
0.600868 0.576290 0.827794
0.717877 0.576290 0.827794
0.835699 0.576749 0.828597
0.953552 0.581211 0.839674
0.953552 0.581211 0.839674
0.081634 0.593844 0.721848
0.199184 0.621330 0.751553
0.297163 0.653332 0.795166
0.420270 0.672177 0.813650
0.605033 0.691301 0.831630
0.736265 0.705899 0.845286
0.853106 0.706443 0.846060
0.970195 0.711670 0.856217
0.970195 0.711670 0.856217
0.081634 0.694923 0.721848
0.199184 0.724161 0.751553
0.297163 0.765331 0.795166
0.420270 0.783892 0.813650
0.605033 0.802113 0.831630
0.741552 0.820992 0.850216
0.871249 0.835400 0.864313
0.986847 0.842119 0.872597
0.986847 0.842119 0.872597
0.090930 0.806844 0.732694
0.175311 0.869718 0.786490
0.298640 0.887980 0.804767
0.466973 0.905114 0.822061
0.609350 0.923321 0.840422
0.746826 0.940949 0.858348
0.882955 0.957651 0.875827
0.991288 0.960928 0.876862
0.991288 0.960928 0.876862
0.093879 0.833809 0.736136
0.175345 0.899599 0.789529
0.298666 0.917869 0.807741
0.467623 0.934923 0.824859
0.610044 0.953086 0.842998
0.747604 0.970629 0.860492
0.884119 0.987112 0.876825
0.991288 0.987598 0.876862
0.991288 0.987598 0.876862
