docs/luts/fuji_recipes/Classic_RR_Classic_Chrome.cube
TITLE "Fujifilm Recipe: RR Classic Chrome (Classic)"
# FilmSim=Classic HL=-1 SH=1 Col=2 WB=Auto WBR=1 WBB=-1
LUT_3D_SIZE 5
DOMAIN_MIN 0.0 0.0 0.0
DOMAIN_MAX 1.0 1.0 1.0
0.000000 0.000000 0.000000
0.306486 0.001107 0.001107
0.624595 0.000000 0.000000
0.909962 0.000738 0.000738
0.960296 0.001091 0.001091
0.001075 0.297543 0.001075
0.306486 0.297575 0.001107
0.624595 0.295280 0.000000
0.909962 0.297206 0.000738
0.960296 0.297559 0.001091
0.000000 0.607779 0.000000
0.304005 0.607779 0.000000
0.624595 0.608015 0.000000
0.909962 0.610084 0.000738
0.960296 0.610240 0.001091
0.000564 0.885175 0.000564
0.305942 0.885175 0.000564
0.626654 0.885175 0.000564
0.909962 0.885252 0.000738
0.960296 0.885408 0.001091
0.001063 0.956268 0.001063
0.306441 0.956268 0.001063
0.626874 0.956268 0.001063
0.910105 0.956268 0.001063
0.960296 0.956281 0.001091
0.001038 0.001038 0.287201
0.306486 0.001107 0.287270
0.624595 0.000000 0.285017
0.909962 0.000738 0.286901
0.960296 0.001091 0.287254
0.001075 0.297543 0.287238
0.307523 0.298613 0.288308
0.625932 0.296395 0.286090
0.910043 0.298389 0.288084
0.960378 0.298743 0.288438
0.000000 0.607779 0.284876
0.305189 0.609234 0.285973
0.625932 0.609285 0.286090
0.910043 0.610165 0.288084
0.960378 0.610321 0.288438
0.000564 0.885175 0.286727
0.307126 0.885256 0.287910
0.626735 0.885256 0.287910
0.910043 0.885333 0.288084
0.960378 0.885489 0.288438
0.001063 0.956268 0.287226
0.307625 0.956349 0.288409
0.626955 0.956349 0.288409
0.910186 0.956349 0.288409
0.960378 0.956362 0.288438
0.000000 0.000000 0.588507
0.303822 0.000000 0.588507
0.624595 0.000000 0.589013
0.909962 0.000738 0.591005
0.960296 0.001091 0.591161
0.000000 0.294957 0.588507
0.305097 0.296187 0.590099
0.625935 0.296438 0.590210
0.910046 0.298432 0.591089
0.960380 0.298785 0.591245
0.000000 0.607779 0.588787
0.305268 0.609239 0.590161
0.622763 0.606116 0.587037
0.907021 0.607143 0.588064
0.957381 0.607325 0.588246
0.000564 0.885175 0.590928
0.307205 0.885262 0.591015
0.623700 0.882221 0.587975
0.907021 0.882311 0.588064
0.957381 0.882493 0.588246
0.001063 0.956268 0.591149
0.307704 0.956355 0.591235
0.623957 0.953351 0.588232
0.907188 0.953351 0.588232
0.957381 0.953366 0.588246
0.000365 0.000365 0.856858
0.305744 0.000365 0.856858
0.626566 0.000365 0.856858
0.909962 0.000738 0.857022
0.960296 0.001091 0.857178
0.000365 0.296833 0.856858
0.306970 0.298059 0.856942
0.626650 0.298059 0.856942
0.910046 0.298432 0.857106
0.960380 0.298785 0.857262
0.000365 0.609919 0.856858
0.307007 0.610006 0.856945
0.623667 0.607020 0.853959
0.907090 0.607212 0.854151
0.957451 0.607394 0.854333
0.000564 0.885175 0.856946
0.307205 0.885262 0.857032
0.623830 0.882351 0.854121
0.907985 0.883276 0.855046
0.958346 0.883458 0.855228
0.001063 0.956268 0.857166
0.307704 0.956355 0.857252
0.624087 0.953481 0.854378
0.908153 0.954316 0.855213
0.958346 0.954330 0.855228
0.000848 0.000848 0.925587
0.306226 0.000848 0.925587
0.626779 0.000848 0.925587
0.910010 0.000848 0.925587
0.960296 0.001091 0.925694
0.000848 0.297315 0.925587
0.307452 0.298542 0.925671
0.626863 0.298542 0.925671
0.910094 0.298542 0.925671
0.960380 0.298785 0.925778
0.000848 0.610132 0.925587
0.307489 0.610219 0.925673
0.623915 0.607268 0.922723
0.907146 0.607268 0.922723
0.957451 0.607394 0.922849
0.000848 0.885300 0.925587
0.307489 0.885387 0.925673
0.623976 0.882497 0.922783
0.908144 0.883434 0.923721
0.958448 0.883560 0.923846
0.001063 0.956268 0.925682
0.307704 0.956355 0.925768
0.624087 0.953481 0.922894
0.908345 0.954508 0.923921
0.958595 0.954579 0.923992
