docs/luts/fuji_recipes/Classic_PS_Kodak_Portra_160.cube
TITLE "Fujifilm Recipe: PS Kodak Portra 160 (Classic)"
# FilmSim=Classic HL=-2 SH=0 Col=2 WB=FLight1 WBR=-1 WBB=-1
LUT_3D_SIZE 33
DOMAIN_MIN 0.0 0.0 0.0
DOMAIN_MAX 1.0 1.0 1.0
0.000000 0.000000 0.000000
0.049091 0.000177 0.000177
0.086942 0.000314 0.000314
0.124162 0.000449 0.000449
0.161382 0.000583 0.000583
0.198602 0.000718 0.000718
0.235822 0.000852 0.000852
0.273042 0.000987 0.000987
0.310262 0.001121 0.001121
0.347482 0.001255 0.001255
0.384702 0.001390 0.001390
0.421921 0.001524 0.001524
0.459141 0.001659 0.001659
0.500312 0.001808 0.001808
0.536932 0.001940 0.001940
0.573551 0.002072 0.002072
0.605965 0.002846 0.002846
0.638083 0.003665 0.003665
0.670201 0.004484 0.004484
0.702319 0.005303 0.005303
0.734437 0.006122 0.006122
0.766555 0.006941 0.006941
0.798673 0.007760 0.007760
0.830791 0.008579 0.008579
0.847859 0.009014 0.009014
0.847859 0.009014 0.009014
0.847859 0.009014 0.009014
0.847859 0.009014 0.009014
0.847859 0.009014 0.009014
0.847859 0.009014 0.009014
0.847859 0.009014 0.009014
0.847859 0.009014 0.009014
0.847859 0.009014 0.009014
0.000211 0.058262 0.000211
0.049124 0.058262 0.000211
0.086942 0.058365 0.000314
0.124162 0.058500 0.000449
0.161382 0.058634 0.000583
0.198602 0.058769 0.000718
0.235822 0.058903 0.000852
0.273042 0.059038 0.000987
0.310262 0.059172 0.001121
0.347482 0.059307 0.001255
0.384702 0.059441 0.001390
0.421921 0.059576 0.001524
0.459141 0.059710 0.001659
0.500312 0.059859 0.001808
0.536932 0.059991 0.001940
0.573551 0.060124 0.002072
0.605965 0.060898 0.002846
0.638083 0.061717 0.003665
0.670201 0.062535 0.004484
0.702319 0.063354 0.005303
0.734437 0.064173 0.006122
0.766555 0.064992 0.006941
0.798673 0.065811 0.007760
0.830791 0.066630 0.008579
0.847859 0.067066 0.009014
0.847859 0.067066 0.009014
0.847859 0.067066 0.009014
0.847859 0.067066 0.009014
0.847859 0.067066 0.009014
0.847859 0.067066 0.009014
0.847859 0.067066 0.009014
0.847859 0.067066 0.009014
0.847859 0.067066 0.009014
0.000361 0.100017 0.000361
0.049275 0.100017 0.000361
0.086990 0.100017 0.000361
0.124162 0.100105 0.000449
0.161382 0.100239 0.000583
0.198602 0.100374 0.000718
0.235822 0.100508 0.000852
0.273042 0.100643 0.000987
0.310262 0.100777 0.001121
0.347482 0.100911 0.001255
0.384702 0.101046 0.001390
0.421921 0.101180 0.001524
0.459141 0.101315 0.001659
0.500312 0.101464 0.001808
0.536932 0.101596 0.001940
0.573551 0.101728 0.002072
0.605965 0.102502 0.002846
0.638083 0.103321 0.003665
0.670201 0.104140 0.004484
0.702319 0.104959 0.005303
0.734437 0.105778 0.006122
0.766555 0.106597 0.006941
0.798673 0.107416 0.007760
0.830791 0.108235 0.008579
0.847859 0.108670 0.009014
0.847859 0.108670 0.009014
0.847859 0.108670 0.009014
0.847859 0.108670 0.009014
0.847859 0.108670 0.009014
0.847859 0.108670 0.009014
0.847859 0.108670 0.009014
0.847859 0.108670 0.009014
0.847859 0.108670 0.009014
0.000510 0.141076 0.000510
0.049423 0.141076 0.000510
0.087138 0.141076 0.000510
0.124223 0.141076 0.000510
0.161382 0.141150 0.000583
0.198602 0.141284 0.000718
0.235822 0.141418 0.000852
0.273042 0.141553 0.000987
0.310262 0.141687 0.001121
0.347482 0.141822 0.001255
0.384702 0.141956 0.001390
0.421921 0.142091 0.001524
0.459141 0.142225 0.001659
0.500312 0.142374 0.001808
0.536932 0.142506 0.001940
0.573551 0.142639 0.002072
0.605965 0.143413 0.002846
0.638083 0.144232 0.003665
0.670201 0.145051 0.004484
0.702319 0.145870 0.005303
0.734437 0.146689 0.006122
0.766555 0.147508 0.006941
0.798673 0.148326 0.007760
0.830791 0.149145 0.008579
0.847859 0.149581 0.009014
0.847859 0.149581 0.009014
0.847859 0.149581 0.009014
0.847859 0.149581 0.009014
0.847859 0.149581 0.009014
0.847859 0.149581 0.009014
0.847859 0.149581 0.009014
0.847859 0.149581 0.009014
0.847859 0.149581 0.009014
0.000658 0.182135 0.000658
0.049572 0.182135 0.000658
0.087286 0.182135 0.000658
0.124372 0.182135 0.000658
0.161457 0.182135 0.000658
0.198602 0.182194 0.000718
0.235822 0.182329 0.000852
0.273042 0.182463 0.000987
0.310262 0.182598 0.001121
0.347482 0.182732 0.001255
0.384702 0.182867 0.001390
0.421921 0.183001 0.001524
0.459141 0.183136 0.001659
0.500312 0.183284 0.001808
0.536932 0.183417 0.001940
0.573551 0.183549 0.002072
0.605965 0.184323 0.002846
0.638083 0.185142 0.003665
0.670201 0.185961 0.004484
0.702319 0.186780 0.005303
0.734437 0.187599 0.006122
0.766555 0.188418 0.006941
0.798673 0.189237 0.007760
0.830791 0.190056 0.008579
0.847859 0.190491 0.009014
0.847859 0.190491 0.009014
0.847859 0.190491 0.009014
0.847859 0.190491 0.009014
0.847859 0.190491 0.009014
0.847859 0.190491 0.009014
0.847859 0.190491 0.009014
0.847859 0.190491 0.009014
0.847859 0.190491 0.009014
0.000806 0.223194 0.000806
0.049720 0.223194 0.000806
0.087435 0.223194 0.000806
0.124520 0.223194 0.000806
0.161605 0.223194 0.000806
0.198691 0.223194 0.000806
0.235822 0.223239 0.000852
0.273042 0.223374 0.000987
0.310262 0.223508 0.001121
0.347482 0.223643 0.001255
0.384702 0.223777 0.001390
0.421921 0.223912 0.001524
0.459141 0.224046 0.001659
0.500312 0.224195 0.001808
0.536932 0.224327 0.001940
0.573551 0.224460 0.002072
0.605965 0.225233 0.002846
0.638083 0.226052 0.003665
0.670201 0.226871 0.004484
0.702319 0.227690 0.005303
0.734437 0.228509 0.006122
0.766555 0.229328 0.006941
0.798673 0.230147 0.007760
0.830791 0.230966 0.008579
0.847859 0.231402 0.009014
0.847859 0.231402 0.009014
0.847859 0.231402 0.009014
0.847859 0.231402 0.009014
0.847859 0.231402 0.009014
0.847859 0.231402 0.009014
0.847859 0.231402 0.009014
0.847859 0.231402 0.009014
0.847859 0.231402 0.009014
0.000955 0.264252 0.000955
0.049868 0.264252 0.000955
0.087583 0.264252 0.000955
0.124668 0.264252 0.000955
0.161754 0.264252 0.000955
0.198839 0.264252 0.000955
0.235925 0.264252 0.000955
0.273042 0.264284 0.000987
0.310262 0.264419 0.001121
0.347482 0.264553 0.001255
0.384702 0.264688 0.001390
0.421921 0.264822 0.001524
0.459141 0.264957 0.001659
0.500312 0.265105 0.001808
0.536932 0.265238 0.001940
0.573551 0.265370 0.002072
0.605965 0.266144 0.002846
0.638083 0.266963 0.003665
0.670201 0.267782 0.004484
0.702319 0.268601 0.005303
0.734437 0.269420 0.006122
0.766555 0.270239 0.006941
0.798673 0.271058 0.007760
0.830791 0.271877 0.008579
0.847859 0.272312 0.009014
0.847859 0.272312 0.009014
0.847859 0.272312 0.009014
0.847859 0.272312 0.009014
0.847859 0.272312 0.009014
0.847859 0.272312 0.009014
0.847859 0.272312 0.009014
0.847859 0.272312 0.009014
0.847859 0.272312 0.009014
0.001103 0.305311 0.001103
0.050017 0.305311 0.001103
0.087731 0.305311 0.001103
0.124817 0.305311 0.001103
0.161902 0.305311 0.001103
0.198988 0.305311 0.001103
0.236073 0.305311 0.001103
0.273158 0.305311 0.001103
0.310262 0.305329 0.001121
0.347482 0.305464 0.001255
0.384702 0.305598 0.001390
0.421921 0.305733 0.001524
0.459141 0.305867 0.001659
0.500312 0.306016 0.001808
0.536932 0.306148 0.001940
0.573551 0.306280 0.002072
0.605965 0.307054 0.002846
0.638083 0.307873 0.003665
0.670201 0.308692 0.004484
0.702319 0.309511 0.005303
0.734437 0.310330 0.006122
0.766555 0.311149 0.006941
0.798673 0.311968 0.007760
0.830791 0.312787 0.008579
0.847859 0.313222 0.009014
0.847859 0.313222 0.009014
0.847859 0.313222 0.009014
0.847859 0.313222 0.009014
0.847859 0.313222 0.009014
0.847859 0.313222 0.009014
0.847859 0.313222 0.009014
0.847859 0.313222 0.009014
0.847859 0.313222 0.009014
0.001251 0.346370 0.001251
0.050165 0.346370 0.001251
0.087880 0.346370 0.001251
0.124965 0.346370 0.001251
0.162050 0.346370 0.001251
0.199136 0.346370 0.001251
0.236221 0.346370 0.001251
0.273307 0.346370 0.001251
0.310392 0.346370 0.001251
0.347482 0.346374 0.001255
0.384702 0.346508 0.001390
0.421921 0.346643 0.001524
0.459141 0.346777 0.001659
0.500312 0.346926 0.001808
0.536932 0.347058 0.001940
0.573551 0.347191 0.002072
0.605965 0.347965 0.002846
0.638083 0.348784 0.003665
0.670201 0.349603 0.004484
0.702319 0.350422 0.005303
0.734437 0.351241 0.006122
0.766555 0.352060 0.006941
0.798673 0.352879 0.007760
0.830791 0.353698 0.008579
0.847859 0.354133 0.009014
0.847859 0.354133 0.009014
0.847859 0.354133 0.009014
0.847859 0.354133 0.009014
0.847859 0.354133 0.009014
0.847859 0.354133 0.009014
0.847859 0.354133 0.009014
0.847859 0.354133 0.009014
0.847859 0.354133 0.009014
0.001400 0.387429 0.001400
0.050313 0.387429 0.001400
0.088028 0.387429 0.001400
0.125113 0.387429 0.001400
0.162199 0.387429 0.001400
0.199284 0.387429 0.001400
0.236370 0.387429 0.001400
0.273455 0.387429 0.001400
0.310541 0.387429 0.001400
0.347626 0.387429 0.001400
0.384711 0.387429 0.001400
0.421921 0.387553 0.001524
0.459141 0.387688 0.001659
0.500312 0.387837 0.001808
0.536932 0.387969 0.001940
0.573551 0.388101 0.002072
0.605965 0.388875 0.002846
0.638083 0.389694 0.003665
0.670201 0.390513 0.004484
0.702319 0.391332 0.005303
0.734437 0.392151 0.006122
0.766555 0.392970 0.006941
0.798673 0.393789 0.007760
0.830791 0.394608 0.008579
0.847859 0.395043 0.009014
0.847859 0.395043 0.009014
0.847859 0.395043 0.009014
0.847859 0.395043 0.009014
0.847859 0.395043 0.009014
0.847859 0.395043 0.009014
0.847859 0.395043 0.009014
0.847859 0.395043 0.009014
0.847859 0.395043 0.009014
0.001548 0.428488 0.001548
0.050462 0.428488 0.001548
0.088176 0.428488 0.001548
0.125262 0.428488 0.001548
0.162347 0.428488 0.001548
0.199433 0.428488 0.001548
0.236518 0.428488 0.001548
0.273603 0.428488 0.001548
0.310689 0.428488 0.001548
0.347774 0.428488 0.001548
0.384860 0.428488 0.001548
0.421945 0.428488 0.001548
0.459141 0.428598 0.001659
0.500312 0.428747 0.001808
0.536932 0.428879 0.001940
0.573551 0.429012 0.002072
0.605965 0.429786 0.002846
0.638083 0.430605 0.003665
0.670201 0.431424 0.004484
0.702319 0.432243 0.005303
0.734437 0.433061 0.006122
0.766555 0.433880 0.006941
0.798673 0.434699 0.007760
0.830791 0.435518 0.008579
0.847859 0.435954 0.009014
0.847859 0.435954 0.009014
0.847859 0.435954 0.009014
0.847859 0.435954 0.009014
0.847859 0.435954 0.009014
0.847859 0.435954 0.009014
0.847859 0.435954 0.009014
0.847859 0.435954 0.009014
0.847859 0.435954 0.009014
0.001696 0.469546 0.001696
0.050610 0.469546 0.001696
0.088325 0.469546 0.001696
0.125410 0.469546 0.001696
0.162496 0.469546 0.001696
0.199581 0.469546 0.001696
0.236666 0.469546 0.001696
0.273752 0.469546 0.001696
0.310837 0.469546 0.001696
0.347923 0.469546 0.001696
0.385008 0.469546 0.001696
0.422094 0.469546 0.001696
0.459179 0.469546 0.001696
0.500312 0.469657 0.001808
0.536932 0.469790 0.001940
0.573551 0.469922 0.002072
0.605965 0.470696 0.002846
0.638083 0.471515 0.003665
0.670201 0.472334 0.004484
0.702319 0.473153 0.005303
0.734437 0.473972 0.006122
0.766555 0.474791 0.006941
0.798673 0.475610 0.007760
0.830791 0.476429 0.008579
0.847859 0.476864 0.009014
0.847859 0.476864 0.009014
0.847859 0.476864 0.009014
0.847859 0.476864 0.009014
0.847859 0.476864 0.009014
0.847859 0.476864 0.009014
0.847859 0.476864 0.009014
0.847859 0.476864 0.009014
0.847859 0.476864 0.009014
0.001858 0.514326 0.001858
0.050772 0.514326 0.001858
0.088486 0.514326 0.001858
0.125572 0.514326 0.001858
0.162657 0.514326 0.001858
0.199743 0.514326 0.001858
0.236828 0.514326 0.001858
0.273914 0.514326 0.001858
0.310999 0.514326 0.001858
0.348084 0.514326 0.001858
0.385170 0.514326 0.001858
0.422255 0.514326 0.001858
0.459341 0.514326 0.001858
0.500363 0.514326 0.001858
0.536932 0.514408 0.001940
0.573551 0.514540 0.002072
0.605965 0.515314 0.002846
0.638083 0.516133 0.003665
0.670201 0.516952 0.004484
0.702319 0.517771 0.005303
0.734437 0.518590 0.006122
0.766555 0.519409 0.006941
0.798673 0.520228 0.007760
0.830791 0.521047 0.008579
0.847859 0.521482 0.009014
0.847859 0.521482 0.009014
0.847859 0.521482 0.009014
0.847859 0.521482 0.009014
0.847859 0.521482 0.009014
0.847859 0.521482 0.009014
0.847859 0.521482 0.009014
0.847859 0.521482 0.009014
0.847859 0.521482 0.009014
0.002004 0.554723 0.002004
0.050918 0.554723 0.002004
0.088632 0.554723 0.002004
0.125718 0.554723 0.002004
0.162803 0.554723 0.002004
0.199889 0.554723 0.002004
0.236974 0.554723 0.002004
0.274060 0.554723 0.002004
0.311145 0.554723 0.002004
0.348230 0.554723 0.002004
0.385316 0.554723 0.002004
0.422401 0.554723 0.002004
0.459487 0.554723 0.002004
0.500509 0.554723 0.002004
0.536996 0.554723 0.002004
0.573551 0.554791 0.002072
0.605965 0.555565 0.002846
0.638083 0.556384 0.003665
0.670201 0.557203 0.004484
0.702319 0.557374 0.005303
0.734437 0.557384 0.006122
0.766555 0.557393 0.006941
0.798673 0.557402 0.007760
0.830791 0.557412 0.008579
0.847859 0.557416 0.009014
0.847859 0.557416 0.009014
0.847859 0.557416 0.009014
0.847859 0.557416 0.009014
0.847859 0.557416 0.009014
0.847859 0.557416 0.009014
0.847859 0.557416 0.009014
0.847859 0.557416 0.009014
0.847859 0.557416 0.009014
0.002510 0.592763 0.002510
0.051423 0.592763 0.002510
0.089138 0.592763 0.002510
0.126223 0.592763 0.002510
0.163309 0.592763 0.002510
0.200394 0.592763 0.002510
0.237479 0.592763 0.002510
0.274565 0.592763 0.002510
0.311650 0.592763 0.002510
0.348736 0.592763 0.002510
0.385821 0.592763 0.002510
0.422907 0.592763 0.002510
0.459992 0.592763 0.002510
0.501014 0.592763 0.002510
0.537501 0.592763 0.002510
0.573852 0.592763 0.002510
0.605965 0.592767 0.002846
0.638083 0.592776 0.003665
0.670201 0.592786 0.004484
0.702319 0.592795 0.005303
0.734437 0.592804 0.006122
0.766555 0.592814 0.006941
0.798673 0.592823 0.007760
0.830791 0.592832 0.008579
0.847859 0.592837 0.009014
0.847859 0.592837 0.009014
0.847859 0.592837 0.009014
0.847859 0.592837 0.009014
0.847859 0.592837 0.009014
0.847859 0.592837 0.009014
0.847859 0.592837 0.009014
0.847859 0.592837 0.009014
0.847859 0.592837 0.009014
0.003413 0.628194 0.003413
0.052326 0.628194 0.003413
0.090041 0.628194 0.003413
0.127127 0.628194 0.003413
0.164212 0.628194 0.003413
0.201297 0.628194 0.003413
0.238383 0.628194 0.003413
0.275468 0.628194 0.003413
0.312554 0.628194 0.003413
0.349639 0.628194 0.003413
0.386725 0.628194 0.003413
0.423810 0.628194 0.003413
0.460895 0.628194 0.003413
0.501918 0.628194 0.003413
0.538405 0.628194 0.003413
0.573862 0.628194 0.003413
0.605971 0.628194 0.003413
0.638083 0.628197 0.003665
0.670201 0.628206 0.004484
0.702319 0.628215 0.005303
0.734437 0.628225 0.006122
0.766555 0.628234 0.006941
0.798673 0.628243 0.007760
0.830791 0.628253 0.008579
0.847859 0.628257 0.009014
0.847859 0.628257 0.009014
0.847859 0.628257 0.009014
0.847859 0.628257 0.009014
0.847859 0.628257 0.009014
0.847859 0.628257 0.009014
0.847859 0.628257 0.009014
0.847859 0.628257 0.009014
0.847859 0.628257 0.009014
0.004316 0.663625 0.004316
0.053230 0.663625 0.004316
0.090945 0.663625 0.004316
0.128030 0.663625 0.004316
0.165116 0.663625 0.004316
0.202201 0.663625 0.004316
0.239286 0.663625 0.004316
0.276372 0.663625 0.004316
0.313457 0.663625 0.004316
0.350543 0.663625 0.004316
0.387628 0.663625 0.004316
0.424713 0.663625 0.004316
0.461799 0.663625 0.004316
0.502821 0.663625 0.004316
0.539308 0.663625 0.004316
0.573873 0.663625 0.004316
0.605981 0.663625 0.004316
0.638090 0.663625 0.004316
0.670201 0.663627 0.004484
0.702319 0.663636 0.005303
0.734437 0.663645 0.006122
0.766555 0.663655 0.006941
0.798673 0.663664 0.007760
0.830791 0.663673 0.008579
0.847859 0.663678 0.009014
0.847859 0.663678 0.009014
0.847859 0.663678 0.009014
0.847859 0.663678 0.009014
0.847859 0.663678 0.009014
0.847859 0.663678 0.009014
0.847859 0.663678 0.009014
0.847859 0.663678 0.009014
0.847859 0.663678 0.009014
0.005220 0.699056 0.005220
0.054133 0.699056 0.005220
0.091848 0.699056 0.005220
0.128934 0.699056 0.005220
0.166019 0.699056 0.005220
0.203104 0.699056 0.005220
0.240190 0.699056 0.005220
0.277275 0.699056 0.005220
0.314361 0.699056 0.005220
0.351446 0.699056 0.005220
0.388532 0.699056 0.005220
0.425617 0.699056 0.005220
0.462702 0.699056 0.005220
0.503724 0.699056 0.005220
0.540212 0.699056 0.005220
0.573883 0.699056 0.005220
0.605992 0.699056 0.005220
0.638100 0.699056 0.005220
0.670209 0.699056 0.005220
0.702319 0.699057 0.005303
0.734437 0.699066 0.006122
0.766555 0.699075 0.006941
0.798673 0.699084 0.007760
0.830791 0.699094 0.008579
0.847859 0.699098 0.009014
0.847859 0.699098 0.009014
0.847859 0.699098 0.009014
0.847859 0.699098 0.009014
0.847859 0.699098 0.009014
0.847859 0.699098 0.009014
0.847859 0.699098 0.009014
0.847859 0.699098 0.009014
0.847859 0.699098 0.009014
0.006123 0.734486 0.006123
0.055037 0.734486 0.006123
0.092752 0.734486 0.006123
0.129837 0.734486 0.006123
0.166922 0.734486 0.006123
0.204008 0.734486 0.006123
0.241093 0.734486 0.006123
0.278179 0.734486 0.006123
0.315264 0.734486 0.006123
0.352350 0.734486 0.006123
0.389435 0.734486 0.006123
0.426520 0.734486 0.006123
0.463606 0.734486 0.006123
0.504628 0.734486 0.006123
0.541115 0.734486 0.006123
0.573893 0.734486 0.006123
0.606002 0.734486 0.006123
0.638111 0.734486 0.006123
0.670219 0.734486 0.006123
0.702328 0.734486 0.006123
0.734437 0.734486 0.006123
0.766555 0.734496 0.006941
0.798673 0.734505 0.007760
0.830791 0.734514 0.008579
0.847859 0.734519 0.009014
0.847859 0.734519 0.009014
0.847859 0.734519 0.009014
0.847859 0.734519 0.009014
0.847859 0.734519 0.009014
0.847859 0.734519 0.009014
0.847859 0.734519 0.009014
0.847859 0.734519 0.009014
0.847859 0.734519 0.009014
0.007027 0.769917 0.007027
0.055940 0.769917 0.007027
0.093655 0.769917 0.007027
0.130740 0.769917 0.007027
0.167826 0.769917 0.007027
0.204911 0.769917 0.007027
0.241997 0.769917 0.007027
0.279082 0.769917 0.007027
0.316168 0.769917 0.007027
0.353253 0.769917 0.007027
0.390338 0.769917 0.007027
0.427424 0.769917 0.007027
0.464509 0.769917 0.007027
0.505531 0.769917 0.007027
0.541794 0.769917 0.007027
0.573903 0.769917 0.007027
0.606012 0.769917 0.007027
0.638121 0.769917 0.007027
0.670230 0.769917 0.007027
0.702338 0.769917 0.007027
0.734447 0.769917 0.007027
0.766556 0.769917 0.007027
0.798673 0.769925 0.007760
0.830791 0.769935 0.008579
0.847859 0.769939 0.009014
0.847859 0.769939 0.009014
0.847859 0.769939 0.009014
0.847859 0.769939 0.009014
0.847859 0.769939 0.009014
0.847859 0.769939 0.009014
0.847859 0.769939 0.009014
0.847859 0.769939 0.009014
0.847859 0.769939 0.009014
0.007930 0.805348 0.007930
0.056844 0.805348 0.007930
0.094558 0.805348 0.007930
0.131644 0.805348 0.007930
0.168729 0.805348 0.007930
0.205815 0.805348 0.007930
0.242900 0.805348 0.007930
0.279986 0.805348 0.007930
0.317071 0.805348 0.007930
0.354156 0.805348 0.007930
0.391242 0.805348 0.007930
0.428327 0.805348 0.007930
0.465413 0.805348 0.007930
0.506435 0.805348 0.007930
0.541805 0.805348 0.007930
0.573913 0.805348 0.007930
0.606022 0.805348 0.007930
0.638131 0.805348 0.007930
0.670240 0.805348 0.007930
0.702349 0.805348 0.007930
0.734457 0.805348 0.007930
0.766566 0.805348 0.007930
0.798675 0.805348 0.007930
0.830791 0.805355 0.008579
0.847859 0.805360 0.009014
0.847859 0.805360 0.009014
0.847859 0.805360 0.009014
0.847859 0.805360 0.009014
0.847859 0.805360 0.009014
0.847859 0.805360 0.009014
0.847859 0.805360 0.009014
0.847859 0.805360 0.009014
0.847859 0.805360 0.009014
0.008834 0.840778 0.008834
0.057747 0.840778 0.008834
0.095462 0.840778 0.008834
0.132547 0.840778 0.008834
0.169633 0.840778 0.008834
0.206718 0.840778 0.008834
0.243804 0.840778 0.008834
0.280889 0.840778 0.008834
0.317974 0.840778 0.008834
0.355060 0.840778 0.008834
0.392145 0.840778 0.008834
0.429231 0.840778 0.008834
0.466316 0.840778 0.008834
0.507338 0.840778 0.008834
0.541815 0.840778 0.008834
0.573924 0.840778 0.008834
0.606032 0.840778 0.008834
0.638141 0.840778 0.008834
0.670250 0.840778 0.008834
0.702359 0.840778 0.008834
0.734468 0.840778 0.008834
0.766576 0.840778 0.008834
0.798685 0.840778 0.008834
0.830794 0.840778 0.008834
0.847859 0.840780 0.009014
0.847859 0.840780 0.009014
0.847859 0.840780 0.009014
0.847859 0.840780 0.009014
0.847859 0.840780 0.009014
0.847859 0.840780 0.009014
0.847859 0.840780 0.009014
0.847859 0.840780 0.009014
0.847859 0.840780 0.009014
0.009737 0.876209 0.009737
0.058651 0.876209 0.009737
0.096365 0.876209 0.009737
0.133451 0.876209 0.009737
0.170536 0.876209 0.009737
0.207622 0.876209 0.009737
0.244707 0.876209 0.009737
0.281792 0.876209 0.009737
0.318878 0.876209 0.009737
0.355963 0.876209 0.009737
0.393049 0.876209 0.009737
0.430134 0.876209 0.009737
0.467220 0.876209 0.009737
0.508242 0.876209 0.009737
0.541825 0.876209 0.009737
0.573934 0.876209 0.009737
0.606043 0.876209 0.009737
0.638151 0.876209 0.009737
0.670260 0.876209 0.009737
0.702369 0.876209 0.009737
0.734478 0.876209 0.009737
0.766587 0.876209 0.009737
0.798695 0.876209 0.009737
0.830804 0.876209 0.009737
0.847868 0.876209 0.009737
0.847868 0.876209 0.009737
0.847868 0.876209 0.009737
0.847868 0.876209 0.009737
0.847868 0.876209 0.009737
0.847868 0.876209 0.009737
0.847868 0.876209 0.009737
0.847868 0.876209 0.009737
0.847868 0.876209 0.009737
0.010641 0.911640 0.010641
0.059554 0.911640 0.010641
0.097269 0.911640 0.010641
0.134354 0.911640 0.010641
0.171440 0.911640 0.010641
0.208525 0.911640 0.010641
0.245611 0.911640 0.010641
0.282696 0.911640 0.010641
0.319781 0.911640 0.010641
0.356867 0.911640 0.010641
0.393952 0.911640 0.010641
0.431038 0.911640 0.010641
0.468123 0.911640 0.010641
0.509145 0.911640 0.010641
0.541835 0.911640 0.010641
0.573944 0.911640 0.010641
0.606053 0.911640 0.010641
0.638162 0.911640 0.010641
0.670271 0.911640 0.010641
0.702379 0.911640 0.010641
0.734488 0.911640 0.010641
0.766597 0.911640 0.010641
0.798706 0.911640 0.010641
0.830815 0.911640 0.010641
0.847878 0.911640 0.010641
0.847878 0.911640 0.010641
0.847878 0.911640 0.010641
0.847878 0.911640 0.010641
0.847878 0.911640 0.010641
0.847878 0.911640 0.010641
0.847878 0.911640 0.010641
0.847878 0.911640 0.010641
0.847878 0.911640 0.010641
0.011121 0.930469 0.011121
0.060034 0.930469 0.011121
0.097749 0.930469 0.011121
0.134834 0.930469 0.011121
0.171920 0.930469 0.011121
0.209005 0.930469 0.011121
0.246091 0.930469 0.011121
0.283176 0.930469 0.011121
0.320261 0.930469 0.011121
0.357347 0.930469 0.011121
0.394432 0.930469 0.011121
0.431518 0.930469 0.011121
0.468603 0.930469 0.011121
0.509625 0.930469 0.011121
0.541841 0.930469 0.011121
0.573950 0.930469 0.011121
0.606058 0.930469 0.011121
0.638167 0.930469 0.011121
0.670276 0.930469 0.011121
0.702385 0.930469 0.011121
0.734494 0.930469 0.011121
0.766602 0.930469 0.011121
0.798711 0.930469 0.011121
0.830820 0.930469 0.011121
0.847883 0.930469 0.011121
0.847883 0.930469 0.011121
0.847883 0.930469 0.011121
0.847883 0.930469 0.011121
0.847883 0.930469 0.011121
0.847883 0.930469 0.011121
0.847883 0.930469 0.011121
0.847883 0.930469 0.011121
0.847883 0.930469 0.011121
0.011121 0.930469 0.011121
0.060034 0.930469 0.011121
0.097749 0.930469 0.011121
0.134834 0.930469 0.011121
0.171920 0.930469 0.011121
0.209005 0.930469 0.011121
0.246091 0.930469 0.011121
0.283176 0.930469 0.011121
0.320261 0.930469 0.011121
0.357347 0.930469 0.011121
0.394432 0.930469 0.011121
0.431518 0.930469 0.011121
0.468603 0.930469 0.011121
0.509625 0.930469 0.011121
0.541841 0.930469 0.011121
0.573950 0.930469 0.011121
0.606058 0.930469 0.011121
0.638167 0.930469 0.011121
0.670276 0.930469 0.011121
0.702385 0.930469 0.011121
0.734494 0.930469 0.011121
0.766602 0.930469 0.011121
0.798711 0.930469 0.011121
0.830820 0.930469 0.011121
0.847883 0.930469 0.011121
0.847883 0.930469 0.011121
0.847883 0.930469 0.011121
0.847883 0.930469 0.011121
0.847883 0.930469 0.011121
0.847883 0.930469 0.011121
0.847883 0.930469 0.011121
0.847883 0.930469 0.011121
0.847883 0.930469 0.011121
0.011121 0.930469 0.011121
0.060034 0.930469 0.011121
0.097749 0.930469 0.011121
0.134834 0.930469 0.011121
0.171920 0.930469 0.011121
0.209005 0.930469 0.011121
0.246091 0.930469 0.011121
0.283176 0.930469 0.011121
0.320261 0.930469 0.011121
0.357347 0.930469 0.011121
0.394432 0.930469 0.011121
0.431518 0.930469 0.011121
0.468603 0.930469 0.011121
0.509625 0.930469 0.011121
0.541841 0.930469 0.011121
0.573950 0.930469 0.011121
0.606058 0.930469 0.011121
0.638167 0.930469 0.011121
0.670276 0.930469 0.011121
0.702385 0.930469 0.011121
0.734494 0.930469 0.011121
0.766602 0.930469 0.011121
0.798711 0.930469 0.011121
0.830820 0.930469 0.011121
