docs/luts/fuji_recipes/Classic_RR_Kodak_Porta_400.cube
TITLE "Fujifilm Recipe: RR Kodak Porta 400 (Classic)"
# FilmSim=Classic HL=-1 SH=2 Col=-2 WB=Auto WBR=2 WBB=-5
LUT_3D_SIZE 5
DOMAIN_MIN 0.0 0.0 0.0
DOMAIN_MAX 1.0 1.0 1.0
0.000000 0.000000 0.000000
0.247541 0.089892 0.089892
0.517198 0.182826 0.182826
0.705429 0.250624 0.250624
0.705429 0.250624 0.250624
0.085198 0.234614 0.085198
0.247541 0.239308 0.089892
0.517198 0.332242 0.182826
0.705429 0.400040 0.250624
0.705429 0.400040 0.250624
0.173769 0.492053 0.173769
0.331417 0.492053 0.173769
0.517198 0.501173 0.182826
0.705429 0.569442 0.250624
0.705429 0.569442 0.250624
0.249556 0.702464 0.249556
0.407204 0.702464 0.249556
0.584392 0.702464 0.249556
0.705429 0.703539 0.250624
0.705429 0.703539 0.250624
0.249556 0.702464 0.249556
0.407204 0.702464 0.249556
0.584392 0.702464 0.249556
0.705429 0.703539 0.250624
0.705429 0.703539 0.250624
0.073797 0.073797 0.203218
0.247541 0.089892 0.219313
0.517198 0.182826 0.312247
0.705429 0.250624 0.380045
0.705429 0.250624 0.380045
0.085198 0.234614 0.214619
0.321337 0.313105 0.293110
0.591662 0.406185 0.386190
0.779892 0.473983 0.453988
0.779892 0.473983 0.453988
0.173769 0.492053 0.303190
0.405361 0.566516 0.377133
0.591662 0.575636 0.386190
0.779892 0.643906 0.453988
0.779892 0.643906 0.453988
0.249556 0.702464 0.378977
0.481147 0.776927 0.452920
0.658856 0.776927 0.452920
0.779892 0.778002 0.453988
0.779892 0.778002 0.453988
0.249556 0.702464 0.378977
0.481147 0.776927 0.452920
0.658856 0.776927 0.452920
0.779892 0.778002 0.453988
0.779892 0.778002 0.453988
0.151750 0.151750 0.430920
0.309399 0.151750 0.430920
0.517198 0.182826 0.462212
0.705429 0.250624 0.530482
0.705429 0.250624 0.530482
0.151750 0.301166 0.430920
0.394765 0.386533 0.516888
0.603166 0.417609 0.548180
0.791396 0.485406 0.616450
0.791396 0.485406 0.616450
0.173769 0.492053 0.453092
0.421488 0.582757 0.543797
0.670601 0.654576 0.615615
0.858964 0.722978 0.684018
0.858964 0.722978 0.684018
0.249556 0.702464 0.529407
0.497274 0.793168 0.620111
0.737926 0.855997 0.682940
0.858964 0.857075 0.684018
0.858964 0.857075 0.684018
0.249556 0.702464 0.529407
0.497274 0.793168 0.620111
0.737926 0.855997 0.682940
0.858964 0.857075 0.684018
0.858964 0.857075 0.684018
0.217502 0.217502 0.613471
0.375150 0.217502 0.613471
0.552115 0.217502 0.613471
0.705429 0.250624 0.646823
0.705429 0.250624 0.646823
0.217502 0.366918 0.613471
0.460517 0.452285 0.699438
0.638083 0.452285 0.699438
0.791396 0.485406 0.732791
0.791396 0.485406 0.732791
0.217502 0.536090 0.613471
0.465221 0.626794 0.704175
0.727802 0.711776 0.789157
0.881180 0.745193 0.822574
0.881180 0.745193 0.822574
0.249556 0.702464 0.645748
0.497274 0.793168 0.736452
0.769279 0.887350 0.830634
0.925303 0.923413 0.866697
0.925303 0.923413 0.866697
0.249556 0.702464 0.645748
0.497274 0.793168 0.736452
0.769279 0.887350 0.830634
0.925303 0.923413 0.866697
0.925303 0.923413 0.866697
0.217502 0.217502 0.613471
0.375150 0.217502 0.613471
0.552115 0.217502 0.613471
0.705429 0.250624 0.646823
0.705429 0.250624 0.646823
0.217502 0.366918 0.613471
0.460517 0.452285 0.699438
0.638083 0.452285 0.699438
0.791396 0.485406 0.732791
0.791396 0.485406 0.732791
0.217502 0.536090 0.613471
0.465221 0.626794 0.704175
0.727802 0.711776 0.789157
0.881180 0.745193 0.822574
0.881180 0.745193 0.822574
0.249556 0.702464 0.645748
0.497274 0.793168 0.736452
0.769279 0.887350 0.830634
0.925303 0.923413 0.866697
0.925303 0.923413 0.866697
0.249556 0.702464 0.645748
0.497274 0.793168 0.736452
0.769279 0.887350 0.830634
0.925303 0.923413 0.866697
0.925303 0.923413 0.866697
