docs/luts/fuji_recipes/ClassicNEGA_PLR_Classic_Nrg.cube
TITLE "Fujifilm Recipe: PLR Classic Nrg (ClassicNEGA)"
# FilmSim=ClassicNEGA HL=-2 SH=-2 Col=0 WB=Auto WBR=0 WBB=0
LUT_3D_SIZE 33
DOMAIN_MIN 0.0 0.0 0.0
DOMAIN_MAX 1.0 1.0 1.0
0.094720 0.094720 0.094720
0.118150 0.099863 0.099863
0.141478 0.104984 0.104984
0.164772 0.110097 0.110097
0.188066 0.115211 0.115211
0.211361 0.120324 0.120324
0.234655 0.125437 0.125437
0.257949 0.130551 0.130551
0.281243 0.135664 0.135664
0.304537 0.140777 0.140777
0.327831 0.145891 0.145891
0.351126 0.151004 0.151004
0.374420 0.156118 0.156118
0.397714 0.161231 0.161231
0.421008 0.166344 0.166344
0.444302 0.171458 0.171458
0.461526 0.175238 0.175238
0.484347 0.180248 0.180248
0.507168 0.185257 0.185257
0.529989 0.190267 0.190267
0.512252 0.195276 0.195276
0.534081 0.200286 0.200286
0.555909 0.205295 0.205295
0.577738 0.210304 0.210304
0.599566 0.215314 0.215314
0.621395 0.220323 0.220323
0.643223 0.225333 0.225333
0.665052 0.230342 0.230342
0.686881 0.235352 0.235352
0.708709 0.240361 0.240361
0.730538 0.245370 0.245370
0.752366 0.250380 0.250380
0.771146 0.254690 0.254690
0.099812 0.117918 0.099812
0.118150 0.117969 0.099863
0.141478 0.123090 0.104984
0.164772 0.128203 0.110097
0.188066 0.133316 0.115211
0.211361 0.138430 0.120324
0.234655 0.143543 0.125437
0.257949 0.148656 0.130551
0.281243 0.153770 0.135664
0.304537 0.158883 0.140777
0.327831 0.163996 0.145891
0.351126 0.169110 0.151004
0.374420 0.174223 0.156118
0.397714 0.179336 0.161231
0.421008 0.184450 0.166344
0.444302 0.189563 0.171458
0.461526 0.193344 0.175238
0.484347 0.198354 0.180248
0.507168 0.203363 0.185257
0.529989 0.208372 0.190267
0.512252 0.213382 0.195276
0.534081 0.218391 0.200286
0.555909 0.223401 0.205295
0.577738 0.228410 0.210304
0.599566 0.233420 0.215314
0.621395 0.238429 0.220323
0.643223 0.243438 0.225333
0.665052 0.248448 0.230342
0.686881 0.253457 0.235352
0.708709 0.258467 0.240361
0.730538 0.263476 0.245370
0.752366 0.268485 0.250380
0.771146 0.272795 0.254690
0.104904 0.141116 0.104904
0.123191 0.141116 0.104904
0.141478 0.141195 0.104984
0.164772 0.146309 0.110097
0.188066 0.151422 0.115211
0.211361 0.156535 0.120324
0.234655 0.161649 0.125437
0.257949 0.166762 0.130551
0.281243 0.171875 0.135664
0.304537 0.176989 0.140777
0.327831 0.182102 0.145891
0.351126 0.187215 0.151004
0.374420 0.192329 0.156118
0.397714 0.197442 0.161231
0.421008 0.202555 0.166344
0.444302 0.207669 0.171458
0.461526 0.211450 0.175238
0.484347 0.216459 0.180248
0.507168 0.221469 0.185257
0.529989 0.226478 0.190267
0.512252 0.231487 0.195276
0.534081 0.236497 0.200286
0.555909 0.241506 0.205295
0.577738 0.246516 0.210304
0.599566 0.251525 0.215314
0.621395 0.256535 0.220323
0.643223 0.261544 0.225333
0.665052 0.266553 0.230342
0.686881 0.271563 0.235352
0.708709 0.276572 0.240361
0.730538 0.281582 0.245370
0.752366 0.286591 0.250380
0.771146 0.290901 0.254690
0.109997 0.164313 0.109997
0.128283 0.164313 0.109997
0.146491 0.164313 0.109997
0.164772 0.164414 0.110097
0.188066 0.169527 0.115211
0.211361 0.174641 0.120324
0.234655 0.179754 0.125437
0.257949 0.184868 0.130551
0.281243 0.189981 0.135664
0.304537 0.195094 0.140777
0.327831 0.200208 0.145891
0.351126 0.205321 0.151004
0.374420 0.210434 0.156118
0.397714 0.215548 0.161231
0.421008 0.220661 0.166344
0.444302 0.225774 0.171458
0.461526 0.229555 0.175238
0.484347 0.234565 0.180248
0.507168 0.239574 0.185257
0.529989 0.244584 0.190267
0.512252 0.249593 0.195276
0.534081 0.254602 0.200286
0.555909 0.259612 0.205295
0.577738 0.264621 0.210304
0.599566 0.269631 0.215314
0.621395 0.274640 0.220323
0.643223 0.279650 0.225333
0.665052 0.284659 0.230342
0.686881 0.289668 0.235352
0.708709 0.294678 0.240361
0.730538 0.299687 0.245370
0.752366 0.304697 0.250380
0.771146 0.309006 0.254690
0.115089 0.187511 0.115089
0.133375 0.187511 0.115089
0.151583 0.187511 0.115089
0.169764 0.187511 0.115089
0.188066 0.187633 0.115211
0.211361 0.192746 0.120324
0.234655 0.197860 0.125437
0.257949 0.202973 0.130551
0.281243 0.208086 0.135664
0.304537 0.213200 0.140777
0.327831 0.218313 0.145891
0.351126 0.223427 0.151004
0.374420 0.228540 0.156118
0.397714 0.233653 0.161231
0.421008 0.238767 0.166344
0.444302 0.243880 0.171458
0.461526 0.247661 0.175238
0.484347 0.252670 0.180248
0.507168 0.257680 0.185257
0.529989 0.262689 0.190267
0.512252 0.267699 0.195276
0.534081 0.272708 0.200286
0.555909 0.277717 0.205295
0.577738 0.282727 0.210304
0.599566 0.287736 0.215314
0.621395 0.292746 0.220323
0.643223 0.297755 0.225333
0.665052 0.302765 0.230342
0.686881 0.307774 0.235352
0.708709 0.312783 0.240361
0.730538 0.317793 0.245370
0.752366 0.322802 0.250380
0.771146 0.327112 0.254690
0.120181 0.210709 0.120181
0.138468 0.210709 0.120181
0.156675 0.210709 0.120181
0.174856 0.210709 0.120181
0.193037 0.210709 0.120181
0.211361 0.210852 0.120324
0.234655 0.215965 0.125437
0.257949 0.221079 0.130551
0.281243 0.226192 0.135664
0.304537 0.231305 0.140777
0.327831 0.236419 0.145891
0.351126 0.241532 0.151004
0.374420 0.246646 0.156118
0.397714 0.251759 0.161231
0.421008 0.256872 0.166344
0.444302 0.261986 0.171458
0.461526 0.265766 0.175238
0.484347 0.270776 0.180248
0.507168 0.275785 0.185257
0.529989 0.280795 0.190267
0.512252 0.285804 0.195276
0.534081 0.290814 0.200286
0.555909 0.295823 0.205295
0.577738 0.300832 0.210304
0.599566 0.305842 0.215314
0.621395 0.310851 0.220323
0.643223 0.315861 0.225333
0.665052 0.320870 0.230342
0.686881 0.325880 0.235352
0.708709 0.330889 0.240361
0.730538 0.335898 0.245370
0.752366 0.340908 0.250380
0.771146 0.345218 0.254690
0.125273 0.233907 0.125273
0.143560 0.233907 0.125273
0.161767 0.233907 0.125273
0.179948 0.233907 0.125273
0.198129 0.233907 0.125273
0.216310 0.233907 0.125273
0.234655 0.234071 0.125437
0.257949 0.239184 0.130551
0.281243 0.244298 0.135664
0.304537 0.249411 0.140777
0.327831 0.254524 0.145891
0.351126 0.259638 0.151004
0.374420 0.264751 0.156118
0.397714 0.269864 0.161231
0.421008 0.274978 0.166344
0.444302 0.280091 0.171458
0.461526 0.283872 0.175238
0.484347 0.288882 0.180248
0.507168 0.293891 0.185257
0.529989 0.298900 0.190267
0.512252 0.303910 0.195276
0.534081 0.308919 0.200286
0.555909 0.313929 0.205295
0.577738 0.318938 0.210304
0.599566 0.323948 0.215314
0.621395 0.328957 0.220323
0.643223 0.333966 0.225333
0.665052 0.338976 0.230342
0.686881 0.343985 0.235352
0.708709 0.348995 0.240361
0.730538 0.354004 0.245370
0.752366 0.359013 0.250380
0.771146 0.363323 0.254690
0.130365 0.257105 0.130365
0.148652 0.257105 0.130365
0.166859 0.257105 0.130365
0.185040 0.257105 0.130365
0.203221 0.257105 0.130365
0.221402 0.257105 0.130365
0.239583 0.257105 0.130365
0.257949 0.257290 0.130551
0.281243 0.262403 0.135664
0.304537 0.267517 0.140777
0.327831 0.272630 0.145891
0.351126 0.277743 0.151004
0.374420 0.282857 0.156118
0.397714 0.287970 0.161231
0.421008 0.293083 0.166344
0.444302 0.298197 0.171458
0.461526 0.301978 0.175238
0.484347 0.306987 0.180248
0.507168 0.311997 0.185257
0.529989 0.317006 0.190267
0.512252 0.322015 0.195276
0.534081 0.327025 0.200286
0.555909 0.332034 0.205295
0.577738 0.337044 0.210304
0.599566 0.342053 0.215314
0.621395 0.347063 0.220323
0.643223 0.352072 0.225333
0.665052 0.357081 0.230342
0.686881 0.362091 0.235352
0.708709 0.367100 0.240361
0.730538 0.372110 0.245370
0.752366 0.377119 0.250380
0.771146 0.381429 0.254690
0.135458 0.280302 0.135458
0.153744 0.280302 0.135458
0.171952 0.280302 0.135458
0.190132 0.280302 0.135458
0.208313 0.280302 0.135458
0.226494 0.280302 0.135458
0.244675 0.280302 0.135458
0.262856 0.280302 0.135458
0.281243 0.280509 0.135664
0.304537 0.285622 0.140777
0.327831 0.290736 0.145891
0.351126 0.295849 0.151004
0.374420 0.300962 0.156118
0.397714 0.306076 0.161231
0.421008 0.311189 0.166344
0.444302 0.316302 0.171458
0.461526 0.320083 0.175238
0.484347 0.325093 0.180248
0.507168 0.330102 0.185257
0.529989 0.335112 0.190267
0.512252 0.340121 0.195276
0.534081 0.345130 0.200286
0.555909 0.350140 0.205295
0.577738 0.355149 0.210304
0.599566 0.360159 0.215314
0.621395 0.365168 0.220323
0.643223 0.370178 0.225333
0.665052 0.375187 0.230342
0.686881 0.380196 0.235352
0.708709 0.385206 0.240361
0.730538 0.390215 0.245370
0.752366 0.395225 0.250380
0.771146 0.399534 0.254690
0.140550 0.303500 0.140550
0.158836 0.303500 0.140550
0.177044 0.303500 0.140550
0.195225 0.303500 0.140550
0.213405 0.303500 0.140550
0.231586 0.303500 0.140550
0.249767 0.303500 0.140550
0.267948 0.303500 0.140550
0.286129 0.303500 0.140550
0.304537 0.303728 0.140777
0.327831 0.308841 0.145891
0.351126 0.313955 0.151004
0.374420 0.319068 0.156118
0.397714 0.324181 0.161231
0.421008 0.329295 0.166344
0.444302 0.334408 0.171458
0.461526 0.338189 0.175238
0.484347 0.343198 0.180248
0.507168 0.348208 0.185257
0.529989 0.353217 0.190267
0.512252 0.358227 0.195276
0.534081 0.363236 0.200286
0.555909 0.368245 0.205295
0.577738 0.373255 0.210304
0.599566 0.378264 0.215314
0.621395 0.383274 0.220323
0.643223 0.388283 0.225333
0.665052 0.393293 0.230342
0.686881 0.398302 0.235352
0.708709 0.403311 0.240361
0.730538 0.408321 0.245370
0.752366 0.413330 0.250380
0.771146 0.417640 0.254690
0.145642 0.326698 0.145642
0.163929 0.326698 0.145642
0.182136 0.326698 0.145642
0.200317 0.326698 0.145642
0.218498 0.326698 0.145642
0.236678 0.326698 0.145642
0.254859 0.326698 0.145642
0.273040 0.326698 0.145642
0.291221 0.326698 0.145642
0.309402 0.326698 0.145642
0.327831 0.326947 0.145891
0.351126 0.332060 0.151004
0.374420 0.337174 0.156118
0.397714 0.342287 0.161231
0.421008 0.347400 0.166344
0.444302 0.352514 0.171458
0.461526 0.356294 0.175238
0.484347 0.361304 0.180248
0.507168 0.366313 0.185257
0.529989 0.371323 0.190267
0.512252 0.376332 0.195276
0.534081 0.381342 0.200286
0.555909 0.386351 0.205295
0.577738 0.391360 0.210304
0.599566 0.396370 0.215314
0.621395 0.401379 0.220323
0.643223 0.406389 0.225333
0.665052 0.411398 0.230342
0.686881 0.416408 0.235352
0.708709 0.421417 0.240361
0.730538 0.426426 0.245370
0.752366 0.431436 0.250380
0.771146 0.435746 0.254690
0.150734 0.349896 0.150734
0.169021 0.349896 0.150734
0.187228 0.349896 0.150734
0.205409 0.349896 0.150734
0.223590 0.349896 0.150734
0.241771 0.349896 0.150734
0.259952 0.349896 0.150734
0.278132 0.349896 0.150734
0.296313 0.349896 0.150734
0.314494 0.349896 0.150734
0.332675 0.349896 0.150734
0.351126 0.350166 0.151004
0.374420 0.355279 0.156118
0.397714 0.360392 0.161231
0.421008 0.365506 0.166344
0.444302 0.370619 0.171458
0.461526 0.374400 0.175238
0.484347 0.379410 0.180248
0.507168 0.384419 0.185257
0.529989 0.389428 0.190267
0.512252 0.394438 0.195276
0.534081 0.399447 0.200286
0.555909 0.404457 0.205295
0.577738 0.409466 0.210304
0.599566 0.414476 0.215314
0.621395 0.419485 0.220323
0.643223 0.424494 0.225333
0.665052 0.429504 0.230342
0.686881 0.434513 0.235352
0.708709 0.439523 0.240361
0.730538 0.444532 0.245370
0.752366 0.449541 0.250380
0.771146 0.453851 0.254690
0.155826 0.373094 0.155826
0.174113 0.373094 0.155826
0.192320 0.373094 0.155826
0.210501 0.373094 0.155826
0.228682 0.373094 0.155826
0.246863 0.373094 0.155826
0.265044 0.373094 0.155826
0.283225 0.373094 0.155826
0.301405 0.373094 0.155826
0.319586 0.373094 0.155826
0.337767 0.373094 0.155826
0.355948 0.373094 0.155826
0.374420 0.373385 0.156118
0.397714 0.378498 0.161231
0.421008 0.383611 0.166344
0.444302 0.388725 0.171458
0.461526 0.392506 0.175238
0.484347 0.397515 0.180248
0.507168 0.402525 0.185257
0.529989 0.407534 0.190267
0.512252 0.412543 0.195276
0.534081 0.417553 0.200286
0.555909 0.422562 0.205295
0.577738 0.427572 0.210304
0.599566 0.432581 0.215314
0.621395 0.437591 0.220323
0.643223 0.442600 0.225333
0.665052 0.447609 0.230342
0.686881 0.452619 0.235352
0.708709 0.457628 0.240361
0.730538 0.462638 0.245370
0.752366 0.467647 0.250380
0.771146 0.471957 0.254690
0.160919 0.396291 0.160919
0.179205 0.396291 0.160919
0.197413 0.396291 0.160919
0.215593 0.396291 0.160919
0.233774 0.396291 0.160919
0.251955 0.396291 0.160919
0.270136 0.396291 0.160919
0.288317 0.396291 0.160919
0.306498 0.396291 0.160919
0.324678 0.396291 0.160919
0.342859 0.396291 0.160919
0.361040 0.396291 0.160919
0.379221 0.396291 0.160919
0.397714 0.396604 0.161231
0.421008 0.401717 0.166344
0.444302 0.406830 0.171458
0.461526 0.410611 0.175238
0.484347 0.415621 0.180248
0.507168 0.420630 0.185257
0.529989 0.425640 0.190267
0.512252 0.430649 0.195276
0.534081 0.435658 0.200286
0.555909 0.440668 0.205295
0.577738 0.445677 0.210304
0.599566 0.450687 0.215314
0.621395 0.455696 0.220323
0.643223 0.460706 0.225333
0.665052 0.465715 0.230342
0.686881 0.470724 0.235352
0.708709 0.475734 0.240361
0.730538 0.480743 0.245370
0.752366 0.485753 0.250380
0.771146 0.490062 0.254690
0.166011 0.419489 0.166011
0.184297 0.419489 0.166011
0.202505 0.419489 0.166011
0.220686 0.419489 0.166011
0.238866 0.419489 0.166011
0.257047 0.419489 0.166011
0.275228 0.419489 0.166011
0.293409 0.419489 0.166011
0.311590 0.419489 0.166011
0.329771 0.419489 0.166011
0.347951 0.419489 0.166011
0.366132 0.419489 0.166011
0.384313 0.419489 0.166011
0.402494 0.419489 0.166011
0.421008 0.419823 0.166344
0.444302 0.424936 0.171458
0.461526 0.428717 0.175238
0.484347 0.433726 0.180248
0.507168 0.438736 0.185257
0.529989 0.443745 0.190267
0.512252 0.448755 0.195276
0.534081 0.453764 0.200286
0.555909 0.458773 0.205295
0.577738 0.463783 0.210304
0.599566 0.468792 0.215314
0.621395 0.473802 0.220323
0.643223 0.478811 0.225333
0.665052 0.483821 0.230342
0.686881 0.488830 0.235352
0.708709 0.493839 0.240361
0.730538 0.498849 0.245370
0.752366 0.503858 0.250380
0.771146 0.508168 0.254690
0.171103 0.442687 0.171103
0.189390 0.442687 0.171103
0.207597 0.442687 0.171103
0.225778 0.442687 0.171103
0.243959 0.442687 0.171103
0.262139 0.442687 0.171103
0.280320 0.442687 0.171103
0.298501 0.442687 0.171103
0.316682 0.442687 0.171103
0.334863 0.442687 0.171103
0.353044 0.442687 0.171103
0.371224 0.442687 0.171103
0.389405 0.442687 0.171103
0.407586 0.442687 0.171103
0.425767 0.442687 0.171103
0.444302 0.443042 0.171458
0.461526 0.446822 0.175238
0.484347 0.451832 0.180248
0.507168 0.456841 0.185257
0.529989 0.461851 0.190267
0.512252 0.466860 0.195276
0.534081 0.471870 0.200286
0.555909 0.476879 0.205295
0.577738 0.481888 0.210304
0.599566 0.486898 0.215314
0.621395 0.491907 0.220323
0.643223 0.496917 0.225333
0.665052 0.501926 0.230342
0.686881 0.506936 0.235352
0.708709 0.511945 0.240361
0.730538 0.516954 0.245370
0.752366 0.521964 0.250380
0.771146 0.526274 0.254690
0.176148 0.465668 0.176148
0.194434 0.465668 0.176148
0.212642 0.465668 0.176148
0.230822 0.465668 0.176148
0.249003 0.465668 0.176148
0.267184 0.465668 0.176148
0.285365 0.465668 0.176148
0.303546 0.465668 0.176148
0.321726 0.465668 0.176148
0.339907 0.465668 0.176148
0.358088 0.465668 0.176148
0.376269 0.465668 0.176148
0.394450 0.465668 0.176148
0.412631 0.465668 0.176148
0.430811 0.465668 0.176148
0.448992 0.465668 0.176148
0.462435 0.465668 0.176148
0.484347 0.469768 0.180248
0.507168 0.474777 0.185257
0.529989 0.479787 0.190267
0.512252 0.484796 0.195276
0.534081 0.489806 0.200286
0.555909 0.494815 0.205295
0.577738 0.499824 0.210304
0.599566 0.504834 0.215314
0.621395 0.509843 0.220323
0.643223 0.514853 0.225333
0.665052 0.519862 0.230342
0.686881 0.524872 0.235352
0.708709 0.529881 0.240361
0.730538 0.534890 0.245370
0.752366 0.539900 0.250380
0.771146 0.504027 0.254690
0.179859 0.482576 0.179859
0.198146 0.482576 0.179859
0.216353 0.482576 0.179859
0.234534 0.482576 0.179859
0.252715 0.482576 0.179859
0.270896 0.482576 0.179859
0.289076 0.482576 0.179859
0.307257 0.482576 0.179859
0.325438 0.482576 0.179859
0.343619 0.482576 0.179859
0.361800 0.482576 0.179859
0.379981 0.482576 0.179859
0.398161 0.482576 0.179859
0.416342 0.482576 0.179859
0.434523 0.482576 0.179859
0.452704 0.482576 0.179859
0.466147 0.482576 0.179859
0.484347 0.482965 0.180248
0.507168 0.487974 0.185257
0.529989 0.492984 0.190267
0.512252 0.497993 0.195276
0.534081 0.503002 0.200286
0.555909 0.508012 0.205295
0.577738 0.513021 0.210304
0.599566 0.518031 0.215314
0.621395 0.523040 0.220323
0.643223 0.528050 0.225333
0.665052 0.533059 0.230342
0.686881 0.538068 0.235352
0.708709 0.502944 0.240361
0.730538 0.507736 0.245370
0.752366 0.512527 0.250380
0.771146 0.516650 0.254690
0.184848 0.505302 0.184848
0.203134 0.505302 0.184848
0.221342 0.505302 0.184848
0.239523 0.505302 0.184848
0.257703 0.505302 0.184848
0.275884 0.505302 0.184848
0.294065 0.505302 0.184848
0.312246 0.505302 0.184848
0.330427 0.505302 0.184848
0.348608 0.505302 0.184848
0.366788 0.505302 0.184848
0.384969 0.505302 0.184848
0.403150 0.505302 0.184848
0.421331 0.505302 0.184848
0.439512 0.505302 0.184848
0.457693 0.505302 0.184848
0.471136 0.505302 0.184848
0.488947 0.505302 0.184848
0.507168 0.505712 0.185257
0.529989 0.510721 0.190267
0.512252 0.515731 0.195276
0.534081 0.520740 0.200286
0.555909 0.525749 0.205295
0.577738 0.530759 0.210304
0.599566 0.535768 0.215314
0.621395 0.500744 0.220323
0.643223 0.505536 0.225333
0.665052 0.510327 0.230342
0.686881 0.515119 0.235352
0.708709 0.519910 0.240361
0.730538 0.524702 0.245370
0.752366 0.529494 0.250380
0.771146 0.533616 0.254690
0.189836 0.528029 0.189836
0.208123 0.528029 0.189836
0.226331 0.528029 0.189836
0.244511 0.528029 0.189836
0.262692 0.528029 0.189836
0.280873 0.528029 0.189836
0.299054 0.528029 0.189836
0.317235 0.528029 0.189836
0.335415 0.528029 0.189836
0.353596 0.528029 0.189836
0.371777 0.528029 0.189836
0.389958 0.528029 0.189836
0.408139 0.528029 0.189836
0.426320 0.528029 0.189836
0.444500 0.528029 0.189836
0.462681 0.528029 0.189836
0.476124 0.528029 0.189836
0.493936 0.528029 0.189836
0.511747 0.528029 0.189836
0.529989 0.528459 0.190267
0.512252 0.533468 0.195276
0.534081 0.538478 0.200286
0.555909 0.503335 0.205295
0.577738 0.508127 0.210304
0.599566 0.512919 0.215314
0.621395 0.517710 0.220323
0.643223 0.522502 0.225333
0.665052 0.527294 0.230342
0.686881 0.532085 0.235352
0.708709 0.536877 0.240361
0.730538 0.541668 0.245370
0.752366 0.546460 0.250380
0.771146 0.550582 0.254690
0.194825 0.510287 0.194825
0.213112 0.510287 0.194825
0.231319 0.510287 0.194825
0.249500 0.510287 0.194825
0.267681 0.510287 0.194825
0.285862 0.510287 0.194825
0.304043 0.510287 0.194825
0.322223 0.510287 0.194825
0.340404 0.510287 0.194825
0.358585 0.510287 0.194825
0.376766 0.510287 0.194825
0.394947 0.510287 0.194825
0.413127 0.510287 0.194825
0.431308 0.510287 0.194825
0.449489 0.510287 0.194825
0.467670 0.510287 0.194825
0.481113 0.510287 0.194825
0.498924 0.510287 0.194825
0.516736 0.510287 0.194825
0.534547 0.510287 0.194825
0.512252 0.510719 0.195276
0.534081 0.515510 0.200286
0.555909 0.520302 0.205295
0.577738 0.525093 0.210304
0.599566 0.529885 0.215314
0.621395 0.534677 0.220323
0.643223 0.539468 0.225333
0.665052 0.544260 0.230342
0.686881 0.549052 0.235352
0.708709 0.553843 0.240361
0.730538 0.558635 0.245370
0.752366 0.563426 0.250380
0.771146 0.567549 0.254690
0.199814 0.532025 0.199814
0.218101 0.532025 0.199814
0.236308 0.532025 0.199814
0.254489 0.532025 0.199814
0.272670 0.532025 0.199814
0.290850 0.532025 0.199814
0.309031 0.532025 0.199814
0.327212 0.532025 0.199814
0.345393 0.532025 0.199814
0.363574 0.532025 0.199814
0.381755 0.532025 0.199814
0.399935 0.532025 0.199814
0.418116 0.532025 0.199814
0.436297 0.532025 0.199814
0.454478 0.532025 0.199814
0.472659 0.532025 0.199814
0.486102 0.532025 0.199814
0.503913 0.532025 0.199814
0.521724 0.532025 0.199814
0.539536 0.532025 0.199814
0.516593 0.532025 0.199814
0.534081 0.532477 0.200286
0.555909 0.537268 0.205295
0.577738 0.542060 0.210304
0.599566 0.546851 0.215314
0.621395 0.551643 0.220323
0.643223 0.556435 0.225333
0.665052 0.561226 0.230342
0.686881 0.566018 0.235352
0.708709 0.570810 0.240361
0.730538 0.575601 0.245370
0.752366 0.580393 0.250380
0.771146 0.584515 0.254690
0.204803 0.553764 0.204803
0.223089 0.553764 0.204803
0.241297 0.553764 0.204803
0.259477 0.553764 0.204803
0.277658 0.553764 0.204803
0.295839 0.553764 0.204803
0.314020 0.553764 0.204803
0.332201 0.553764 0.204803
0.350382 0.553764 0.204803
0.368562 0.553764 0.204803
0.386743 0.553764 0.204803
0.404924 0.553764 0.204803
0.423105 0.553764 0.204803
0.441286 0.553764 0.204803
0.459466 0.553764 0.204803
0.477647 0.553764 0.204803
0.491091 0.553764 0.204803
0.508902 0.553764 0.204803
0.526713 0.553764 0.204803
0.504328 0.553764 0.204803
0.521365 0.553764 0.204803
0.538402 0.553764 0.204803
0.555909 0.554235 0.205295
0.577738 0.559026 0.210304
0.599566 0.563818 0.215314
0.621395 0.568610 0.220323
0.643223 0.573401 0.225333
0.665052 0.578193 0.230342
0.686881 0.582984 0.235352
0.708709 0.587776 0.240361
0.730538 0.592568 0.245370
0.752366 0.597359 0.250380
0.771146 0.601482 0.254690
0.209791 0.575502 0.209791
0.228078 0.575502 0.209791
0.246285 0.575502 0.209791
0.264466 0.575502 0.209791
0.282647 0.575502 0.209791
0.300828 0.575502 0.209791
0.319009 0.575502 0.209791
0.337189 0.575502 0.209791
0.355370 0.575502 0.209791
0.373551 0.575502 0.209791
0.391732 0.575502 0.209791
0.409913 0.575502 0.209791
0.428094 0.575502 0.209791
0.446274 0.575502 0.209791
0.464455 0.575502 0.209791
0.482636 0.575502 0.209791
0.496079 0.575502 0.209791
0.513891 0.575502 0.209791
0.531702 0.575502 0.209791
0.509100 0.575502 0.209791
0.526136 0.575502 0.209791
0.543173 0.575502 0.209791
0.560210 0.575502 0.209791
0.577738 0.575993 0.210304
0.599566 0.580784 0.215314
0.621395 0.585576 0.220323
0.643223 0.590368 0.225333
0.665052 0.595159 0.230342
0.686881 0.599951 0.235352
0.708709 0.604742 0.240361
0.730538 0.609534 0.245370
0.752366 0.614326 0.250380
0.771146 0.618448 0.254690
0.214780 0.597240 0.214780
0.233067 0.597240 0.214780
0.251274 0.597240 0.214780
0.269455 0.597240 0.214780
0.287636 0.597240 0.214780
0.305816 0.597240 0.214780
0.323997 0.597240 0.214780
0.342178 0.597240 0.214780
0.360359 0.597240 0.214780
0.378540 0.597240 0.214780
0.396721 0.597240 0.214780
0.414901 0.597240 0.214780
0.433082 0.597240 0.214780
0.451263 0.597240 0.214780
0.469444 0.597240 0.214780
0.487625 0.597240 0.214780
0.501068 0.597240 0.214780
0.518879 0.597240 0.214780
0.536691 0.597240 0.214780
0.513871 0.597240 0.214780
0.530908 0.597240 0.214780
0.547945 0.597240 0.214780
0.564982 0.597240 0.214780
0.582019 0.597240 0.214780
0.599566 0.597751 0.215314
0.621395 0.602542 0.220323
0.643223 0.607334 0.225333
0.665052 0.612126 0.230342
0.686881 0.616917 0.235352
0.708709 0.621709 0.240361
0.730538 0.626500 0.245370
0.752366 0.631292 0.250380
0.771146 0.635414 0.254690
0.219769 0.618978 0.219769
0.238055 0.618978 0.219769
0.256263 0.618978 0.219769
0.274444 0.618978 0.219769
0.292624 0.618978 0.219769
0.310805 0.618978 0.219769
0.328986 0.618978 0.219769
0.347167 0.618978 0.219769
0.365348 0.618978 0.219769
0.383528 0.618978 0.219769
0.401709 0.618978 0.219769
0.419890 0.618978 0.219769
0.438071 0.618978 0.219769
0.456252 0.618978 0.219769
0.474433 0.618978 0.219769
0.492613 0.618978 0.219769
0.506057 0.618978 0.219769
0.523868 0.618978 0.219769
0.501606 0.618978 0.219769
0.518643 0.618978 0.219769
0.535680 0.618978 0.219769
0.552717 0.618978 0.219769
0.569754 0.618978 0.219769
0.586791 0.618978 0.219769
0.603828 0.618978 0.219769
0.621395 0.619509 0.220323
0.643223 0.624300 0.225333
0.665052 0.629092 0.230342
0.686881 0.633884 0.235352
0.708709 0.638675 0.240361
0.730538 0.643467 0.245370
0.752366 0.648258 0.250380
0.771146 0.652381 0.254690
0.224757 0.640716 0.224757
0.243044 0.640716 0.224757
0.261251 0.640716 0.224757
0.279432 0.640716 0.224757
0.297613 0.640716 0.224757
0.315794 0.640716 0.224757
0.333975 0.640716 0.224757
0.352156 0.640716 0.224757
0.370336 0.640716 0.224757
0.388517 0.640716 0.224757
0.406698 0.640716 0.224757
0.424879 0.640716 0.224757
0.443060 0.640716 0.224757
0.461240 0.640716 0.224757
0.479421 0.640716 0.224757
0.497602 0.640716 0.224757
0.511045 0.640716 0.224757
0.528857 0.640716 0.224757
0.506378 0.640716 0.224757
0.523415 0.640716 0.224757
0.540452 0.640716 0.224757
0.557489 0.640716 0.224757
0.574526 0.640716 0.224757
0.591562 0.640716 0.224757
