docs/luts/fuji_recipes/Classic_ER_Bleach_Bypass.cube
TITLE "Fujifilm Recipe: ER Bleach Bypass (Classic)"
# FilmSim=Classic HL=1 SH=4 Col=-4 WB=Auto WBR=0 WBB=0
LUT_3D_SIZE 33
DOMAIN_MIN 0.0 0.0 0.0
DOMAIN_MAX 1.0 1.0 1.0
0.000000 0.000000 0.000000
0.015681 0.010359 0.010359
0.031363 0.020717 0.020717
0.047044 0.031076 0.031076
0.062725 0.041435 0.041435
0.078406 0.051794 0.051794
0.094088 0.062152 0.062152
0.109769 0.072511 0.072511
0.125450 0.082870 0.082870
0.141132 0.093228 0.093228
0.156813 0.103587 0.103587
0.172494 0.113946 0.113946
0.188175 0.124305 0.124305
0.203857 0.134663 0.134663
0.219538 0.145022 0.145022
0.235219 0.155381 0.155381
0.250901 0.165739 0.165739
0.268352 0.177268 0.177268
0.283781 0.187459 0.187459
0.351900 0.227290 0.227290
0.370705 0.239381 0.239381
0.389511 0.251472 0.251472
0.408316 0.263563 0.263563
0.427121 0.275654 0.275654
0.445927 0.287745 0.287745
0.464732 0.299837 0.299837
0.483537 0.311928 0.311928
0.502343 0.324019 0.324019
0.521148 0.336110 0.336110
0.539953 0.348201 0.348201
0.558759 0.360292 0.360292
0.577564 0.372384 0.372384
0.596369 0.384475 0.384475
0.010255 0.015524 0.010255
0.015681 0.015628 0.010359
0.031363 0.025987 0.020717
0.047044 0.036345 0.031076
0.062725 0.046704 0.041435
0.078406 0.057063 0.051794
0.094088 0.067422 0.062152
0.109769 0.077780 0.072511
0.125450 0.088139 0.082870
0.141132 0.098498 0.093228
0.156813 0.108856 0.103587
0.172494 0.119215 0.113946
0.188175 0.129574 0.124305
0.203857 0.139933 0.134663
0.219538 0.150291 0.145022
0.235219 0.160650 0.155381
0.250901 0.171009 0.165739
0.268352 0.182537 0.177268
0.283781 0.192729 0.187459
0.351900 0.232559 0.227290
0.370705 0.244650 0.239381
0.389511 0.256741 0.251472
0.408316 0.268832 0.263563
0.427121 0.280924 0.275654
0.445927 0.293015 0.287745
0.464732 0.305106 0.299837
0.483537 0.317197 0.311928
0.502343 0.329288 0.324019
0.521148 0.341379 0.336110
0.539953 0.353471 0.348201
0.558759 0.365562 0.360292
0.577564 0.377653 0.372384
0.596369 0.389744 0.384475
0.020555 0.031116 0.020555
0.025877 0.031116 0.020555
0.031363 0.031279 0.020717
0.047044 0.041638 0.031076
0.062725 0.051996 0.041435
0.078406 0.062355 0.051794
0.094088 0.072714 0.062152
0.109769 0.083073 0.072511
0.125450 0.093431 0.082870
0.141132 0.103790 0.093228
0.156813 0.114149 0.103587
0.172494 0.124507 0.113946
0.188175 0.134866 0.124305
0.203857 0.145225 0.134663
0.219538 0.155583 0.145022
0.235219 0.165942 0.155381
0.250901 0.176301 0.165739
0.268352 0.187829 0.177268
0.283781 0.198021 0.187459
0.351900 0.237851 0.227290
0.370705 0.249942 0.239381
0.389511 0.262033 0.251472
0.408316 0.274125 0.263563
0.427121 0.286216 0.275654
0.445927 0.298307 0.287745
0.464732 0.310398 0.299837
0.483537 0.322489 0.311928
0.502343 0.334580 0.324019
0.521148 0.346672 0.336110
0.539953 0.358763 0.348201
0.558759 0.370854 0.360292
0.577564 0.382945 0.372384
0.596369 0.395036 0.384475
0.030870 0.046732 0.030870
0.036193 0.046732 0.030870
0.041515 0.046732 0.030870
0.047044 0.046938 0.031076
0.062725 0.057297 0.041435
0.078406 0.067655 0.051794
0.094088 0.078014 0.062152
0.109769 0.088373 0.072511
0.125450 0.098732 0.082870
0.141132 0.109090 0.093228
0.156813 0.119449 0.103587
0.172494 0.129808 0.113946
0.188175 0.140166 0.124305
0.203857 0.150525 0.134663
0.219538 0.160884 0.145022
0.235219 0.171243 0.155381
0.250901 0.181601 0.165739
0.268352 0.193129 0.177268
0.283781 0.203321 0.187459
0.351900 0.243151 0.227290
0.370705 0.255243 0.239381
0.389511 0.267334 0.251472
0.408316 0.279425 0.263563
0.427121 0.291516 0.275654
0.445927 0.303607 0.287745
0.464732 0.315698 0.299837
0.483537 0.327790 0.311928
0.502343 0.339881 0.324019
0.521148 0.351972 0.336110
0.539953 0.364063 0.348201
0.558759 0.376154 0.360292
0.577564 0.388245 0.372384
0.596369 0.400337 0.384475
0.041186 0.062348 0.041186
0.046508 0.062348 0.041186
0.051831 0.062348 0.041186
0.057153 0.062348 0.041186
0.062725 0.062597 0.041435
0.078406 0.072956 0.051794
0.094088 0.083314 0.062152
0.109769 0.093673 0.072511
0.125450 0.104032 0.082870
0.141132 0.114391 0.093228
0.156813 0.124749 0.103587
0.172494 0.135108 0.113946
0.188175 0.145467 0.124305
0.203857 0.155825 0.134663
0.219538 0.166184 0.145022
0.235219 0.176543 0.155381
0.250901 0.186902 0.165739
0.268352 0.198430 0.177268
0.283781 0.208621 0.187459
0.351900 0.248452 0.227290
0.370705 0.260543 0.239381
0.389511 0.272634 0.251472
0.408316 0.284725 0.263563
0.427121 0.296816 0.275654
0.445927 0.308908 0.287745
0.464732 0.320999 0.299837
0.483537 0.333090 0.311928
0.502343 0.345181 0.324019
0.521148 0.357272 0.336110
0.539953 0.369363 0.348201
0.558759 0.381455 0.360292
0.577564 0.393546 0.372384
0.596369 0.405637 0.384475
0.051501 0.077963 0.051501
0.056824 0.077963 0.051501
0.062146 0.077963 0.051501
0.067469 0.077963 0.051501
0.072791 0.077963 0.051501
0.078406 0.078256 0.051794
0.094088 0.088615 0.062152
0.109769 0.098974 0.072511
0.125450 0.109332 0.082870
0.141132 0.119691 0.093228
0.156813 0.130050 0.103587
0.172494 0.140408 0.113946
0.188175 0.150767 0.124305
0.203857 0.161126 0.134663
0.219538 0.171484 0.145022
0.235219 0.181843 0.155381
0.250901 0.192202 0.165739
0.268352 0.203730 0.177268
0.283781 0.213922 0.187459
0.351900 0.253752 0.227290
0.370705 0.265843 0.239381
0.389511 0.277934 0.251472
0.408316 0.290026 0.263563
0.427121 0.302117 0.275654
0.445927 0.314208 0.287745
0.464732 0.326299 0.299837
0.483537 0.338390 0.311928
0.502343 0.350481 0.324019
0.521148 0.362573 0.336110
0.539953 0.374664 0.348201
0.558759 0.386755 0.360292
0.577564 0.398846 0.372384
0.596369 0.410937 0.384475
0.061816 0.093579 0.061816
0.067139 0.093579 0.061816
0.072462 0.093579 0.061816
0.077784 0.093579 0.061816
0.083107 0.093579 0.061816
0.088429 0.093579 0.061816
0.094088 0.093915 0.062152
0.109769 0.104274 0.072511
0.125450 0.114633 0.082870
0.141132 0.124991 0.093228
0.156813 0.135350 0.103587
0.172494 0.145709 0.113946
0.188175 0.156067 0.124305
0.203857 0.166426 0.134663
0.219538 0.176785 0.145022
0.235219 0.187144 0.155381
0.250901 0.197502 0.165739
0.268352 0.209030 0.177268
0.283781 0.219222 0.187459
0.351900 0.259052 0.227290
0.370705 0.271144 0.239381
0.389511 0.283235 0.251472
0.408316 0.295326 0.263563
0.427121 0.307417 0.275654
0.445927 0.319508 0.287745
0.464732 0.331599 0.299837
0.483537 0.343691 0.311928
0.502343 0.355782 0.324019
0.521148 0.367873 0.336110
0.539953 0.379964 0.348201
0.558759 0.392055 0.360292
0.577564 0.404146 0.372384
0.596369 0.416238 0.384475
0.072132 0.109195 0.072132
0.077454 0.109195 0.072132
0.082777 0.109195 0.072132
0.088100 0.109195 0.072132
0.093422 0.109195 0.072132
0.098745 0.109195 0.072132
0.104067 0.109195 0.072132
0.109769 0.109574 0.072511
0.125450 0.119933 0.082870
0.141132 0.130292 0.093228
0.156813 0.140650 0.103587
0.172494 0.151009 0.113946
0.188175 0.161368 0.124305
0.203857 0.171726 0.134663
0.219538 0.182085 0.145022
0.235219 0.192444 0.155381
0.250901 0.202803 0.165739
0.268352 0.214331 0.177268
0.283781 0.224522 0.187459
0.351900 0.264353 0.227290
0.370705 0.276444 0.239381
0.389511 0.288535 0.251472
0.408316 0.300626 0.263563
0.427121 0.312717 0.275654
0.445927 0.324809 0.287745
0.464732 0.336900 0.299837
0.483537 0.348991 0.311928
0.502343 0.361082 0.324019
0.521148 0.373173 0.336110
0.539953 0.385264 0.348201
0.558759 0.397356 0.360292
0.577564 0.409447 0.372384
0.596369 0.421538 0.384475
0.082447 0.124811 0.082447
0.087770 0.124811 0.082447
0.093092 0.124811 0.082447
0.098415 0.124811 0.082447
0.103738 0.124811 0.082447
0.109060 0.124811 0.082447
0.114383 0.124811 0.082447
0.119705 0.124811 0.082447
0.125450 0.125233 0.082870
0.141132 0.135592 0.093228
0.156813 0.145951 0.103587
0.172494 0.156309 0.113946
0.188175 0.166668 0.124305
0.203857 0.177027 0.134663
0.219538 0.187385 0.145022
0.235219 0.197744 0.155381
0.250901 0.208103 0.165739
0.268352 0.219631 0.177268
0.283781 0.229823 0.187459
0.351900 0.269653 0.227290
0.370705 0.281744 0.239381
0.389511 0.293835 0.251472
0.408316 0.305927 0.263563
0.427121 0.318018 0.275654
0.445927 0.330109 0.287745
0.464732 0.342200 0.299837
0.483537 0.354291 0.311928
0.502343 0.366382 0.324019
0.521148 0.378474 0.336110
0.539953 0.390565 0.348201
0.558759 0.402656 0.360292
0.577564 0.414747 0.372384
0.596369 0.426838 0.384475
0.092763 0.140426 0.092763
0.098085 0.140426 0.092763
0.103408 0.140426 0.092763
0.108730 0.140426 0.092763
0.114053 0.140426 0.092763
0.119376 0.140426 0.092763
0.124698 0.140426 0.092763
0.130021 0.140426 0.092763
0.135343 0.140426 0.092763
0.141132 0.140892 0.093228
0.156813 0.151251 0.103587
0.172494 0.161610 0.113946
0.188175 0.171968 0.124305
0.203857 0.182327 0.134663
0.219538 0.192686 0.145022
0.235219 0.203045 0.155381
0.250901 0.213403 0.165739
0.268352 0.224931 0.177268
0.283781 0.235123 0.187459
0.351900 0.274953 0.227290
0.370705 0.287045 0.239381
0.389511 0.299136 0.251472
0.408316 0.311227 0.263563
0.427121 0.323318 0.275654
0.445927 0.335409 0.287745
0.464732 0.347500 0.299837
0.483537 0.359592 0.311928
0.502343 0.371683 0.324019
0.521148 0.383774 0.336110
0.539953 0.395865 0.348201
0.558759 0.407956 0.360292
0.577564 0.420047 0.372384
0.596369 0.432139 0.384475
0.103078 0.156042 0.103078
0.108401 0.156042 0.103078
0.113723 0.156042 0.103078
0.119046 0.156042 0.103078
0.124368 0.156042 0.103078
0.129691 0.156042 0.103078
0.135014 0.156042 0.103078
0.140336 0.156042 0.103078
0.145659 0.156042 0.103078
0.150981 0.156042 0.103078
0.156813 0.156551 0.103587
0.172494 0.166910 0.113946
0.188175 0.177269 0.124305
0.203857 0.187627 0.134663
0.219538 0.197986 0.145022
0.235219 0.208345 0.155381
0.250901 0.218704 0.165739
0.268352 0.230232 0.177268
0.283781 0.240423 0.187459
0.351900 0.280254 0.227290
0.370705 0.292345 0.239381
0.389511 0.304436 0.251472
0.408316 0.316527 0.263563
0.427121 0.328618 0.275654
0.445927 0.340710 0.287745
0.464732 0.352801 0.299837
0.483537 0.364892 0.311928
0.502343 0.376983 0.324019
0.521148 0.389074 0.336110
0.539953 0.401165 0.348201
0.558759 0.413257 0.360292
0.577564 0.425348 0.372384
0.596369 0.437439 0.384475
0.113393 0.171658 0.113393
0.118716 0.171658 0.113393
0.124039 0.171658 0.113393
0.129361 0.171658 0.113393
0.134684 0.171658 0.113393
0.140006 0.171658 0.113393
0.145329 0.171658 0.113393
0.150652 0.171658 0.113393
0.155974 0.171658 0.113393
0.161297 0.171658 0.113393
0.166619 0.171658 0.113393
0.172494 0.172210 0.113946
0.188175 0.182569 0.124305
0.203857 0.192928 0.134663
0.219538 0.203286 0.145022
0.235219 0.213645 0.155381
0.250901 0.224004 0.165739
0.268352 0.235532 0.177268
0.283781 0.245724 0.187459
0.351900 0.285554 0.227290
0.370705 0.297645 0.239381
0.389511 0.309736 0.251472
0.408316 0.321828 0.263563
0.427121 0.333919 0.275654
0.445927 0.346010 0.287745
0.464732 0.358101 0.299837
0.483537 0.370192 0.311928
0.502343 0.382283 0.324019
0.521148 0.394375 0.336110
0.539953 0.406466 0.348201
0.558759 0.418557 0.360292
0.577564 0.430648 0.372384
0.596369 0.442739 0.384475
0.123709 0.187274 0.123709
0.129031 0.187274 0.123709
0.134354 0.187274 0.123709
0.139677 0.187274 0.123709
0.144999 0.187274 0.123709
0.150322 0.187274 0.123709
0.155644 0.187274 0.123709
0.160967 0.187274 0.123709
0.166290 0.187274 0.123709
0.171612 0.187274 0.123709
0.176935 0.187274 0.123709
0.182257 0.187274 0.123709
0.188175 0.187869 0.124305
0.203857 0.198228 0.134663
0.219538 0.208587 0.145022
0.235219 0.218946 0.155381
0.250901 0.229304 0.165739
0.268352 0.240832 0.177268
0.283781 0.251024 0.187459
0.351900 0.290854 0.227290
0.370705 0.302946 0.239381
0.389511 0.315037 0.251472
0.408316 0.327128 0.263563
0.427121 0.339219 0.275654
0.445927 0.351310 0.287745
0.464732 0.363401 0.299837
0.483537 0.375493 0.311928
0.502343 0.387584 0.324019
0.521148 0.399675 0.336110
0.539953 0.411766 0.348201
0.558759 0.423857 0.360292
0.577564 0.435948 0.372384
0.596369 0.448040 0.384475
0.134024 0.202890 0.134024
0.139347 0.202890 0.134024
0.144669 0.202890 0.134024
0.149992 0.202890 0.134024
0.155315 0.202890 0.134024
0.160637 0.202890 0.134024
0.165960 0.202890 0.134024
0.171282 0.202890 0.134024
0.176605 0.202890 0.134024
0.181928 0.202890 0.134024
0.187250 0.202890 0.134024
0.192573 0.202890 0.134024
0.197895 0.202890 0.134024
0.203857 0.203528 0.134663
0.219538 0.213887 0.145022
0.235219 0.224246 0.155381
0.250901 0.234605 0.165739
0.268352 0.246133 0.177268
0.283781 0.256324 0.187459
0.351900 0.296155 0.227290
0.370705 0.308246 0.239381
0.389511 0.320337 0.251472
0.408316 0.332428 0.263563
0.427121 0.344519 0.275654
0.445927 0.356611 0.287745
0.464732 0.368702 0.299837
0.483537 0.380793 0.311928
0.502343 0.392884 0.324019
0.521148 0.404975 0.336110
0.539953 0.417066 0.348201
0.558759 0.429158 0.360292
0.577564 0.441249 0.372384
0.596369 0.453340 0.384475
0.144340 0.218505 0.144340
0.149662 0.218505 0.144340
0.154985 0.218505 0.144340
0.160307 0.218505 0.144340
0.165630 0.218505 0.144340
0.170953 0.218505 0.144340
0.176275 0.218505 0.144340
0.181598 0.218505 0.144340
0.186920 0.218505 0.144340
0.192243 0.218505 0.144340
0.197566 0.218505 0.144340
0.202888 0.218505 0.144340
0.208211 0.218505 0.144340
0.213533 0.218505 0.144340
0.219538 0.219187 0.145022
0.235219 0.229546 0.155381
0.250901 0.239905 0.165739
0.268352 0.251433 0.177268
0.283781 0.261625 0.187459
0.351900 0.301455 0.227290
0.370705 0.313546 0.239381
0.389511 0.325637 0.251472
0.408316 0.337729 0.263563
0.427121 0.349820 0.275654
0.445927 0.361911 0.287745
0.464732 0.374002 0.299837
0.483537 0.386093 0.311928
0.502343 0.398184 0.324019
0.521148 0.410276 0.336110
0.539953 0.422367 0.348201
0.558759 0.434458 0.360292
0.577564 0.446549 0.372384
0.596369 0.458640 0.384475
0.154655 0.234121 0.154655
0.159978 0.234121 0.154655
0.165300 0.234121 0.154655
0.170623 0.234121 0.154655
0.175945 0.234121 0.154655
0.181268 0.234121 0.154655
0.186591 0.234121 0.154655
0.191913 0.234121 0.154655
0.197236 0.234121 0.154655
0.202558 0.234121 0.154655
0.207881 0.234121 0.154655
0.213204 0.234121 0.154655
0.218526 0.234121 0.154655
0.223849 0.234121 0.154655
0.229171 0.234121 0.154655
0.235219 0.234847 0.155381
0.250901 0.245205 0.165739
0.268352 0.256733 0.177268
0.283781 0.266925 0.187459
0.351900 0.306755 0.227290
0.370705 0.318847 0.239381
0.389511 0.330938 0.251472
0.408316 0.343029 0.263563
0.427121 0.355120 0.275654
0.445927 0.367211 0.287745
0.464732 0.379302 0.299837
0.483537 0.391394 0.311928
0.502343 0.403485 0.324019
0.521148 0.415576 0.336110
0.539953 0.427667 0.348201
0.558759 0.439758 0.360292
0.577564 0.451849 0.372384
0.596369 0.463941 0.384475
0.164971 0.249737 0.164971
0.170293 0.249737 0.164971
0.175616 0.249737 0.164971
0.180938 0.249737 0.164971
0.186261 0.249737 0.164971
0.191583 0.249737 0.164971
0.196906 0.249737 0.164971
0.202229 0.249737 0.164971
0.207551 0.249737 0.164971
0.212874 0.249737 0.164971
0.218196 0.249737 0.164971
0.223519 0.249737 0.164971
0.228842 0.249737 0.164971
0.234164 0.249737 0.164971
0.239487 0.249737 0.164971
0.244809 0.249737 0.164971
0.250901 0.250506 0.165739
0.268352 0.262034 0.177268
0.283781 0.272225 0.187459
0.351900 0.312056 0.227290
0.370705 0.324147 0.239381
0.389511 0.336238 0.251472
0.408316 0.348329 0.263563
0.427121 0.360420 0.275654
0.445927 0.372512 0.287745
0.464732 0.384603 0.299837
0.483537 0.396694 0.311928
0.502343 0.408785 0.324019
0.521148 0.420876 0.336110
0.539953 0.432967 0.348201
0.558759 0.445059 0.360292
0.577564 0.457150 0.372384
0.596369 0.469241 0.384475
0.176469 0.267143 0.176469
0.181791 0.267143 0.176469
0.187114 0.267143 0.176469
0.192436 0.267143 0.176469
0.197759 0.267143 0.176469
0.203082 0.267143 0.176469
0.208404 0.267143 0.176469
0.213727 0.267143 0.176469
0.219049 0.267143 0.176469
0.224372 0.267143 0.176469
0.229694 0.267143 0.176469
0.235017 0.267143 0.176469
0.240340 0.267143 0.176469
0.245662 0.267143 0.176469
0.250985 0.267143 0.176469
0.256307 0.267143 0.176469
0.261630 0.267143 0.176469
0.268352 0.267942 0.177268
0.283781 0.278133 0.187459
0.351900 0.317964 0.227290
0.370705 0.330055 0.239381
0.389511 0.342146 0.251472
0.408316 0.354237 0.263563
0.427121 0.366328 0.275654
0.445927 0.378420 0.287745
0.464732 0.390511 0.299837
0.483537 0.402602 0.311928
0.502343 0.414693 0.324019
0.521148 0.449320 0.336110
0.539953 0.461642 0.348201
0.558759 0.473964 0.360292
0.577564 0.486286 0.372384
0.596369 0.498607 0.384475
0.186618 0.282507 0.186618
0.191940 0.282507 0.186618
0.197263 0.282507 0.186618
0.202585 0.282507 0.186618
0.207908 0.282507 0.186618
0.213231 0.282507 0.186618
0.218553 0.282507 0.186618
0.223876 0.282507 0.186618
0.229198 0.282507 0.186618
0.234521 0.282507 0.186618
0.239843 0.282507 0.186618
0.245166 0.282507 0.186618
0.250489 0.282507 0.186618
0.255811 0.282507 0.186618
0.261134 0.282507 0.186618
0.266456 0.282507 0.186618
0.271779 0.282507 0.186618
0.277702 0.282507 0.186618
0.283781 0.283348 0.187459
0.351900 0.323179 0.227290
0.370705 0.335270 0.239381
0.389511 0.347361 0.251472
0.408316 0.359452 0.263563
0.427121 0.394168 0.275654
0.445927 0.406490 0.287745
0.464732 0.418812 0.299837
0.483537 0.431133 0.311928
0.502343 0.443455 0.324019
0.521148 0.455777 0.336110
0.539953 0.468099 0.348201
0.558759 0.480420 0.360292
0.577564 0.492742 0.372384
0.596369 0.505064 0.384475
0.226241 0.350269 0.226241
0.231563 0.350269 0.226241
0.236886 0.350269 0.226241
0.242208 0.350269 0.226241
0.247531 0.350269 0.226241
0.252853 0.350269 0.226241
0.258176 0.350269 0.226241
0.263499 0.350269 0.226241
0.268821 0.350269 0.226241
0.274144 0.350269 0.226241
0.279466 0.350269 0.226241
0.284789 0.350269 0.226241
0.290111 0.350269 0.226241
0.295434 0.350269 0.226241
0.300757 0.350269 0.226241
0.306079 0.350269 0.226241
0.311402 0.350269 0.226241
0.317325 0.350269 0.226241
0.322562 0.350269 0.226241
0.351900 0.351337 0.227290
0.370705 0.363659 0.239381
0.389511 0.375981 0.251472
0.408316 0.388303 0.263563
0.427121 0.400625 0.275654
0.445927 0.412946 0.287745
0.464732 0.425268 0.299837
0.483537 0.437590 0.311928
0.502343 0.449912 0.324019
0.521148 0.462233 0.336110
0.539953 0.474555 0.348201
0.558759 0.486877 0.360292
0.577564 0.499199 0.372384
0.596369 0.511520 0.384475
0.238281 0.368995 0.238281
0.243604 0.368995 0.238281
0.248926 0.368995 0.238281
0.254249 0.368995 0.238281
0.259572 0.368995 0.238281
0.264894 0.368995 0.238281
0.270217 0.368995 0.238281
0.275539 0.368995 0.238281
0.280862 0.368995 0.238281
0.286184 0.368995 0.238281
0.291507 0.368995 0.238281
0.296830 0.368995 0.238281
0.302152 0.368995 0.238281
0.307475 0.368995 0.238281
0.312797 0.368995 0.238281
0.318120 0.368995 0.238281
0.323442 0.368995 0.238281
0.329366 0.368995 0.238281
0.334603 0.368995 0.238281
0.363101 0.368995 0.238281
0.370705 0.370116 0.239381
0.389511 0.382437 0.251472
0.408316 0.394759 0.263563
0.427121 0.407081 0.275654
0.445927 0.419403 0.287745
0.464732 0.431725 0.299837
0.483537 0.444046 0.311928
0.502343 0.456368 0.324019
0.521148 0.468690 0.336110
0.539953 0.481012 0.348201
0.558759 0.493333 0.360292
0.577564 0.505655 0.372384
0.596369 0.517977 0.384475
0.250322 0.387722 0.250322
0.255644 0.387722 0.250322
0.260967 0.387722 0.250322
0.266290 0.387722 0.250322
0.271612 0.387722 0.250322
0.276935 0.387722 0.250322
0.282257 0.387722 0.250322
0.287580 0.387722 0.250322
0.292902 0.387722 0.250322
0.298225 0.387722 0.250322
0.303548 0.387722 0.250322
0.308870 0.387722 0.250322
0.314193 0.387722 0.250322
0.319515 0.387722 0.250322
0.324838 0.387722 0.250322
0.330161 0.387722 0.250322
0.335483 0.387722 0.250322
0.341407 0.387722 0.250322
0.346643 0.387722 0.250322
0.375372 0.387722 0.250322
0.381855 0.387722 0.250322
0.389511 0.388894 0.251472
0.408316 0.401216 0.263563
0.427121 0.413537 0.275654
0.445927 0.425859 0.287745
0.464732 0.438181 0.299837
0.483537 0.450503 0.311928
0.502343 0.462824 0.324019
0.521148 0.475146 0.336110
0.539953 0.487468 0.348201
0.558759 0.499790 0.360292
0.577564 0.512112 0.372384
0.596369 0.524433 0.384475
0.262363 0.406449 0.262363
0.267685 0.406449 0.262363
0.273008 0.406449 0.262363
0.278330 0.406449 0.262363
0.283653 0.406449 0.262363
0.288975 0.406449 0.262363
0.294298 0.406449 0.262363
0.299621 0.406449 0.262363
0.304943 0.406449 0.262363
0.310266 0.406449 0.262363
0.315588 0.406449 0.262363
0.320911 0.406449 0.262363
0.326233 0.406449 0.262363
0.331556 0.406449 0.262363
0.336879 0.406449 0.262363
0.342201 0.406449 0.262363
0.347524 0.406449 0.262363
0.353447 0.406449 0.262363
0.381158 0.406449 0.262363
0.387642 0.406449 0.262363
0.394125 0.406449 0.262363
0.400609 0.406449 0.262363
0.408316 0.407672 0.263563
0.427121 0.419994 0.275654
0.445927 0.432316 0.287745
0.464732 0.444637 0.299837
0.483537 0.456959 0.311928
0.502343 0.469281 0.324019
0.521148 0.481603 0.336110
0.539953 0.493924 0.348201
0.558759 0.506246 0.360292
0.577564 0.518568 0.372384
0.596369 0.530890 0.384475
0.274403 0.425175 0.274403
0.279726 0.425175 0.274403
0.285048 0.425175 0.274403
0.290371 0.425175 0.274403
0.295693 0.425175 0.274403
0.301016 0.425175 0.274403
0.306339 0.425175 0.274403
0.311661 0.425175 0.274403
0.316984 0.425175 0.274403
0.322306 0.425175 0.274403
0.327629 0.425175 0.274403
0.332952 0.425175 0.274403
0.338274 0.425175 0.274403
0.343597 0.425175 0.274403
0.348919 0.425175 0.274403
0.354242 0.425175 0.274403
0.359564 0.425175 0.274403
0.365488 0.425175 0.274403
0.393429 0.425175 0.274403
0.399912 0.425175 0.274403
0.406396 0.425175 0.274403
0.412879 0.425175 0.274403
0.419363 0.425175 0.274403
0.427121 0.426450 0.275654
0.445927 0.438772 0.287745
0.464732 0.451094 0.299837
0.483537 0.463416 0.311928
0.502343 0.475737 0.324019
0.521148 0.488059 0.336110
0.539953 0.500381 0.348201
0.558759 0.512703 0.360292
0.577564 0.525024 0.372384
0.596369 0.537346 0.384475
0.286444 0.443902 0.286444
0.291766 0.443902 0.286444
0.297089 0.443902 0.286444
0.302412 0.443902 0.286444
0.307734 0.443902 0.286444
0.313057 0.443902 0.286444
0.318379 0.443902 0.286444
0.323702 0.443902 0.286444
0.329024 0.443902 0.286444
0.334347 0.443902 0.286444
0.339670 0.443902 0.286444
0.344992 0.443902 0.286444
0.350315 0.443902 0.286444
0.355637 0.443902 0.286444
0.360960 0.443902 0.286444
0.366282 0.443902 0.286444
0.371605 0.443902 0.286444
0.377529 0.443902 0.286444
0.405699 0.443902 0.286444
0.412182 0.443902 0.286444
0.418666 0.443902 0.286444
0.425149 0.443902 0.286444
0.431633 0.443902 0.286444
0.438117 0.443902 0.286444
0.445927 0.445229 0.287745
0.464732 0.457550 0.299837
0.483537 0.469872 0.311928
0.502343 0.482194 0.324019
0.521148 0.494516 0.336110
0.539953 0.506837 0.348201
0.558759 0.519159 0.360292
0.577564 0.531481 0.372384
0.596369 0.543803 0.384475
0.298484 0.462629 0.298484
0.303807 0.462629 0.298484
0.309130 0.462629 0.298484
0.314452 0.462629 0.298484
0.319775 0.462629 0.298484
0.325097 0.462629 0.298484
0.330420 0.462629 0.298484
0.335742 0.462629 0.298484
0.341065 0.462629 0.298484
0.346388 0.462629 0.298484
0.351710 0.462629 0.298484
0.357033 0.462629 0.298484
0.362355 0.462629 0.298484
0.367678 0.462629 0.298484
0.373001 0.462629 0.298484
0.378323 0.462629 0.298484
0.383646 0.462629 0.298484
0.389569 0.462629 0.298484
0.417969 0.462629 0.298484
0.424453 0.462629 0.298484
0.430936 0.462629 0.298484
0.437420 0.462629 0.298484
0.443903 0.462629 0.298484
0.450387 0.462629 0.298484
0.456870 0.462629 0.298484
0.464732 0.464007 0.299837
0.483537 0.476329 0.311928
0.502343 0.488650 0.324019
0.521148 0.500972 0.336110
0.539953 0.513294 0.348201
0.558759 0.525616 0.360292
0.577564 0.537937 0.372384
0.596369 0.550259 0.384475
0.310525 0.481356 0.310525
0.315848 0.481356 0.310525
0.321170 0.481356 0.310525
0.326493 0.481356 0.310525
0.331815 0.481356 0.310525
0.337138 0.481356 0.310525
0.342461 0.481356 0.310525
0.347783 0.481356 0.310525
0.353106 0.481356 0.310525
0.358428 0.481356 0.310525
0.363751 0.481356 0.310525
0.369073 0.481356 0.310525
0.374396 0.481356 0.310525
0.379719 0.481356 0.310525
0.385041 0.481356 0.310525
0.390364 0.481356 0.310525
0.395686 0.481356 0.310525
0.401610 0.481356 0.310525
0.430239 0.481356 0.310525
0.436723 0.481356 0.310525
0.443206 0.481356 0.310525
0.449690 0.481356 0.310525
0.456174 0.481356 0.310525
0.462657 0.481356 0.310525
