docs/luts/fuji_recipes/Classic_LC_Color.cube
TITLE "Fujifilm Recipe: LC Color (Classic)"
# FilmSim=Classic HL=1 SH=0 Col=3 WB=Auto WBR=4 WBB=-4
LUT_3D_SIZE 9
DOMAIN_MIN 0.0 0.0 0.0
DOMAIN_MAX 1.0 1.0 1.0
0.000000 0.000000 0.000000
0.118544 0.000000 0.000000
0.242545 0.000000 0.000000
0.366545 0.000000 0.000000
0.490545 0.000000 0.000000
0.617969 0.000000 0.000000
0.744191 0.000000 0.000000
0.870412 0.000000 0.000000
0.996634 0.000000 0.000000
0.005565 0.107089 0.000000
0.118544 0.101320 0.000000
0.242545 0.100598 0.000000
0.366545 0.100465 0.000000
0.490545 0.107089 0.000000
0.617969 0.107004 0.000000
0.744191 0.106794 0.000000
0.870412 0.106646 0.000000
0.996634 0.106536 0.000000
0.011398 0.219346 0.000000
0.131693 0.219346 0.000000
0.242545 0.207534 0.000000
0.366545 0.206448 0.000000
0.490545 0.206062 0.000000
0.617969 0.205714 0.000000
0.744191 0.205214 0.000000
0.870412 0.218438 0.000000
0.996634 0.218212 0.000000
0.017231 0.331602 0.000000
0.138219 0.331602 0.000000
0.261859 0.331602 0.000000
0.366545 0.313747 0.000000
0.490545 0.312464 0.000000
0.617969 0.311596 0.000000
0.744191 0.310653 0.000000
0.870412 0.310023 0.000000
0.996634 0.309573 0.000000
0.023064 0.443859 0.000000
0.144388 0.443859 0.000000
0.269145 0.443859 0.000000
0.391641 0.443859 0.000000
0.490545 0.419960 0.000000
0.617969 0.418188 0.000000
0.744191 0.416588 0.000000
0.870412 0.415540 0.000000
0.996634 0.414805 0.000000
0.029054 0.559146 0.000000
0.150579 0.559146 0.000000
0.276013 0.559146 0.000000
0.399650 0.559146 0.000000
0.521509 0.559146 0.000000
0.617969 0.528609 0.000000
0.744191 0.526468 0.000000
0.870412 0.525668 0.000000
0.996634 0.525371 0.000000
0.034958 0.672759 0.000000
0.156401 0.672759 0.000000
0.282055 0.672759 0.000000
0.406231 0.672759 0.000000
0.528914 0.672759 0.000000
0.654334 0.672759 0.000000
0.744191 0.636357 0.000000
0.870412 0.634755 0.000000
0.996634 0.633915 0.000000
0.040895 0.787027 0.000000
0.162244 0.787027 0.000000
0.288013 0.787027 0.000000
0.412533 0.787027 0.000000
0.535781 0.787027 0.000000
0.662780 0.787027 0.000000
0.786284 0.787027 0.000000
0.870412 0.744556 0.000000
0.996634 0.743018 0.000000
0.046833 0.901294 0.000000
0.168110 0.901294 0.000000
0.293962 0.901294 0.000000
0.418736 0.901294 0.000000
0.542404 0.901294 0.000000
0.670810 0.901294 0.000000
0.795033 0.901294 0.000000
0.901294 0.884427 0.000000
0.996634 0.852755 0.000000
0.000000 0.004940 0.095080
0.118544 0.000000 0.100376
0.242545 0.000000 0.100887
0.366545 0.000000 0.095080
0.490545 0.000000 0.095080
0.617969 0.000000 0.095004
0.744191 0.000000 0.094818
0.870412 0.000000 0.094686
0.996634 0.000000 0.094588
0.000000 0.107089 0.095080
0.120002 0.106315 0.093623
0.251702 0.099423 0.085922
0.383403 0.091723 0.078222
0.515104 0.084023 0.070521
0.651370 0.075693 0.062192
0.786308 0.066977 0.053476
0.921245 0.058261 0.044760
1.000000 0.104241 0.092227
0.000000 0.219346 0.087722
0.121683 0.227063 0.087363
0.251702 0.217940 0.085922
0.383403 0.209476 0.078222
0.515104 0.201601 0.070521
0.651370 0.201892 0.062192
0.786308 0.193176 0.053476
0.921245 0.184460 0.044760
1.000000 0.216539 0.092227
0.000000 0.331602 0.081562
0.121340 0.346290 0.080392
0.261993 0.346290 0.080392
0.383403 0.329637 0.078222
0.515104 0.320784 0.070521
0.651370 0.311999 0.062192
0.786308 0.303067 0.053476
0.921245 0.294231 0.044760
1.000000 0.328837 0.092227
0.000000 0.443859 0.075556
0.120951 0.465518 0.073420
0.262650 0.465518 0.073420
0.401135 0.465518 0.073420
0.515104 0.441338 0.070521
0.651370 0.431600 0.062192
0.786308 0.422206 0.053476
0.921245 0.413113 0.044760
1.000000 0.419800 0.092227
0.000000 0.559146 0.069456
0.120539 0.587964 0.066261
0.262775 0.587964 0.066261
0.402621 0.587964 0.066261
0.540041 0.587964 0.066261
0.651370 0.555867 0.062192
0.786308 0.546570 0.053476
0.921245 0.537940 0.044760
1.000000 0.531454 0.092227
0.000000 0.672759 0.063309
0.119440 0.709944 0.058409
0.261996 0.709944 0.058409
0.402661 0.709944 0.058409
0.541373 0.709944 0.058409
0.683657 0.709944 0.058409
0.786308 0.670290 0.053476
0.921245 0.660887 0.044760
1.000000 0.640428 0.092227
0.000000 0.787027 0.057167
0.118313 0.832102 0.050518
0.261078 0.832102 0.050518
0.402286 0.832102 0.050518
0.541874 0.832102 0.050518
0.686281 0.832102 0.050518
0.825741 0.832102 0.050518
0.921245 0.784713 0.044760
1.000000 0.749996 0.092227
0.000000 0.901294 0.051078
0.117183 0.954259 0.042628
0.260098 0.954259 0.042628
0.401690 0.954259 0.042628
0.541903 0.954259 0.042628
0.688119 0.954259 0.042628
0.828649 0.954259 0.042628
0.954259 0.940730 0.042628
1.000000 0.860252 0.092227
0.000000 0.010146 0.195255
0.106903 0.000000 0.195255
0.242545 0.000000 0.206121
0.366545 0.000000 0.206897
0.490545 0.000000 0.207171
0.617969 0.000000 0.207135
0.744191 0.000000 0.194717
0.870412 0.000000 0.194447
0.996634 0.000000 0.194246
0.000000 0.112425 0.195255
0.108986 0.101614 0.200730
0.250957 0.098678 0.203550
0.382657 0.090977 0.196190
0.514358 0.083277 0.182393
0.650707 0.074930 0.174046
0.785644 0.066214 0.165330
0.920582 0.057498 0.156614
1.000000 0.104301 0.192485
0.000000 0.219346 0.195255
0.112285 0.225606 0.198523
0.245481 0.217779 0.192318
0.377182 0.211701 0.184618
0.508883 0.204000 0.176917
0.645836 0.195525 0.168442
0.780774 0.186809 0.159726
0.915711 0.178093 0.151010
1.000000 0.217006 0.192943
0.000000 0.331602 0.186950
0.105314 0.344833 0.182625
0.249030 0.340069 0.186788
0.377182 0.329346 0.184618
0.508883 0.320939 0.176917
0.645836 0.312273 0.168442
0.780774 0.313008 0.159726
0.915711 0.304292 0.151010
1.000000 0.329131 0.192943
0.000000 0.443859 0.180515
0.098342 0.464061 0.168835
0.248874 0.459297 0.179817
0.388822 0.459297 0.179817
0.508883 0.441026 0.176917
0.645836 0.431442 0.168442
0.780774 0.422289 0.159726
0.915711 0.413356 0.151010
1.000000 0.425923 0.192943
0.000000 0.559146 0.174120
0.091183 0.586507 0.154804
0.248470 0.582252 0.172549
0.389683 0.582252 0.172549
0.527811 0.582252 0.172549
0.645836 0.556190 0.168442
0.780774 0.547107 0.159726
0.915711 0.538674 0.151010
1.000000 0.537880 0.192943
0.000000 0.672759 0.167585
0.083296 0.708648 0.140078
0.247386 0.704410 0.164659
0.389244 0.704410 0.164659
0.528774 0.704410 0.164659
0.672278 0.704410 0.164659
0.780774 0.670608 0.159726
0.915711 0.661368 0.151010
1.000000 0.646473 0.192943
0.000000 0.787027 0.161130
0.075406 0.830805 0.125375
0.246283 0.826568 0.156768
0.388529 0.826568 0.156768
0.528921 0.826568 0.156768
0.674697 0.826568 0.156768
0.814384 0.826568 0.156768
0.915711 0.785028 0.151010
1.000000 0.755693 0.192943
0.000000 0.901294 0.154805
0.067515 0.952963 0.110688
0.245170 0.948726 0.148878
0.387675 0.948726 0.148878
0.528934 0.948726 0.148878
0.676279 0.948726 0.148878
0.817159 0.948726 0.148878
0.948726 0.941010 0.148878
1.000000 0.865661 0.192943
0.000000 0.015351 0.295430
0.100913 0.000000 0.295430
0.225811 0.000000 0.295430
0.366545 0.000000 0.311866
0.490545 0.000000 0.312786
0.617969 0.000000 0.312978
0.744191 0.000000 0.312602
0.870412 0.000000 0.312310
0.996634 0.000000 0.312078
0.000000 0.118063 0.295430
0.096887 0.095393 0.307126
0.235302 0.095393 0.307126
0.382657 0.090977 0.314769
0.514358 0.083277 0.307734
0.650707 0.074930 0.299640
0.785644 0.066214 0.291041
0.920582 0.057498 0.269231
1.000000 0.104301 0.292681
0.000000 0.219346 0.295430
0.107560 0.226075 0.306415
0.235676 0.214621 0.300155
0.375686 0.210205 0.300855
0.507387 0.202504 0.288039
0.644506 0.193994 0.279528
0.779443 0.185278 0.270812
0.914380 0.176562 0.262096
1.000000 0.217164 0.293127
0.000000 0.331602 0.295430
0.105314 0.344833 0.304169
0.237014 0.337133 0.293990
0.370961 0.329243 0.291014
0.502662 0.323978 0.283314
0.640303 0.315357 0.274692
0.775240 0.306641 0.265976
0.910177 0.297925 0.257260
1.000000 0.329718 0.293659
0.000000 0.443859 0.286294
0.098342 0.464061 0.287108
0.230043 0.456360 0.280024
0.376169 0.453076 0.286213
0.502662 0.440767 0.283314
0.640303 0.431466 0.274692
0.775240 0.422560 0.265976
0.910177 0.424124 0.257260
1.000000 0.441621 0.293659
0.000000 0.559146 0.279526
0.091183 0.586507 0.272606
0.222707 0.579640 0.265754
0.376098 0.576718 0.278799
0.515478 0.576718 0.278799
0.640303 0.556541 0.274692
0.775240 0.547742 0.265976
0.910177 0.539532 0.257260
1.000000 0.544597 0.293659
0.000000 0.672759 0.272521
0.083296 0.708648 0.257575
0.214816 0.701798 0.251035
0.375165 0.698876 0.270909
0.515933 0.698876 0.270909
0.660880 0.698876 0.270909
0.775240 0.670944 0.265976
0.910177 0.661912 0.257260
1.000000 0.652730 0.293659
0.000000 0.787027 0.265683
0.075406 0.830805 0.242660
0.206926 0.823955 0.236346
0.374137 0.821034 0.263018
0.515842 0.821034 0.263018
0.663013 0.821034 0.263018
0.803021 0.821034 0.263018
0.910177 0.785355 0.257260
1.000000 0.761516 0.293659
0.000000 0.901294 0.259062
0.067515 0.952963 0.227818
0.199035 0.946113 0.221670
0.373069 0.943192 0.255128
0.516153 0.943192 0.255128
0.664272 0.943192 0.255128
0.805620 0.943192 0.255128
0.943192 0.941292 0.255128
1.000000 0.871120 0.293659
0.000000 0.020556 0.395606
0.095329 0.000000 0.395606
0.218975 0.000000 0.395606
0.345137 0.000000 0.395606
0.490545 0.000000 0.417611
0.617969 0.000000 0.418310
0.744191 0.000000 0.418051
0.870412 0.000000 0.417806
0.996634 0.000000 0.417590
0.000000 0.123506 0.395606
0.089172 0.093538 0.413523
0.222000 0.089172 0.413523
0.363068 0.089172 0.413523
0.514358 0.083277 0.425962
0.650707 0.074930 0.418498
0.785644 0.066214 0.410195
0.920582 0.057498 0.401706
1.000000 0.104301 0.410667
0.000000 0.230023 0.395606
0.101339 0.226209 0.412811
0.223465 0.208400 0.406551
0.362717 0.208400 0.406551
0.507387 0.202504 0.412167
0.644506 0.193994 0.404160
0.779443 0.185278 0.395628
0.914380 0.176562 0.374713
1.000000 0.217164 0.393142
0.000000 0.331602 0.395606
0.101339 0.340859 0.412811
0.233040 0.337536 0.405111
0.366910 0.327628 0.399580
0.500416 0.321732 0.398073
0.638304 0.313058 0.385010
0.773242 0.304342 0.376294
0.908179 0.295626 0.367578
1.000000 0.330027 0.393774
0.000000 0.443859 0.395606
0.098342 0.464061 0.409815
0.230043 0.456360 0.402114
0.361744 0.448660 0.391243
0.496441 0.440706 0.389710
0.634769 0.435189 0.380942
0.769706 0.426473 0.372227
0.904644 0.417757 0.363511
1.000000 0.442900 0.394376
0.000000 0.559146 0.385490
0.091183 0.586507 0.391392
0.222707 0.579640 0.383724
0.354227 0.572790 0.376701
0.502916 0.571184 0.385050
0.634769 0.556955 0.380942
0.769706 0.548539 0.372227
0.904644 0.540561 0.363511
1.000000 0.562108 0.394376
0.000000 0.672759 0.378000
0.083296 0.708648 0.375943
0.214816 0.701798 0.368579
0.346336 0.694948 0.362004
0.502706 0.693342 0.377159
0.649442 0.693342 0.377159
0.769706 0.671312 0.372227
0.904644 0.662551 0.363511
1.000000 0.659289 0.394376
0.000000 0.787027 0.370743
0.075406 0.830805 0.360713
0.206926 0.823955 0.353622
0.338446 0.817105 0.347333
0.502834 0.815500 0.369269
0.651152 0.815500 0.369269
0.791647 0.815500 0.369269
0.904644 0.785704 0.363511
1.000000 0.767523 0.394376
0.000000 0.901294 0.363791
0.067515 0.952963 0.345630
0.199035 0.946113 0.338764
0.330555 0.939263 0.332671
0.502818 0.937658 0.361378
0.652000 0.937658 0.361378
0.794001 0.937658 0.361378
0.933739 0.937658 0.361378
1.000000 0.876652 0.394376
0.000000 0.025762 0.495781
0.089901 0.000000 0.495781
0.212800 0.000000 0.495781
0.337728 0.000000 0.495781
0.464621 0.000000 0.495781
0.617969 0.000000 0.522982
0.744191 0.000000 0.523035
0.870412 0.000000 0.522959
0.996634 0.000000 0.522840
0.000000 0.128859 0.495781
0.082952 0.093173 0.519919
0.209342 0.082952 0.519919
0.348816 0.082952 0.519919
0.491145 0.082952 0.519919
0.650707 0.074930 0.536552
0.785644 0.066214 0.528822
0.920582 0.057498 0.520652
1.000000 0.104301 0.517191
0.000000 0.235744 0.495781
0.095118 0.226104 0.519207
0.211355 0.202179 0.512948
0.349025 0.202179 0.512948
0.490732 0.202179 0.512948
0.644506 0.193994 0.522634
0.779443 0.185278 0.514611
0.914380 0.176562 0.506732
1.000000 0.217164 0.511508
0.000000 0.341712 0.495781
0.095118 0.345837 0.519207
0.226819 0.337664 0.511507
0.350112 0.321407 0.505977
0.490321 0.321407 0.505977
0.638304 0.313058 0.508554
0.773242 0.304342 0.500600
0.908179 0.295626 0.493094
1.000000 0.330027 0.495696
0.000000 0.443859 0.495781
0.095118 0.460836 0.519207
0.226819 0.453136 0.511507
0.358519 0.448996 0.503807
0.493119 0.440634 0.499005
0.632103 0.432122 0.494436
0.767040 0.423406 0.483105
0.901977 0.414696 0.475402
1.000000 0.443553 0.497178
0.000000 0.559146 0.495781
0.091183 0.586507 0.515272
0.222707 0.579640 0.507395
0.354227 0.572790 0.495004
0.485747 0.565940 0.491856
0.629104 0.557467 0.487807
0.763864 0.554012 0.479928
0.898623 0.546132 0.472049
1.000000 0.562946 0.497552
0.000000 0.672759 0.494919
0.083296 0.708648 0.494978
0.214816 0.701798 0.487191
0.346336 0.694948 0.479744
0.483162 0.687939 0.478604
0.637623 0.687601 0.484387
0.763864 0.671535 0.479928
0.898623 0.663017 0.472049
1.000000 0.665920 0.497552
0.000000 0.787027 0.476219
0.075406 0.830805 0.479402
0.206926 0.823955 0.471822
0.338446 0.817105 0.465672
0.482741 0.809935 0.471471
0.638430 0.809597 0.477254
0.779773 0.809597 0.477254
0.898623 0.785751 0.472049
1.000000 0.773608 0.497552
0.000000 0.901294 0.468922
0.067515 0.952963 0.464034
0.199035 0.946113 0.457625
0.330555 0.939263 0.451746
0.482319 0.931932 0.464338
0.638538 0.931594 0.470121
0.781544 0.931594 0.470121
0.921694 0.931594 0.470121
1.000000 0.882269 0.497552
0.000000 0.031127 0.599047
0.084335 0.000000 0.599047
0.206676 0.000000 0.599047
0.330689 0.000000 0.599047
0.456371 0.000000 0.599047
0.605478 0.000000 0.617969
0.744191 0.000000 0.632014
0.870412 0.000000 0.633210
0.996634 0.000000 0.634239
0.000000 0.134284 0.599047
0.076237 0.092554 0.630478
0.196182 0.076237 0.630478
0.334675 0.076237 0.630478
0.475460 0.076237 0.630478
0.642866 0.074930 0.650707
0.785644 0.066214 0.652840
0.920582 0.057498 0.646286
1.000000 0.104301 0.629700
0.000000 0.241399 0.599047
0.088386 0.225638 0.629845
0.198317 0.195300 0.624277
0.335227 0.195300 0.624277
0.475069 0.195300 0.624277
0.643180 0.193994 0.644506
0.779443 0.185278 0.639932
0.914380 0.176562 0.633150
1.000000 0.217164 0.624046
0.000000 0.347665 0.599047
0.088386 0.345817 0.629845
0.219906 0.337155 0.622995
0.336780 0.314364 0.618075
0.474903 0.314364 0.618075
0.638304 0.313058 0.633110
0.773242 0.304342 0.626929
0.908179 0.295626 0.619874
1.000000 0.330027 0.618510
0.000000 0.443666 0.599047
0.088386 0.464935 0.629845
0.219906 0.456944 0.622995
0.351426 0.448615 0.616145
0.475455 0.433428 0.611874
0.632103 0.432122 0.620375
0.767040 0.423406 0.613748
0.901977 0.414696 0.606381
1.000000 0.443553 0.603105
0.000000 0.558903 0.599047
0.088386 0.584015 0.629845
0.219906 0.577165 0.622995
0.351426 0.570315 0.616145
0.483205 0.566221 0.609240
0.625012 0.557799 0.603628
0.759771 0.549919 0.595749
0.894531 0.542040 0.587870
1.000000 0.563451 0.603859
0.000000 0.672759 0.598791
0.083296 0.708648 0.625348
0.214816 0.701798 0.618498
0.346336 0.694948 0.611648
0.478604 0.687939 0.599555
0.623897 0.680977 0.597676
0.757240 0.671527 0.593217
0.891999 0.668638 0.585338
1.000000 0.677596 0.604218
0.000000 0.787027 0.598684
0.075406 0.830805 0.618376
0.206926 0.823955 0.598465
0.338446 0.817105 0.591803
0.471471 0.809935 0.585099
0.623574 0.802973 0.590543
0.766798 0.802973 0.590543
0.891999 0.785561 0.585338
1.000000 0.780061 0.604218
0.000000 0.901294 0.580195
0.067515 0.952963 0.590522
0.199035 0.946113 0.583903
0.330555 0.939263 0.577457
0.464338 0.931932 0.570944
0.623175 0.924970 0.583410
0.767922 0.924970 0.583410
0.908812 0.924970 0.583410
1.000000 0.888123 0.604218
0.000000 0.036426 0.701017
0.078732 0.000000 0.701017
0.200510 0.000000 0.701017
0.323701 0.000000 0.701017
0.448325 0.000000 0.701017
0.578962 0.000000 0.701017
0.744191 0.000000 0.738150
0.870412 0.000000 0.739837
0.996634 0.000000 0.741179
0.000000 0.139477 0.701017
0.069195 0.091544 0.739489
0.182887 0.069195 0.739489
0.320750 0.069195 0.739489
0.460510 0.069195 0.739489
0.608246 0.069195 0.739489
0.785644 0.066214 0.772612
0.920582 0.057498 0.766836
1.000000 0.104301 0.737388
0.000000 0.246613 0.701017
0.081345 0.224735 0.738856
0.188259 0.191283 0.733288
0.321728 0.188259 0.733288
0.460503 0.188259 0.733288
0.608645 0.188259 0.733288
0.779443 0.185278 0.759882
0.914380 0.176562 0.753944
1.000000 0.217164 0.731752
0.000000 0.352973 0.701017
0.081345 0.345230 0.738856
0.212865 0.336287 0.732006
0.323667 0.307323 0.727086
0.460897 0.307323 0.727086
0.609099 0.307323 0.727086
0.773242 0.304342 0.747143
0.908179 0.295626 0.740984
1.000000 0.330027 0.726211
0.000000 0.458717 0.701017
0.081345 0.464744 0.738856
0.212865 0.456529 0.732006
0.344385 0.447819 0.725156
0.462926 0.426387 0.720885
0.609684 0.426387 0.720885
0.767040 0.423406 0.734383
0.901977 0.414696 0.727910
1.000000 0.443553 0.720664
0.000000 0.558058 0.701017
0.081345 0.577794 0.738856
0.212865 0.580887 0.732006
0.344385 0.573886 0.725156
0.476840 0.566360 0.718107
0.610200 0.552614 0.713677
0.759771 0.549919 0.720047
0.894531 0.542040 0.712841
1.000000 0.563451 0.714209
0.000000 0.672673 0.701017
0.081345 0.706924 0.738856
0.212865 0.700074 0.732006
0.344385 0.693224 0.725156
0.476840 0.686175 0.718107
0.616115 0.679996 0.709964
0.752638 0.671916 0.705798
0.887398 0.664037 0.695969
1.000000 0.678315 0.706381
0.000000 0.787027 0.700851
0.075406 0.830805 0.733608
0.206926 0.823955 0.726758
0.338446 0.817105 0.719908
0.471471 0.809935 0.712738
0.610746 0.801792 0.698773
0.754032 0.796608 0.699411
0.885634 0.785579 0.694206
1.000000 0.792050 0.706720
0.000000 0.901294 0.700860
0.067515 0.952963 0.726636
0.199035 0.946113 0.705803
0.330555 0.939263 0.699072
0.464338 0.931932 0.691986
0.603613 0.923789 0.684505
0.754049 0.918605 0.692278
0.896405 0.918605 0.692278
1.000000 0.893951 0.706720
0.000000 0.041724 0.802986
0.073208 0.000000 0.802986
0.194570 0.000000 0.802986
0.317154 0.000000 0.802986
0.440985 0.000000 0.802986
0.571368 0.000000 0.802986
0.700638 0.000000 0.802986
0.870412 0.000000 0.845876
0.996634 0.000000 0.847658
0.000000 0.144699 0.802986
0.062154 0.090534 0.848500
0.169659 0.062154 0.848500
0.307084 0.062154 0.848500
0.446115 0.062154 0.848500
0.593648 0.062154 0.848500
0.739272 0.062154 0.848500
0.920582 0.057498 0.886651
1.000000 0.104301 0.844579
0.000000 0.251854 0.802986
0.074304 0.223802 0.847867
0.181218 0.190278 0.842299
0.308383 0.181218 0.842299
0.446468 0.181218 0.842299
0.594284 0.181218 0.842299
0.739611 0.181218 0.842299
0.914380 0.176562 0.873910
1.000000 0.217164 0.838926
0.000000 0.358303 0.802986
0.074304 0.344531 0.847867
0.205824 0.335368 0.841017
0.310572 0.300282 0.836097
0.447929 0.300282 0.836097
0.595079 0.300282 0.836097
0.739965 0.300282 0.836097
0.908179 0.295626 0.861156
1.000000 0.330027 0.833348
0.000000 0.464161 0.802986
0.074304 0.464366 0.847867
0.205824 0.455929 0.841017
0.337344 0.446928 0.834167
0.450573 0.419346 0.829896
0.596182 0.419346 0.829896
0.740348 0.419346 0.829896
0.901977 0.414696 0.848379
1.000000 0.443553 0.827771
0.000000 0.573193 0.802986
0.074304 0.588530 0.847867
0.205824 0.581488 0.841017
0.337344 0.574267 0.834167
0.470474 0.566196 0.826975
0.597480 0.546249 0.822544
0.740132 0.546249 0.822544
0.894531 0.542040 0.833811
1.000000 0.563451 0.821507
0.000000 0.672532 0.802986
0.074304 0.700702 0.847867
0.205824 0.693852 0.841017
0.337344 0.696101 0.834167
0.470474 0.688771 0.826975
0.609749 0.680098 0.818831
0.740150 0.668246 0.815411
0.887398 0.664037 0.819732
1.000000 0.678315 0.815551
0.000000 0.786999 0.802986
0.074304 0.829832 0.847867
0.205824 0.822982 0.841017
0.337344 0.816132 0.834167
0.470474 0.808939 0.826975
0.609749 0.800796 0.818831
0.744509 0.792917 0.810952
0.880265 0.786034 0.804069
1.000000 0.793179 0.808926
0.000000 0.901294 0.802910
0.067515 0.952963 0.841869
0.199035 0.946113 0.835019
0.330555 0.939263 0.828169
0.464338 0.931932 0.820838
0.603613 0.923789 0.805867
0.738372 0.915910 0.798324
0.883881 0.912239 0.801145
1.000000 0.900270 0.809222
