docs/luts/fuji_recipes/Classic_GB_Chrome_Colour.cube
TITLE "Fujifilm Recipe: GB Chrome Colour (Classic)"
# FilmSim=Classic HL=-2 SH=2 Col=0 WB=Auto WBR=0 WBB=0
LUT_3D_SIZE 9
DOMAIN_MIN 0.0 0.0 0.0
DOMAIN_MAX 1.0 1.0 1.0
0.000000 0.000000 0.000000
0.091567 0.009189 0.009189
0.183133 0.018378 0.018378
0.274700 0.027567 0.027567
0.366266 0.036756 0.036756
0.493807 0.043918 0.043918
0.580115 0.053194 0.053194
0.666423 0.062471 0.062471
0.752729 0.071750 0.071750
0.009134 0.091016 0.009134
0.091567 0.091071 0.009189
0.183133 0.100260 0.018378
0.274700 0.109449 0.027567
0.366266 0.118638 0.036756
0.493807 0.125547 0.043918
0.580115 0.134885 0.053194
0.666423 0.144208 0.062471
0.752729 0.153521 0.071750
0.018284 0.182199 0.018284
0.100662 0.182199 0.018284
0.183133 0.182293 0.018378
0.274700 0.191482 0.027567
0.366266 0.200671 0.036756
0.493807 0.207328 0.043918
0.580115 0.216727 0.053194
0.666423 0.226095 0.062471
0.752729 0.235444 0.071750
0.027435 0.273383 0.027435
0.109812 0.273383 0.027435
0.192190 0.273383 0.027435
0.274700 0.273515 0.027567
0.366266 0.282704 0.036756
0.493807 0.289109 0.043918
0.580115 0.298569 0.053194
0.666423 0.307983 0.062471
0.752729 0.317366 0.071750
0.036585 0.364567 0.036585
0.118963 0.364567 0.036585
0.201340 0.364567 0.036585
0.283718 0.364567 0.036585
0.366266 0.364738 0.036756
0.493807 0.370889 0.043918
0.580115 0.380411 0.053194
0.666423 0.389871 0.062471
0.752729 0.399289 0.071750
0.043707 0.491845 0.043707
0.125829 0.491845 0.043707
0.207951 0.491845 0.043707
0.290073 0.491845 0.043707
0.372196 0.491845 0.043707
0.493807 0.492050 0.043918
0.580115 0.501013 0.053194
0.666423 0.509889 0.062471
0.752729 0.518707 0.071750
0.052944 0.577793 0.052944
0.135128 0.577793 0.052944
0.217312 0.577793 0.052944
0.299497 0.577793 0.052944
0.381681 0.577793 0.052944
0.502531 0.577793 0.052944
0.580115 0.578034 0.053194
0.666423 0.586952 0.062471
0.752729 0.595804 0.071750
0.062183 0.663739 0.062183
0.144413 0.663739 0.062183
0.226643 0.663739 0.062183
0.308873 0.663739 0.062183
0.391103 0.663739 0.062183
0.511373 0.663739 0.062183
0.588759 0.663739 0.062183
0.666423 0.664016 0.062471
0.752729 0.672901 0.071750
0.071422 0.749685 0.071422
0.153688 0.749685 0.071422
0.235953 0.749685 0.071422
0.318218 0.749685 0.071422
0.400484 0.749685 0.071422
0.520157 0.749685 0.071422
0.597576 0.749685 0.071422
0.674996 0.749685 0.071422
0.752729 0.749998 0.071750
0.009022 0.009022 0.089904
0.091567 0.009189 0.090071
0.183133 0.018378 0.099259
0.274700 0.027567 0.108448
0.366266 0.036756 0.117637
0.493807 0.043918 0.124550
0.580115 0.053194 0.133887
0.666423 0.062471 0.143209
0.752729 0.071750 0.152522
0.009134 0.091016 0.090015
0.113800 0.113299 0.112288
0.208890 0.118799 0.117712
0.302226 0.126197 0.125132
0.394851 0.134314 0.133262
0.523117 0.140185 0.139146
0.609762 0.149120 0.148086
0.696328 0.158134 0.157104
0.812660 0.137484 0.136357
0.018284 0.182199 0.099166
0.119269 0.207932 0.117642
0.208890 0.207977 0.117712
0.302226 0.213581 0.125132
0.394851 0.220624 0.133262
0.523117 0.225374 0.139146
0.609762 0.233918 0.148086
0.696328 0.242633 0.157104
0.812660 0.229893 0.136357
0.027435 0.273383 0.108316
0.126613 0.300890 0.125019
0.214382 0.300890 0.125019
0.302226 0.300964 0.125132
0.394851 0.306933 0.133262
0.523117 0.310563 0.139146
0.609762 0.318717 0.148086
0.696328 0.327131 0.157104
0.812660 0.322302 0.136357
0.036585 0.364567 0.117467
0.134681 0.393136 0.133107
0.221369 0.393136 0.133107
0.308057 0.393136 0.133107
0.394851 0.393243 0.133262
0.523117 0.395752 0.139146
0.609762 0.403516 0.148086
0.696328 0.411629 0.157104
0.812660 0.458827 0.136357
0.043707 0.491845 0.124338
0.140498 0.521146 0.138944
0.226055 0.521146 0.138944
0.311611 0.521146 0.138944
0.397168 0.521146 0.138944
0.523117 0.521287 0.139146
0.609762 0.527802 0.148086
0.696328 0.534804 0.157104
0.812660 0.548683 0.136357
0.052944 0.577793 0.133636
0.149390 0.607431 0.147844
0.234554 0.607431 0.147844
0.319718 0.607431 0.147844
0.404882 0.607431 0.147844
0.529441 0.607431 0.147844
0.609762 0.607605 0.148086
0.696328 0.614325 0.157104
0.812660 0.635649 0.136357
0.062183 0.663739 0.142919
0.158364 0.693638 0.156823
0.243225 0.693638 0.156823
0.328086 0.693638 0.156823
0.412948 0.693638 0.156823
0.536396 0.693638 0.156823
0.616258 0.693638 0.156823
0.696328 0.693846 0.157104
0.812660 0.722614 0.136357
0.071422 0.749685 0.152194
0.140401 0.806917 0.138729
0.232500 0.806917 0.138729
0.324600 0.806917 0.138729
0.460436 0.806917 0.138729
0.549952 0.806917 0.138729
0.636626 0.806917 0.138729
0.723300 0.806917 0.138729
0.812660 0.809580 0.136357
0.018095 0.018095 0.180316
0.100473 0.018095 0.180316
0.183133 0.018378 0.180598
0.274700 0.027567 0.189787
0.366266 0.036756 0.198976
0.493807 0.043918 0.205638
0.580115 0.053194 0.215036
0.666423 0.062471 0.224403
0.752729 0.071750 0.233751
0.018095 0.099977 0.180316
0.119331 0.118791 0.206257
0.209150 0.118999 0.206392
0.302516 0.126388 0.212015
0.395162 0.134497 0.219065
0.523443 0.140360 0.223824
0.610097 0.149291 0.232369
0.696670 0.158303 0.241083
0.813899 0.136658 0.227436
0.018284 0.182199 0.180505
0.119569 0.208320 0.206475
0.227686 0.226837 0.225124
0.323484 0.231544 0.229671
0.417899 0.237854 0.236012
0.547567 0.241751 0.239939
0.635046 0.249843 0.248044
0.746850 0.233802 0.231825
0.859821 0.216549 0.214438
0.027435 0.273383 0.189655
0.126898 0.301324 0.212040
0.232390 0.322118 0.229588
0.323484 0.322175 0.229671
0.417899 0.327046 0.236012
0.547567 0.329450 0.239939
0.635046 0.336910 0.248044
0.746850 0.329497 0.231825
0.859821 0.318681 0.214438
0.036585 0.364567 0.198806
0.134956 0.393601 0.219038
0.238642 0.416156 0.235885
0.328230 0.416156 0.235885
0.417899 0.416237 0.236012
0.547567 0.417149 0.239939
0.635046 0.423977 0.248044
0.746850 0.470873 0.231825
0.859821 0.468758 0.214438
0.043707 0.491845 0.205424
0.140760 0.521634 0.223736
0.242469 0.545574 0.239758
0.330552 0.545574 0.239758
0.418635 0.545574 0.239758
0.547567 0.545682 0.239939
0.635046 0.550894 0.248044
0.746850 0.563923 0.231825
0.859821 0.568068 0.214438
0.052944 0.577793 0.214784
0.149647 0.607932 0.232237
0.250513 0.632696 0.247822
0.337961 0.632696 0.247822
0.425408 0.632696 0.247822
0.552614 0.632696 0.247822
0.635046 0.632832 0.248044
0.746850 0.653981 0.231825
0.859821 0.664184 0.214438
0.062183 0.663739 0.224112
0.158616 0.694148 0.240908
0.236348 0.742292 0.233410
0.331815 0.742292 0.233410
0.472611 0.742292 0.233410
0.565400 0.742292 0.233410
0.655243 0.742292 0.233410
0.746850 0.744038 0.231825
0.859821 0.760300 0.214438
0.071422 0.749685 0.233422
0.139192 0.808757 0.228867
0.217876 0.856165 0.214723
0.320347 0.856165 0.214723
0.470666 0.856165 0.214723
0.570262 0.856165 0.214723
0.666697 0.856165 0.214723
0.763132 0.856165 0.214723
0.859821 0.856417 0.214438
0.027168 0.027168 0.270727
0.109546 0.027168 0.270727
0.191923 0.027168 0.270727
0.274700 0.027567 0.271126
0.366266 0.036756 0.280315
0.493807 0.043918 0.286727
0.580115 0.053194 0.296185
0.666423 0.062471 0.305598
0.752729 0.071750 0.314980
0.027168 0.109050 0.270727
0.126577 0.126048 0.298485
0.214437 0.126048 0.298485
0.302516 0.126388 0.298707
0.395162 0.134497 0.304686
0.523443 0.140360 0.308327
0.610097 0.149291 0.316481
0.696670 0.158303 0.324894
0.813899 0.136658 0.319344
0.027168 0.191083 0.270727
0.126672 0.213660 0.298628
0.232573 0.231644 0.319762
0.323886 0.231891 0.319935
0.418338 0.238193 0.324835
0.548037 0.242078 0.327267
0.635536 0.250164 0.334735
0.748475 0.232809 0.326193
0.860047 0.216822 0.315975
0.027435 0.273383 0.270994
0.126898 0.301324 0.298776
0.232909 0.322718 0.320075
0.341572 0.340375 0.337959
0.437661 0.344706 0.342048
0.568763 0.346596 0.343985
0.671906 0.339263 0.336427
0.769609 0.337201 0.334308
0.870687 0.331782 0.328815
0.036585 0.364567 0.280144
0.134956 0.393601 0.304696
0.239150 0.416812 0.324923
0.345927 0.435889 0.341950
0.437661 0.435961 0.342048
0.568763 0.436210 0.343985
0.671906 0.483114 0.336427
0.769609 0.483154 0.334308
0.870687 0.480652 0.328815
0.043707 0.491845 0.286511
0.140760 0.521634 0.308267
0.242959 0.546276 0.327286
0.347734 0.566746 0.343830
0.437744 0.566746 0.343830
0.568763 0.566837 0.343985
0.671906 0.577794 0.336427
0.769609 0.579737 0.334308
0.870687 0.579701 0.328815
0.052944 0.577793 0.295931
0.149647 0.607932 0.316373
0.250994 0.633427 0.334707
0.340688 0.669312 0.336448
0.484820 0.669312 0.336448
0.579812 0.669312 0.336448
0.671906 0.669429 0.336427
0.769609 0.673214 0.334308
0.870687 0.675565 0.328815
0.062183 0.663739 0.305305
0.158616 0.694148 0.324741
0.234898 0.744708 0.326925
0.338742 0.766527 0.334418
0.484955 0.766527 0.334418
0.581835 0.766527 0.334418
0.675639 0.766527 0.334418
0.769609 0.766691 0.334308
0.870687 0.771428 0.328815
0.071422 0.749685 0.314649
0.139192 0.808757 0.320223
0.218288 0.856504 0.316306
0.333516 0.867048 0.329082
0.482610 0.867048 0.329082
0.581932 0.867048 0.329082
0.678101 0.867048 0.329082
0.774271 0.867048 0.329082
0.870687 0.867292 0.328815
0.036241 0.036241 0.361139
0.118619 0.036241 0.361139
0.200996 0.036241 0.361139
0.283374 0.036241 0.361139
0.366266 0.036756 0.361654
0.493807 0.043918 0.367815
0.580115 0.053194 0.377334
0.666423 0.062471 0.386792
0.752729 0.071750 0.396209
0.036241 0.118123 0.361139
0.134554 0.134032 0.389986
0.221317 0.134032 0.389986
0.308081 0.134032 0.389986
0.395162 0.134497 0.390307
0.523443 0.140360 0.392829
0.610097 0.149291 0.400593
0.696670 0.158303 0.408705
0.813899 0.136658 0.455646
0.036241 0.200156 0.361139
0.134645 0.220545 0.390140
0.238729 0.237815 0.413075
0.328413 0.237815 0.413075
0.418338 0.238193 0.413321
0.548037 0.242078 0.414267
0.635536 0.250164 0.421106
0.748475 0.232809 0.467623
0.860047 0.216822 0.465330
0.036241 0.282190 0.361139
0.134645 0.306967 0.390140
0.238897 0.327317 0.413292
0.346227 0.344908 0.432854
0.438206 0.345198 0.433072
0.569348 0.347080 0.433372
0.672277 0.339735 0.480028
0.769951 0.337645 0.479977
0.871007 0.332174 0.477344
0.036585 0.364567 0.361483
0.134956 0.393601 0.390353
0.239150 0.416812 0.413455
0.346664 0.436702 0.433267
0.455458 0.453912 0.450795
0.591566 0.509146 0.506164
0.684181 0.498156 0.494705
0.780097 0.497137 0.493609
0.879621 0.492542 0.488906
0.043707 0.491845 0.367597
0.140760 0.521634 0.392797
0.242959 0.546276 0.414325
0.348459 0.567619 0.433499
0.510294 0.589455 0.505834
0.591566 0.589785 0.506164
0.684181 0.591448 0.494705
0.780097 0.592542 0.493609
0.879621 0.590840 0.488906
0.052944 0.577793 0.377079
0.149647 0.607932 0.400510
0.250994 0.633427 0.421114
0.341394 0.669869 0.480209
0.499856 0.681636 0.494699
0.593451 0.681636 0.494699
0.684181 0.681740 0.494705
0.780097 0.684878 0.493609
0.879621 0.685977 0.488906
0.062183 0.663739 0.386499
0.158616 0.694148 0.408574
0.234898 0.744708 0.467801
0.339407 0.767041 0.480208
0.498961 0.777070 0.493688
0.594649 0.777070 0.493688
0.687300 0.777070 0.493688
0.780097 0.777215 0.493609
0.879621 0.781114 0.488906
0.071422 0.749685 0.395877
0.139192 0.808757 0.455728
0.218288 0.856504 0.465545
0.334106 0.867527 0.477671
0.494586 0.876027 0.489155
0.593134 0.876027 0.489155
0.688553 0.876027 0.489155
0.783973 0.876027 0.489155
0.879621 0.876251 0.488906
0.043282 0.043282 0.487885
0.125400 0.043282 0.487885
0.207519 0.043282 0.487885
0.289638 0.043282 0.487885
0.371757 0.043282 0.487885
0.493807 0.043918 0.488505
0.580115 0.053194 0.497465
0.666423 0.062471 0.506339
0.752729 0.071750 0.515156
0.043282 0.124906 0.487885
0.140266 0.139751 0.517495
0.225880 0.139751 0.517495
0.311494 0.139751 0.517495
0.397107 0.139751 0.517495
0.523443 0.140360 0.517918
0.610097 0.149291 0.524429
0.696670 0.158303 0.531427
0.813899 0.136658 0.545093
0.043282 0.206682 0.487885
0.140353 0.225112 0.517656
0.242434 0.241535 0.542023
0.330596 0.241535 0.542023
0.418758 0.241535 0.542023
0.548037 0.242078 0.542348
0.635536 0.250164 0.547567
0.748475 0.232809 0.560440
0.860047 0.216822 0.563881
0.043282 0.288457 0.487885
0.140353 0.310385 0.517656
0.242597 0.329514 0.542254
0.347907 0.346612 0.563258
0.438006 0.346612 0.563258
0.569348 0.347080 0.563535
0.672277 0.339735 0.573967
0.769951 0.337645 0.575809
0.871007 0.332174 0.575632
0.043282 0.370233 0.487885
0.140353 0.395659 0.517656
0.242597 0.417329 0.542254
0.348147 0.436599 0.563546
0.510181 0.508703 0.585747
0.592118 0.509697 0.586741
0.684698 0.498751 0.587847
0.780566 0.497703 0.588823
0.880048 0.493041 0.586940
0.043707 0.491845 0.488299
0.140760 0.521634 0.517938
0.242959 0.546276 0.542471
0.348459 0.567619 0.563730
0.511119 0.590280 0.586685
0.606366 0.604584 0.600989
0.698474 0.606946 0.602841
0.792931 0.607411 0.603204
0.891168 0.604143 0.599788
0.052944 0.577793 0.497225
0.149647 0.607932 0.524396
0.250994 0.633427 0.547639
0.341394 0.669869 0.574092
0.500747 0.682411 0.588069
0.608931 0.695968 0.602795
0.698474 0.696066 0.602841
0.792931 0.698745 0.603204
0.891168 0.698702 0.599788
0.062183 0.663739 0.506064
0.158616 0.694148 0.531345
0.234898 0.744708 0.560244
0.339407 0.767041 0.575965
0.499809 0.777773 0.589094
0.609525 0.789948 0.603239
0.701161 0.789948 0.603239
0.792931 0.790079 0.603204
0.891168 0.793260 0.599788
0.071422 0.749685 0.514846
0.139192 0.808757 0.544637
0.218288 0.856504 0.564007
0.334106 0.867527 0.575855
0.495338 0.876668 0.587313
0.606506 0.887610 0.600001
0.701322 0.887610 0.600001
0.796138 0.887610 0.600001
0.891168 0.887819 0.599788
0.052440 0.052440 0.573106
0.134622 0.052440 0.573106
0.216803 0.052440 0.573106
0.298984 0.052440 0.573106
0.381165 0.052440 0.573106
0.502047 0.052440 0.573106
0.580115 0.053194 0.573834
0.666423 0.062471 0.582750
0.752729 0.071750 0.591600
0.052440 0.134127 0.573106
0.149075 0.148562 0.603063
0.234290 0.148562 0.603063
0.319504 0.148562 0.603063
0.404719 0.148562 0.603063
0.529381 0.148562 0.603063
0.610097 0.149291 0.603586
0.696670 0.158303 0.610301
0.813899 0.136658 0.631587
0.052440 0.215965 0.573106
0.149160 0.233522 0.603228
0.250389 0.249497 0.628440
0.337909 0.249497 0.628440
0.425430 0.249497 0.628440
0.552765 0.249497 0.628440
0.635536 0.250164 0.628851
0.748475 0.232809 0.650193
0.860047 0.216822 0.659178
0.052440 0.297803 0.573106
0.149160 0.318396 0.603228
0.250548 0.336831 0.628682
0.341195 0.339791 0.664458
0.485174 0.339791 0.664458
0.580052 0.339791 0.664458
0.672277 0.339735 0.664805
0.769951 0.337645 0.668477
0.871007 0.332174 0.670675
0.052440 0.379641 0.573106
0.149160 0.403270 0.603228
0.250548 0.424007 0.628682
0.341429 0.483649 0.664643
0.500428 0.498722 0.677026
0.593885 0.498722 0.677026
0.684698 0.498751 0.677337
0.780566 0.497703 0.680346
0.880048 0.493041 0.681254
0.052440 0.500289 0.573106
0.149160 0.527709 0.603228
0.250548 0.551116 0.628682
0.341429 0.578160 0.664643
0.500724 0.592105 0.677285
0.609556 0.607527 0.691587
0.699140 0.607675 0.691877
0.793522 0.608113 0.694415
0.891691 0.604765 0.694136
0.052944 0.577793 0.573593
0.149647 0.607932 0.603577
0.250994 0.633427 0.628955
0.341394 0.669869 0.664876
0.500747 0.682411 0.677493
0.610021 0.696967 0.692115
0.713543 0.711434 0.707178
0.806078 0.713348 0.708445
0.902552 0.711898 0.706791
0.062183 0.663739 0.582474
0.158616 0.694148 0.610240
0.234898 0.744708 0.649637
0.339407 0.767041 0.668561
0.499809 0.777773 0.680529
0.610576 0.790837 0.694694
0.715748 0.803153 0.708422
0.806078 0.803270 0.708445
0.902552 0.805567 0.706791
0.071422 0.749685 0.591289
0.139192 0.808757 0.630612
0.218288 0.856504 0.659218
0.334106 0.867527 0.670798
0.495338 0.876668 0.681502
0.607441 0.888395 0.694510
0.714577 0.899048 0.706951
0.808468 0.899048 0.706951
0.902552 0.899235 0.706791
0.061601 0.061601 0.658325
0.143828 0.061601 0.658325
0.226056 0.061601 0.658325
0.308283 0.061601 0.658325
0.390511 0.061601 0.658325
0.510818 0.061601 0.658325
0.588202 0.061601 0.658325
0.666423 0.062471 0.659161
0.752729 0.071750 0.668044
0.061601 0.143333 0.658325
0.157966 0.157455 0.688549
0.242873 0.157455 0.688549
0.327780 0.157455 0.688549
0.412687 0.157455 0.688549
0.536236 0.157455 0.688549
0.616141 0.157455 0.688549
0.696670 0.158303 0.689175
0.813899 0.136658 0.718081
0.061601 0.225217 0.658325
0.158049 0.242105 0.688718
0.238496 0.237530 0.734786
0.333190 0.237530 0.734786
0.472878 0.237530 0.734786
0.564915 0.237530 0.734786
0.654031 0.237530 0.734786
0.748475 0.232809 0.739947
0.860047 0.216822 0.754476
0.061601 0.307101 0.658325
0.158049 0.326671 0.688718
0.238033 0.331603 0.735576
0.339395 0.337965 0.760663
0.485406 0.337965 0.760663
0.582135 0.337965 0.760663
0.675793 0.337965 0.760663
0.769951 0.337645 0.761146
0.871007 0.332174 0.765718
0.061601 0.388985 0.658325
0.158049 0.411238 0.688718
0.238033 0.471318 0.735576
0.339617 0.483837 0.760834
0.499672 0.497929 0.771443
0.595176 0.497929 0.771443
0.687648 0.497929 0.771443
0.780566 0.497703 0.771869
0.880048 0.493041 0.775567
0.061601 0.509059 0.658325
0.158049 0.534562 0.688718
0.238033 0.563243 0.735576
0.339617 0.580194 0.760834
0.499955 0.593340 0.771678
0.610278 0.608200 0.784538
0.701697 0.608200 0.784538
0.793522 0.608113 0.784922
0.891691 0.604765 0.787862
0.061601 0.586119 0.658325
0.158049 0.614147 0.688718
0.238033 0.652212 0.735576
0.339617 0.673452 0.760834
0.499955 0.685409 0.771678
0.610628 0.699560 0.784836
0.716531 0.714110 0.798027
0.806832 0.714202 0.798368
0.903189 0.712665 0.800372
0.062183 0.663739 0.658884
0.158616 0.694148 0.689135
0.234898 0.744708 0.739029
0.339407 0.767041 0.761157
0.499809 0.777773 0.771964
0.610576 0.790837 0.785093
0.717024 0.804288 0.798638
0.820720 0.818283 0.813367
0.914419 0.819111 0.813312
0.071422 0.749685 0.667732
0.139192 0.808757 0.716586
0.218288 0.856504 0.754430
0.334106 0.867527 0.765741
0.495338 0.876668 0.775691
0.607441 0.888395 0.788081
0.715731 0.900005 0.800722
0.822036 0.911003 0.813384
0.914419 0.911159 0.813312
0.070762 0.070762 0.743542
0.153025 0.070762 0.743542
0.235288 0.070762 0.743542
0.317551 0.070762 0.743542
0.399814 0.070762 0.743542
0.519531 0.070762 0.743542
0.596948 0.070762 0.743542
0.674365 0.070762 0.743542
0.752729 0.071750 0.744488
0.070762 0.152530 0.743542
0.144257 0.143710 0.796674
0.235244 0.143710 0.796674
0.326232 0.143710 0.796674
0.460470 0.143710 0.796674
0.548905 0.143710 0.796674
0.634532 0.143710 0.796674
0.720160 0.143710 0.796674
0.813899 0.136658 0.804575
0.070762 0.234449 0.743542
0.143871 0.234068 0.797275
0.218706 0.217663 0.849032
0.320992 0.217663 0.849032
0.471080 0.217663 0.849032
0.570496 0.217663 0.849032
0.666757 0.217663 0.849032
0.763017 0.217663 0.849032
0.860047 0.216822 0.849774
0.070762 0.316369 0.743542
0.143871 0.324813 0.797275
0.218844 0.319657 0.849144
0.334428 0.332962 0.860046
0.483243 0.332962 0.860046
0.582357 0.332962 0.860046
0.678325 0.332962 0.860046
0.774292 0.332962 0.860046
0.871007 0.332174 0.860762
0.070762 0.398288 0.743542
0.143871 0.458943 0.797275
0.218844 0.469387 0.849144
0.334626 0.481612 0.860205
0.495563 0.493768 0.869228
0.593852 0.493768 0.869228
0.689021 0.493768 0.869228
0.784189 0.493768 0.869228
0.880048 0.493041 0.869881
0.070762 0.517771 0.743542
0.143871 0.547180 0.797275
0.218844 0.568428 0.849144
0.334626 0.580349 0.860205
0.495816 0.591931 0.869442
0.607526 0.605378 0.880985
0.702032 0.605378 0.880985
0.796538 0.605378 0.880985
0.891691 0.604765 0.881587
0.070762 0.594865 0.743542
0.143871 0.632580 0.797275
0.218844 0.664284 0.849144
0.334626 0.675911 0.860205
0.495816 0.686692 0.869442
0.607841 0.699786 0.881248
0.715626 0.713110 0.892652
0.809114 0.713110 0.892652
0.903189 0.712665 0.893184
0.070762 0.671958 0.743542
0.143871 0.717979 0.797275
0.218844 0.760139 0.849144
0.334626 0.771473 0.860205
0.495816 0.781453 0.869442
0.607841 0.793879 0.881248
0.716015 0.806562 0.892973
0.823060 0.820211 0.904949
0.915203 0.820049 0.905381
0.071422 0.749685 0.744175
0.139192 0.808757 0.802561
0.218288 0.856504 0.849641
0.334106 0.867527 0.860684
0.495338 0.876668 0.869879
0.607441 0.888395 0.881651
0.715731 0.900005 0.893330
0.823447 0.912189 0.905643
0.927897 0.925133 0.919555
