docs/luts/fuji_recipes/Classic_GB_Chrome_Colour.cube
TITLE "Fujifilm Recipe: GB Chrome Colour (Classic)"
# FilmSim=Classic HL=-2 SH=2 Col=0 WB=Auto WBR=0 WBB=0
LUT_3D_SIZE 5
DOMAIN_MIN 0.0 0.0 0.0
DOMAIN_MAX 1.0 1.0 1.0
0.000000 0.000000 0.000000
0.183133 0.018378 0.018378
0.366266 0.036756 0.036756
0.580115 0.053194 0.053194
0.752729 0.071750 0.071750
0.018284 0.182199 0.018284
0.183133 0.182293 0.018378
0.366266 0.200671 0.036756
0.580115 0.216727 0.053194
0.752729 0.235444 0.071750
0.036585 0.364567 0.036585
0.201340 0.364567 0.036585
0.366266 0.364738 0.036756
0.580115 0.380411 0.053194
0.752729 0.399289 0.071750
0.052944 0.577793 0.052944
0.217312 0.577793 0.052944
0.381681 0.577793 0.052944
0.580115 0.578034 0.053194
0.752729 0.595804 0.071750
0.071422 0.749685 0.071422
0.235953 0.749685 0.071422
0.400484 0.749685 0.071422
0.597576 0.749685 0.071422
0.752729 0.749998 0.071750
0.018095 0.018095 0.180316
0.183133 0.018378 0.180598
0.366266 0.036756 0.198976
0.580115 0.053194 0.215036
0.752729 0.071750 0.233751
0.018284 0.182199 0.180505
0.227686 0.226837 0.225124
0.417899 0.237854 0.236012
0.635046 0.249843 0.248044
0.859821 0.216549 0.214438
0.036585 0.364567 0.198806
0.238642 0.416156 0.235885
0.417899 0.416237 0.236012
0.635046 0.423977 0.248044
0.859821 0.468758 0.214438
0.052944 0.577793 0.214784
0.250513 0.632696 0.247822
0.425408 0.632696 0.247822
0.635046 0.632832 0.248044
0.859821 0.664184 0.214438
0.071422 0.749685 0.233422
0.217876 0.856165 0.214723
0.470666 0.856165 0.214723
0.666697 0.856165 0.214723
0.859821 0.856417 0.214438
0.036241 0.036241 0.361139
0.200996 0.036241 0.361139
0.366266 0.036756 0.361654
0.580115 0.053194 0.377334
0.752729 0.071750 0.396209
0.036241 0.200156 0.361139
0.238729 0.237815 0.413075
0.418338 0.238193 0.413321
0.635536 0.250164 0.421106
0.860047 0.216822 0.465330
0.036585 0.364567 0.361483
0.239150 0.416812 0.413455
0.455458 0.453912 0.450795
0.684181 0.498156 0.494705
0.879621 0.492542 0.488906
0.052944 0.577793 0.377079
0.250994 0.633427 0.421114
0.499856 0.681636 0.494699
0.684181 0.681740 0.494705
0.879621 0.685977 0.488906
0.071422 0.749685 0.395877
0.218288 0.856504 0.465545
0.494586 0.876027 0.489155
0.688553 0.876027 0.489155
0.879621 0.876251 0.488906
0.052440 0.052440 0.573106
0.216803 0.052440 0.573106
0.381165 0.052440 0.573106
0.580115 0.053194 0.573834
0.752729 0.071750 0.591600
0.052440 0.215965 0.573106
0.250389 0.249497 0.628440
0.425430 0.249497 0.628440
0.635536 0.250164 0.628851
0.860047 0.216822 0.659178
0.052440 0.379641 0.573106
0.250548 0.424007 0.628682
0.500428 0.498722 0.677026
0.684698 0.498751 0.677337
0.880048 0.493041 0.681254
0.052944 0.577793 0.573593
0.250994 0.633427 0.628955
0.500747 0.682411 0.677493
0.713543 0.711434 0.707178
0.902552 0.711898 0.706791
0.071422 0.749685 0.591289
0.218288 0.856504 0.659218
0.495338 0.876668 0.681502
0.714577 0.899048 0.706951
0.902552 0.899235 0.706791
0.070762 0.070762 0.743542
0.235288 0.070762 0.743542
0.399814 0.070762 0.743542
0.596948 0.070762 0.743542
0.752729 0.071750 0.744488
0.070762 0.234449 0.743542
0.218706 0.217663 0.849032
0.471080 0.217663 0.849032
0.666757 0.217663 0.849032
0.860047 0.216822 0.849774
0.070762 0.398288 0.743542
0.218844 0.469387 0.849144
0.495563 0.493768 0.869228
0.689021 0.493768 0.869228
0.880048 0.493041 0.869881
0.070762 0.594865 0.743542
0.218844 0.664284 0.849144
0.495816 0.686692 0.869442
0.715626 0.713110 0.892652
0.903189 0.712665 0.893184
0.071422 0.749685 0.744175
0.218288 0.856504 0.849641
0.495338 0.876668 0.869879
0.715731 0.900005 0.893330
0.927897 0.925133 0.919555
