docs/luts/fuji_recipes/Classic_DC_Classic_Chrome_I.cube
TITLE "Fujifilm Recipe: DC Classic Chrome I (Classic)"
# FilmSim=Classic HL=-1 SH=0 Col=2 WB=Auto WBR=0 WBB=0
LUT_3D_SIZE 5
DOMAIN_MIN 0.0 0.0 0.0
DOMAIN_MAX 1.0 1.0 1.0
0.000000 0.000000 0.000000
0.247107 0.000893 0.000893
0.494214 0.001786 0.001786
0.731158 0.004229 0.004229
0.959336 0.007387 0.007387
0.000888 0.245847 0.000888
0.247107 0.245852 0.000893
0.494214 0.246745 0.001786
0.731158 0.249188 0.004229
0.959336 0.252346 0.007387
0.001777 0.491922 0.001777
0.247992 0.491922 0.001777
0.494214 0.491930 0.001786
0.731158 0.494373 0.004229
0.959336 0.497531 0.007387
0.004186 0.728087 0.004186
0.250401 0.728087 0.004186
0.496615 0.728087 0.004186
0.731158 0.728094 0.004229
0.959336 0.728563 0.007387
0.007331 0.955312 0.007331
0.253545 0.955312 0.007331
0.499760 0.955312 0.007331
0.731619 0.955312 0.007331
0.959336 0.955320 0.007387
0.000879 0.000879 0.243305
0.247107 0.000893 0.243319
0.494214 0.001786 0.244212
0.731158 0.004229 0.246655
0.959336 0.007387 0.249813
0.000888 0.245847 0.243314
0.247986 0.246731 0.244198
0.495093 0.247624 0.245091
0.729703 0.250423 0.247890
0.957881 0.253581 0.251048
0.001777 0.491922 0.244204
0.248871 0.492801 0.245083
0.495093 0.492809 0.245091
0.729703 0.495609 0.247890
0.957881 0.496584 0.251048
0.004186 0.728087 0.246613
0.251636 0.726632 0.247848
0.497850 0.726632 0.247848
0.729703 0.726639 0.247890
0.957881 0.727109 0.251048
0.007331 0.955312 0.249757
0.254780 0.953857 0.250992
0.498723 0.953857 0.250992
0.730164 0.953857 0.250992
0.957881 0.953866 0.251048
0.001761 0.001761 0.487296
0.247975 0.001761 0.487296
0.494214 0.001786 0.487321
0.731158 0.004229 0.489764
0.959336 0.007387 0.492922
0.001761 0.246720 0.487296
0.248863 0.247608 0.488184
0.495103 0.247633 0.488209
0.729688 0.250436 0.491012
0.957866 0.253594 0.492236
0.001777 0.491922 0.487313
0.248885 0.492815 0.488206
0.495975 0.493691 0.489082
0.728497 0.494909 0.490576
0.957032 0.495734 0.491402
0.004186 0.728087 0.489722
0.251655 0.726610 0.490976
0.497045 0.725422 0.490565
0.728497 0.725433 0.490576
0.957032 0.726259 0.491402
0.007331 0.955312 0.492867
0.254800 0.953835 0.492220
0.497867 0.953001 0.491387
0.729308 0.953001 0.491387
0.957032 0.953016 0.491402
0.004101 0.004101 0.721892
0.250315 0.004101 0.721892
0.496529 0.004101 0.721892
0.731158 0.004229 0.721911
0.959336 0.007387 0.722381
0.004101 0.249060 0.721892
0.251563 0.250308 0.720422
0.497777 0.250308 0.720422
0.729688 0.250436 0.720441
0.957866 0.253594 0.720911
0.004101 0.494245 0.721892
0.251569 0.495500 0.720414
0.497038 0.494891 0.719233
0.728513 0.494924 0.719266
0.957047 0.495750 0.720092
0.004186 0.728087 0.721904
0.251655 0.726610 0.720427
0.497068 0.725446 0.719263
0.729326 0.726262 0.720080
0.957861 0.727088 0.720905
0.007331 0.955312 0.722372
0.254800 0.953835 0.720895
0.497890 0.953025 0.720085
0.730138 0.953831 0.720891
0.957861 0.953845 0.720905
0.007219 0.007219 0.947193
0.253433 0.007219 0.947193
0.499647 0.007219 0.947193
0.731602 0.007219 0.947193
0.959336 0.007387 0.947218
0.007219 0.252178 0.947193
0.254681 0.253426 0.945723
0.498691 0.253426 0.945723
0.730132 0.253426 0.945723
0.957866 0.253594 0.945748
0.007219 0.497363 0.947193
0.254687 0.496536 0.945715
0.497853 0.495706 0.944885
0.729295 0.495706 0.944885
0.957047 0.495750 0.944929
0.007219 0.728538 0.947193
0.254687 0.727061 0.945715
0.497861 0.726238 0.944893
0.730131 0.727067 0.945721
0.957883 0.727111 0.945765
0.007331 0.955312 0.947209
0.254800 0.953835 0.945732
0.497890 0.953025 0.944922
0.730171 0.953864 0.945761
0.958676 0.954660 0.946558
