docs/luts/fuji_recipes/Classic_PE_Chrome_Eggleston.cube
TITLE "Fujifilm Recipe: PE Chrome Eggleston (Classic)"
# FilmSim=Classic HL=2 SH=2 Col=-2 WB=Auto WBR=0 WBB=0
LUT_3D_SIZE 33
DOMAIN_MIN 0.0 0.0 0.0
DOMAIN_MAX 1.0 1.0 1.0
0.000000 0.000000 0.000000
0.020922 0.007598 0.007598
0.041845 0.015195 0.015195
0.062767 0.022793 0.022793
0.083689 0.030391 0.030391
0.104611 0.037989 0.037989
0.125534 0.045586 0.045586
0.146456 0.053184 0.053184
0.167378 0.060782 0.060782
0.188300 0.068380 0.068380
0.209223 0.075977 0.075977
0.230145 0.083575 0.083575
0.251067 0.091173 0.091173
0.271990 0.098770 0.098770
0.292912 0.106368 0.106368
0.313834 0.113966 0.113966
0.334756 0.121564 0.121564
0.358041 0.130019 0.130019
0.378626 0.137494 0.137494
0.433539 0.152505 0.152505
0.457585 0.160740 0.160740
0.481631 0.168975 0.168975
0.505677 0.177210 0.177210
0.529723 0.185445 0.185445
0.553770 0.193680 0.193680
0.577816 0.201915 0.201915
0.601862 0.210150 0.210150
0.625908 0.218385 0.218385
0.649954 0.226620 0.226620
0.674001 0.234855 0.234855
0.698047 0.243090 0.243090
0.722093 0.251325 0.251325
0.746139 0.259560 0.259560
0.007522 0.020713 0.007522
0.020922 0.020789 0.007598
0.041845 0.028387 0.015195
0.062767 0.035984 0.022793
0.083689 0.043582 0.030391
0.104611 0.051180 0.037989
0.125534 0.058778 0.045586
0.146456 0.066375 0.053184
0.167378 0.073973 0.060782
0.188300 0.081571 0.068380
0.209223 0.089169 0.075977
0.230145 0.096766 0.083575
0.251067 0.104364 0.091173
0.271990 0.111962 0.098770
0.292912 0.119559 0.106368
0.313834 0.127157 0.113966
0.334756 0.134755 0.121564
0.358041 0.143210 0.130019
0.378626 0.150686 0.137494
0.433539 0.165696 0.152505
0.457585 0.173931 0.160740
0.481631 0.182166 0.168975
0.505677 0.190401 0.177210
0.529723 0.198636 0.185445
0.553770 0.206871 0.193680
0.577816 0.215106 0.201915
0.601862 0.223341 0.210150
0.625908 0.231576 0.218385
0.649954 0.239811 0.226620
0.674001 0.248046 0.234855
0.698047 0.256281 0.243090
0.722093 0.264516 0.251325
0.746139 0.272751 0.259560
0.015076 0.041516 0.015076
0.028401 0.041516 0.015076
0.041845 0.041635 0.015195
0.062767 0.049233 0.022793
0.083689 0.056831 0.030391
0.104611 0.064428 0.037989
0.125534 0.072026 0.045586
0.146456 0.079624 0.053184
0.167378 0.087222 0.060782
0.188300 0.094819 0.068380
0.209223 0.102417 0.075977
0.230145 0.110015 0.083575
0.251067 0.117612 0.091173
0.271990 0.125210 0.098770
0.292912 0.132808 0.106368
0.313834 0.140406 0.113966
0.334756 0.148003 0.121564
0.358041 0.156459 0.130019
0.378626 0.163934 0.137494
0.433539 0.178945 0.152505
0.457585 0.187180 0.160740
0.481631 0.195415 0.168975
0.505677 0.203650 0.177210
0.529723 0.211885 0.185445
0.553770 0.220120 0.193680
0.577816 0.228355 0.201915
0.601862 0.236590 0.210150
0.625908 0.244825 0.218385
0.649954 0.253060 0.226620
0.674001 0.261295 0.234855
0.698047 0.269530 0.243090
0.722093 0.277765 0.251325
0.746139 0.286000 0.259560
0.022642 0.062351 0.022642
0.035967 0.062351 0.022642
0.049291 0.062351 0.022642
0.062767 0.062502 0.022793
0.083689 0.070099 0.030391
0.104611 0.077697 0.037989
0.125534 0.085295 0.045586
0.146456 0.092893 0.053184
0.167378 0.100490 0.060782
0.188300 0.108088 0.068380
0.209223 0.115686 0.075977
0.230145 0.123284 0.083575
0.251067 0.130881 0.091173
0.271990 0.138479 0.098770
0.292912 0.146077 0.106368
0.313834 0.153675 0.113966
0.334756 0.161272 0.121564
0.358041 0.169728 0.130019
0.378626 0.177203 0.137494
0.433539 0.192214 0.152505
0.457585 0.200449 0.160740
0.481631 0.208684 0.168975
0.505677 0.216919 0.177210
0.529723 0.225154 0.185445
0.553770 0.233389 0.193680
0.577816 0.241624 0.201915
0.601862 0.249859 0.210150
0.625908 0.258094 0.218385
0.649954 0.266329 0.226620
0.674001 0.274564 0.234855
0.698047 0.282799 0.243090
0.722093 0.291034 0.251325
0.746139 0.299269 0.259560
0.030208 0.083185 0.030208
0.043533 0.083185 0.030208
0.056857 0.083185 0.030208
0.070182 0.083185 0.030208
0.083689 0.083368 0.030391
0.104611 0.090966 0.037989
0.125534 0.098564 0.045586
0.146456 0.106162 0.053184
0.167378 0.113759 0.060782
0.188300 0.121357 0.068380
0.209223 0.128955 0.075977
0.230145 0.136552 0.083575
0.251067 0.144150 0.091173
0.271990 0.151748 0.098770
0.292912 0.159346 0.106368
0.313834 0.166943 0.113966
0.334756 0.174541 0.121564
0.358041 0.182997 0.130019
0.378626 0.190472 0.137494
0.433539 0.205482 0.152505
0.457585 0.213717 0.160740
0.481631 0.221952 0.168975
0.505677 0.230187 0.177210
0.529723 0.238422 0.185445
0.553770 0.246657 0.193680
0.577816 0.254892 0.201915
0.601862 0.263127 0.210150
0.625908 0.271362 0.218385
0.649954 0.279597 0.226620
0.674001 0.287832 0.234855
0.698047 0.296067 0.243090
0.722093 0.304302 0.251325
0.746139 0.312537 0.259560
0.037774 0.104020 0.037774
0.051099 0.104020 0.037774
0.064423 0.104020 0.037774
0.077748 0.104020 0.037774
0.091072 0.104020 0.037774
0.104611 0.104235 0.037989
0.125534 0.111833 0.045586
0.146456 0.119430 0.053184
0.167378 0.127028 0.060782
0.188300 0.134626 0.068380
0.209223 0.142224 0.075977
0.230145 0.149821 0.083575
0.251067 0.157419 0.091173
0.271990 0.165017 0.098770
0.292912 0.172615 0.106368
0.313834 0.180212 0.113966
0.334756 0.187810 0.121564
0.358041 0.196265 0.130019
0.378626 0.203741 0.137494
0.433539 0.218751 0.152505
0.457585 0.226986 0.160740
0.481631 0.235221 0.168975
0.505677 0.243456 0.177210
0.529723 0.251691 0.185445
0.553770 0.259926 0.193680
0.577816 0.268161 0.201915
0.601862 0.276396 0.210150
0.625908 0.284631 0.218385
0.649954 0.292866 0.226620
0.674001 0.301101 0.234855
0.698047 0.309336 0.243090
0.722093 0.317571 0.251325
0.746139 0.325806 0.259560
0.045340 0.124855 0.045340
0.058665 0.124855 0.045340
0.071989 0.124855 0.045340
0.085314 0.124855 0.045340
0.098638 0.124855 0.045340
0.111963 0.124855 0.045340
0.125534 0.125102 0.045586
0.146456 0.132699 0.053184
0.167378 0.140297 0.060782
0.188300 0.147895 0.068380
0.209223 0.155492 0.075977
0.230145 0.163090 0.083575
0.251067 0.170688 0.091173
0.271990 0.178286 0.098770
0.292912 0.185883 0.106368
0.313834 0.193481 0.113966
0.334756 0.201079 0.121564
0.358041 0.209534 0.130019
0.378626 0.217010 0.137494
0.433539 0.232020 0.152505
0.457585 0.240255 0.160740
0.481631 0.248490 0.168975
0.505677 0.256725 0.177210
0.529723 0.264960 0.185445
0.553770 0.273195 0.193680
0.577816 0.281430 0.201915
0.601862 0.289665 0.210150
0.625908 0.297900 0.218385
0.649954 0.306135 0.226620
0.674001 0.314370 0.234855
0.698047 0.322605 0.243090
0.722093 0.330840 0.251325
0.746139 0.339075 0.259560
0.052906 0.145690 0.052906
0.066231 0.145690 0.052906
0.079555 0.145690 0.052906
0.092880 0.145690 0.052906
0.106204 0.145690 0.052906
0.119529 0.145690 0.052906
0.132853 0.145690 0.052906
0.146456 0.145968 0.053184
0.167378 0.153566 0.060782
0.188300 0.161164 0.068380
0.209223 0.168761 0.075977
0.230145 0.176359 0.083575
0.251067 0.183957 0.091173
0.271990 0.191555 0.098770
0.292912 0.199152 0.106368
0.313834 0.206750 0.113966
0.334756 0.214348 0.121564
0.358041 0.222803 0.130019
0.378626 0.230278 0.137494
0.433539 0.245289 0.152505
0.457585 0.253524 0.160740
0.481631 0.261759 0.168975
0.505677 0.269994 0.177210
0.529723 0.278229 0.185445
0.553770 0.286464 0.193680
0.577816 0.294699 0.201915
0.601862 0.302934 0.210150
0.625908 0.311169 0.218385
0.649954 0.319404 0.226620
0.674001 0.327639 0.234855
0.698047 0.335874 0.243090
0.722093 0.344109 0.251325
0.746139 0.352344 0.259560
0.060472 0.166525 0.060472
0.073796 0.166525 0.060472
0.087121 0.166525 0.060472
0.100446 0.166525 0.060472
0.113770 0.166525 0.060472
0.127095 0.166525 0.060472
0.140419 0.166525 0.060472
0.153744 0.166525 0.060472
0.167378 0.166835 0.060782
0.188300 0.174432 0.068380
0.209223 0.182030 0.075977
0.230145 0.189628 0.083575
0.251067 0.197226 0.091173
0.271990 0.204823 0.098770
0.292912 0.212421 0.106368
0.313834 0.220019 0.113966
0.334756 0.227617 0.121564
0.358041 0.236072 0.130019
0.378626 0.243547 0.137494
0.433539 0.258558 0.152505
0.457585 0.266793 0.160740
0.481631 0.275028 0.168975
0.505677 0.283263 0.177210
0.529723 0.291498 0.185445
0.553770 0.299733 0.193680
0.577816 0.307968 0.201915
0.601862 0.316203 0.210150
0.625908 0.324438 0.218385
0.649954 0.332673 0.226620
0.674001 0.340908 0.234855
0.698047 0.349143 0.243090
0.722093 0.357378 0.251325
0.746139 0.365613 0.259560
0.068038 0.187360 0.068038
0.081362 0.187360 0.068038
0.094687 0.187360 0.068038
0.108012 0.187360 0.068038
0.121336 0.187360 0.068038
0.134661 0.187360 0.068038
0.147985 0.187360 0.068038
0.161310 0.187360 0.068038
0.174634 0.187360 0.068038
0.188300 0.187701 0.068380
0.209223 0.195299 0.075977
0.230145 0.202897 0.083575
0.251067 0.210494 0.091173
0.271990 0.218092 0.098770
0.292912 0.225690 0.106368
0.313834 0.233288 0.113966
0.334756 0.240885 0.121564
0.358041 0.249341 0.130019
0.378626 0.256816 0.137494
0.433539 0.271827 0.152505
0.457585 0.280062 0.160740
0.481631 0.288297 0.168975
0.505677 0.296532 0.177210
0.529723 0.304767 0.185445
0.553770 0.313002 0.193680
0.577816 0.321237 0.201915
0.601862 0.329472 0.210150
0.625908 0.337707 0.218385
0.649954 0.345942 0.226620
0.674001 0.354177 0.234855
0.698047 0.362412 0.243090
0.722093 0.370647 0.251325
0.746139 0.378882 0.259560
0.075604 0.208195 0.075604
0.088928 0.208195 0.075604
0.102253 0.208195 0.075604
0.115578 0.208195 0.075604
0.128902 0.208195 0.075604
0.142227 0.208195 0.075604
0.155551 0.208195 0.075604
0.168876 0.208195 0.075604
0.182200 0.208195 0.075604
0.195525 0.208195 0.075604
0.209223 0.208568 0.075977
0.230145 0.216166 0.083575
0.251067 0.223763 0.091173
0.271990 0.231361 0.098770
0.292912 0.238959 0.106368
0.313834 0.246557 0.113966
0.334756 0.254154 0.121564
0.358041 0.262610 0.130019
0.378626 0.270085 0.137494
0.433539 0.285096 0.152505
0.457585 0.293331 0.160740
0.481631 0.301566 0.168975
0.505677 0.309801 0.177210
0.529723 0.318036 0.185445
0.553770 0.326271 0.193680
0.577816 0.334506 0.201915
0.601862 0.342741 0.210150
0.625908 0.350976 0.218385
0.649954 0.359211 0.226620
0.674001 0.367446 0.234855
0.698047 0.375681 0.243090
0.722093 0.383916 0.251325
0.746139 0.392151 0.259560
0.083170 0.229029 0.083170
0.096494 0.229029 0.083170
0.109819 0.229029 0.083170
0.123144 0.229029 0.083170
0.136468 0.229029 0.083170
0.149793 0.229029 0.083170
0.163117 0.229029 0.083170
0.176442 0.229029 0.083170
0.189766 0.229029 0.083170
0.203091 0.229029 0.083170
0.216415 0.229029 0.083170
0.230145 0.229434 0.083575
0.251067 0.237032 0.091173
0.271990 0.244630 0.098770
0.292912 0.252228 0.106368
0.313834 0.259825 0.113966
0.334756 0.267423 0.121564
0.358041 0.275879 0.130019
0.378626 0.283354 0.137494
0.433539 0.298364 0.152505
0.457585 0.306599 0.160740
0.481631 0.314834 0.168975
0.505677 0.323069 0.177210
0.529723 0.331304 0.185445
0.553770 0.339539 0.193680
0.577816 0.347774 0.201915
0.601862 0.356009 0.210150
0.625908 0.364244 0.218385
0.649954 0.372479 0.226620
0.674001 0.380714 0.234855
0.698047 0.388949 0.243090
0.722093 0.397184 0.251325
0.746139 0.405419 0.259560
0.090736 0.249864 0.090736
0.104060 0.249864 0.090736
0.117385 0.249864 0.090736
0.130709 0.249864 0.090736
0.144034 0.249864 0.090736
0.157359 0.249864 0.090736
0.170683 0.249864 0.090736
0.184008 0.249864 0.090736
0.197332 0.249864 0.090736
0.210657 0.249864 0.090736
0.223981 0.249864 0.090736
0.237306 0.249864 0.090736
0.251067 0.250301 0.091173
0.271990 0.257899 0.098770
0.292912 0.265497 0.106368
0.313834 0.273094 0.113966
0.334756 0.280692 0.121564
0.358041 0.289148 0.130019
0.378626 0.296623 0.137494
0.433539 0.311633 0.152505
0.457585 0.319868 0.160740
0.481631 0.328103 0.168975
0.505677 0.336338 0.177210
0.529723 0.344573 0.185445
0.553770 0.352808 0.193680
0.577816 0.361043 0.201915
0.601862 0.369278 0.210150
0.625908 0.377513 0.218385
0.649954 0.385748 0.226620
0.674001 0.393983 0.234855
0.698047 0.402218 0.243090
0.722093 0.410453 0.251325
0.746139 0.418688 0.259560
0.098302 0.270699 0.098302
0.111626 0.270699 0.098302
0.124951 0.270699 0.098302
0.138275 0.270699 0.098302
0.151600 0.270699 0.098302
0.164925 0.270699 0.098302
0.178249 0.270699 0.098302
0.191574 0.270699 0.098302
0.204898 0.270699 0.098302
0.218223 0.270699 0.098302
0.231547 0.270699 0.098302
0.244872 0.270699 0.098302
0.258196 0.270699 0.098302
0.271990 0.271168 0.098770
0.292912 0.278765 0.106368
0.313834 0.286363 0.113966
0.334756 0.293961 0.121564
0.358041 0.302416 0.130019
0.378626 0.309892 0.137494
0.433539 0.324902 0.152505
0.457585 0.333137 0.160740
0.481631 0.341372 0.168975
0.505677 0.349607 0.177210
0.529723 0.357842 0.185445
0.553770 0.366077 0.193680
0.577816 0.374312 0.201915
0.601862 0.382547 0.210150
0.625908 0.390782 0.218385
0.649954 0.399017 0.226620
0.674001 0.407252 0.234855
0.698047 0.415487 0.243090
0.722093 0.423722 0.251325
0.746139 0.431957 0.259560
0.105868 0.291534 0.105868
0.119192 0.291534 0.105868
0.132517 0.291534 0.105868
0.145841 0.291534 0.105868
0.159166 0.291534 0.105868
0.172491 0.291534 0.105868
0.185815 0.291534 0.105868
0.199140 0.291534 0.105868
0.212464 0.291534 0.105868
0.225789 0.291534 0.105868
0.239113 0.291534 0.105868
0.252438 0.291534 0.105868
0.265762 0.291534 0.105868
0.279087 0.291534 0.105868
0.292912 0.292034 0.106368
0.313834 0.299632 0.113966
0.334756 0.307230 0.121564
0.358041 0.315685 0.130019
0.378626 0.323160 0.137494
0.433539 0.338171 0.152505
0.457585 0.346406 0.160740
0.481631 0.354641 0.168975
0.505677 0.362876 0.177210
0.529723 0.371111 0.185445
0.553770 0.379346 0.193680
0.577816 0.387581 0.201915
0.601862 0.395816 0.210150
0.625908 0.404051 0.218385
0.649954 0.412286 0.226620
0.674001 0.420521 0.234855
0.698047 0.428756 0.243090
0.722093 0.436991 0.251325
0.746139 0.445226 0.259560
0.113434 0.312369 0.113434
0.126758 0.312369 0.113434
0.140083 0.312369 0.113434
0.153407 0.312369 0.113434
0.166732 0.312369 0.113434
0.180057 0.312369 0.113434
0.193381 0.312369 0.113434
0.206706 0.312369 0.113434
0.220030 0.312369 0.113434
0.233355 0.312369 0.113434
0.246679 0.312369 0.113434
0.260004 0.312369 0.113434
0.273328 0.312369 0.113434
0.286653 0.312369 0.113434
0.299977 0.312369 0.113434
0.313834 0.312901 0.113966
0.334756 0.320499 0.121564
0.358041 0.328954 0.130019
0.378626 0.336429 0.137494
0.433539 0.351440 0.152505
0.457585 0.359675 0.160740
0.481631 0.367910 0.168975
0.505677 0.376145 0.177210
0.529723 0.384380 0.185445
0.553770 0.392615 0.193680
0.577816 0.400850 0.201915
0.601862 0.409085 0.210150
0.625908 0.417320 0.218385
0.649954 0.425555 0.226620
0.674001 0.433790 0.234855
0.698047 0.442025 0.243090
0.722093 0.450260 0.251325
0.746139 0.458495 0.259560
0.121000 0.333204 0.121000
0.134324 0.333204 0.121000
0.147649 0.333204 0.121000
0.160973 0.333204 0.121000
0.174298 0.333204 0.121000
0.187622 0.333204 0.121000
0.200947 0.333204 0.121000
0.214272 0.333204 0.121000
0.227596 0.333204 0.121000
0.240921 0.333204 0.121000
0.254245 0.333204 0.121000
0.267570 0.333204 0.121000
0.280894 0.333204 0.121000
0.294219 0.333204 0.121000
0.307543 0.333204 0.121000
0.320868 0.333204 0.121000
0.334756 0.333767 0.121564
0.358041 0.342223 0.130019
0.378626 0.349698 0.137494
0.433539 0.364709 0.152505
0.457585 0.372944 0.160740
0.481631 0.381179 0.168975
0.505677 0.389414 0.177210
0.529723 0.397649 0.185445
0.553770 0.405884 0.193680
0.577816 0.414119 0.201915
0.601862 0.422354 0.210150
0.625908 0.430589 0.218385
0.649954 0.438824 0.226620
0.674001 0.447059 0.234855
0.698047 0.455294 0.243090
0.722093 0.463529 0.251325
0.746139 0.471764 0.259560
0.129433 0.356427 0.129433
0.142758 0.356427 0.129433
0.156082 0.356427 0.129433
0.169407 0.356427 0.129433
0.182731 0.356427 0.129433
0.196056 0.356427 0.129433
0.209380 0.356427 0.129433
0.222705 0.356427 0.129433
0.236030 0.356427 0.129433
0.249354 0.356427 0.129433
0.262679 0.356427 0.129433
0.276003 0.356427 0.129433
0.289328 0.356427 0.129433
0.302652 0.356427 0.129433
0.315977 0.356427 0.129433
0.329301 0.356427 0.129433
0.342626 0.356427 0.129433
0.358041 0.357013 0.130019
0.378626 0.364488 0.137494
0.433539 0.379499 0.152505
0.457585 0.387734 0.160740
0.481631 0.395969 0.168975
0.505677 0.404204 0.177210
0.529723 0.412439 0.185445
0.553770 0.420674 0.193680
0.577816 0.428909 0.201915
0.601862 0.437144 0.210150
0.625908 0.445379 0.218385
0.649954 0.479463 0.226620
0.674001 0.488119 0.234855
0.698047 0.496776 0.243090
0.722093 0.505433 0.251325
0.746139 0.514089 0.259560
0.136877 0.376926 0.136877
0.150202 0.376926 0.136877
0.163526 0.376926 0.136877
0.176851 0.376926 0.136877
0.190175 0.376926 0.136877
0.203500 0.376926 0.136877
0.216824 0.376926 0.136877
0.230149 0.376926 0.136877
0.243473 0.376926 0.136877
0.256798 0.376926 0.136877
0.270123 0.376926 0.136877
0.283447 0.376926 0.136877
0.296772 0.376926 0.136877
0.310096 0.376926 0.136877
0.323421 0.376926 0.136877
0.336745 0.376926 0.136877
0.350070 0.376926 0.136877
0.364899 0.376926 0.136877
0.378626 0.377543 0.137494
0.433539 0.392554 0.152505
0.457585 0.400789 0.160740
0.481631 0.409024 0.168975
0.505677 0.417259 0.177210
0.529723 0.451505 0.185445
0.553770 0.460161 0.193680
0.577816 0.468818 0.201915
0.601862 0.477475 0.210150
0.625908 0.486131 0.218385
0.649954 0.494788 0.226620
0.674001 0.503445 0.234855
0.698047 0.512101 0.243090
0.722093 0.520758 0.251325
0.746139 0.529414 0.259560
0.151791 0.431453 0.151791
0.165115 0.431453 0.151791
0.178440 0.431453 0.151791
0.191764 0.431453 0.151791
0.205089 0.431453 0.151791
0.218413 0.431453 0.151791
0.231738 0.431453 0.151791
0.245062 0.431453 0.151791
0.258387 0.431453 0.151791
0.271711 0.431453 0.151791
0.285036 0.431453 0.151791
0.298361 0.431453 0.151791
0.311685 0.431453 0.151791
0.325010 0.431453 0.151791
0.338334 0.431453 0.151791
0.351659 0.431453 0.151791
0.364983 0.431453 0.151791
0.379812 0.431453 0.151791
0.392922 0.431453 0.151791
0.433539 0.432203 0.152505
0.457585 0.440860 0.160740
0.481631 0.449517 0.168975
0.505677 0.458173 0.177210
0.529723 0.466830 0.185445
0.553770 0.475487 0.193680
0.577816 0.484143 0.201915
0.601862 0.492800 0.210150
0.625908 0.501457 0.218385
0.649954 0.510113 0.226620
0.674001 0.518770 0.234855
0.698047 0.527426 0.243090
0.722093 0.536083 0.251325
0.746139 0.544740 0.259560
0.159991 0.455398 0.159991
0.173316 0.455398 0.159991
0.186640 0.455398 0.159991
0.199965 0.455398 0.159991
0.213289 0.455398 0.159991
0.226614 0.455398 0.159991
0.239938 0.455398 0.159991
0.253263 0.455398 0.159991
0.266588 0.455398 0.159991
0.279912 0.455398 0.159991
0.293237 0.455398 0.159991
0.306561 0.455398 0.159991
0.319886 0.455398 0.159991
0.333210 0.455398 0.159991
0.346535 0.455398 0.159991
0.359859 0.455398 0.159991
0.373184 0.455398 0.159991
0.388013 0.455398 0.159991
0.401122 0.455398 0.159991
0.441408 0.455398 0.159991
0.457585 0.456185 0.160740
0.481631 0.464842 0.168975
0.505677 0.473499 0.177210
0.529723 0.482155 0.185445
0.553770 0.490812 0.193680
0.577816 0.499469 0.201915
0.601862 0.508125 0.210150
0.625908 0.516782 0.218385
0.649954 0.525438 0.226620
0.674001 0.534095 0.234855
0.698047 0.542752 0.243090
0.722093 0.551408 0.251325
0.746139 0.560065 0.259560
0.168192 0.479344 0.168192
0.181516 0.479344 0.168192
0.194841 0.479344 0.168192
0.208165 0.479344 0.168192
0.221490 0.479344 0.168192
0.234814 0.479344 0.168192
0.248139 0.479344 0.168192
0.261464 0.479344 0.168192
0.274788 0.479344 0.168192
0.288113 0.479344 0.168192
0.301437 0.479344 0.168192
0.314762 0.479344 0.168192
0.328086 0.479344 0.168192
0.341411 0.479344 0.168192
0.354735 0.479344 0.168192
0.368060 0.479344 0.168192
0.381384 0.479344 0.168192
0.396213 0.479344 0.168192
0.409323 0.479344 0.168192
0.450029 0.479344 0.168192
0.465418 0.479344 0.168192
0.481631 0.480167 0.168975
0.505677 0.488824 0.177210
0.529723 0.497481 0.185445
0.553770 0.506137 0.193680
0.577816 0.514794 0.201915
0.601862 0.523450 0.210150
0.625908 0.532107 0.218385
0.649954 0.540764 0.226620
0.674001 0.549420 0.234855
0.698047 0.558077 0.243090
0.722093 0.566734 0.251325
0.746139 0.575390 0.259560
0.176392 0.503290 0.176392
0.189717 0.503290 0.176392
0.203041 0.503290 0.176392
0.216366 0.503290 0.176392
0.229691 0.503290 0.176392
0.243015 0.503290 0.176392
0.256340 0.503290 0.176392
0.269664 0.503290 0.176392
0.282989 0.503290 0.176392
0.296313 0.503290 0.176392
0.309638 0.503290 0.176392
0.322962 0.503290 0.176392
0.336287 0.503290 0.176392
0.349611 0.503290 0.176392
0.362936 0.503290 0.176392
0.376261 0.503290 0.176392
0.389585 0.503290 0.176392
0.404414 0.503290 0.176392
0.443259 0.503290 0.176392
0.458649 0.503290 0.176392
0.474039 0.503290 0.176392
0.489428 0.503290 0.176392
0.505677 0.504149 0.177210
0.529723 0.512806 0.185445
0.553770 0.521462 0.193680
0.577816 0.530119 0.201915
0.601862 0.538776 0.210150
0.625908 0.547432 0.218385
0.649954 0.556089 0.226620
0.674001 0.564746 0.234855
0.698047 0.573402 0.243090
0.722093 0.582059 0.251325
0.746139 0.590715 0.259560
0.184593 0.527235 0.184593
0.197917 0.527235 0.184593
0.211242 0.527235 0.184593
0.224567 0.527235 0.184593
0.237891 0.527235 0.184593
0.251216 0.527235 0.184593
0.264540 0.527235 0.184593
0.277865 0.527235 0.184593
0.291189 0.527235 0.184593
0.304514 0.527235 0.184593
0.317838 0.527235 0.184593
0.331163 0.527235 0.184593
0.344487 0.527235 0.184593
0.357812 0.527235 0.184593
0.371137 0.527235 0.184593
0.384461 0.527235 0.184593
0.397786 0.527235 0.184593
0.412615 0.527235 0.184593
0.451880 0.527235 0.184593
0.467269 0.527235 0.184593
0.482659 0.527235 0.184593
0.498049 0.527235 0.184593
0.513438 0.527235 0.184593
0.529723 0.528131 0.185445
0.553770 0.536788 0.193680
0.577816 0.545444 0.201915
0.601862 0.554101 0.210150
0.625908 0.562758 0.218385
0.649954 0.571414 0.226620
0.674001 0.580071 0.234855
0.698047 0.588727 0.243090
0.722093 0.597384 0.251325
0.746139 0.606041 0.259560
0.192794 0.551181 0.192794
0.206118 0.551181 0.192794
0.219443 0.551181 0.192794
0.232767 0.551181 0.192794
0.246092 0.551181 0.192794
0.259416 0.551181 0.192794
0.272741 0.551181 0.192794
0.286065 0.551181 0.192794
0.299390 0.551181 0.192794
0.312714 0.551181 0.192794
0.326039 0.551181 0.192794
0.339364 0.551181 0.192794
0.352688 0.551181 0.192794
0.366013 0.551181 0.192794
0.379337 0.551181 0.192794
0.392662 0.551181 0.192794
0.405986 0.551181 0.192794
0.420815 0.551181 0.192794
0.460500 0.551181 0.192794
0.475890 0.551181 0.192794
0.491279 0.551181 0.192794
0.506669 0.551181 0.192794
0.522059 0.551181 0.192794
0.537448 0.551181 0.192794
0.553770 0.552113 0.193680
0.577816 0.560770 0.201915
0.601862 0.569426 0.210150
0.625908 0.578083 0.218385
0.649954 0.586739 0.226620
0.674001 0.595396 0.234855
0.698047 0.604053 0.243090
0.722093 0.612709 0.251325
0.746139 0.621366 0.259560
0.200994 0.575127 0.200994
0.214319 0.575127 0.200994
0.227643 0.575127 0.200994
0.240968 0.575127 0.200994
0.254292 0.575127 0.200994
0.267617 0.575127 0.200994
0.280941 0.575127 0.200994
0.294266 0.575127 0.200994
0.307590 0.575127 0.200994
0.320915 0.575127 0.200994
0.334240 0.575127 0.200994
0.347564 0.575127 0.200994
0.360889 0.575127 0.200994
0.374213 0.575127 0.200994
0.387538 0.575127 0.200994
0.400862 0.575127 0.200994
0.414187 0.575127 0.200994
0.429016 0.575127 0.200994
0.469121 0.575127 0.200994
0.484510 0.575127 0.200994
0.499900 0.575127 0.200994
0.515289 0.575127 0.200994
0.530679 0.575127 0.200994
0.546069 0.575127 0.200994
0.561458 0.575127 0.200994
0.577816 0.576095 0.201915
0.601862 0.584751 0.210150
0.625908 0.593408 0.218385
0.649954 0.602065 0.226620
0.674001 0.610721 0.234855
0.698047 0.619378 0.243090
0.722093 0.628035 0.251325
0.746139 0.636691 0.259560
0.209195 0.599073 0.209195
0.222519 0.599073 0.209195
0.235844 0.599073 0.209195
0.249168 0.599073 0.209195
0.262493 0.599073 0.209195
0.275817 0.599073 0.209195
0.289142 0.599073 0.209195
0.302467 0.599073 0.209195
0.315791 0.599073 0.209195
0.329116 0.599073 0.209195
0.342440 0.599073 0.209195
0.355765 0.599073 0.209195
0.369089 0.599073 0.209195
0.382414 0.599073 0.209195
0.395738 0.599073 0.209195
0.409063 0.599073 0.209195
0.422387 0.599073 0.209195
0.437216 0.599073 0.209195
0.477741 0.599073 0.209195
0.493131 0.599073 0.209195
0.508520 0.599073 0.209195
0.523910 0.599073 0.209195
0.539300 0.599073 0.209195
0.554689 0.599073 0.209195
