docs/luts/fuji_recipes/Classic_VM_K14.cube
TITLE "Fujifilm Recipe: VM K14 (Classic)"
# FilmSim=Classic HL=-1 SH=0 Col=-4 WB=Auto WBR=0 WBB=-2
LUT_3D_SIZE 33
DOMAIN_MIN 0.0 0.0 0.0
DOMAIN_MAX 1.0 1.0 1.0
0.000000 0.000000 0.000000
0.018668 0.012332 0.012332
0.037336 0.024664 0.024664
0.056005 0.036995 0.036995
0.074673 0.049327 0.049327
0.093341 0.061659 0.061659
0.112009 0.073991 0.073991
0.130677 0.086323 0.086323
0.149346 0.098654 0.098654
0.168014 0.110986 0.110986
0.186682 0.123318 0.123318
0.205350 0.135650 0.135650
0.224018 0.147982 0.147982
0.242687 0.160313 0.160313
0.261355 0.172645 0.172645
0.280023 0.184977 0.184977
0.298691 0.197309 0.197309
0.319467 0.211033 0.211033
0.337834 0.223166 0.223166
0.355754 0.235047 0.235047
0.373108 0.246610 0.246610
0.390462 0.258173 0.258173
0.407816 0.269736 0.269736
0.425170 0.281299 0.281299
0.442524 0.292862 0.292862
0.459878 0.304425 0.304425
0.477232 0.315988 0.315988
0.494586 0.327551 0.327551
0.511940 0.339114 0.339114
0.529294 0.350677 0.350677
0.546648 0.362241 0.362241
0.564002 0.373804 0.373804
0.581356 0.385367 0.385367
0.012208 0.018482 0.012208
0.018668 0.018605 0.012332
0.037336 0.030937 0.024664
0.056005 0.043268 0.036995
0.074673 0.055600 0.049327
0.093341 0.067932 0.061659
0.112009 0.080264 0.073991
0.130677 0.092596 0.086323
0.149346 0.104927 0.098654
0.168014 0.117259 0.110986
0.186682 0.129591 0.123318
0.205350 0.141923 0.135650
0.224018 0.154255 0.147982
0.242687 0.166586 0.160313
0.261355 0.178918 0.172645
0.280023 0.191250 0.184977
0.298691 0.203582 0.197309
0.319467 0.217306 0.211033
0.337834 0.229439 0.223166
0.355754 0.241320 0.235047
0.373108 0.252883 0.246610
0.390462 0.264446 0.258173
0.407816 0.276009 0.269736
0.425170 0.287572 0.281299
0.442524 0.299135 0.292862
0.459878 0.310698 0.304425
0.477232 0.322261 0.315988
0.494586 0.333824 0.327551
0.511940 0.345387 0.339114
0.529294 0.356951 0.350677
0.546648 0.368514 0.362241
0.564002 0.380077 0.373804
0.581356 0.391640 0.385367
0.024470 0.037043 0.024470
0.030806 0.037043 0.024470
0.037336 0.037237 0.024664
0.056005 0.049569 0.036995
0.074673 0.061900 0.049327
0.093341 0.074232 0.061659
0.112009 0.086564 0.073991
0.130677 0.098896 0.086323
0.149346 0.111228 0.098654
0.168014 0.123559 0.110986
0.186682 0.135891 0.123318
0.205350 0.148223 0.135650
0.224018 0.160555 0.147982
0.242687 0.172887 0.160313
0.261355 0.185218 0.172645
0.280023 0.197550 0.184977
0.298691 0.209882 0.197309
0.319467 0.223606 0.211033
0.337834 0.235739 0.223166
0.355754 0.247620 0.235047
0.373108 0.259183 0.246610
0.390462 0.270746 0.258173
0.407816 0.282309 0.269736
0.425170 0.293873 0.281299
0.442524 0.305436 0.292862
0.459878 0.316999 0.304425
0.477232 0.328562 0.315988
0.494586 0.340125 0.327551
0.511940 0.351688 0.339114
0.529294 0.363251 0.350677
0.546648 0.374814 0.362241
0.564002 0.386377 0.373804
0.581356 0.397940 0.385367
0.036750 0.055633 0.036750
0.043087 0.055633 0.036750
0.049423 0.055633 0.036750
0.056005 0.055879 0.036995
0.074673 0.068210 0.049327
0.093341 0.080542 0.061659
0.112009 0.092874 0.073991
0.130677 0.105206 0.086323
0.149346 0.117538 0.098654
0.168014 0.129869 0.110986
0.186682 0.142201 0.123318
0.205350 0.154533 0.135650
0.224018 0.166865 0.147982
0.242687 0.179197 0.160313
0.261355 0.191528 0.172645
0.280023 0.203860 0.184977
0.298691 0.216192 0.197309
0.319467 0.229916 0.211033
0.337834 0.242049 0.223166
0.355754 0.253930 0.235047
0.373108 0.265493 0.246610
0.390462 0.277056 0.258173
0.407816 0.288619 0.269736
0.425170 0.300182 0.281299
0.442524 0.311745 0.292862
0.459878 0.323309 0.304425
0.477232 0.334872 0.315988
0.494586 0.346435 0.327551
0.511940 0.357998 0.339114
0.529294 0.369561 0.350677
0.546648 0.381124 0.362241
0.564002 0.392687 0.373804
0.581356 0.404250 0.385367
0.049030 0.074223 0.049030
0.055367 0.074223 0.049030
0.061703 0.074223 0.049030
0.068040 0.074223 0.049030
0.074673 0.074520 0.049327
0.093341 0.086852 0.061659
0.112009 0.099184 0.073991
0.130677 0.111516 0.086323
0.149346 0.123847 0.098654
0.168014 0.136179 0.110986
0.186682 0.148511 0.123318
0.205350 0.160843 0.135650
0.224018 0.173175 0.147982
0.242687 0.185506 0.160313
0.261355 0.197838 0.172645
0.280023 0.210170 0.184977
0.298691 0.222502 0.197309
0.319467 0.236226 0.211033
0.337834 0.248359 0.223166
0.355754 0.260240 0.235047
0.373108 0.271803 0.246610
0.390462 0.283366 0.258173
0.407816 0.294929 0.269736
0.425170 0.306492 0.281299
0.442524 0.318055 0.292862
0.459878 0.329618 0.304425
0.477232 0.341181 0.315988
0.494586 0.352744 0.327551
0.511940 0.364308 0.339114
0.529294 0.375871 0.350677
0.546648 0.387434 0.362241
0.564002 0.398997 0.373804
0.581356 0.410560 0.385367
0.061311 0.092814 0.061311
0.067647 0.092814 0.061311
0.073983 0.092814 0.061311
0.080320 0.092814 0.061311
0.086656 0.092814 0.061311
0.093341 0.093162 0.061659
0.112009 0.105494 0.073991
0.130677 0.117826 0.086323
0.149346 0.130157 0.098654
0.168014 0.142489 0.110986
0.186682 0.154821 0.123318
0.205350 0.167153 0.135650
0.224018 0.179485 0.147982
0.242687 0.191816 0.160313
0.261355 0.204148 0.172645
0.280023 0.216480 0.184977
0.298691 0.228812 0.197309
0.319467 0.242536 0.211033
0.337834 0.254669 0.223166
0.355754 0.266550 0.235047
0.373108 0.278113 0.246610
0.390462 0.289676 0.258173
0.407816 0.301239 0.269736
0.425170 0.312802 0.281299
0.442524 0.324365 0.292862
0.459878 0.335928 0.304425
0.477232 0.347491 0.315988
0.494586 0.359054 0.327551
0.511940 0.370617 0.339114
0.529294 0.382180 0.350677
0.546648 0.393744 0.362241
0.564002 0.405307 0.373804
0.581356 0.416870 0.385367
0.073591 0.111404 0.073591
0.079927 0.111404 0.073591
0.086264 0.111404 0.073591
0.092600 0.111404 0.073591
0.098937 0.111404 0.073591
0.105273 0.111404 0.073591
0.112009 0.111804 0.073991
0.130677 0.124136 0.086323
0.149346 0.136467 0.098654
0.168014 0.148799 0.110986
0.186682 0.161131 0.123318
0.205350 0.173463 0.135650
0.224018 0.185795 0.147982
0.242687 0.198126 0.160313
0.261355 0.210458 0.172645
0.280023 0.222790 0.184977
0.298691 0.235122 0.197309
0.319467 0.248846 0.211033
0.337834 0.260979 0.223166
0.355754 0.272860 0.235047
0.373108 0.284423 0.246610
0.390462 0.295986 0.258173
0.407816 0.307549 0.269736
0.425170 0.319112 0.281299
0.442524 0.330675 0.292862
0.459878 0.342238 0.304425
0.477232 0.353801 0.315988
0.494586 0.365364 0.327551
0.511940 0.376927 0.339114
0.529294 0.388490 0.350677
0.546648 0.400053 0.362241
0.564002 0.411616 0.373804
0.581356 0.423180 0.385367
0.085871 0.129994 0.085871
0.092208 0.129994 0.085871
0.098544 0.129994 0.085871
0.104880 0.129994 0.085871
0.111217 0.129994 0.085871
0.117553 0.129994 0.085871
0.123890 0.129994 0.085871
0.130677 0.130445 0.086323
0.149346 0.142777 0.098654
0.168014 0.155109 0.110986
0.186682 0.167441 0.123318
0.205350 0.179773 0.135650
0.224018 0.192104 0.147982
0.242687 0.204436 0.160313
0.261355 0.216768 0.172645
0.280023 0.229100 0.184977
0.298691 0.241432 0.197309
0.319467 0.255156 0.211033
0.337834 0.267289 0.223166
0.355754 0.279170 0.235047
0.373108 0.290733 0.246610
0.390462 0.302296 0.258173
0.407816 0.313859 0.269736
0.425170 0.325422 0.281299
0.442524 0.336985 0.292862
0.459878 0.348548 0.304425
0.477232 0.360111 0.315988
0.494586 0.371674 0.327551
0.511940 0.383237 0.339114
0.529294 0.394800 0.350677
0.546648 0.406363 0.362241
0.564002 0.417926 0.373804
0.581356 0.429489 0.385367
0.098151 0.148584 0.098151
0.104488 0.148584 0.098151
0.110824 0.148584 0.098151
0.117161 0.148584 0.098151
0.123497 0.148584 0.098151
0.129833 0.148584 0.098151
0.136170 0.148584 0.098151
0.142506 0.148584 0.098151
0.149346 0.149087 0.098654
0.168014 0.161419 0.110986
0.186682 0.173751 0.123318
0.205350 0.186083 0.135650
0.224018 0.198414 0.147982
0.242687 0.210746 0.160313
0.261355 0.223078 0.172645
0.280023 0.235410 0.184977
0.298691 0.247742 0.197309
0.319467 0.261466 0.211033
0.337834 0.273599 0.223166
0.355754 0.285480 0.235047
0.373108 0.297043 0.246610
0.390462 0.308606 0.258173
0.407816 0.320169 0.269736
0.425170 0.331732 0.281299
0.442524 0.343295 0.292862
0.459878 0.354858 0.304425
0.477232 0.366421 0.315988
0.494586 0.377984 0.327551
0.511940 0.389547 0.339114
0.529294 0.401110 0.350677
0.546648 0.412673 0.362241
0.564002 0.424236 0.373804
0.581356 0.435799 0.385367
0.110432 0.167174 0.110432
0.116768 0.167174 0.110432
0.123105 0.167174 0.110432
0.129441 0.167174 0.110432
0.135777 0.167174 0.110432
0.142114 0.167174 0.110432
0.148450 0.167174 0.110432
0.154787 0.167174 0.110432
0.161123 0.167174 0.110432
0.168014 0.167729 0.110986
0.186682 0.180061 0.123318
0.205350 0.192392 0.135650
0.224018 0.204724 0.147982
0.242687 0.217056 0.160313
0.261355 0.229388 0.172645
0.280023 0.241720 0.184977
0.298691 0.254051 0.197309
0.319467 0.267776 0.211033
0.337834 0.279908 0.223166
0.355754 0.291790 0.235047
0.373108 0.303353 0.246610
0.390462 0.314916 0.258173
0.407816 0.326479 0.269736
0.425170 0.338042 0.281299
0.442524 0.349605 0.292862
0.459878 0.361168 0.304425
0.477232 0.372731 0.315988
0.494586 0.384294 0.327551
0.511940 0.395857 0.339114
0.529294 0.407420 0.350677
0.546648 0.418983 0.362241
0.564002 0.430546 0.373804
0.581356 0.442109 0.385367
0.122712 0.185765 0.122712
0.129048 0.185765 0.122712
0.135385 0.185765 0.122712
0.141721 0.185765 0.122712
0.148058 0.185765 0.122712
0.154394 0.185765 0.122712
0.160730 0.185765 0.122712
0.167067 0.185765 0.122712
0.173403 0.185765 0.122712
0.179740 0.185765 0.122712
0.186682 0.186371 0.123318
0.205350 0.198702 0.135650
0.224018 0.211034 0.147982
0.242687 0.223366 0.160313
0.261355 0.235698 0.172645
0.280023 0.248030 0.184977
0.298691 0.260361 0.197309
0.319467 0.274086 0.211033
0.337834 0.286218 0.223166
0.355754 0.298100 0.235047
0.373108 0.309663 0.246610
0.390462 0.321226 0.258173
0.407816 0.332789 0.269736
0.425170 0.344352 0.281299
0.442524 0.355915 0.292862
0.459878 0.367478 0.304425
0.477232 0.379041 0.315988
0.494586 0.390604 0.327551
0.511940 0.402167 0.339114
0.529294 0.413730 0.350677
0.546648 0.425293 0.362241
0.564002 0.436856 0.373804
0.581356 0.448419 0.385367
0.134992 0.204355 0.134992
0.141329 0.204355 0.134992
0.147665 0.204355 0.134992
0.154001 0.204355 0.134992
0.160338 0.204355 0.134992
0.166674 0.204355 0.134992
0.173011 0.204355 0.134992
0.179347 0.204355 0.134992
0.185683 0.204355 0.134992
0.192020 0.204355 0.134992
0.198356 0.204355 0.134992
0.205350 0.205012 0.135650
0.224018 0.217344 0.147982
0.242687 0.229676 0.160313
0.261355 0.242008 0.172645
0.280023 0.254340 0.184977
0.298691 0.266671 0.197309
0.319467 0.280395 0.211033
0.337834 0.292528 0.223166
0.355754 0.304410 0.235047
0.373108 0.315973 0.246610
0.390462 0.327536 0.258173
0.407816 0.339099 0.269736
0.425170 0.350662 0.281299
0.442524 0.362225 0.292862
0.459878 0.373788 0.304425
0.477232 0.385351 0.315988
0.494586 0.396914 0.327551
0.511940 0.408477 0.339114
0.529294 0.420040 0.350677
0.546648 0.431603 0.362241
0.564002 0.443166 0.373804
0.581356 0.454729 0.385367
0.147273 0.222945 0.147273
0.153609 0.222945 0.147273
0.159945 0.222945 0.147273
0.166282 0.222945 0.147273
0.172618 0.222945 0.147273
0.178955 0.222945 0.147273
0.185291 0.222945 0.147273
0.191627 0.222945 0.147273
0.197964 0.222945 0.147273
0.204300 0.222945 0.147273
0.210637 0.222945 0.147273
0.216973 0.222945 0.147273
0.224018 0.223654 0.147982
0.242687 0.235986 0.160313
0.261355 0.248318 0.172645
0.280023 0.260649 0.184977
0.298691 0.272981 0.197309
0.319467 0.286705 0.211033
0.337834 0.298838 0.223166
0.355754 0.310720 0.235047
0.373108 0.322283 0.246610
0.390462 0.333846 0.258173
0.407816 0.345409 0.269736
0.425170 0.356972 0.281299
0.442524 0.368535 0.292862
0.459878 0.380098 0.304425
0.477232 0.391661 0.315988
0.494586 0.403224 0.327551
0.511940 0.414787 0.339114
0.529294 0.426350 0.350677
0.546648 0.437913 0.362241
0.564002 0.449476 0.373804
0.581356 0.461039 0.385367
0.159553 0.241535 0.159553
0.165889 0.241535 0.159553
0.172226 0.241535 0.159553
0.178562 0.241535 0.159553
0.184898 0.241535 0.159553
0.191235 0.241535 0.159553
0.197571 0.241535 0.159553
0.203908 0.241535 0.159553
0.210244 0.241535 0.159553
0.216580 0.241535 0.159553
0.222917 0.241535 0.159553
0.229253 0.241535 0.159553
0.235590 0.241535 0.159553
0.242687 0.242296 0.160313
0.261355 0.254628 0.172645
0.280023 0.266959 0.184977
0.298691 0.279291 0.197309
0.319467 0.293015 0.211033
0.337834 0.305148 0.223166
0.355754 0.317029 0.235047
0.373108 0.328593 0.246610
0.390462 0.340156 0.258173
0.407816 0.351719 0.269736
0.425170 0.363282 0.281299
0.442524 0.374845 0.292862
0.459878 0.386408 0.304425
0.477232 0.397971 0.315988
0.494586 0.409534 0.327551
0.511940 0.421097 0.339114
0.529294 0.432660 0.350677
0.546648 0.444223 0.362241
0.564002 0.455786 0.373804
0.581356 0.467349 0.385367
0.171833 0.260125 0.171833
0.178169 0.260125 0.171833
0.184506 0.260125 0.171833
0.190842 0.260125 0.171833
0.197179 0.260125 0.171833
0.203515 0.260125 0.171833
0.209851 0.260125 0.171833
0.216188 0.260125 0.171833
0.222524 0.260125 0.171833
0.228861 0.260125 0.171833
0.235197 0.260125 0.171833
0.241533 0.260125 0.171833
0.247870 0.260125 0.171833
0.254206 0.260125 0.171833
0.261355 0.260937 0.172645
0.280023 0.273269 0.184977
0.298691 0.285601 0.197309
0.319467 0.299325 0.211033
0.337834 0.311458 0.223166
0.355754 0.323339 0.235047
0.373108 0.334902 0.246610
0.390462 0.346465 0.258173
0.407816 0.358029 0.269736
0.425170 0.369592 0.281299
0.442524 0.381155 0.292862
0.459878 0.392718 0.304425
0.477232 0.404281 0.315988
0.494586 0.415844 0.327551
0.511940 0.427407 0.339114
0.529294 0.438970 0.350677
0.546648 0.450533 0.362241
0.564002 0.462096 0.373804
0.581356 0.473659 0.385367
0.184113 0.278716 0.184113
0.190450 0.278716 0.184113
0.196786 0.278716 0.184113
0.203123 0.278716 0.184113
0.209459 0.278716 0.184113
0.215795 0.278716 0.184113
0.222132 0.278716 0.184113
0.228468 0.278716 0.184113
0.234805 0.278716 0.184113
0.241141 0.278716 0.184113
0.247477 0.278716 0.184113
0.253814 0.278716 0.184113
0.260150 0.278716 0.184113
0.266487 0.278716 0.184113
0.272823 0.278716 0.184113
0.280023 0.279579 0.184977
0.298691 0.291911 0.197309
0.319467 0.305635 0.211033
0.337834 0.317768 0.223166
0.355754 0.329649 0.235047
0.373108 0.341212 0.246610
0.390462 0.352775 0.258173
0.407816 0.364338 0.269736
0.425170 0.375901 0.281299
0.442524 0.387465 0.292862
0.459878 0.399028 0.304425
0.477232 0.410591 0.315988
0.494586 0.422154 0.327551
0.511940 0.433717 0.339114
0.529294 0.445280 0.350677
0.546648 0.456843 0.362241
0.564002 0.468406 0.373804
0.581356 0.479969 0.385367
0.196394 0.297306 0.196394
0.202730 0.297306 0.196394
0.209066 0.297306 0.196394
0.215403 0.297306 0.196394
0.221739 0.297306 0.196394
0.228076 0.297306 0.196394
0.234412 0.297306 0.196394
0.240748 0.297306 0.196394
0.247085 0.297306 0.196394
0.253421 0.297306 0.196394
0.259758 0.297306 0.196394
0.266094 0.297306 0.196394
0.272430 0.297306 0.196394
0.278767 0.297306 0.196394
0.285103 0.297306 0.196394
0.291440 0.297306 0.196394
0.298691 0.298221 0.197309
0.319467 0.311945 0.211033
0.337834 0.324078 0.223166
0.355754 0.335959 0.235047
0.373108 0.347522 0.246610
0.390462 0.359085 0.258173
0.407816 0.370648 0.269736
0.425170 0.382211 0.281299
0.442524 0.393774 0.292862
0.459878 0.405337 0.304425
0.477232 0.416901 0.315988
0.494586 0.428464 0.327551
0.511940 0.440027 0.339114
0.529294 0.451590 0.350677
0.546648 0.463153 0.362241
0.564002 0.474716 0.373804
0.581356 0.486279 0.385367
0.210082 0.318027 0.210082
0.216418 0.318027 0.210082
0.222755 0.318027 0.210082
0.229091 0.318027 0.210082
0.235427 0.318027 0.210082
0.241764 0.318027 0.210082
0.248100 0.318027 0.210082
0.254437 0.318027 0.210082
0.260773 0.318027 0.210082
0.267109 0.318027 0.210082
0.273446 0.318027 0.210082
0.279782 0.318027 0.210082
0.286119 0.318027 0.210082
0.292455 0.318027 0.210082
0.298791 0.318027 0.210082
0.305128 0.318027 0.210082
0.311464 0.318027 0.210082
0.319467 0.318978 0.211033
0.337834 0.331111 0.223166
0.355754 0.342993 0.235047
0.373108 0.354556 0.246610
0.390462 0.366119 0.258173
0.407816 0.377682 0.269736
0.425170 0.389245 0.281299
0.442524 0.400808 0.292862
0.459878 0.412371 0.304425
0.477232 0.423934 0.315988
0.494586 0.435497 0.327551
0.511940 0.447019 0.339114
0.529294 0.458513 0.350677
0.546648 0.470007 0.362241
0.564002 0.481501 0.373804
0.581356 0.492995 0.385367
0.222164 0.336318 0.222164
0.228500 0.336318 0.222164
0.234837 0.336318 0.222164
0.241173 0.336318 0.222164
0.247510 0.336318 0.222164
0.253846 0.336318 0.222164
0.260182 0.336318 0.222164
0.266519 0.336318 0.222164
0.272855 0.336318 0.222164
0.279192 0.336318 0.222164
0.285528 0.336318 0.222164
0.291864 0.336318 0.222164
0.298201 0.336318 0.222164
0.304537 0.336318 0.222164
0.310874 0.336318 0.222164
0.317210 0.336318 0.222164
0.323546 0.336318 0.222164
0.330598 0.336318 0.222164
0.337834 0.337319 0.223166
0.355754 0.349201 0.235047
0.373108 0.360764 0.246610
0.390462 0.372327 0.258173
0.407816 0.383890 0.269736
0.425170 0.395385 0.281299
0.442524 0.406879 0.292862
0.459878 0.418373 0.304425
0.477232 0.429867 0.315988
0.494586 0.441361 0.327551
0.511940 0.452855 0.339114
0.529294 0.464349 0.350677
0.546648 0.475842 0.362241
0.564002 0.487336 0.373804
0.581356 0.498830 0.385367
0.234044 0.354249 0.234044
0.240380 0.354249 0.234044
0.246717 0.354249 0.234044
0.253053 0.354249 0.234044
0.259390 0.354249 0.234044
0.265726 0.354249 0.234044
0.272062 0.354249 0.234044
0.278399 0.354249 0.234044
0.284735 0.354249 0.234044
0.291072 0.354249 0.234044
0.297408 0.354249 0.234044
0.303744 0.354249 0.234044
0.310081 0.354249 0.234044
0.316417 0.354249 0.234044
0.322754 0.354249 0.234044
0.329090 0.354249 0.234044
0.335426 0.354249 0.234044
0.342478 0.354249 0.234044
0.348712 0.354249 0.234044
0.355754 0.355246 0.235047
0.373108 0.366740 0.246610
0.390462 0.378233 0.258173
0.407816 0.389727 0.269736
0.425170 0.401221 0.281299
0.442524 0.412715 0.292862
0.459878 0.424209 0.304425
0.477232 0.435703 0.315988
0.494586 0.447197 0.327551
0.511940 0.458690 0.339114
0.529294 0.470184 0.350677
0.546648 0.481678 0.362241
0.564002 0.493172 0.373804
0.581356 0.504666 0.385367
0.245559 0.371530 0.245559
0.251895 0.371530 0.245559
0.258231 0.371530 0.245559
0.264568 0.371530 0.245559
0.270904 0.371530 0.245559
0.277241 0.371530 0.245559
0.283577 0.371530 0.245559
0.289913 0.371530 0.245559
0.296250 0.371530 0.245559
0.302586 0.371530 0.245559
0.308923 0.371530 0.245559
0.315259 0.371530 0.245559
0.321595 0.371530 0.245559
0.327932 0.371530 0.245559
0.334268 0.371530 0.245559
0.340605 0.371530 0.245559
0.346941 0.371530 0.245559
0.353993 0.371530 0.245559
0.360227 0.371530 0.245559
0.366203 0.371530 0.245559
0.373108 0.372575 0.246610
0.390462 0.384069 0.258173
0.407816 0.395563 0.269736
0.425170 0.407057 0.281299
0.442524 0.418551 0.292862
0.459878 0.430044 0.304425
0.477232 0.441538 0.315988
0.494586 0.453032 0.327551
0.511940 0.464526 0.339114
0.529294 0.476020 0.350677
0.546648 0.487514 0.362241
0.564002 0.499008 0.373804
0.581356 0.510502 0.385367
0.257073 0.388811 0.257073
0.263410 0.388811 0.257073
0.269746 0.388811 0.257073
0.276083 0.388811 0.257073
0.282419 0.388811 0.257073
0.288755 0.388811 0.257073
0.295092 0.388811 0.257073
0.301428 0.388811 0.257073
0.307765 0.388811 0.257073
0.314101 0.388811 0.257073
0.320437 0.388811 0.257073
0.326774 0.388811 0.257073
0.333110 0.388811 0.257073
0.339447 0.388811 0.257073
0.345783 0.388811 0.257073
0.352119 0.388811 0.257073
0.358456 0.388811 0.257073
0.365508 0.388811 0.257073
0.371742 0.388811 0.257073
0.377649 0.388811 0.257073
0.383509 0.388811 0.257073
0.390462 0.389905 0.258173
0.407816 0.401399 0.269736
0.425170 0.412892 0.281299
0.442524 0.424386 0.292862
0.459878 0.435880 0.304425
0.477232 0.447374 0.315988
0.494586 0.458868 0.327551
0.511940 0.470362 0.339114
0.529294 0.481856 0.350677
0.546648 0.493349 0.362241
0.564002 0.504843 0.373804
0.581356 0.516337 0.385367
0.268588 0.406093 0.268588
0.274925 0.406093 0.268588
0.281261 0.406093 0.268588
0.287597 0.406093 0.268588
0.293934 0.406093 0.268588
0.300270 0.406093 0.268588
0.306607 0.406093 0.268588
0.312943 0.406093 0.268588
0.319279 0.406093 0.268588
0.325616 0.406093 0.268588
0.331952 0.406093 0.268588
0.338289 0.406093 0.268588
0.344625 0.406093 0.268588
0.350961 0.406093 0.268588
0.357298 0.406093 0.268588
0.363634 0.406093 0.268588
0.369971 0.406093 0.268588
0.377022 0.406093 0.268588
0.383234 0.406093 0.268588
0.389094 0.406093 0.268588
0.394955 0.406093 0.268588
0.400815 0.406093 0.268588
0.407816 0.407234 0.269736
0.425170 0.418728 0.281299
0.442524 0.430222 0.292862
0.459878 0.441716 0.304425
0.477232 0.453210 0.315988
0.494586 0.464704 0.327551
0.511940 0.476197 0.339114
0.529294 0.487691 0.350677
0.546648 0.499185 0.362241
0.564002 0.510679 0.373804
0.581356 0.522173 0.385367
0.280103 0.423374 0.280103
0.286439 0.423374 0.280103
0.292776 0.423374 0.280103
0.299112 0.423374 0.280103
0.305448 0.423374 0.280103
0.311785 0.423374 0.280103
0.318121 0.423374 0.280103
0.324458 0.423374 0.280103
0.330794 0.423374 0.280103
0.337130 0.423374 0.280103
0.343467 0.423374 0.280103
0.349803 0.423374 0.280103
0.356140 0.423374 0.280103
0.362476 0.423374 0.280103
0.368812 0.423374 0.280103
0.375149 0.423374 0.280103
0.381485 0.423374 0.280103
0.388537 0.423374 0.280103
0.394680 0.423374 0.280103
0.400540 0.423374 0.280103
0.406400 0.423374 0.280103
0.412261 0.423374 0.280103
0.418121 0.423374 0.280103
0.425170 0.424564 0.281299
0.442524 0.436058 0.292862
0.459878 0.447551 0.304425
0.477232 0.459045 0.315988
0.494586 0.470539 0.327551
0.511940 0.482033 0.339114
0.529294 0.493527 0.350677
0.546648 0.505021 0.362241
0.564002 0.516515 0.373804
0.581356 0.528009 0.385367
0.291618 0.440656 0.291618
0.297954 0.440656 0.291618
0.304290 0.440656 0.291618
0.310627 0.440656 0.291618
0.316963 0.440656 0.291618
0.323300 0.440656 0.291618
0.329636 0.440656 0.291618
0.335972 0.440656 0.291618
0.342309 0.440656 0.291618
0.348645 0.440656 0.291618
0.354982 0.440656 0.291618
0.361318 0.440656 0.291618
0.367654 0.440656 0.291618
0.373991 0.440656 0.291618
0.380327 0.440656 0.291618
0.386664 0.440656 0.291618
0.393000 0.440656 0.291618
0.400052 0.440656 0.291618
0.406126 0.440656 0.291618
0.411986 0.440656 0.291618
0.417846 0.440656 0.291618
0.423706 0.440656 0.291618
0.429567 0.440656 0.291618
0.435427 0.440656 0.291618
0.442524 0.441893 0.292862
0.459878 0.453387 0.304425
0.477232 0.464881 0.315988
0.494586 0.476375 0.327551
0.511940 0.487869 0.339114
0.529294 0.499363 0.350677
0.546648 0.510856 0.362241
0.564002 0.522350 0.373804
0.581356 0.533844 0.385367
0.303132 0.457937 0.303132
0.309469 0.457937 0.303132
0.315805 0.457937 0.303132
0.322141 0.457937 0.303132
0.328478 0.457937 0.303132
0.334814 0.457937 0.303132
0.341151 0.457937 0.303132
0.347487 0.457937 0.303132
0.353823 0.457937 0.303132
0.360160 0.457937 0.303132
0.366496 0.457937 0.303132
0.372833 0.457937 0.303132
0.379169 0.457937 0.303132
0.385505 0.457937 0.303132
0.391842 0.457937 0.303132
0.398178 0.457937 0.303132
0.404515 0.457937 0.303132
0.411566 0.457937 0.303132
0.417572 0.457937 0.303132
0.423432 0.457937 0.303132
0.429292 0.457937 0.303132
0.435152 0.457937 0.303132
0.441012 0.457937 0.303132
0.446872 0.457937 0.303132
0.452733 0.457937 0.303132
0.459878 0.459223 0.304425
0.477232 0.470717 0.315988
0.494586 0.482211 0.327551
0.511940 0.493704 0.339114
0.529294 0.505198 0.350677
0.546648 0.516692 0.362241
0.564002 0.528186 0.373804
0.581356 0.539680 0.385367
0.314647 0.475219 0.314647
0.320983 0.475219 0.314647
0.327320 0.475219 0.314647
0.333656 0.475219 0.314647
0.339993 0.475219 0.314647
0.346329 0.475219 0.314647
0.352665 0.475219 0.314647
0.359002 0.475219 0.314647
0.365338 0.475219 0.314647
0.371675 0.475219 0.314647
0.378011 0.475219 0.314647
0.384347 0.475219 0.314647
0.390684 0.475219 0.314647
0.397020 0.475219 0.314647
0.403357 0.475219 0.314647
0.409693 0.475219 0.314647
0.416029 0.475219 0.314647
0.423081 0.475219 0.314647
0.429018 0.475219 0.314647
0.434878 0.475219 0.314647
0.440738 0.475219 0.314647
0.446598 0.475219 0.314647
0.452458 0.475219 0.314647
0.458318 0.475219 0.314647
