docs/luts/fuji_recipes/Classic_RR_Classic_Chrome.cube
TITLE "Fujifilm Recipe: RR Classic Chrome (Classic)"
# FilmSim=Classic HL=-1 SH=1 Col=2 WB=Auto WBR=1 WBB=-1
LUT_3D_SIZE 33
DOMAIN_MIN 0.0 0.0 0.0
DOMAIN_MAX 1.0 1.0 1.0
0.000000 0.000000 0.000000
0.047678 0.000172 0.000172
0.085187 0.000308 0.000308
0.122070 0.000441 0.000441
0.158953 0.000574 0.000574
0.195836 0.000708 0.000708
0.232720 0.000841 0.000841
0.269603 0.000974 0.000974
0.306486 0.001107 0.001107
0.343369 0.001241 0.001241
0.380252 0.001374 0.001374
0.417135 0.001507 0.001507
0.454018 0.001640 0.001640
0.494462 0.001786 0.001786
0.530751 0.001918 0.001918
0.588832 0.000000 0.000000
0.624595 0.000000 0.000000
0.660358 0.000000 0.000000
0.696121 0.000000 0.000000
0.731884 0.000000 0.000000
0.767647 0.000000 0.000000
0.803411 0.000000 0.000000
0.838934 0.000239 0.000239
0.874448 0.000489 0.000489
0.909962 0.000738 0.000738
0.945476 0.000987 0.000987
0.960296 0.001091 0.001091
0.960296 0.001091 0.001091
0.960296 0.001091 0.001091
0.960296 0.001091 0.001091
0.960296 0.001091 0.001091
0.960296 0.001091 0.001091
0.960296 0.001091 0.001091
0.000167 0.046102 0.000167
0.047678 0.046108 0.000172
0.085187 0.046244 0.000308
0.122070 0.046377 0.000441
0.158953 0.046510 0.000574
0.195836 0.046643 0.000708
0.232720 0.046777 0.000841
0.269603 0.046910 0.000974
0.306486 0.047043 0.001107
0.343369 0.047177 0.001241
0.380252 0.047310 0.001374
0.417135 0.047443 0.001507
0.454018 0.047576 0.001640
0.494462 0.047722 0.001786
0.530751 0.047854 0.001918
0.588832 0.045702 0.000000
0.624595 0.045752 0.000000
0.660358 0.045796 0.000000
0.696121 0.045836 0.000000
0.731884 0.045872 0.000000
0.767647 0.045905 0.000000
0.803411 0.045935 0.000000
0.838934 0.046175 0.000239
0.874448 0.046425 0.000489
0.909962 0.046674 0.000738
0.945476 0.046923 0.000987
0.960296 0.047027 0.001091
0.960296 0.047027 0.001091
0.960296 0.047027 0.001091
0.960296 0.047027 0.001091
0.960296 0.047027 0.001091
0.960296 0.047027 0.001091
0.960296 0.047027 0.001091
0.000298 0.082544 0.000298
0.047804 0.082544 0.000298
0.085187 0.082553 0.000308
0.122070 0.082687 0.000441
0.158953 0.082820 0.000574
0.195836 0.082953 0.000708
0.232720 0.083086 0.000841
0.269603 0.083220 0.000974
0.306486 0.083353 0.001107
0.343369 0.083486 0.001241
0.380252 0.083619 0.001374
0.417135 0.083753 0.001507
0.454018 0.083886 0.001640
0.494462 0.084032 0.001786
0.530751 0.084163 0.001918
0.588832 0.081827 0.000000
0.624595 0.081916 0.000000
0.660358 0.081996 0.000000
0.696121 0.082067 0.000000
0.731884 0.082131 0.000000
0.767647 0.082190 0.000000
0.803411 0.082244 0.000000
0.838934 0.082485 0.000239
0.874448 0.082734 0.000489
0.909962 0.082983 0.000738
0.945476 0.083233 0.000987
0.960296 0.083337 0.001091
0.960296 0.083337 0.001091
0.960296 0.083337 0.001091
0.960296 0.083337 0.001091
0.960296 0.083337 0.001091
0.960296 0.083337 0.001091
0.960296 0.083337 0.001091
0.000428 0.118377 0.000428
0.047933 0.118377 0.000428
0.085307 0.118377 0.000428
0.122070 0.118390 0.000441
0.158953 0.118524 0.000574
0.195836 0.118657 0.000708
0.232720 0.118790 0.000841
0.269603 0.118923 0.000974
0.306486 0.119057 0.001107
0.343369 0.119190 0.001241
0.380252 0.119323 0.001374
0.417135 0.119456 0.001507
0.454018 0.119590 0.001640
0.494462 0.119736 0.001786
0.530751 0.119867 0.001918
0.588832 0.117349 0.000000
0.624595 0.117477 0.000000
0.660358 0.117591 0.000000
0.696121 0.117693 0.000000
0.731884 0.117786 0.000000
0.767647 0.117870 0.000000
0.803411 0.117946 0.000000
0.838934 0.118189 0.000239
0.874448 0.118438 0.000489
0.909962 0.118687 0.000738
0.945476 0.118936 0.000987
0.960296 0.119040 0.001091
0.960296 0.119040 0.001091
0.960296 0.119040 0.001091
0.960296 0.119040 0.001091
0.960296 0.119040 0.001091
0.960296 0.119040 0.001091
0.960296 0.119040 0.001091
0.000557 0.154210 0.000557
0.048063 0.154210 0.000557
0.085436 0.154210 0.000557
0.122186 0.154210 0.000557
0.158953 0.154227 0.000574
0.195836 0.154361 0.000708
0.232720 0.154494 0.000841
0.269603 0.154627 0.000974
0.306486 0.154760 0.001107
0.343369 0.154894 0.001241
0.380252 0.155027 0.001374
0.417135 0.155160 0.001507
0.454018 0.155293 0.001640
0.494462 0.155439 0.001786
0.530751 0.155571 0.001918
0.588832 0.152871 0.000000
0.624595 0.153037 0.000000
0.660358 0.153186 0.000000
0.696121 0.153319 0.000000
0.731884 0.153440 0.000000
0.767647 0.153549 0.000000
0.803411 0.153649 0.000000
0.838934 0.153892 0.000239
0.874448 0.154142 0.000489
0.909962 0.154391 0.000738
0.945476 0.154640 0.000987
0.960296 0.154744 0.001091
0.960296 0.154744 0.001091
0.960296 0.154744 0.001091
0.960296 0.154744 0.001091
0.960296 0.154744 0.001091
0.960296 0.154744 0.001091
0.960296 0.154744 0.001091
0.000687 0.190043 0.000687
0.048192 0.190043 0.000687
0.085566 0.190043 0.000687
0.122316 0.190043 0.000687
0.159066 0.190043 0.000687
0.195836 0.190064 0.000708
0.232720 0.190198 0.000841
0.269603 0.190331 0.000974
0.306486 0.190464 0.001107
0.343369 0.190597 0.001241
0.380252 0.190731 0.001374
0.417135 0.190864 0.001507
0.454018 0.190997 0.001640
0.494462 0.191143 0.001786
0.530751 0.191274 0.001918
0.588832 0.188393 0.000000
0.624595 0.188598 0.000000
0.660358 0.188781 0.000000
0.696121 0.188945 0.000000
0.731884 0.189094 0.000000
0.767647 0.189229 0.000000
0.803411 0.189352 0.000000
0.838934 0.189596 0.000239
0.874448 0.189845 0.000489
0.909962 0.190095 0.000738
0.945476 0.190344 0.000987
0.960296 0.190448 0.001091
0.960296 0.190448 0.001091
0.960296 0.190448 0.001091
0.960296 0.190448 0.001091
0.960296 0.190448 0.001091
0.960296 0.190448 0.001091
0.960296 0.190448 0.001091
0.000816 0.225877 0.000816
0.048322 0.225877 0.000816
0.085695 0.225877 0.000816
0.122445 0.225877 0.000816
0.159195 0.225877 0.000816
0.195945 0.225877 0.000816
0.232720 0.225901 0.000841
0.269603 0.226035 0.000974
0.306486 0.226168 0.001107
0.343369 0.226301 0.001241
0.380252 0.226434 0.001374
0.417135 0.226568 0.001507
0.454018 0.226701 0.001640
0.494462 0.226847 0.001786
0.530751 0.226978 0.001918
0.588832 0.223916 0.000000
0.624595 0.224159 0.000000
0.660358 0.224376 0.000000
0.696121 0.224572 0.000000
0.731884 0.224748 0.000000
0.767647 0.224909 0.000000
0.803411 0.225055 0.000000
0.838934 0.225300 0.000239
0.874448 0.225549 0.000489
0.909962 0.225798 0.000738
0.945476 0.226048 0.000987
0.960296 0.226152 0.001091
0.960296 0.226152 0.001091
0.960296 0.226152 0.001091
0.960296 0.226152 0.001091
0.960296 0.226152 0.001091
0.960296 0.226152 0.001091
0.960296 0.226152 0.001091
0.000946 0.261710 0.000946
0.048451 0.261710 0.000946
0.085825 0.261710 0.000946
0.122575 0.261710 0.000946
0.159324 0.261710 0.000946
0.196074 0.261710 0.000946
0.232824 0.261710 0.000946
0.269603 0.261738 0.000974
0.306486 0.261872 0.001107
0.343369 0.262005 0.001241
0.380252 0.262138 0.001374
0.417135 0.262271 0.001507
0.454018 0.262405 0.001640
0.494462 0.262551 0.001786
0.530751 0.262682 0.001918
0.588832 0.259438 0.000000
0.624595 0.259720 0.000000
0.660358 0.259971 0.000000
0.696121 0.260198 0.000000
0.731884 0.260402 0.000000
0.767647 0.260588 0.000000
0.803411 0.260758 0.000000
0.838934 0.261004 0.000239
0.874448 0.261253 0.000489
0.909962 0.261502 0.000738
0.945476 0.261751 0.000987
0.960296 0.261855 0.001091
0.960296 0.261855 0.001091
0.960296 0.261855 0.001091
0.960296 0.261855 0.001091
0.960296 0.261855 0.001091
0.960296 0.261855 0.001091
0.960296 0.261855 0.001091
0.001075 0.297543 0.001075
0.048581 0.297543 0.001075
0.085954 0.297543 0.001075
0.122704 0.297543 0.001075
0.159454 0.297543 0.001075
0.196204 0.297543 0.001075
0.232954 0.297543 0.001075
0.269704 0.297543 0.001075
0.306486 0.297575 0.001107
0.343369 0.297708 0.001241
0.380252 0.297842 0.001374
0.417135 0.297975 0.001507
0.454018 0.298108 0.001640
0.494462 0.298254 0.001786
0.530751 0.298386 0.001918
0.588832 0.294960 0.000000
0.624595 0.295280 0.000000
0.660358 0.295567 0.000000
0.696121 0.295824 0.000000
0.731884 0.296057 0.000000
0.767647 0.296268 0.000000
0.803411 0.296461 0.000000
0.838934 0.296707 0.000239
0.874448 0.296957 0.000489
0.909962 0.297206 0.000738
0.945476 0.297455 0.000987
0.960296 0.297559 0.001091
0.960296 0.297559 0.001091
0.960296 0.297559 0.001091
0.960296 0.297559 0.001091
0.960296 0.297559 0.001091
0.960296 0.297559 0.001091
0.960296 0.297559 0.001091
0.001204 0.333376 0.001204
0.048710 0.333376 0.001204
0.086084 0.333376 0.001204
0.122833 0.333376 0.001204
0.159583 0.333376 0.001204
0.196333 0.333376 0.001204
0.233083 0.333376 0.001204
0.269833 0.333376 0.001204
0.306583 0.333376 0.001204
0.343369 0.333412 0.001241
0.380252 0.333545 0.001374
0.417135 0.333679 0.001507
0.454018 0.333812 0.001640
0.494462 0.333958 0.001786
0.530751 0.334089 0.001918
0.588832 0.330482 0.000000
0.624595 0.330841 0.000000
0.660358 0.331162 0.000000
0.696121 0.331450 0.000000
0.731884 0.331711 0.000000
0.767647 0.331948 0.000000
0.803411 0.332164 0.000000
0.838934 0.332411 0.000239
0.874448 0.332660 0.000489
0.909962 0.332910 0.000738
0.945476 0.333159 0.000987
0.960296 0.333263 0.001091
0.960296 0.333263 0.001091
0.960296 0.333263 0.001091
0.960296 0.333263 0.001091
0.960296 0.333263 0.001091
0.960296 0.333263 0.001091
0.960296 0.333263 0.001091
0.001334 0.369209 0.001334
0.048840 0.369209 0.001334
0.086213 0.369209 0.001334
0.122963 0.369209 0.001334
0.159713 0.369209 0.001334
0.196463 0.369209 0.001334
0.233213 0.369209 0.001334
0.269963 0.369209 0.001334
0.306712 0.369209 0.001334
0.343462 0.369209 0.001334
0.380252 0.369249 0.001374
0.417135 0.369382 0.001507
0.454018 0.369516 0.001640
0.494462 0.369662 0.001786
0.530751 0.369793 0.001918
0.588832 0.366004 0.000000
0.624595 0.366402 0.000000
0.660358 0.366757 0.000000
0.696121 0.367076 0.000000
0.731884 0.367365 0.000000
0.767647 0.367627 0.000000
0.803411 0.367866 0.000000
0.838934 0.368115 0.000239
0.874448 0.368364 0.000489
0.909962 0.368613 0.000738
0.945476 0.368863 0.000987
0.960296 0.368967 0.001091
0.960296 0.368967 0.001091
0.960296 0.368967 0.001091
0.960296 0.368967 0.001091
0.960296 0.368967 0.001091
0.960296 0.368967 0.001091
0.960296 0.368967 0.001091
0.001463 0.405043 0.001463
0.048969 0.405043 0.001463
0.086343 0.405043 0.001463
0.123092 0.405043 0.001463
0.159842 0.405043 0.001463
0.196592 0.405043 0.001463
0.233342 0.405043 0.001463
0.270092 0.405043 0.001463
0.306842 0.405043 0.001463
0.343592 0.405043 0.001463
0.380342 0.405043 0.001463
0.417135 0.405086 0.001507
0.454018 0.405219 0.001640
0.494462 0.405366 0.001786
0.530751 0.405497 0.001918
0.588832 0.401526 0.000000
0.624595 0.401962 0.000000
0.660358 0.402352 0.000000
0.696121 0.402703 0.000000
0.731884 0.403019 0.000000
0.767647 0.403307 0.000000
0.803411 0.403569 0.000000
0.838934 0.403818 0.000239
0.874448 0.404068 0.000489
0.909962 0.404317 0.000738
0.945476 0.404566 0.000987
0.960296 0.404670 0.001091
0.960296 0.404670 0.001091
0.960296 0.404670 0.001091
0.960296 0.404670 0.001091
0.960296 0.404670 0.001091
0.960296 0.404670 0.001091
0.960296 0.404670 0.001091
0.001593 0.440876 0.001593
0.049098 0.440876 0.001593
0.086472 0.440876 0.001593
0.123222 0.440876 0.001593
0.159972 0.440876 0.001593
0.196722 0.440876 0.001593
0.233472 0.440876 0.001593
0.270221 0.440876 0.001593
0.306971 0.440876 0.001593
0.343721 0.440876 0.001593
0.380471 0.440876 0.001593
0.417221 0.440876 0.001593
0.454018 0.440923 0.001640
0.494462 0.441069 0.001786
0.530751 0.441200 0.001918
0.588832 0.437048 0.000000
0.624595 0.437523 0.000000
0.660358 0.437947 0.000000
0.696121 0.438329 0.000000
0.731884 0.438673 0.000000
0.767647 0.438987 0.000000
0.803411 0.439272 0.000000
0.838934 0.439522 0.000239
0.874448 0.439771 0.000489
0.909962 0.440021 0.000738
0.945476 0.440270 0.000987
0.960296 0.440374 0.001091
0.960296 0.440374 0.001091
0.960296 0.440374 0.001091
0.960296 0.440374 0.001091
0.960296 0.440374 0.001091
0.960296 0.440374 0.001091
0.960296 0.440374 0.001091
0.001736 0.480499 0.001736
0.049242 0.480499 0.001736
0.086615 0.480499 0.001736
0.123365 0.480499 0.001736
0.160115 0.480499 0.001736
0.196865 0.480499 0.001736
0.233615 0.480499 0.001736
0.270365 0.480499 0.001736
0.307115 0.480499 0.001736
0.343864 0.480499 0.001736
0.380614 0.480499 0.001736
0.417364 0.480499 0.001736
0.454114 0.480499 0.001736
0.494462 0.480549 0.001786
0.530751 0.480680 0.001918
0.588832 0.476327 0.000000
0.624595 0.476845 0.000000
0.660358 0.477307 0.000000
0.696121 0.477723 0.000000
0.731884 0.478098 0.000000
0.767647 0.478440 0.000000
0.803411 0.478751 0.000000
0.838934 0.479002 0.000239
0.874448 0.479251 0.000489
0.909962 0.479500 0.000738
0.945476 0.479750 0.000987
0.960296 0.507052 0.001091
0.960296 0.507052 0.001091
0.960296 0.507052 0.001091
0.960296 0.507052 0.001091
0.960296 0.507052 0.001091
0.960296 0.507052 0.001091
0.960296 0.507052 0.001091
0.001863 0.515754 0.001863
0.049369 0.515754 0.001863
0.086743 0.515754 0.001863
0.123492 0.515754 0.001863
0.160242 0.515754 0.001863
0.196992 0.515754 0.001863
0.233742 0.515754 0.001863
0.270492 0.515754 0.001863
0.307242 0.515754 0.001863
0.343992 0.515754 0.001863
0.380742 0.515754 0.001863
0.417492 0.515754 0.001863
0.454241 0.515754 0.001863
0.494539 0.515754 0.001863
0.530751 0.515808 0.001918
0.588832 0.511276 0.000000
0.624595 0.511832 0.000000
0.660358 0.512328 0.000000
0.696121 0.512774 0.000000
0.731884 0.513178 0.000000
0.767647 0.513544 0.000000
0.803411 0.540959 0.000000
0.838934 0.541072 0.000239
0.874448 0.541182 0.000489
0.909962 0.541292 0.000738
0.945476 0.541402 0.000987
0.960296 0.541448 0.001091
0.960296 0.541448 0.001091
0.960296 0.541448 0.001091
0.960296 0.541448 0.001091
0.960296 0.541448 0.001091
0.960296 0.541448 0.001091
0.960296 0.541448 0.001091
0.001991 0.551009 0.001991
0.049496 0.551009 0.001991
0.086870 0.551009 0.001991
0.123620 0.551009 0.001991
0.160370 0.551009 0.001991
0.197120 0.551009 0.001991
0.233869 0.551009 0.001991
0.270619 0.551009 0.001991
0.307369 0.551009 0.001991
0.344119 0.551009 0.001991
0.380869 0.551009 0.001991
0.417619 0.551009 0.001991
0.454369 0.551009 0.001991
0.494667 0.551009 0.001991
0.530824 0.551009 0.001991
0.588832 0.573273 0.000000
0.624595 0.573757 0.000000
0.660358 0.574174 0.000000
0.696121 0.574535 0.000000
0.731884 0.574848 0.000000
0.767647 0.575119 0.000000
0.803411 0.575354 0.000000
0.838934 0.575468 0.000239
0.874448 0.575578 0.000489
0.909962 0.575688 0.000738
0.945476 0.575798 0.000987
0.960296 0.575844 0.001091
0.960296 0.575844 0.001091
0.960296 0.575844 0.001091
0.960296 0.575844 0.001091
0.960296 0.575844 0.001091
0.960296 0.575844 0.001091
0.960296 0.575844 0.001091
0.000000 0.607779 0.000000
0.047292 0.607779 0.000000
0.084497 0.607779 0.000000
0.121082 0.607779 0.000000
0.157666 0.607779 0.000000
0.194251 0.607779 0.000000
0.230836 0.607779 0.000000
0.267420 0.607779 0.000000
0.304005 0.607779 0.000000
0.340589 0.607779 0.000000
0.377174 0.607779 0.000000
0.413758 0.607779 0.000000
0.450343 0.607779 0.000000
0.490459 0.607779 0.000000
0.526454 0.607779 0.000000
0.589107 0.607779 0.000000
0.624595 0.608015 0.000000
0.660358 0.608466 0.000000
0.696121 0.608857 0.000000
0.731884 0.609196 0.000000
0.767647 0.609492 0.000000
0.803411 0.609749 0.000000
0.838934 0.609864 0.000239
0.874448 0.609974 0.000489
0.909962 0.610084 0.000738
0.945476 0.610194 0.000987
0.960296 0.610240 0.001091
0.960296 0.610240 0.001091
0.960296 0.610240 0.001091
0.960296 0.610240 0.001091
0.960296 0.610240 0.001091
0.960296 0.610240 0.001091
0.960296 0.610240 0.001091
0.000000 0.642524 0.000000
0.047339 0.642524 0.000000
0.084581 0.642524 0.000000
0.121202 0.642524 0.000000
0.157823 0.642524 0.000000
0.194444 0.642524 0.000000
0.231065 0.642524 0.000000
0.267686 0.642524 0.000000
0.304307 0.642524 0.000000
0.340928 0.642524 0.000000
0.377549 0.642524 0.000000
0.414170 0.642524 0.000000
0.450791 0.642524 0.000000
0.490947 0.642524 0.000000
0.526978 0.642524 0.000000
0.589558 0.642524 0.000000
0.624838 0.642524 0.000000
0.660358 0.642757 0.000000
0.696121 0.643178 0.000000
0.731884 0.643545 0.000000
0.767647 0.643865 0.000000
0.803411 0.644144 0.000000
0.838934 0.644260 0.000239
0.874448 0.644370 0.000489
0.909962 0.644480 0.000738
0.945476 0.644590 0.000987
0.960296 0.644636 0.001091
0.960296 0.644636 0.001091
0.960296 0.644636 0.001091
0.960296 0.644636 0.001091
0.960296 0.644636 0.001091
0.960296 0.644636 0.001091
0.960296 0.644636 0.001091
0.000000 0.677269 0.000000
0.047381 0.677269 0.000000
0.084657 0.677269 0.000000
0.121311 0.677269 0.000000
0.157964 0.677269 0.000000
0.194618 0.677269 0.000000
0.231272 0.677269 0.000000
0.267925 0.677269 0.000000
0.304579 0.677269 0.000000
0.341233 0.677269 0.000000
0.377886 0.677269 0.000000
0.414540 0.677269 0.000000
0.451194 0.677269 0.000000
0.491386 0.677269 0.000000
0.527448 0.677269 0.000000
0.589950 0.677269 0.000000
0.625261 0.677269 0.000000
0.660572 0.677269 0.000000
0.696121 0.677499 0.000000
0.731884 0.677893 0.000000
0.767647 0.678237 0.000000
0.803411 0.678539 0.000000
0.838934 0.678656 0.000239
0.874448 0.678766 0.000489
0.909962 0.678876 0.000738
0.945476 0.678986 0.000987
0.960296 0.679032 0.001091
0.960296 0.679032 0.001091
0.960296 0.679032 0.001091
0.960296 0.679032 0.001091
0.960296 0.679032 0.001091
0.960296 0.679032 0.001091
0.960296 0.679032 0.001091
0.000000 0.712014 0.000000
0.047419 0.712014 0.000000
0.084725 0.712014 0.000000
0.121408 0.712014 0.000000
0.158092 0.712014 0.000000
0.194775 0.712014 0.000000
0.231458 0.712014 0.000000
0.268141 0.712014 0.000000
0.304825 0.712014 0.000000
0.341508 0.712014 0.000000
0.378191 0.712014 0.000000
0.414874 0.712014 0.000000
0.451558 0.712014 0.000000
0.491782 0.712014 0.000000
0.554951 0.712014 0.000000
0.590290 0.712014 0.000000
0.625630 0.712014 0.000000
0.660970 0.712014 0.000000
0.696310 0.712014 0.000000
0.731884 0.712241 0.000000
0.767647 0.712610 0.000000
0.803411 0.712934 0.000000
0.838934 0.713052 0.000239
0.874448 0.713162 0.000489
0.909962 0.713272 0.000738
0.945476 0.713382 0.000987
0.960296 0.713428 0.001091
0.960296 0.713428 0.001091
0.960296 0.713428 0.001091
0.960296 0.713428 0.001091
0.960296 0.713428 0.001091
0.960296 0.713428 0.001091
0.960296 0.713428 0.001091
0.000000 0.746759 0.000000
0.047454 0.746759 0.000000
0.084787 0.746759 0.000000
0.121497 0.746759 0.000000
0.158207 0.746759 0.000000
0.194918 0.746759 0.000000
0.231628 0.746759 0.000000
0.268338 0.746759 0.000000
0.305048 0.746759 0.000000
0.341758 0.746759 0.000000
0.378468 0.746759 0.000000
0.415178 0.746759 0.000000
0.451888 0.746759 0.000000
0.492142 0.746759 0.000000
0.555222 0.746759 0.000000
0.590588 0.746759 0.000000
0.625953 0.746759 0.000000
0.661319 0.746759 0.000000
0.696684 0.746759 0.000000
0.732050 0.746759 0.000000
0.767647 0.746983 0.000000
0.803411 0.747330 0.000000
0.838934 0.747448 0.000239
0.874448 0.747558 0.000489
0.909962 0.747668 0.000738
0.945476 0.747778 0.000987
0.960296 0.747824 0.001091
0.960296 0.747824 0.001091
0.960296 0.747824 0.001091
0.960296 0.747824 0.001091
0.960296 0.747824 0.001091
0.960296 0.747824 0.001091
0.960296 0.747824 0.001091
0.000000 0.781504 0.000000
0.047486 0.781504 0.000000
0.084844 0.781504 0.000000
0.121578 0.781504 0.000000
0.158313 0.781504 0.000000
0.195048 0.781504 0.000000
0.231782 0.781504 0.000000
0.268517 0.781504 0.000000
0.305252 0.781504 0.000000
0.341986 0.781504 0.000000
0.378721 0.781504 0.000000
0.415455 0.781504 0.000000
0.452190 0.781504 0.000000
0.492471 0.781504 0.000000
0.555457 0.781504 0.000000
0.590847 0.781504 0.000000
0.626236 0.781504 0.000000
0.661625 0.781504 0.000000
0.697014 0.781504 0.000000
0.732403 0.781504 0.000000
0.767792 0.781504 0.000000
0.803411 0.781725 0.000000
0.838934 0.781844 0.000239
0.874448 0.781954 0.000489
0.909962 0.782064 0.000738
0.945476 0.782174 0.000987
0.960296 0.782220 0.001091
0.960296 0.782220 0.001091
0.960296 0.782220 0.001091
0.960296 0.782220 0.001091
0.960296 0.782220 0.001091
0.960296 0.782220 0.001091
0.960296 0.782220 0.001091
0.000080 0.816170 0.000080
0.047585 0.816170 0.000080
0.084959 0.816170 0.000080
0.121709 0.816170 0.000080
0.158459 0.816170 0.000080
0.195208 0.816170 0.000080
0.231958 0.816170 0.000080
0.268708 0.816170 0.000080
0.305458 0.816170 0.000080
0.342208 0.816170 0.000080
0.378958 0.816170 0.000080
0.415708 0.816170 0.000080
0.452458 0.816170 0.000080
0.492755 0.816170 0.000080
0.555633 0.816170 0.000080
0.591037 0.816170 0.000080
0.626440 0.816170 0.000080
0.661844 0.816170 0.000080
0.697248 0.816170 0.000080
0.732652 0.816170 0.000080
0.768056 0.816170 0.000080
0.803460 0.816170 0.000080
0.838934 0.816240 0.000239
0.874448 0.816350 0.000489
0.909962 0.816460 0.000738
0.945476 0.816570 0.000987
0.960296 0.816616 0.001091
0.960296 0.816616 0.001091
0.960296 0.816616 0.001091
0.960296 0.816616 0.001091
0.960296 0.816616 0.001091
0.960296 0.816616 0.001091
0.960296 0.816616 0.001091
0.000322 0.850672 0.000322
0.047827 0.850672 0.000322
0.085201 0.850672 0.000322
0.121951 0.850672 0.000322
0.158701 0.850672 0.000322
0.195451 0.850672 0.000322
0.232200 0.850672 0.000322
0.268950 0.850672 0.000322
0.305700 0.850672 0.000322
0.342450 0.850672 0.000322
0.379200 0.850672 0.000322
0.415950 0.850672 0.000322
0.452700 0.850672 0.000322
0.492998 0.850672 0.000322
0.555740 0.850672 0.000322
0.591143 0.850672 0.000322
0.626547 0.850672 0.000322
0.661951 0.850672 0.000322
0.697355 0.850672 0.000322
0.732759 0.850672 0.000322
0.768163 0.850672 0.000322
0.803567 0.850672 0.000322
0.838971 0.850672 0.000322
0.874448 0.850746 0.000489
0.909962 0.850856 0.000738
0.945476 0.850966 0.000987
0.960296 0.851012 0.001091
0.960296 0.851012 0.001091
0.960296 0.851012 0.001091
0.960296 0.851012 0.001091
0.960296 0.851012 0.001091
0.960296 0.851012 0.001091
0.960296 0.851012 0.001091
0.000564 0.885175 0.000564
0.048070 0.885175 0.000564
0.085443 0.885175 0.000564
0.122193 0.885175 0.000564
0.158943 0.885175 0.000564
0.195693 0.885175 0.000564
0.232443 0.885175 0.000564
0.269193 0.885175 0.000564
0.305942 0.885175 0.000564
0.342692 0.885175 0.000564
0.379442 0.885175 0.000564
0.416192 0.885175 0.000564
0.452942 0.885175 0.000564
0.493240 0.885175 0.000564
0.555846 0.885175 0.000564
0.591250 0.885175 0.000564
0.626654 0.885175 0.000564
0.662058 0.885175 0.000564
0.697462 0.885175 0.000564
0.732866 0.885175 0.000564
0.768270 0.885175 0.000564
0.803673 0.885175 0.000564
0.839077 0.885175 0.000564
0.874481 0.885175 0.000564
0.909962 0.885252 0.000738
0.945476 0.885362 0.000987
0.960296 0.885408 0.001091
0.960296 0.885408 0.001091
0.960296 0.885408 0.001091
0.960296 0.885408 0.001091
0.960296 0.885408 0.001091
0.960296 0.885408 0.001091
0.960296 0.885408 0.001091
0.000806 0.919678 0.000806
0.048312 0.919678 0.000806
0.085685 0.919678 0.000806
0.122435 0.919678 0.000806
0.159185 0.919678 0.000806
0.195935 0.919678 0.000806
0.232685 0.919678 0.000806
0.269435 0.919678 0.000806
0.306185 0.919678 0.000806
0.342934 0.919678 0.000806
0.379684 0.919678 0.000806
0.416434 0.919678 0.000806
0.453184 0.919678 0.000806
0.520549 0.919678 0.000806
0.555953 0.919678 0.000806
0.591357 0.919678 0.000806
0.626761 0.919678 0.000806
0.662165 0.919678 0.000806
0.697569 0.919678 0.000806
0.732973 0.919678 0.000806
0.768376 0.919678 0.000806
0.803780 0.919678 0.000806
0.839184 0.919678 0.000806
0.874588 0.919678 0.000806
0.909992 0.919678 0.000806
0.945476 0.919758 0.000987
0.960296 0.919804 0.001091
0.960296 0.919804 0.001091
0.960296 0.919804 0.001091
0.960296 0.919804 0.001091
0.960296 0.919804 0.001091
0.960296 0.919804 0.001091
0.960296 0.919804 0.001091
0.001048 0.954181 0.001048
0.048554 0.954181 0.001048
0.085927 0.954181 0.001048
0.122677 0.954181 0.001048
0.159427 0.954181 0.001048
0.196177 0.954181 0.001048
0.232927 0.954181 0.001048
0.269677 0.954181 0.001048
0.306427 0.954181 0.001048
0.343177 0.954181 0.001048
0.379927 0.954181 0.001048
0.416676 0.954181 0.001048
0.453426 0.954181 0.001048
0.520656 0.954181 0.001048
0.556060 0.954181 0.001048
0.591464 0.954181 0.001048
0.626868 0.954181 0.001048
0.662272 0.954181 0.001048
0.697675 0.954181 0.001048
0.733079 0.954181 0.001048
0.768483 0.954181 0.001048
0.803887 0.954181 0.001048
0.839291 0.954181 0.001048
0.874695 0.954181 0.001048
