docs/luts/fuji_recipes/Classic_RR_Cross_Process.cube
TITLE "Fujifilm Recipe: RR Cross Process (Classic)"
# FilmSim=Classic HL=4 SH=-1 Col=3 WB=7700K WBR=-8 WBB=-3
LUT_3D_SIZE 33
DOMAIN_MIN 0.0 0.0 0.0
DOMAIN_MAX 1.0 1.0 1.0
0.040000 0.040000 0.040000
0.063802 0.038608 0.038608
0.088206 0.037181 0.037181
0.112863 0.035740 0.035740
0.137520 0.034298 0.034298
0.162177 0.032856 0.032856
0.186834 0.031415 0.031415
0.211491 0.029973 0.029973
0.236148 0.028531 0.028531
0.260805 0.027090 0.027090
0.285462 0.025648 0.025648
0.310119 0.024206 0.024206
0.334776 0.022765 0.022765
0.359433 0.021323 0.021323
0.384090 0.019881 0.019881
0.408747 0.018440 0.018440
0.433404 0.016998 0.016998
0.458061 0.015556 0.015556
0.482718 0.014115 0.014115
0.507375 0.012673 0.012673
0.532032 0.011231 0.011231
0.560591 0.009562 0.009562
0.584850 0.008143 0.008143
0.609109 0.006725 0.006725
0.608829 0.010523 0.010523
0.638316 0.007994 0.007994
0.667803 0.005464 0.005464
0.697290 0.002934 0.002934
0.726776 0.000404 0.000404
0.754138 0.000000 0.000000
0.781095 0.000000 0.000000
0.808052 0.000000 0.000000
0.835009 0.000000 0.000000
0.038544 0.064894 0.038544
0.063738 0.064894 0.038544
0.088206 0.063531 0.037181
0.112863 0.062089 0.035740
0.137520 0.060648 0.034298
0.162177 0.059206 0.032856
0.186834 0.057764 0.031415
0.211491 0.056323 0.029973
0.236148 0.054881 0.028531
0.260805 0.053439 0.027090
0.285462 0.051998 0.025648
0.310119 0.050556 0.024206
0.334776 0.049114 0.022765
0.359433 0.047673 0.021323
0.384090 0.046231 0.019881
0.408747 0.044789 0.018440
0.433404 0.043348 0.016998
0.458061 0.041906 0.015556
0.482718 0.040464 0.014115
0.507375 0.039022 0.012673
0.532032 0.037581 0.011231
0.560591 0.035911 0.009562
0.584850 0.034493 0.008143
0.609109 0.033074 0.006725
0.608829 0.036873 0.010523
0.638316 0.034343 0.007994
0.667803 0.031813 0.005464
0.697290 0.029283 0.002934
0.726776 0.026754 0.000404
0.754138 0.026202 0.000000
0.781095 0.026039 0.000000
0.808052 0.025889 0.000000
0.835009 0.025750 0.000000
0.036962 0.091961 0.036962
0.062156 0.091961 0.036962
0.087987 0.091961 0.036962
0.112863 0.090739 0.035740
0.137520 0.089297 0.034298
0.162177 0.087855 0.032856
0.186834 0.086414 0.031415
0.211491 0.084972 0.029973
0.236148 0.083530 0.028531
0.260805 0.082089 0.027090
0.285462 0.080647 0.025648
0.310119 0.079205 0.024206
0.334776 0.077764 0.022765
0.359433 0.076322 0.021323
0.384090 0.074880 0.019881
0.408747 0.073439 0.018440
0.433404 0.071997 0.016998
0.458061 0.070555 0.015556
0.482718 0.069114 0.014115
0.507375 0.067672 0.012673
0.532032 0.066230 0.011231
0.560591 0.064560 0.009562
0.584850 0.063142 0.008143
0.609109 0.061724 0.006725
0.608829 0.065522 0.010523
0.638316 0.062992 0.007994
0.667803 0.060463 0.005464
0.697290 0.057933 0.002934
0.726776 0.055403 0.000404
0.754138 0.054691 0.000000
0.781095 0.054351 0.000000
0.808052 0.054038 0.000000
0.835009 0.053748 0.000000
0.035289 0.120575 0.035289
0.060482 0.120575 0.035289
0.086313 0.120575 0.035289
0.112412 0.120575 0.035289
0.137520 0.119585 0.034298
0.162177 0.118143 0.032856
0.186834 0.116701 0.031415
0.211491 0.115260 0.029973
0.236148 0.113818 0.028531
0.260805 0.112376 0.027090
0.285462 0.110935 0.025648
0.310119 0.109493 0.024206
0.334776 0.108051 0.022765
0.359433 0.106610 0.021323
0.384090 0.105168 0.019881
0.408747 0.103726 0.018440
0.433404 0.102285 0.016998
0.458061 0.100843 0.015556
0.482718 0.099401 0.014115
0.507375 0.097960 0.012673
0.532032 0.096518 0.011231
0.560591 0.094848 0.009562
0.584850 0.093430 0.008143
0.609109 0.092011 0.006725
0.608829 0.095810 0.010523
0.638316 0.093280 0.007994
0.667803 0.090750 0.005464
0.697290 0.088220 0.002934
0.726776 0.085691 0.000404
0.754138 0.084808 0.000000
0.781095 0.084282 0.000000
0.808052 0.083796 0.000000
0.835009 0.083347 0.000000
0.033616 0.149190 0.033616
0.058809 0.149190 0.033616
0.084640 0.149190 0.033616
0.110739 0.149190 0.033616
0.136838 0.149190 0.033616
0.162177 0.148431 0.032856
0.186834 0.146989 0.031415
0.211491 0.145547 0.029973
0.236148 0.144106 0.028531
0.260805 0.142664 0.027090
0.285462 0.141222 0.025648
0.310119 0.139781 0.024206
0.334776 0.138339 0.022765
0.359433 0.136897 0.021323
0.384090 0.135456 0.019881
0.408747 0.134014 0.018440
0.433404 0.132572 0.016998
0.458061 0.131131 0.015556
0.482718 0.129689 0.014115
0.507375 0.128247 0.012673
0.532032 0.126806 0.011231
0.560591 0.125136 0.009562
0.584850 0.123717 0.008143
0.609109 0.122299 0.006725
0.608829 0.126098 0.010523
0.638316 0.123568 0.007994
0.667803 0.121038 0.005464
0.697290 0.118508 0.002934
0.726776 0.115978 0.000404
0.754138 0.114926 0.000000
0.781095 0.114213 0.000000
0.808052 0.113555 0.000000
0.835009 0.112946 0.000000
0.031943 0.177805 0.031943
0.057136 0.177805 0.031943
0.082967 0.177805 0.031943
0.109066 0.177805 0.031943
0.135165 0.177805 0.031943
0.161263 0.177805 0.031943
0.186834 0.177277 0.031415
0.211491 0.175835 0.029973
0.236148 0.174393 0.028531
0.260805 0.172952 0.027090
0.285462 0.171510 0.025648
0.310119 0.170068 0.024206
0.334776 0.168627 0.022765
0.359433 0.167185 0.021323
0.384090 0.165743 0.019881
0.408747 0.164302 0.018440
0.433404 0.162860 0.016998
0.458061 0.161418 0.015556
0.482718 0.159977 0.014115
0.507375 0.158535 0.012673
0.532032 0.157093 0.011231
0.560591 0.155423 0.009562
0.584850 0.154005 0.008143
0.609109 0.152587 0.006725
0.608829 0.156385 0.010523
0.638316 0.153855 0.007994
0.667803 0.151326 0.005464
0.697290 0.148796 0.002934
0.726776 0.146266 0.000404
0.754138 0.145044 0.000000
0.781095 0.144144 0.000000
0.808052 0.143313 0.000000
0.835009 0.142545 0.000000
0.030270 0.206419 0.030270
0.055463 0.206419 0.030270
0.081294 0.206419 0.030270
0.107393 0.206419 0.030270
0.133492 0.206419 0.030270
0.159590 0.206419 0.030270
0.185689 0.206419 0.030270
0.211491 0.206123 0.029973
0.236148 0.204681 0.028531
0.260805 0.203239 0.027090
0.285462 0.201798 0.025648
0.310119 0.200356 0.024206
0.334776 0.198914 0.022765
0.359433 0.197473 0.021323
0.384090 0.196031 0.019881
0.408747 0.194589 0.018440
0.433404 0.193148 0.016998
0.458061 0.191706 0.015556
0.482718 0.190264 0.014115
0.507375 0.188823 0.012673
0.532032 0.187381 0.011231
0.560591 0.185711 0.009562
0.584850 0.184293 0.008143
0.609109 0.182874 0.006725
0.608829 0.186673 0.010523
0.638316 0.184143 0.007994
0.667803 0.181613 0.005464
0.697290 0.179084 0.002934
0.726776 0.176554 0.000404
0.754138 0.175162 0.000000
0.781095 0.174075 0.000000
0.808052 0.173072 0.000000
0.835009 0.172144 0.000000
0.028597 0.235034 0.028597
0.053790 0.235034 0.028597
0.079621 0.235034 0.028597
0.105720 0.235034 0.028597
0.131819 0.235034 0.028597
0.157917 0.235034 0.028597
0.184016 0.235034 0.028597
0.210114 0.235034 0.028597
0.236148 0.234969 0.028531
0.260805 0.233527 0.027090
0.285462 0.232085 0.025648
0.310119 0.230644 0.024206
0.334776 0.229202 0.022765
0.359433 0.227760 0.021323
0.384090 0.226319 0.019881
0.408747 0.224877 0.018440
0.433404 0.223435 0.016998
0.458061 0.221994 0.015556
0.482718 0.220552 0.014115
0.507375 0.219110 0.012673
0.532032 0.217669 0.011231
0.560591 0.215999 0.009562
0.584850 0.214580 0.008143
0.609109 0.213162 0.006725
0.608829 0.216961 0.010523
0.638316 0.214431 0.007994
0.667803 0.211901 0.005464
0.697290 0.209371 0.002934
0.726776 0.206842 0.000404
0.754138 0.205280 0.000000
0.781095 0.204006 0.000000
0.808052 0.202830 0.000000
0.835009 0.201743 0.000000
0.026923 0.263648 0.026923
0.052117 0.263648 0.026923
0.077948 0.263648 0.026923
0.104047 0.263648 0.026923
0.130145 0.263648 0.026923
0.156244 0.263648 0.026923
0.182343 0.263648 0.026923
0.208441 0.263648 0.026923
0.234540 0.263648 0.026923
0.260639 0.263648 0.026923
0.285462 0.262373 0.025648
0.310119 0.260931 0.024206
0.334776 0.259490 0.022765
0.359433 0.258048 0.021323
0.384090 0.256606 0.019881
0.408747 0.255165 0.018440
0.433404 0.253723 0.016998
0.458061 0.252281 0.015556
0.482718 0.250840 0.014115
0.507375 0.249398 0.012673
0.532032 0.247956 0.011231
0.560591 0.246287 0.009562
0.584850 0.244868 0.008143
0.609109 0.243450 0.006725
0.608829 0.247248 0.010523
0.638316 0.244719 0.007994
0.667803 0.242189 0.005464
0.697290 0.239659 0.002934
0.726776 0.237129 0.000404
0.754138 0.235398 0.000000
0.781095 0.233936 0.000000
0.808052 0.232589 0.000000
0.835009 0.231342 0.000000
0.025250 0.292263 0.025250
0.050444 0.292263 0.025250
0.076275 0.292263 0.025250
0.102374 0.292263 0.025250
0.128472 0.292263 0.025250
0.154571 0.292263 0.025250
0.180670 0.292263 0.025250
0.206768 0.292263 0.025250
0.232867 0.292263 0.025250
0.258966 0.292263 0.025250
0.285064 0.292263 0.025250
0.310119 0.291219 0.024206
0.334776 0.289777 0.022765
0.359433 0.288336 0.021323
0.384090 0.286894 0.019881
0.408747 0.285452 0.018440
0.433404 0.284011 0.016998
0.458061 0.282569 0.015556
0.482718 0.281127 0.014115
0.507375 0.279686 0.012673
0.532032 0.278244 0.011231
0.560591 0.276574 0.009562
0.584850 0.275156 0.008143
0.609109 0.273737 0.006725
0.608829 0.277536 0.010523
0.638316 0.275006 0.007994
0.667803 0.272476 0.005464
0.697290 0.269947 0.002934
0.726776 0.267417 0.000404
0.754138 0.265516 0.000000
0.781095 0.263867 0.000000
0.808052 0.262347 0.000000
0.835009 0.260941 0.000000
0.023577 0.320878 0.023577
0.048771 0.320878 0.023577
0.074602 0.320878 0.023577
0.100701 0.320878 0.023577
0.126799 0.320878 0.023577
0.152898 0.320878 0.023577
0.178997 0.320878 0.023577
0.205095 0.320878 0.023577
0.231194 0.320878 0.023577
0.257293 0.320878 0.023577
0.283391 0.320878 0.023577
0.309490 0.320878 0.023577
0.334776 0.320065 0.022765
0.359433 0.318623 0.021323
0.384090 0.317182 0.019881
0.408747 0.315740 0.018440
0.433404 0.314298 0.016998
0.458061 0.312857 0.015556
0.482718 0.311415 0.014115
0.507375 0.309973 0.012673
0.532032 0.308532 0.011231
0.560591 0.306862 0.009562
0.584850 0.305444 0.008143
0.609109 0.304025 0.006725
0.608829 0.307824 0.010523
0.638316 0.305294 0.007994
0.667803 0.302764 0.005464
0.697290 0.300234 0.002934
0.726776 0.297705 0.000404
0.754138 0.295634 0.000000
0.781095 0.293798 0.000000
0.808052 0.292106 0.000000
0.835009 0.290540 0.000000
0.021904 0.349492 0.021904
0.047098 0.349492 0.021904
0.072929 0.349492 0.021904
0.099028 0.349492 0.021904
0.125126 0.349492 0.021904
0.151225 0.349492 0.021904
0.177324 0.349492 0.021904
0.203422 0.349492 0.021904
0.229521 0.349492 0.021904
0.255620 0.349492 0.021904
0.281718 0.349492 0.021904
0.307817 0.349492 0.021904
0.333916 0.349492 0.021904
0.359433 0.348911 0.021323
0.384090 0.347469 0.019881
0.408747 0.346028 0.018440
0.433404 0.344586 0.016998
0.458061 0.343144 0.015556
0.482718 0.341703 0.014115
0.507375 0.340261 0.012673
0.532032 0.338819 0.011231
0.560591 0.337150 0.009562
0.584850 0.335731 0.008143
0.609109 0.334313 0.006725
0.608829 0.338111 0.010523
0.638316 0.335582 0.007994
0.667803 0.333052 0.005464
0.697290 0.330522 0.002934
0.726776 0.327992 0.000404
0.754138 0.325752 0.000000
0.781095 0.323729 0.000000
0.808052 0.321864 0.000000
0.835009 0.320139 0.000000
0.020231 0.378107 0.020231
0.045425 0.378107 0.020231
0.071256 0.378107 0.020231
0.097355 0.378107 0.020231
0.123453 0.378107 0.020231
0.149552 0.378107 0.020231
0.175650 0.378107 0.020231
0.201749 0.378107 0.020231
0.227848 0.378107 0.020231
0.253946 0.378107 0.020231
0.280045 0.378107 0.020231
0.306144 0.378107 0.020231
0.332242 0.378107 0.020231
0.358341 0.378107 0.020231
0.384090 0.377757 0.019881
0.408747 0.376315 0.018440
0.433404 0.374874 0.016998
0.458061 0.373432 0.015556
0.482718 0.371990 0.014115
0.507375 0.370549 0.012673
0.532032 0.369107 0.011231
0.560591 0.367437 0.009562
0.584850 0.366019 0.008143
0.609109 0.364600 0.006725
0.608829 0.368399 0.010523
0.638316 0.365869 0.007994
0.667803 0.363340 0.005464
0.697290 0.360810 0.002934
0.726776 0.358280 0.000404
0.754138 0.355870 0.000000
0.781095 0.353660 0.000000
0.808052 0.351623 0.000000
0.835009 0.349738 0.000000
0.018558 0.406722 0.018558
0.043752 0.406722 0.018558
0.069583 0.406722 0.018558
0.095681 0.406722 0.018558
0.121780 0.406722 0.018558
0.147879 0.406722 0.018558
0.173977 0.406722 0.018558
0.200076 0.406722 0.018558
0.226175 0.406722 0.018558
0.252273 0.406722 0.018558
0.278372 0.406722 0.018558
0.304471 0.406722 0.018558
0.330569 0.406722 0.018558
0.356668 0.406722 0.018558
0.382767 0.406722 0.018558
0.408747 0.406603 0.018440
0.433404 0.405162 0.016998
0.458061 0.403720 0.015556
0.482718 0.402278 0.014115
0.507375 0.400836 0.012673
0.532032 0.399395 0.011231
0.560591 0.397725 0.009562
0.584850 0.396307 0.008143
0.609109 0.394888 0.006725
0.608829 0.398687 0.010523
0.638316 0.396157 0.007994
0.667803 0.393627 0.005464
0.697290 0.391097 0.002934
0.726776 0.388568 0.000404
0.754138 0.385988 0.000000
0.781095 0.383591 0.000000
0.808052 0.381381 0.000000
0.835009 0.379337 0.000000
0.016885 0.435336 0.016885
0.042079 0.435336 0.016885
0.067910 0.435336 0.016885
0.094008 0.435336 0.016885
0.120107 0.435336 0.016885
0.146206 0.435336 0.016885
0.172304 0.435336 0.016885
0.198403 0.435336 0.016885
0.224502 0.435336 0.016885
0.250600 0.435336 0.016885
0.276699 0.435336 0.016885
0.302798 0.435336 0.016885
0.328896 0.435336 0.016885
0.354995 0.435336 0.016885
0.381094 0.435336 0.016885
0.407192 0.435336 0.016885
0.433291 0.435336 0.016885
0.458061 0.434008 0.015556
0.482718 0.432566 0.014115
0.507375 0.431124 0.012673
0.532032 0.429683 0.011231
0.560591 0.428013 0.009562
0.584850 0.426594 0.008143
0.609109 0.425176 0.006725
0.608829 0.428974 0.010523
0.638316 0.426445 0.007994
0.667803 0.423915 0.005464
0.697290 0.421385 0.002934
0.726776 0.418855 0.000404
0.754138 0.416106 0.000000
0.781095 0.413522 0.000000
0.808052 0.411140 0.000000
0.835009 0.408936 0.000000
0.015212 0.463951 0.015212
0.040406 0.463951 0.015212
0.066237 0.463951 0.015212
0.092335 0.463951 0.015212
0.118434 0.463951 0.015212
0.144533 0.463951 0.015212
0.170631 0.463951 0.015212
0.196730 0.463951 0.015212
0.222829 0.463951 0.015212
0.248927 0.463951 0.015212
0.275026 0.463951 0.015212
0.301125 0.463951 0.015212
0.327223 0.463951 0.015212
0.353322 0.463951 0.015212
0.379421 0.463951 0.015212
0.405519 0.463951 0.015212
0.431618 0.463951 0.015212
0.457717 0.463951 0.015212
0.482718 0.462854 0.014115
0.507375 0.461412 0.012673
0.532032 0.459970 0.011231
0.560591 0.458300 0.009562
0.584850 0.456882 0.008143
0.609109 0.455464 0.006725
0.608829 0.459262 0.010523
0.638316 0.456732 0.007994
0.667803 0.454203 0.005464
0.697290 0.451673 0.002934
0.726776 0.449143 0.000404
0.754138 0.446223 0.000000
0.781095 0.443453 0.000000
0.808052 0.440898 0.000000
0.835009 0.438535 0.000000
0.013539 0.492565 0.013539
0.038733 0.492565 0.013539
0.064564 0.492565 0.013539
0.090662 0.492565 0.013539
0.116761 0.492565 0.013539
0.142860 0.492565 0.013539
0.168958 0.492565 0.013539
0.195057 0.492565 0.013539
0.221156 0.492565 0.013539
0.247254 0.492565 0.013539
0.273353 0.492565 0.013539
0.299452 0.492565 0.013539
0.325550 0.492565 0.013539
0.351649 0.492565 0.013539
0.377747 0.492565 0.013539
0.403846 0.492565 0.013539
0.429945 0.492565 0.013539
0.456043 0.492565 0.013539
0.482142 0.492565 0.013539
0.507375 0.491700 0.012673
0.532032 0.490258 0.011231
0.560591 0.488588 0.009562
0.584850 0.487170 0.008143
0.609109 0.485751 0.006725
0.608829 0.489550 0.010523
0.638316 0.487020 0.007994
0.667803 0.484490 0.005464
0.697290 0.481961 0.002934
0.726776 0.479431 0.000404
0.754138 0.476341 0.000000
0.781095 0.473384 0.000000
0.808052 0.470656 0.000000
0.835009 0.468134 0.000000
0.011866 0.521180 0.011866
0.037059 0.521180 0.011866
0.062890 0.521180 0.011866
0.088989 0.521180 0.011866
0.115088 0.521180 0.011866
0.141186 0.521180 0.011866
0.167285 0.521180 0.011866
0.193384 0.521180 0.011866
0.219482 0.521180 0.011866
0.245581 0.521180 0.011866
0.271680 0.521180 0.011866
0.297778 0.521180 0.011866
0.323877 0.521180 0.011866
0.349976 0.521180 0.011866
0.376074 0.521180 0.011866
0.402173 0.521180 0.011866
0.428272 0.521180 0.011866
0.454370 0.521180 0.011866
0.480469 0.521180 0.011866
0.506568 0.521180 0.011866
0.532032 0.520546 0.011231
0.560591 0.518876 0.009562
0.584850 0.517457 0.008143
0.609109 0.516039 0.006725
0.608829 0.519838 0.010523
0.638316 0.517308 0.007994
0.667803 0.514778 0.005464
0.697290 0.512248 0.002934
0.726776 0.509718 0.000404
0.754138 0.506459 0.000000
0.781095 0.503315 0.000000
0.808052 0.500415 0.000000
0.835009 0.497733 0.000000
0.009958 0.553808 0.009958
0.035152 0.553808 0.009958
0.060983 0.553808 0.009958
0.087081 0.553808 0.009958
0.113180 0.553808 0.009958
0.139279 0.553808 0.009958
0.165377 0.553808 0.009958
0.191476 0.553808 0.009958
0.217575 0.553808 0.009958
0.243673 0.553808 0.009958
0.269772 0.553808 0.009958
0.295871 0.553808 0.009958
0.321969 0.553808 0.009958
0.348068 0.553808 0.009958
0.374167 0.553808 0.009958
0.400265 0.553808 0.009958
0.426364 0.553808 0.009958
0.452463 0.553808 0.009958
0.478561 0.553808 0.009958
0.504660 0.553808 0.009958
0.530759 0.553808 0.009958
0.560591 0.553411 0.009562
0.584850 0.551993 0.008143
0.609109 0.550574 0.006725
0.608829 0.554373 0.010523
0.638316 0.551843 0.007994
0.667803 0.549313 0.005464
0.697290 0.546783 0.002934
0.726776 0.544254 0.000404
0.754138 0.540801 0.000000
0.781095 0.537443 0.000000
0.808052 0.534347 0.000000
0.835009 0.531482 0.000000
0.008312 0.581961 0.008312
0.033506 0.581961 0.008312
0.059337 0.581961 0.008312
0.085435 0.581961 0.008312
0.111534 0.581961 0.008312
0.137633 0.581961 0.008312
0.163731 0.581961 0.008312
0.189830 0.581961 0.008312
0.215929 0.581961 0.008312
0.242027 0.581961 0.008312
0.268126 0.581961 0.008312
0.294225 0.581961 0.008312
0.320323 0.581961 0.008312
0.346422 0.581961 0.008312
0.372521 0.581961 0.008312
0.398619 0.581961 0.008312
0.424718 0.581961 0.008312
0.450817 0.581961 0.008312
0.476915 0.581961 0.008312
0.503014 0.581961 0.008312
0.529113 0.581961 0.008312
0.559341 0.581961 0.008312
0.584850 0.581792 0.008143
0.609109 0.580373 0.006725
0.608829 0.584172 0.010523
0.638316 0.581642 0.007994
0.667803 0.579112 0.005464
0.697290 0.576583 0.002934
0.726776 0.574053 0.000404
0.754138 0.570433 0.000000
0.781095 0.566891 0.000000
0.808052 0.563625 0.000000
0.835009 0.560604 0.000000
0.006666 0.610114 0.006666
0.031860 0.610114 0.006666
0.057691 0.610114 0.006666
0.083789 0.610114 0.006666
0.109888 0.610114 0.006666
0.135987 0.610114 0.006666
0.162085 0.610114 0.006666
0.188184 0.610114 0.006666
0.214283 0.610114 0.006666
0.240381 0.610114 0.006666
0.266480 0.610114 0.006666
0.292579 0.610114 0.006666
0.318677 0.610114 0.006666
0.344776 0.610114 0.006666
0.370875 0.610114 0.006666
0.396973 0.610114 0.006666
0.423072 0.610114 0.006666
0.449171 0.610114 0.006666
0.475269 0.610114 0.006666
0.501368 0.610114 0.006666
0.527467 0.610114 0.006666
0.557695 0.610114 0.006666
0.583373 0.610114 0.006666
0.609050 0.610114 0.006666
0.607928 0.613070 0.009622
0.638316 0.611441 0.007994
0.667803 0.608912 0.005464
0.697290 0.606382 0.002934
0.726776 0.603852 0.000404
0.754138 0.570295 0.000000
0.781095 0.567732 0.000000
0.808052 0.565433 0.000000
0.835009 0.563369 0.000000
0.010012 0.614783 0.010012
0.035206 0.614783 0.010012
0.061037 0.614783 0.010012
0.087136 0.614783 0.010012
0.113234 0.614783 0.010012
0.139333 0.614783 0.010012
0.165432 0.614783 0.010012
0.191530 0.614783 0.010012
0.217629 0.614783 0.010012
0.243728 0.614783 0.010012
0.269826 0.614783 0.010012
0.295925 0.614783 0.010012
0.322024 0.614783 0.010012
0.348122 0.614783 0.010012
0.374221 0.614783 0.010012
0.400320 0.614783 0.010012
0.426418 0.614783 0.010012
0.452517 0.614783 0.010012
0.478616 0.614783 0.010012
0.504714 0.614783 0.010012
0.530813 0.614783 0.010012
0.561041 0.614783 0.010012
0.586719 0.614783 0.010012
0.612397 0.614783 0.010012
0.608518 0.614783 0.010012
0.638316 0.613554 0.007994
0.667803 0.612013 0.005464
0.697290 0.610473 0.002934
0.726776 0.608932 0.000404
0.754138 0.606101 0.000000
0.781095 0.603315 0.000000
0.808052 0.600811 0.000000
0.835009 0.598558 0.000000
0.007077 0.649003 0.007077
0.032270 0.649003 0.007077
0.058101 0.649003 0.007077
0.084200 0.649003 0.007077
0.110299 0.649003 0.007077
0.136397 0.649003 0.007077
0.162496 0.649003 0.007077
0.188595 0.649003 0.007077
0.214693 0.649003 0.007077
0.240792 0.649003 0.007077
0.266891 0.649003 0.007077
0.292989 0.649003 0.007077
0.319088 0.649003 0.007077
0.345187 0.649003 0.007077
0.371285 0.649003 0.007077
0.397384 0.649003 0.007077
0.423483 0.649003 0.007077
0.449581 0.649003 0.007077
0.475680 0.649003 0.007077
0.501779 0.649003 0.007077
0.527877 0.649003 0.007077
0.558106 0.649003 0.007077
0.583783 0.649003 0.007077
0.609461 0.649003 0.007077
0.606731 0.649003 0.007077
0.637758 0.649003 0.007077
0.667803 0.648021 0.005464
0.697290 0.646480 0.002934
0.726776 0.644940 0.000404
0.754138 0.641906 0.000000
0.781095 0.638899 0.000000
0.808052 0.636190 0.000000
0.835009 0.633746 0.000000
0.004141 0.683223 0.004141
0.029334 0.683223 0.004141
0.055165 0.683223 0.004141
0.081264 0.683223 0.004141
0.107363 0.683223 0.004141
0.133461 0.683223 0.004141
0.159560 0.683223 0.004141
0.185659 0.683223 0.004141
0.211757 0.683223 0.004141
0.237856 0.683223 0.004141
0.263955 0.683223 0.004141
0.290053 0.683223 0.004141
0.316152 0.683223 0.004141
0.342251 0.683223 0.004141
0.368349 0.683223 0.004141
0.394448 0.683223 0.004141
0.420547 0.683223 0.004141
0.446645 0.683223 0.004141
0.472744 0.683223 0.004141
0.498843 0.683223 0.004141
0.524941 0.683223 0.004141
0.555170 0.683223 0.004141
0.580848 0.683223 0.004141
0.606525 0.683223 0.004141
0.604943 0.683223 0.004141
0.635970 0.683223 0.004141
0.666997 0.683223 0.004141
0.697290 0.682488 0.002934
0.726776 0.680947 0.000404
0.754138 0.677712 0.000000
0.781095 0.674482 0.000000
0.808052 0.671568 0.000000
0.835009 0.668935 0.000000
0.001205 0.717442 0.001205
0.026399 0.717442 0.001205
0.052230 0.717442 0.001205
0.078328 0.717442 0.001205
0.104427 0.717442 0.001205
0.130526 0.717442 0.001205
0.156624 0.717442 0.001205
0.182723 0.717442 0.001205
0.208822 0.717442 0.001205
0.234920 0.717442 0.001205
0.261019 0.717442 0.001205
0.287118 0.717442 0.001205
0.313216 0.717442 0.001205
0.339315 0.717442 0.001205
0.365414 0.717442 0.001205
0.391512 0.717442 0.001205
0.417611 0.717442 0.001205
0.443710 0.717442 0.001205
0.469808 0.717442 0.001205
0.495907 0.717442 0.001205
0.522006 0.717442 0.001205
0.552234 0.717442 0.001205
0.577912 0.717442 0.001205
0.603589 0.717442 0.001205
0.603155 0.717442 0.001205
0.634182 0.717442 0.001205
0.665210 0.717442 0.001205
0.696237 0.717442 0.001205
0.726776 0.716955 0.000404
0.754138 0.713517 0.000000
0.781095 0.710065 0.000000
0.808052 0.706946 0.000000
0.835009 0.704123 0.000000
0.000000 0.749931 0.000000
0.025078 0.749931 0.000000
0.050790 0.749931 0.000000
0.076769 0.749931 0.000000
0.102748 0.749931 0.000000
0.128726 0.749931 0.000000
0.154705 0.749931 0.000000
0.180684 0.749931 0.000000
0.206663 0.749931 0.000000
0.232641 0.749931 0.000000
0.258620 0.749931 0.000000
0.284599 0.749931 0.000000
0.310578 0.749931 0.000000
0.336556 0.749931 0.000000
0.362535 0.749931 0.000000
0.388514 0.749931 0.000000
0.414493 0.749931 0.000000
0.440471 0.749931 0.000000
0.466450 0.749931 0.000000
0.492429 0.749931 0.000000
0.518408 0.749931 0.000000
0.548497 0.749931 0.000000
0.574057 0.749931 0.000000
0.569442 0.749931 0.000000
0.600327 0.749931 0.000000
0.631212 0.749931 0.000000
0.662096 0.749931 0.000000
0.692981 0.749931 0.000000
0.723866 0.749931 0.000000
0.754138 0.749323 0.000000
0.781095 0.745648 0.000000
0.808052 0.742324 0.000000
0.835009 0.739312 0.000000
0.000000 0.781215 0.000000
0.024896 0.781215 0.000000
0.050422 0.781215 0.000000
0.076213 0.781215 0.000000
0.102003 0.781215 0.000000
0.127794 0.781215 0.000000
0.153584 0.781215 0.000000
0.179375 0.781215 0.000000
0.205165 0.781215 0.000000
0.230956 0.781215 0.000000
0.256747 0.781215 0.000000
0.282537 0.781215 0.000000
0.308328 0.781215 0.000000
0.334118 0.781215 0.000000
0.359909 0.781215 0.000000
0.385699 0.781215 0.000000
0.411490 0.781215 0.000000
0.437280 0.781215 0.000000
0.463071 0.781215 0.000000
0.488861 0.781215 0.000000
0.514652 0.781215 0.000000
0.544524 0.781215 0.000000
0.569898 0.781215 0.000000
0.566452 0.781215 0.000000
