docs/luts/fuji_recipes/Classic_RR_Classic_Chrome.cube
TITLE "Fujifilm Recipe: RR Classic Chrome (Classic)"
# FilmSim=Classic HL=-1 SH=1 Col=2 WB=Auto WBR=1 WBB=-1
LUT_3D_SIZE 9
DOMAIN_MIN 0.0 0.0 0.0
DOMAIN_MAX 1.0 1.0 1.0
0.000000 0.000000 0.000000
0.158953 0.000574 0.000574
0.306486 0.001107 0.001107
0.454018 0.001640 0.001640
0.624595 0.000000 0.000000
0.767647 0.000000 0.000000
0.909962 0.000738 0.000738
0.960296 0.001091 0.001091
0.960296 0.001091 0.001091
0.000557 0.154210 0.000557
0.158953 0.154227 0.000574
0.306486 0.154760 0.001107
0.454018 0.155293 0.001640
0.624595 0.153037 0.000000
0.767647 0.153549 0.000000
0.909962 0.154391 0.000738
0.960296 0.154744 0.001091
0.960296 0.154744 0.001091
0.001075 0.297543 0.001075
0.159454 0.297543 0.001075
0.306486 0.297575 0.001107
0.454018 0.298108 0.001640
0.624595 0.295280 0.000000
0.767647 0.296268 0.000000
0.909962 0.297206 0.000738
0.960296 0.297559 0.001091
0.960296 0.297559 0.001091
0.001593 0.440876 0.001593
0.159972 0.440876 0.001593
0.306971 0.440876 0.001593
0.454018 0.440923 0.001640
0.624595 0.437523 0.000000
0.767647 0.438987 0.000000
0.909962 0.440021 0.000738
0.960296 0.440374 0.001091
0.960296 0.440374 0.001091
0.000000 0.607779 0.000000
0.157666 0.607779 0.000000
0.304005 0.607779 0.000000
0.450343 0.607779 0.000000
0.624595 0.608015 0.000000
0.767647 0.609492 0.000000
0.909962 0.610084 0.000738
0.960296 0.610240 0.001091
0.960296 0.610240 0.001091
0.000000 0.746759 0.000000
0.158207 0.746759 0.000000
0.305048 0.746759 0.000000
0.451888 0.746759 0.000000
0.625953 0.746759 0.000000
0.767647 0.746983 0.000000
0.909962 0.747668 0.000738
0.960296 0.747824 0.001091
0.960296 0.747824 0.001091
0.000564 0.885175 0.000564
0.158943 0.885175 0.000564
0.305942 0.885175 0.000564
0.452942 0.885175 0.000564
0.626654 0.885175 0.000564
0.768270 0.885175 0.000564
0.909962 0.885252 0.000738
0.960296 0.885408 0.001091
0.960296 0.885408 0.001091
0.001063 0.956268 0.001063
0.159442 0.956268 0.001063
0.306441 0.956268 0.001063
0.453441 0.956268 0.001063
0.626874 0.956268 0.001063
0.768490 0.956268 0.001063
0.910105 0.956268 0.001063
0.960296 0.956281 0.001091
0.960296 0.956281 0.001091
0.001063 0.956268 0.001063
0.159442 0.956268 0.001063
0.306441 0.956268 0.001063
0.453441 0.956268 0.001063
0.626874 0.956268 0.001063
0.768490 0.956268 0.001063
0.910105 0.956268 0.001063
0.960296 0.956281 0.001091
0.960296 0.956281 0.001091
0.000537 0.000537 0.148634
0.158953 0.000574 0.148672
0.306486 0.001107 0.149205
0.454018 0.001640 0.149738
0.624595 0.000000 0.147504
0.767647 0.000000 0.147998
0.909962 0.000738 0.148835
0.960296 0.001091 0.149189
0.960296 0.001091 0.149189
0.000557 0.154210 0.148655
0.159490 0.154764 0.149209
0.307023 0.155297 0.149742
0.454555 0.155830 0.150275
0.625893 0.153009 0.147454
0.767949 0.154006 0.148451
0.910004 0.155003 0.149448
0.960338 0.155357 0.149801
0.960338 0.155357 0.149801
0.001075 0.297543 0.149172
0.159991 0.298080 0.149709
0.307023 0.298112 0.149742
0.454555 0.298645 0.150275
0.625893 0.295824 0.147454
0.767949 0.296821 0.148451
0.910004 0.297818 0.149448
0.960338 0.298172 0.149801
0.960338 0.298172 0.149801
0.001593 0.440876 0.149690
0.160509 0.441413 0.150227
0.307508 0.441413 0.150227
0.454555 0.441460 0.150275
0.625893 0.438639 0.147454
0.767949 0.439636 0.148451
0.910004 0.440633 0.149448
0.960338 0.440987 0.149801
0.960338 0.440987 0.149801
0.000000 0.607779 0.147431
0.157618 0.609195 0.147337
0.304618 0.609195 0.147337
0.451617 0.609195 0.147337
0.625893 0.609246 0.147454
0.767949 0.609686 0.148451
0.910004 0.610126 0.149448
0.960338 0.610282 0.149801
0.960338 0.610282 0.149801
0.000000 0.746759 0.147937
0.158587 0.747206 0.148305
0.305586 0.747206 0.148305
0.452586 0.747206 0.148305
0.626269 0.747206 0.148305
0.767949 0.747270 0.148451
0.910004 0.747710 0.149448
0.960338 0.747866 0.149801
0.960338 0.747866 0.149801
0.000564 0.885175 0.148661
0.159555 0.885217 0.149274
0.306555 0.885217 0.149274
0.453555 0.885217 0.149274
0.626696 0.885217 0.149274
0.768312 0.885217 0.149274
0.910004 0.885294 0.149448
0.960338 0.885450 0.149801
0.960338 0.885450 0.149801
0.001063 0.956268 0.149160
0.160054 0.956310 0.149773
0.307054 0.956310 0.149773
0.481246 0.956310 0.149773
0.626916 0.956310 0.149773
0.768532 0.956310 0.149773
0.910147 0.956310 0.149773
0.960338 0.956323 0.149801
0.960338 0.956323 0.149801
0.001063 0.956268 0.149160
0.160054 0.956310 0.149773
0.307054 0.956310 0.149773
0.481246 0.956310 0.149773
0.626916 0.956310 0.149773
0.768532 0.956310 0.149773
0.910147 0.956310 0.149773
0.960338 0.956323 0.149801
0.960338 0.956323 0.149801
0.001038 0.001038 0.287201
0.159417 0.001038 0.287201
0.306486 0.001107 0.287270
0.454018 0.001640 0.287803
0.624595 0.000000 0.285017
0.767647 0.000000 0.285970
0.909962 0.000738 0.286901
0.960296 0.001091 0.287254
0.960296 0.001091 0.287254
0.001038 0.154691 0.287201
0.159974 0.155248 0.287758
0.307043 0.155317 0.287827
0.454576 0.155851 0.288360
0.625895 0.153032 0.285542
0.767950 0.154029 0.286539
0.910005 0.155026 0.287536
0.960340 0.155380 0.287890
0.960340 0.155380 0.287890
0.001075 0.297543 0.287238
0.160028 0.298117 0.287812
0.307523 0.298613 0.288308
0.455056 0.299146 0.288841
0.625932 0.296395 0.286090
0.767988 0.297392 0.287087
0.910043 0.298389 0.288084
0.960378 0.298743 0.288438
0.960378 0.298743 0.288438
0.001593 0.440876 0.287756
0.160546 0.441450 0.288330
0.308009 0.441913 0.288793
0.455056 0.441961 0.288841
0.625932 0.439210 0.286090
0.767988 0.440207 0.287087
0.910043 0.468320 0.288084
0.960378 0.468475 0.288438
0.960378 0.468475 0.288438
0.000000 0.607779 0.284876
0.157661 0.609197 0.285445
0.305189 0.609234 0.285973
0.452188 0.609234 0.285973
0.625932 0.609285 0.286090
0.767988 0.609725 0.287087
0.910043 0.610165 0.288084
0.960378 0.610321 0.288438
0.960378 0.610321 0.288438
0.000000 0.746759 0.285853
0.158629 0.747209 0.286413
0.306157 0.747245 0.286942
0.453157 0.747245 0.286942
0.626308 0.747245 0.286942
0.767988 0.747309 0.287087
0.910043 0.747749 0.288084
0.960378 0.747905 0.288438
0.960378 0.747905 0.288438
0.000564 0.885175 0.286727
0.159598 0.885220 0.287382
0.307126 0.885256 0.287910
0.481065 0.885256 0.287910
0.626735 0.885256 0.287910
0.768351 0.885256 0.287910
0.910043 0.885333 0.288084
0.960378 0.885489 0.288438
0.960378 0.885489 0.288438
0.001063 0.956268 0.287226
0.160097 0.956313 0.287881
0.307625 0.956349 0.288409
0.481285 0.956349 0.288409
0.626955 0.956349 0.288409
0.768571 0.956349 0.288409
0.910186 0.956349 0.288409
0.960378 0.956362 0.288438
0.960378 0.956362 0.288438
0.001063 0.956268 0.287226
0.160097 0.956313 0.287881
0.307625 0.956349 0.288409
0.481285 0.956349 0.288409
0.626955 0.956349 0.288409
0.768571 0.956349 0.288409
0.910186 0.956349 0.288409
0.960378 0.956362 0.288438
0.960378 0.956362 0.288438
0.001538 0.001538 0.425767
0.159917 0.001538 0.425767
0.306917 0.001538 0.425767
0.454018 0.001640 0.425869
0.624595 0.000000 0.422529
0.767647 0.000000 0.423942
0.909962 0.000738 0.424966
0.960296 0.001091 0.425320
0.960296 0.001091 0.425320
0.001538 0.155191 0.425767
0.160474 0.155748 0.426324
0.307474 0.155748 0.426324
0.454576 0.155851 0.426426
0.625895 0.153032 0.423608
0.767950 0.154029 0.424605
0.910005 0.155026 0.425602
0.960340 0.155380 0.425955
0.960340 0.155380 0.425955
0.001538 0.298006 0.425767
0.160491 0.298581 0.426341
0.307992 0.299081 0.426842
0.455093 0.299183 0.426944
0.625935 0.296438 0.424198
0.767991 0.297435 0.425195
0.910046 0.298432 0.426192
0.960380 0.298785 0.453737
0.960380 0.298785 0.453737
0.001593 0.440876 0.425821
0.160546 0.441450 0.426396
0.308079 0.441983 0.426929
0.455557 0.442461 0.427407
0.625971 0.439781 0.424727
0.768027 0.467919 0.425724
0.906522 0.464799 0.450058
0.956883 0.464981 0.450240
0.956883 0.464981 0.450240
0.000000 0.607779 0.422320
0.157661 0.609197 0.423510
0.305268 0.609239 0.424118
0.452759 0.609273 0.424610
0.625971 0.609324 0.424727
0.768027 0.609764 0.425724
0.906522 0.606644 0.450058
0.956883 0.606826 0.450240
0.956883 0.606826 0.450240
0.000000 0.746759 0.423769
0.158629 0.747209 0.424479
0.306237 0.747250 0.425087
0.480677 0.747284 0.425578
0.626347 0.747284 0.425578
0.768027 0.747348 0.425724
0.906522 0.744228 0.450058
0.956883 0.744410 0.450240
0.956883 0.744410 0.450240
0.000564 0.885175 0.424792
0.159598 0.885220 0.425447
0.307205 0.885262 0.426055
0.477532 0.881723 0.449968
0.623202 0.881723 0.449968
0.764817 0.881723 0.449968
0.906522 0.881812 0.450058
0.956883 0.881994 0.450240
0.956883 0.881994 0.450240
0.001063 0.956268 0.425291
0.160097 0.956313 0.425946
0.307704 0.956355 0.453728
0.477789 0.952853 0.450225
0.623458 0.952853 0.450225
0.765074 0.952853 0.450225
0.906690 0.952853 0.450225
0.956883 0.952867 0.450240
0.956883 0.952867 0.450240
0.001063 0.956268 0.425291
0.160097 0.956313 0.425946
0.307704 0.956355 0.453728
0.477789 0.952853 0.450225
0.623458 0.952853 0.450225
0.765074 0.952853 0.450225
0.906690 0.952853 0.450225
0.956883 0.952867 0.450240
0.956883 0.952867 0.450240
0.000000 0.000000 0.588507
0.157572 0.000000 0.588507
0.303822 0.000000 0.588507
0.450072 0.000000 0.588507
0.624595 0.000000 0.589013
0.767647 0.000000 0.590426
0.909962 0.000738 0.591005
0.960296 0.001091 0.591161
0.960296 0.001091 0.591161
0.000000 0.152870 0.588507
0.157507 0.152781 0.590058
0.304506 0.152781 0.590058
0.451506 0.152781 0.590058
0.625895 0.153032 0.590169
0.767950 0.154029 0.590609
0.910005 0.155026 0.591049
0.960340 0.155380 0.591205
0.960340 0.155380 0.591205
0.000000 0.294957 0.588507
0.157526 0.295615 0.590060
0.305097 0.296187 0.590099
0.452097 0.296187 0.590099
0.625935 0.296438 0.590210
0.767991 0.297435 0.590649
0.910046 0.298432 0.591089
0.960380 0.298785 0.591245
0.960380 0.298785 0.591245
0.000000 0.437044 0.588507
0.157526 0.438430 0.590060
0.305134 0.439038 0.590101
0.452687 0.439592 0.590139
0.625976 0.439844 0.590250
0.764447 0.464339 0.587105
0.906576 0.464852 0.587619
0.956936 0.465034 0.587801
0.956936 0.465034 0.587801
0.000000 0.607779 0.588787
0.157661 0.609197 0.590119
0.305268 0.609239 0.590161
0.452876 0.609281 0.590202
0.622763 0.606116 0.587037
0.764892 0.606629 0.587551
0.907021 0.607143 0.588064
0.957381 0.607325 0.588246
0.957381 0.607325 0.588246
0.000000 0.746759 0.590266
0.158629 0.747209 0.590546
0.306237 0.747250 0.590588
0.477133 0.743740 0.587077
0.623201 0.744138 0.587476
0.764892 0.744213 0.587551
0.907021 0.744727 0.588064
0.957381 0.744909 0.588246
0.957381 0.744909 0.588246
0.000564 0.885175 0.590928
0.159598 0.885220 0.590973
0.307205 0.885262 0.591015
0.477632 0.881823 0.587576
0.623700 0.882221 0.587975
0.765316 0.882221 0.587975
0.907021 0.882311 0.588064
0.957381 0.882493 0.588246
0.957381 0.882493 0.588246
0.001063 0.956268 0.591149
0.160097 0.956313 0.591193
0.307704 0.956355 0.591235
0.477889 0.952953 0.587833
0.623957 0.953351 0.588232
0.765573 0.953351 0.588232
0.907188 0.953351 0.588232
0.957381 0.953366 0.588246
0.957381 0.953366 0.588246
0.001063 0.956268 0.591149
0.160097 0.956313 0.591193
0.307704 0.956355 0.591235
0.477889 0.952953 0.587833
0.623957 0.953351 0.588232
0.765573 0.953351 0.588232
0.907188 0.953351 0.588232
0.957381 0.953366 0.588246
0.957381 0.953366 0.588246
0.000000 0.000000 0.722865
0.158129 0.000000 0.722865
0.304897 0.000000 0.722865
0.451664 0.000000 0.722865
0.625736 0.000000 0.722865
0.767647 0.000000 0.723345
0.909962 0.000738 0.724014
0.960296 0.001091 0.724170
0.960296 0.001091 0.724170
0.000000 0.153411 0.722865
0.158443 0.153717 0.723480
0.305443 0.153717 0.723480
0.452442 0.153717 0.723480
0.626197 0.153717 0.723480
0.767950 0.154029 0.723618
0.910005 0.155026 0.724057
0.960340 0.155380 0.724213
0.960340 0.155380 0.724213
0.000000 0.296000 0.722865
0.158463 0.296552 0.723481
0.306033 0.297123 0.723520
0.453033 0.297123 0.723520
0.626237 0.297123 0.723520
0.767991 0.297435 0.723658
0.910046 0.298432 0.724098
0.960380 0.298785 0.724254
0.960380 0.298785 0.724254
0.000000 0.438590 0.722865
0.158463 0.439367 0.723481
0.306070 0.439975 0.723523
0.480608 0.440529 0.723561
0.626278 0.440529 0.723561
0.764447 0.464339 0.720114
0.906576 0.464852 0.720628
0.956936 0.465034 0.720810
0.956936 0.465034 0.720810
0.000000 0.609115 0.722865
0.158463 0.609551 0.723481
0.306070 0.609593 0.723523
0.477047 0.606070 0.720000
0.623185 0.606538 0.720468
0.764961 0.606698 0.720628
0.907090 0.607212 0.721142
0.957451 0.607394 0.721324
0.957451 0.607394 0.721324
0.000000 0.746759 0.723131
0.158629 0.747209 0.723555
0.306237 0.747250 0.723596
0.477133 0.743740 0.720086
0.623331 0.744268 0.720614
0.765374 0.744696 0.721042
0.907503 0.745209 0.721555
0.957864 0.745391 0.721737
0.957864 0.745391 0.721737
0.000564 0.885175 0.723937
0.159598 0.885220 0.723982
0.307205 0.885262 0.724024
0.477632 0.881823 0.720584
0.623830 0.882351 0.721113
0.765798 0.882704 0.721465
0.907503 0.882793 0.721555
0.957864 0.882975 0.721737
0.957864 0.882975 0.721737
0.001063 0.956268 0.724157
0.160097 0.956313 0.724202
0.307704 0.956355 0.724244
0.477889 0.952953 0.720841
0.624087 0.953481 0.721370
0.766055 0.953834 0.721722
0.907670 0.953834 0.721722
0.957864 0.953848 0.721737
0.957864 0.953848 0.721737
0.001063 0.956268 0.724157
0.160097 0.956313 0.724202
0.307704 0.956355 0.724244
0.477889 0.952953 0.720841
0.624087 0.953481 0.721370
0.766055 0.953834 0.721722
0.907670 0.953834 0.721722
0.957864 0.953848 0.721737
0.957864 0.953848 0.721737
0.000365 0.000365 0.856858
0.158744 0.000365 0.856858
0.305744 0.000365 0.856858
0.452743 0.000365 0.856858
0.626566 0.000365 0.856858
0.768182 0.000365 0.856858
0.909962 0.000738 0.857022
0.960296 0.001091 0.857178
0.960296 0.001091 0.857178
0.000365 0.154018 0.856858
0.159380 0.154654 0.856902
0.306379 0.154654 0.856902
0.453379 0.154654 0.856902
0.626610 0.154654 0.856902
0.768225 0.154654 0.856902
0.910005 0.155026 0.857066
0.960340 0.155380 0.857222
0.960340 0.155380 0.857222
0.000365 0.296833 0.856858
0.159399 0.297488 0.856903
0.306970 0.298059 0.856942
0.480981 0.298059 0.856942
0.626650 0.298059 0.856942
0.768266 0.298059 0.856942
0.910046 0.298432 0.857106
0.960380 0.298785 0.857262
0.960380 0.298785 0.857262
0.000365 0.439648 0.856858
0.159399 0.440303 0.856903
0.307007 0.440911 0.856945
0.477483 0.464660 0.853444
0.623153 0.464660 0.853444
0.764768 0.464660 0.853444
0.906576 0.464852 0.853636
0.956936 0.465034 0.853818
0.956936 0.465034 0.853818
0.000365 0.609919 0.856858
0.159399 0.609964 0.856903
0.307007 0.610006 0.856945
0.477529 0.606552 0.853491
0.623667 0.607020 0.853959
0.765282 0.607020 0.853959
0.907090 0.607212 0.854151
0.957451 0.607394 0.854333
0.957451 0.607394 0.854333
0.000365 0.747504 0.856858
0.159399 0.747548 0.856903
0.307007 0.747590 0.856945
0.477529 0.744136 0.853491
0.623727 0.744664 0.854019
0.765781 0.745103 0.854458
0.907589 0.745295 0.854649
0.957950 0.745477 0.854831
0.957950 0.745477 0.854831
0.000564 0.885175 0.856946
0.159598 0.885220 0.856991
0.307205 0.885262 0.857032
0.477632 0.881823 0.853593
0.623830 0.882351 0.854121
0.765959 0.882864 0.854635
0.907985 0.883276 0.855046
0.958346 0.883458 0.855228
0.958346 0.883458 0.855228
0.001063 0.956268 0.857166
0.160097 0.956313 0.857211
0.307704 0.956355 0.857252
0.477889 0.952953 0.853850
0.624087 0.953481 0.854378
0.766216 0.953994 0.854892
0.908153 0.954316 0.855213
0.958346 0.954330 0.855228
0.958346 0.954330 0.855228
0.001063 0.956268 0.857166
0.160097 0.956313 0.857211
0.307704 0.956355 0.857252
0.477889 0.952953 0.853850
0.624087 0.953481 0.854378
0.766216 0.953994 0.854892
0.908153 0.954316 0.855213
0.958346 0.954330 0.855228
0.958346 0.954330 0.855228
0.000848 0.000848 0.925587
0.159226 0.000848 0.925587
0.306226 0.000848 0.925587
0.453226 0.000848 0.925587
0.626779 0.000848 0.925587
0.768395 0.000848 0.925587
0.910010 0.000848 0.925587
0.960296 0.001091 0.925694
0.960296 0.001091 0.925694
0.000848 0.154501 0.925587
0.159862 0.155136 0.925630
0.306862 0.155136 0.925630
0.453861 0.155136 0.925630
0.626823 0.155136 0.925630
0.768438 0.155136 0.925630
0.910054 0.155136 0.925630
0.960340 0.155380 0.925738
0.960340 0.155380 0.925738
0.000848 0.297315 0.925587
0.159882 0.297971 0.925632
0.307452 0.298542 0.925671
0.481193 0.298542 0.925671
0.626863 0.298542 0.925671
0.768479 0.298542 0.925671
0.910094 0.298542 0.925671
0.960380 0.298785 0.925778
0.960380 0.298785 0.925778
0.000848 0.440130 0.925587
0.159882 0.440785 0.925632
0.307489 0.468373 0.925673
0.477731 0.464909 0.922209
0.623401 0.464909 0.922209
0.765017 0.464909 0.922209
0.906632 0.464909 0.922209
0.956936 0.465034 0.922334
0.956936 0.465034 0.922334
0.000848 0.610132 0.925587
0.159882 0.610177 0.925632
0.307489 0.610219 0.925673
0.477778 0.606801 0.922255
0.623915 0.607268 0.922723
0.765531 0.607268 0.922723
0.907146 0.607268 0.922723
0.957451 0.607394 0.922849
0.957451 0.607394 0.922849
0.000848 0.747716 0.925587
0.159882 0.747761 0.925632
0.307489 0.747803 0.925673
0.477778 0.744385 0.922255
0.623976 0.744913 0.922783
0.766030 0.745351 0.923222
0.907645 0.745351 0.923222
0.957950 0.745477 0.923347
0.957950 0.745477 0.923347
0.000848 0.885300 0.925587
0.159882 0.885345 0.925632
0.307489 0.885387 0.925673
0.477778 0.881969 0.922255
0.623976 0.882497 0.922783
0.766105 0.883010 0.923297
0.908144 0.883434 0.923721
0.958448 0.883560 0.923846
0.958448 0.883560 0.923846
0.001063 0.956268 0.925682
0.160097 0.956313 0.925727
0.307704 0.956355 0.925768
0.477889 0.952953 0.922366
0.624087 0.953481 0.922894
0.766216 0.953994 0.923408
0.908345 0.954508 0.923921
0.958595 0.954579 0.923992
0.958595 0.954579 0.923992
0.001063 0.956268 0.925682
0.160097 0.956313 0.925727
0.307704 0.956355 0.925768
0.477889 0.952953 0.922366
0.624087 0.953481 0.922894
0.766216 0.953994 0.923408
0.908345 0.954508 0.923921
0.958595 0.954579 0.923992
0.958595 0.954579 0.923992
0.000848 0.000848 0.925587
0.159226 0.000848 0.925587
0.306226 0.000848 0.925587
0.453226 0.000848 0.925587
0.626779 0.000848 0.925587
0.768395 0.000848 0.925587
0.910010 0.000848 0.925587
0.960296 0.001091 0.925694
0.960296 0.001091 0.925694
0.000848 0.154501 0.925587
0.159862 0.155136 0.925630
0.306862 0.155136 0.925630
0.453861 0.155136 0.925630
0.626823 0.155136 0.925630
0.768438 0.155136 0.925630
0.910054 0.155136 0.925630
0.960340 0.155380 0.925738
0.960340 0.155380 0.925738
0.000848 0.297315 0.925587
0.159882 0.297971 0.925632
0.307452 0.298542 0.925671
0.481193 0.298542 0.925671
0.626863 0.298542 0.925671
0.768479 0.298542 0.925671
0.910094 0.298542 0.925671
0.960380 0.298785 0.925778
0.960380 0.298785 0.925778
0.000848 0.440130 0.925587
0.159882 0.440785 0.925632
0.307489 0.468373 0.925673
0.477731 0.464909 0.922209
0.623401 0.464909 0.922209
0.765017 0.464909 0.922209
0.906632 0.464909 0.922209
0.956936 0.465034 0.922334
0.956936 0.465034 0.922334
0.000848 0.610132 0.925587
0.159882 0.610177 0.925632
0.307489 0.610219 0.925673
0.477778 0.606801 0.922255
0.623915 0.607268 0.922723
0.765531 0.607268 0.922723
0.907146 0.607268 0.922723
0.957451 0.607394 0.922849
0.957451 0.607394 0.922849
0.000848 0.747716 0.925587
0.159882 0.747761 0.925632
0.307489 0.747803 0.925673
0.477778 0.744385 0.922255
0.623976 0.744913 0.922783
0.766030 0.745351 0.923222
0.907645 0.745351 0.923222
0.957950 0.745477 0.923347
0.957950 0.745477 0.923347
0.000848 0.885300 0.925587
0.159882 0.885345 0.925632
0.307489 0.885387 0.925673
0.477778 0.881969 0.922255
0.623976 0.882497 0.922783
0.766105 0.883010 0.923297
0.908144 0.883434 0.923721
0.958448 0.883560 0.923846
0.958448 0.883560 0.923846
0.001063 0.956268 0.925682
0.160097 0.956313 0.925727
0.307704 0.956355 0.925768
0.477889 0.952953 0.922366
0.624087 0.953481 0.922894
0.766216 0.953994 0.923408
0.908345 0.954508 0.923921
0.958595 0.954579 0.923992
0.958595 0.954579 0.923992
0.001063 0.956268 0.925682
0.160097 0.956313 0.925727
0.307704 0.956355 0.925768
0.477889 0.952953 0.922366
0.624087 0.953481 0.922894
0.766216 0.953994 0.923408
0.908345 0.954508 0.923921
0.958595 0.954579 0.923992
0.958595 0.954579 0.923992
