docs/luts/fuji_recipes/Classic_RR_Classic_Slide.cube
TITLE "Fujifilm Recipe: RR Classic Slide (Classic)"
# FilmSim=Classic HL=1 SH=2 Col=0 WB=Daylight WBR=-2 WBB=3
LUT_3D_SIZE 5
DOMAIN_MIN 0.0 0.0 0.0
DOMAIN_MAX 1.0 1.0 1.0
0.000000 0.000000 0.000000
0.236325 0.036883 0.036883
0.506683 0.072715 0.072715
0.759729 0.107650 0.107650
0.824904 0.116649 0.116649
0.038634 0.247542 0.038634
0.238075 0.247542 0.038634
0.506683 0.281623 0.072715
0.759729 0.316559 0.107650
0.824904 0.325557 0.116649
0.076122 0.531363 0.076122
0.275564 0.531363 0.076122
0.510534 0.531363 0.076122
0.759729 0.567004 0.107650
0.824904 0.577176 0.116649
0.112743 0.796615 0.112743
0.312185 0.796615 0.112743
0.551932 0.796615 0.112743
0.765486 0.796615 0.112743
0.824904 0.801030 0.116649
0.122175 0.864934 0.122175
0.321617 0.864934 0.122175
0.562595 0.864934 0.122175
0.776148 0.864934 0.122175
0.831152 0.864934 0.122175
0.041124 0.041124 0.263500
0.240566 0.041124 0.263500
0.506683 0.072715 0.295090
0.759729 0.107650 0.330026
0.824904 0.116649 0.339024
0.041124 0.250032 0.263500
0.277449 0.286915 0.300383
0.550355 0.320256 0.333724
0.803402 0.355192 0.368660
0.868577 0.364190 0.377658
0.076122 0.531363 0.298498
0.312447 0.573057 0.335381
0.557023 0.577852 0.339622
0.806217 0.613493 0.371150
0.871393 0.623664 0.380149
0.112743 0.796615 0.335119
0.349068 0.838309 0.372002
0.598420 0.843103 0.376243
0.811974 0.843103 0.376243
0.871393 0.847518 0.380149
0.122175 0.864934 0.344551
0.358500 0.906628 0.381434
0.609083 0.911422 0.385675
0.822637 0.911422 0.385675
0.877640 0.911422 0.385675
0.080986 0.080986 0.566591
0.280427 0.080986 0.566591
0.516032 0.080986 0.566591
0.759729 0.107650 0.596734
0.824904 0.116649 0.606906
0.080986 0.289894 0.566591
0.317310 0.326777 0.608285
0.559705 0.328527 0.610264
0.803402 0.355192 0.640407
0.868577 0.364190 0.650579
0.080986 0.536861 0.566591
0.317310 0.578555 0.608285
0.598231 0.619060 0.648790
0.845780 0.653055 0.682785
0.910955 0.663227 0.692957
0.112743 0.796615 0.602491
0.349068 0.838309 0.644185
0.634131 0.878814 0.684690
0.857035 0.888164 0.694040
0.916453 0.892579 0.698455
0.122175 0.864934 0.613154
0.358500 0.906628 0.654847
0.644794 0.947133 0.695353
0.867697 0.956483 0.704703
0.922701 0.956483 0.704703
0.120020 0.120020 0.849323
0.319461 0.120020 0.849323
0.560158 0.120020 0.849323
0.773712 0.120020 0.849323
0.828715 0.120020 0.849323
0.120020 0.328928 0.849323
0.356345 0.365811 0.891016
0.603831 0.367562 0.892995
0.817385 0.367562 0.892995
0.872388 0.367562 0.892995
0.120020 0.580987 0.849323
0.356345 0.622681 0.891016
0.642357 0.663186 0.931522
0.859763 0.667038 0.935373
0.914766 0.667038 0.935373
0.120020 0.804841 0.849323
0.356345 0.846535 0.891016
0.642357 0.887040 0.931522
0.895404 0.926533 0.971014
0.956164 0.932290 0.976771
0.122175 0.864934 0.851759
0.358500 0.906628 0.893453
0.644794 0.947133 0.933958
0.897840 0.986626 0.973451
0.963015 0.996798 0.983623
0.121097 0.121097 0.857123
0.320538 0.121097 0.857123
0.561376 0.121097 0.857123
0.774929 0.121097 0.857123
0.829933 0.121097 0.857123
0.121097 0.330005 0.857123
0.357422 0.366888 0.898817
0.605048 0.368639 0.900796
0.818602 0.368639 0.900796
0.873606 0.368639 0.900796
0.121097 0.582205 0.857123
0.357422 0.623898 0.898817
0.643575 0.664404 0.939322
0.860980 0.668255 0.943174
0.915984 0.668255 0.943174
0.121097 0.806059 0.857123
0.357422 0.847752 0.898817
0.643575 0.888258 0.939322
0.896621 0.927750 0.978815
0.957381 0.933507 0.984572
0.122175 0.864934 0.858342
0.358500 0.906628 0.900036
0.644794 0.947133 0.940541
0.897840 0.986626 0.980034
0.963015 0.996798 0.990206
