docs/luts/fuji_recipes/Classic_RR_Urban_Vintage_Chrome.cube
TITLE "Fujifilm Recipe: RR Urban Vintage Chrome (Classic)"
# FilmSim=Classic HL=0 SH=2 Col=-4 WB=4300K WBR=-1 WBB=-3
LUT_3D_SIZE 33
DOMAIN_MIN 0.0 0.0 0.0
DOMAIN_MAX 1.0 1.0 1.0
0.000000 0.000000 0.000000
0.018612 0.012295 0.012295
0.036325 0.023995 0.023995
0.053824 0.035555 0.035555
0.071323 0.047115 0.047115
0.088822 0.058674 0.058674
0.106322 0.070234 0.070234
0.123821 0.081793 0.081793
0.141320 0.093353 0.093353
0.158819 0.104912 0.104912
0.176318 0.116472 0.116472
0.193817 0.128031 0.128031
0.211316 0.139591 0.139591
0.228816 0.151150 0.151150
0.246315 0.162710 0.162710
0.263814 0.174270 0.174270
0.283424 0.187224 0.187224
0.300641 0.198597 0.198597
0.317858 0.209970 0.209970
0.361860 0.236410 0.236410
0.380453 0.248557 0.248557
0.399047 0.260704 0.260704
0.417640 0.272852 0.272852
0.436233 0.284999 0.284999
0.454826 0.297146 0.297146
0.473419 0.309293 0.309293
0.492013 0.321441 0.321441
0.510606 0.333588 0.333588
0.529199 0.345735 0.345735
0.546509 0.357044 0.357044
0.546509 0.357044 0.357044
0.546509 0.357044 0.357044
0.546509 0.357044 0.357044
0.014119 0.021373 0.014119
0.020436 0.021373 0.014119
0.036325 0.031250 0.023995
0.053824 0.042809 0.035555
0.071323 0.054369 0.047115
0.088822 0.065929 0.058674
0.106322 0.077488 0.070234
0.123821 0.089048 0.081793
0.141320 0.100607 0.093353
0.158819 0.112167 0.104912
0.176318 0.123726 0.116472
0.193817 0.135286 0.128031
0.211316 0.146845 0.139591
0.228816 0.158405 0.151150
0.246315 0.169965 0.162710
0.263814 0.181524 0.174270
0.283424 0.194478 0.187224
0.300641 0.205851 0.198597
0.317858 0.217224 0.209970
0.361860 0.243664 0.236410
0.380453 0.255811 0.248557
0.399047 0.267959 0.260704
0.417640 0.280106 0.272852
0.436233 0.292253 0.284999
0.454826 0.304401 0.297146
0.473419 0.316548 0.309293
0.492013 0.328695 0.321441
0.510606 0.340842 0.333588
0.529199 0.352990 0.345735
0.546509 0.364299 0.357044
0.546509 0.364299 0.357044
0.546509 0.364299 0.357044
0.546509 0.364299 0.357044
0.026760 0.040510 0.026760
0.033077 0.040510 0.026760
0.039090 0.040510 0.026760
0.053824 0.049305 0.035555
0.071323 0.060865 0.047115
0.088822 0.072424 0.058674
0.106322 0.083984 0.070234
0.123821 0.095543 0.081793
0.141320 0.107103 0.093353
0.158819 0.118662 0.104912
0.176318 0.130222 0.116472
0.193817 0.141781 0.128031
0.211316 0.153341 0.139591
0.228816 0.164901 0.151150
0.246315 0.176460 0.162710
0.263814 0.188020 0.174270
0.283424 0.200974 0.187224
0.300641 0.212347 0.198597
0.317858 0.223720 0.209970
0.361860 0.250160 0.236410
0.380453 0.262307 0.248557
0.399047 0.274454 0.260704
0.417640 0.286602 0.272852
0.436233 0.298749 0.284999
0.454826 0.310896 0.297146
0.473419 0.323043 0.309293
0.492013 0.335191 0.321441
0.510606 0.347338 0.333588
0.529199 0.359485 0.345735
0.546509 0.370794 0.357044
0.546509 0.370794 0.357044
0.546509 0.370794 0.357044
0.546509 0.370794 0.357044
0.039188 0.059323 0.039188
0.045505 0.059323 0.039188
0.051517 0.059323 0.039188
0.057457 0.059323 0.039188
0.071323 0.067250 0.047115
0.088822 0.078810 0.058674
0.106322 0.090369 0.070234
0.123821 0.101929 0.081793
0.141320 0.113488 0.093353
0.158819 0.125048 0.104912
0.176318 0.136608 0.116472
0.193817 0.148167 0.128031
0.211316 0.159727 0.139591
0.228816 0.171286 0.151150
0.246315 0.182846 0.162710
0.263814 0.194405 0.174270
0.283424 0.207359 0.187224
0.300641 0.218732 0.198597
0.317858 0.230105 0.209970
0.361860 0.256545 0.236410
0.380453 0.268693 0.248557
0.399047 0.280840 0.260704
0.417640 0.292987 0.272852
0.436233 0.305135 0.284999
0.454826 0.317282 0.297146
0.473419 0.329429 0.309293
0.492013 0.341576 0.321441
0.510606 0.353724 0.333588
0.529199 0.365871 0.345735
0.546509 0.377180 0.357044
0.546509 0.377180 0.357044
0.546509 0.377180 0.357044
0.546509 0.377180 0.357044
0.051615 0.078137 0.051615
0.057933 0.078137 0.051615
0.063945 0.078137 0.051615
0.069884 0.078137 0.051615
0.075824 0.078137 0.051615
0.088822 0.085195 0.058674
0.106322 0.096755 0.070234
0.123821 0.108314 0.081793
0.141320 0.119874 0.093353
0.158819 0.131434 0.104912
0.176318 0.142993 0.116472
0.193817 0.154553 0.128031
0.211316 0.166112 0.139591
0.228816 0.177672 0.151150
0.246315 0.189231 0.162710
0.263814 0.200791 0.174270
0.283424 0.213745 0.187224
0.300641 0.225118 0.198597
0.317858 0.236491 0.209970
0.361860 0.262931 0.236410
0.380453 0.275078 0.248557
0.399047 0.287226 0.260704
0.417640 0.299373 0.272852
0.436233 0.311520 0.284999
0.454826 0.323667 0.297146
0.473419 0.335815 0.309293
0.492013 0.347962 0.321441
0.510606 0.360109 0.333588
0.529199 0.372256 0.345735
0.546509 0.383565 0.357044
0.546509 0.383565 0.357044
0.546509 0.383565 0.357044
0.546509 0.383565 0.357044
0.064043 0.096950 0.064043
0.070360 0.096950 0.064043
0.076372 0.096950 0.064043
0.082312 0.096950 0.064043
0.088252 0.096950 0.064043
0.094191 0.096950 0.064043
0.106322 0.103141 0.070234
0.123821 0.114700 0.081793
0.141320 0.126260 0.093353
0.158819 0.137819 0.104912
0.176318 0.149379 0.116472
0.193817 0.160938 0.128031
0.211316 0.172498 0.139591
0.228816 0.184057 0.151150
0.246315 0.195617 0.162710
0.263814 0.207177 0.174270
0.283424 0.220131 0.187224
0.300641 0.231504 0.198597
0.317858 0.242877 0.209970
0.361860 0.269317 0.236410
0.380453 0.281464 0.248557
0.399047 0.293611 0.260704
0.417640 0.305758 0.272852
0.436233 0.317906 0.284999
0.454826 0.330053 0.297146
0.473419 0.342200 0.309293
0.492013 0.354348 0.321441
0.510606 0.366495 0.333588
0.529199 0.378642 0.345735
0.546509 0.389951 0.357044
0.546509 0.389951 0.357044
0.546509 0.389951 0.357044
0.546509 0.389951 0.357044
0.076471 0.115763 0.076471
0.082788 0.115763 0.076471
0.088800 0.115763 0.076471
0.094740 0.115763 0.076471
0.100679 0.115763 0.076471
0.106619 0.115763 0.076471
0.112558 0.115763 0.076471
0.123821 0.121086 0.081793
0.141320 0.132645 0.093353
0.158819 0.144205 0.104912
0.176318 0.155764 0.116472
0.193817 0.167324 0.128031
0.211316 0.178883 0.139591
0.228816 0.190443 0.151150
0.246315 0.202003 0.162710
0.263814 0.213562 0.174270
0.283424 0.226516 0.187224
0.300641 0.237889 0.198597
0.317858 0.249262 0.209970
0.361860 0.275702 0.236410
0.380453 0.287850 0.248557
0.399047 0.299997 0.260704
0.417640 0.312144 0.272852
0.436233 0.324291 0.284999
0.454826 0.336439 0.297146
0.473419 0.348586 0.309293
0.492013 0.360733 0.321441
0.510606 0.372880 0.333588
0.529199 0.385028 0.345735
0.546509 0.396337 0.357044
0.546509 0.396337 0.357044
0.546509 0.396337 0.357044
0.546509 0.396337 0.357044
0.088898 0.134576 0.088898
0.095215 0.134576 0.088898
0.101228 0.134576 0.088898
0.107167 0.134576 0.088898
0.113107 0.134576 0.088898
0.119046 0.134576 0.088898
0.124986 0.134576 0.088898
0.130926 0.134576 0.088898
0.141320 0.139031 0.093353
0.158819 0.150590 0.104912
0.176318 0.162150 0.116472
0.193817 0.173710 0.128031
0.211316 0.185269 0.139591
0.228816 0.196829 0.151150
0.246315 0.208388 0.162710
0.263814 0.219948 0.174270
0.283424 0.232902 0.187224
0.300641 0.244275 0.198597
0.317858 0.255648 0.209970
0.361860 0.282088 0.236410
0.380453 0.294235 0.248557
0.399047 0.306382 0.260704
0.417640 0.318530 0.272852
0.436233 0.330677 0.284999
0.454826 0.342824 0.297146
0.473419 0.354972 0.309293
0.492013 0.367119 0.321441
0.510606 0.379266 0.333588
0.529199 0.391413 0.345735
0.546509 0.402722 0.357044
0.546509 0.402722 0.357044
0.546509 0.402722 0.357044
0.546509 0.402722 0.357044
0.101326 0.153390 0.101326
0.107643 0.153390 0.101326
0.113655 0.153390 0.101326
0.119595 0.153390 0.101326
0.125534 0.153390 0.101326
0.131474 0.153390 0.101326
0.137414 0.153390 0.101326
0.143353 0.153390 0.101326
0.149293 0.153390 0.101326
0.158819 0.156976 0.104912
0.176318 0.168536 0.116472
0.193817 0.180095 0.128031
0.211316 0.191655 0.139591
0.228816 0.203214 0.151150
0.246315 0.214774 0.162710
0.263814 0.226333 0.174270
0.283424 0.239287 0.187224
0.300641 0.250661 0.198597
0.317858 0.262034 0.209970
0.361860 0.288474 0.236410
0.380453 0.300621 0.248557
0.399047 0.312768 0.260704
0.417640 0.324915 0.272852
0.436233 0.337063 0.284999
0.454826 0.349210 0.297146
0.473419 0.361357 0.309293
0.492013 0.373504 0.321441
0.510606 0.385652 0.333588
0.529199 0.397799 0.345735
0.546509 0.409108 0.357044
0.546509 0.409108 0.357044
0.546509 0.409108 0.357044
0.546509 0.409108 0.357044
0.113753 0.172203 0.113753
0.120071 0.172203 0.113753
0.126083 0.172203 0.113753
0.132022 0.172203 0.113753
0.137962 0.172203 0.113753
0.143902 0.172203 0.113753
0.149841 0.172203 0.113753
0.155781 0.172203 0.113753
0.161720 0.172203 0.113753
0.167660 0.172203 0.113753
0.176318 0.174921 0.116472
0.193817 0.186481 0.128031
0.211316 0.198040 0.139591
0.228816 0.209600 0.151150
0.246315 0.221159 0.162710
0.263814 0.232719 0.174270
0.283424 0.245673 0.187224
0.300641 0.257046 0.198597
0.317858 0.268419 0.209970
0.361860 0.294859 0.236410
0.380453 0.307006 0.248557
0.399047 0.319154 0.260704
0.417640 0.331301 0.272852
0.436233 0.343448 0.284999
0.454826 0.355596 0.297146
0.473419 0.367743 0.309293
0.492013 0.379890 0.321441
0.510606 0.392037 0.333588
0.529199 0.404185 0.345735
0.546509 0.415494 0.357044
0.546509 0.415494 0.357044
0.546509 0.415494 0.357044
0.546509 0.415494 0.357044
0.126181 0.191016 0.126181
0.132498 0.191016 0.126181
0.138510 0.191016 0.126181
0.144450 0.191016 0.126181
0.150390 0.191016 0.126181
0.156329 0.191016 0.126181
0.162269 0.191016 0.126181
0.168208 0.191016 0.126181
0.174148 0.191016 0.126181
0.180088 0.191016 0.126181
0.186027 0.191016 0.126181
0.193817 0.192866 0.128031
0.211316 0.204426 0.139591
0.228816 0.215986 0.151150
0.246315 0.227545 0.162710
0.263814 0.239105 0.174270
0.283424 0.252059 0.187224
0.300641 0.263432 0.198597
0.317858 0.274805 0.209970
0.361860 0.301245 0.236410
0.380453 0.313392 0.248557
0.399047 0.325539 0.260704
0.417640 0.337687 0.272852
0.436233 0.349834 0.284999
0.454826 0.361981 0.297146
0.473419 0.374128 0.309293
0.492013 0.386276 0.321441
0.510606 0.398423 0.333588
0.529199 0.410570 0.345735
0.546509 0.421879 0.357044
0.546509 0.421879 0.357044
0.546509 0.421879 0.357044
0.546509 0.421879 0.357044
0.138609 0.209829 0.138609
0.144926 0.209829 0.138609
0.150938 0.209829 0.138609
0.156878 0.209829 0.138609
0.162817 0.209829 0.138609
0.168757 0.209829 0.138609
0.174696 0.209829 0.138609
0.180636 0.209829 0.138609
0.186576 0.209829 0.138609
0.192515 0.209829 0.138609
0.198455 0.209829 0.138609
0.204394 0.209829 0.138609
0.211316 0.210812 0.139591
0.228816 0.222371 0.151150
0.246315 0.233931 0.162710
0.263814 0.245490 0.174270
0.283424 0.258444 0.187224
0.300641 0.269817 0.198597
0.317858 0.281190 0.209970
0.361860 0.307630 0.236410
0.380453 0.319778 0.248557
0.399047 0.331925 0.260704
0.417640 0.344072 0.272852
0.436233 0.356220 0.284999
0.454826 0.368367 0.297146
0.473419 0.380514 0.309293
0.492013 0.392661 0.321441
0.510606 0.404809 0.333588
0.529199 0.416956 0.345735
0.546509 0.428265 0.357044
0.546509 0.428265 0.357044
0.546509 0.428265 0.357044
0.546509 0.428265 0.357044
0.151036 0.228642 0.151036
0.157353 0.228642 0.151036
0.163366 0.228642 0.151036
0.169305 0.228642 0.151036
0.175245 0.228642 0.151036
0.181184 0.228642 0.151036
0.187124 0.228642 0.151036
0.193064 0.228642 0.151036
0.199003 0.228642 0.151036
0.204943 0.228642 0.151036
0.210882 0.228642 0.151036
0.216822 0.228642 0.151036
0.222762 0.228642 0.151036
0.228816 0.228757 0.151150
0.246315 0.240316 0.162710
0.263814 0.251876 0.174270
0.283424 0.264830 0.187224
0.300641 0.276203 0.198597
0.317858 0.287576 0.209970
0.361860 0.314016 0.236410
0.380453 0.326163 0.248557
0.399047 0.338311 0.260704
0.417640 0.350458 0.272852
0.436233 0.362605 0.284999
0.454826 0.374752 0.297146
0.473419 0.386900 0.309293
0.492013 0.399047 0.321441
0.510606 0.411194 0.333588
0.529199 0.423341 0.345735
0.546509 0.434650 0.357044
0.546509 0.434650 0.357044
0.546509 0.434650 0.357044
0.546509 0.434650 0.357044
0.163464 0.247456 0.163464
0.169781 0.247456 0.163464
0.175793 0.247456 0.163464
0.181733 0.247456 0.163464
0.187672 0.247456 0.163464
0.193612 0.247456 0.163464
0.199552 0.247456 0.163464
0.205491 0.247456 0.163464
0.211431 0.247456 0.163464
0.217370 0.247456 0.163464
0.223310 0.247456 0.163464
0.229250 0.247456 0.163464
0.235189 0.247456 0.163464
0.241129 0.247456 0.163464
0.247068 0.247456 0.163464
0.263814 0.258262 0.174270
0.283424 0.271216 0.187224
0.300641 0.282589 0.198597
0.317858 0.293962 0.209970
0.361860 0.320402 0.236410
0.380453 0.332549 0.248557
0.399047 0.344696 0.260704
0.417640 0.356843 0.272852
0.436233 0.368991 0.284999
0.454826 0.381138 0.297146
0.473419 0.393285 0.309293
0.492013 0.405433 0.321441
0.510606 0.417580 0.333588
0.529199 0.429727 0.345735
0.546509 0.441036 0.357044
0.546509 0.441036 0.357044
0.546509 0.441036 0.357044
0.546509 0.441036 0.357044
0.175891 0.266269 0.175891
0.182209 0.266269 0.175891
0.188221 0.266269 0.175891
0.194160 0.266269 0.175891
0.200100 0.266269 0.175891
0.206040 0.266269 0.175891
0.211979 0.266269 0.175891
0.217919 0.266269 0.175891
0.223858 0.266269 0.175891
0.229798 0.266269 0.175891
0.235738 0.266269 0.175891
0.241677 0.266269 0.175891
0.247617 0.266269 0.175891
0.253556 0.266269 0.175891
0.259496 0.266269 0.175891
0.265436 0.266269 0.175891
0.283424 0.277601 0.187224
0.300641 0.288974 0.198597
0.317858 0.300347 0.209970
0.361860 0.326787 0.236410
0.380453 0.338935 0.248557
0.399047 0.351082 0.260704
0.417640 0.363229 0.272852
0.436233 0.375376 0.284999
0.454826 0.387524 0.297146
0.473419 0.399671 0.309293
0.492013 0.411818 0.321441
0.510606 0.423965 0.333588
0.529199 0.436113 0.345735
0.546509 0.447422 0.357044
0.546509 0.447422 0.357044
0.546509 0.447422 0.357044
0.546509 0.447422 0.357044
0.189673 0.287132 0.189673
0.195990 0.287132 0.189673
0.202003 0.287132 0.189673
0.207942 0.287132 0.189673
0.213882 0.287132 0.189673
0.219822 0.287132 0.189673
0.225761 0.287132 0.189673
0.231701 0.287132 0.189673
0.237640 0.287132 0.189673
0.243580 0.287132 0.189673
0.249519 0.287132 0.189673
0.255459 0.287132 0.189673
0.261399 0.287132 0.189673
0.267338 0.287132 0.189673
0.273278 0.287132 0.189673
0.279217 0.287132 0.189673
0.285874 0.287132 0.189673
0.300641 0.296056 0.198597
0.317858 0.307429 0.209970
0.361860 0.333869 0.236410
0.380453 0.346016 0.248557
0.399047 0.358163 0.260704
0.417640 0.370311 0.272852
0.436233 0.382458 0.284999
0.454826 0.394605 0.297146
0.473419 0.406752 0.309293
0.492013 0.418900 0.321441
0.510606 0.431047 0.333588
0.529199 0.443194 0.345735
0.546509 0.465740 0.357044
0.546509 0.465740 0.357044
0.546509 0.465740 0.357044
0.546509 0.465740 0.357044
0.201900 0.305642 0.201900
0.208218 0.305642 0.201900
0.214230 0.305642 0.201900
0.220169 0.305642 0.201900
0.226109 0.305642 0.201900
0.232049 0.305642 0.201900
0.237988 0.305642 0.201900
0.243928 0.305642 0.201900
0.249867 0.305642 0.201900
0.255807 0.305642 0.201900
0.261747 0.305642 0.201900
0.267686 0.305642 0.201900
0.273626 0.305642 0.201900
0.279565 0.305642 0.201900
0.285505 0.305642 0.201900
0.291445 0.305642 0.201900
0.298101 0.305642 0.201900
0.303945 0.305642 0.201900
0.317858 0.313711 0.209970
0.361860 0.340151 0.236410
0.380453 0.352299 0.248557
0.399047 0.364446 0.260704
0.417640 0.376593 0.272852
0.436233 0.399966 0.284999
0.454826 0.412208 0.297146
0.473419 0.424449 0.309293
0.492013 0.436690 0.321441
0.510606 0.448931 0.333588
0.529199 0.461173 0.345735
0.546509 0.472569 0.357044
0.546509 0.472569 0.357044
0.546509 0.472569 0.357044
0.546509 0.472569 0.357044
0.228703 0.350064 0.228703
0.235020 0.350064 0.228703
0.241033 0.350064 0.228703
0.246972 0.350064 0.228703
0.252912 0.350064 0.228703
0.258851 0.350064 0.228703
0.264791 0.350064 0.228703
0.270731 0.350064 0.228703
0.276670 0.350064 0.228703
0.282610 0.350064 0.228703
0.288549 0.350064 0.228703
0.294489 0.350064 0.228703
0.300429 0.350064 0.228703
0.306368 0.350064 0.228703
0.312308 0.350064 0.228703
0.318247 0.350064 0.228703
0.324904 0.350064 0.228703
0.330747 0.350064 0.228703
0.336591 0.350064 0.228703
0.361860 0.357830 0.236410
0.380453 0.370072 0.248557
0.399047 0.382313 0.260704
0.417640 0.394554 0.272852
0.436233 0.406795 0.284999
0.454826 0.419037 0.297146
0.473419 0.431278 0.309293
0.492013 0.443519 0.321441
0.510606 0.455760 0.333588
0.529199 0.468002 0.345735
0.546509 0.479398 0.357044
0.546509 0.479398 0.357044
0.546509 0.479398 0.357044
0.546509 0.479398 0.357044
0.241763 0.370054 0.241763
0.248080 0.370054 0.241763
0.254092 0.370054 0.241763
0.260032 0.370054 0.241763
0.265971 0.370054 0.241763
0.271911 0.370054 0.241763
0.277851 0.370054 0.241763
0.283790 0.370054 0.241763
0.289730 0.370054 0.241763
0.295669 0.370054 0.241763
0.301609 0.370054 0.241763
0.307549 0.370054 0.241763
0.313488 0.370054 0.241763
0.319428 0.370054 0.241763
0.325367 0.370054 0.241763
0.331307 0.370054 0.241763
0.337963 0.370054 0.241763
0.343807 0.370054 0.241763
0.360903 0.370054 0.241763
0.367254 0.370054 0.241763
0.380453 0.376900 0.248557
0.399047 0.389142 0.260704
0.417640 0.401383 0.272852
0.436233 0.413624 0.284999
0.454826 0.425865 0.297146
0.473419 0.438107 0.309293
0.492013 0.450348 0.321441
0.510606 0.462589 0.333588
0.529199 0.474830 0.345735
0.546509 0.486227 0.357044
0.546509 0.486227 0.357044
0.546509 0.486227 0.357044
0.546509 0.486227 0.357044
0.254822 0.390043 0.254822
0.261139 0.390043 0.254822
0.267152 0.390043 0.254822
0.273091 0.390043 0.254822
0.279031 0.390043 0.254822
0.284970 0.390043 0.254822
0.290910 0.390043 0.254822
0.296850 0.390043 0.254822
0.302789 0.390043 0.254822
0.308729 0.390043 0.254822
0.314668 0.390043 0.254822
0.320608 0.390043 0.254822
0.326548 0.390043 0.254822
0.332487 0.390043 0.254822
0.338427 0.390043 0.254822
0.344366 0.390043 0.254822
0.351022 0.390043 0.254822
0.356866 0.390043 0.254822
0.374063 0.390043 0.254822
0.380415 0.390043 0.254822
0.386767 0.390043 0.254822
0.399047 0.395971 0.260704
0.417640 0.408212 0.272852
0.436233 0.420453 0.284999
0.454826 0.432694 0.297146
0.473419 0.444936 0.309293
0.492013 0.457177 0.321441
0.510606 0.469418 0.333588
0.529199 0.481659 0.345735
0.546509 0.493056 0.357044
0.546509 0.493056 0.357044
0.546509 0.493056 0.357044
0.546509 0.493056 0.357044
0.267882 0.410032 0.267882
0.274199 0.410032 0.267882
0.280211 0.410032 0.267882
0.286151 0.410032 0.267882
0.292090 0.410032 0.267882
0.298030 0.410032 0.267882
0.303969 0.410032 0.267882
0.309909 0.410032 0.267882
0.315849 0.410032 0.267882
0.321788 0.410032 0.267882
0.327728 0.410032 0.267882
0.333667 0.410032 0.267882
0.339607 0.410032 0.267882
0.345547 0.410032 0.267882
0.351486 0.410032 0.267882
0.357426 0.410032 0.267882
0.364082 0.410032 0.267882
0.369926 0.410032 0.267882
0.387223 0.410032 0.267882
0.393575 0.410032 0.267882
0.399927 0.410032 0.267882
0.406279 0.410032 0.267882
0.417640 0.415041 0.272852
0.436233 0.427282 0.284999
0.454826 0.439523 0.297146
0.473419 0.451765 0.309293
0.492013 0.464006 0.321441
0.510606 0.476247 0.333588
0.529199 0.488488 0.345735
0.546509 0.499885 0.357044
0.546509 0.499885 0.357044
0.546509 0.499885 0.357044
0.546509 0.499885 0.357044
0.280941 0.430022 0.280941
0.287258 0.430022 0.280941
0.293271 0.430022 0.280941
0.299210 0.430022 0.280941
0.305150 0.430022 0.280941
0.311089 0.430022 0.280941
0.317029 0.430022 0.280941
0.322969 0.430022 0.280941
0.328908 0.430022 0.280941
0.334848 0.430022 0.280941
0.340787 0.430022 0.280941
0.346727 0.430022 0.280941
0.352666 0.430022 0.280941
0.358606 0.430022 0.280941
0.364546 0.430022 0.280941
0.370485 0.430022 0.280941
0.377141 0.430022 0.280941
0.382985 0.430022 0.280941
0.400384 0.430022 0.280941
0.406736 0.430022 0.280941
0.413088 0.430022 0.280941
0.419440 0.430022 0.280941
0.425792 0.430022 0.280941
0.436233 0.434111 0.284999
0.454826 0.446352 0.297146
0.473419 0.458594 0.309293
0.492013 0.470835 0.321441
0.510606 0.483076 0.333588
0.529199 0.495317 0.345735
0.546509 0.506714 0.357044
0.546509 0.506714 0.357044
0.546509 0.506714 0.357044
0.546509 0.506714 0.357044
0.294000 0.450011 0.294000
0.300318 0.450011 0.294000
0.306330 0.450011 0.294000
0.312270 0.450011 0.294000
0.318209 0.450011 0.294000
0.324149 0.450011 0.294000
0.330088 0.450011 0.294000
0.336028 0.450011 0.294000
0.341968 0.450011 0.294000
0.347907 0.450011 0.294000
0.353847 0.450011 0.294000
0.359786 0.450011 0.294000
0.365726 0.450011 0.294000
0.371666 0.450011 0.294000
0.377605 0.450011 0.294000
0.383545 0.450011 0.294000
0.390201 0.450011 0.294000
0.396045 0.450011 0.294000
0.413544 0.450011 0.294000
0.419896 0.450011 0.294000
0.426248 0.450011 0.294000
0.432600 0.450011 0.294000
0.438952 0.450011 0.294000
0.445304 0.450011 0.294000
0.454826 0.453181 0.297146
0.473419 0.465423 0.309293
0.492013 0.477664 0.321441
0.510606 0.489905 0.333588
0.529199 0.502146 0.345735
0.546509 0.513543 0.357044
0.546509 0.513543 0.357044
0.546509 0.513543 0.357044
0.546509 0.513543 0.357044
0.307060 0.470001 0.307060
0.313377 0.470001 0.307060
0.319389 0.470001 0.307060
0.325329 0.470001 0.307060
0.331269 0.470001 0.307060
0.337208 0.470001 0.307060
0.343148 0.470001 0.307060
0.349087 0.470001 0.307060
0.355027 0.470001 0.307060
0.360967 0.470001 0.307060
0.366906 0.470001 0.307060
0.372846 0.470001 0.307060
0.378785 0.470001 0.307060
0.384725 0.470001 0.307060
0.390665 0.470001 0.307060
0.396604 0.470001 0.307060
0.403260 0.470001 0.307060
0.420353 0.470001 0.307060
0.426705 0.470001 0.307060
0.433057 0.470001 0.307060
0.439409 0.470001 0.307060
0.445761 0.470001 0.307060
0.452113 0.470001 0.307060
0.458465 0.470001 0.307060
0.464817 0.470001 0.307060
0.473419 0.472251 0.309293
0.492013 0.484493 0.321441
0.510606 0.496734 0.333588
0.529199 0.508975 0.345735
0.546509 0.520372 0.357044
0.546509 0.520372 0.357044
0.546509 0.520372 0.357044
0.546509 0.520372 0.357044
0.320119 0.489990 0.320119
0.326437 0.489990 0.320119
0.332449 0.489990 0.320119
0.338388 0.489990 0.320119
0.344328 0.489990 0.320119
0.350268 0.489990 0.320119
0.356207 0.489990 0.320119
0.362147 0.489990 0.320119
0.368086 0.489990 0.320119
0.374026 0.489990 0.320119
0.379966 0.489990 0.320119
0.385905 0.489990 0.320119
0.391845 0.489990 0.320119
0.397784 0.489990 0.320119
0.403724 0.489990 0.320119
0.409664 0.489990 0.320119
0.416320 0.489990 0.320119
0.433513 0.489990 0.320119
0.439865 0.489990 0.320119
0.446217 0.489990 0.320119
0.452569 0.489990 0.320119
0.458921 0.489990 0.320119
0.465273 0.489990 0.320119
0.471625 0.489990 0.320119
0.477977 0.489990 0.320119
0.484329 0.489990 0.320119
0.492013 0.491322 0.321441
0.510606 0.503563 0.333588
0.529199 0.515804 0.345735
0.546509 0.527201 0.357044
0.546509 0.527201 0.357044
0.546509 0.527201 0.357044
0.546509 0.527201 0.357044
0.333179 0.509980 0.333179
0.339496 0.509980 0.333179
0.345508 0.509980 0.333179
0.351448 0.509980 0.333179
0.357388 0.509980 0.333179
0.363327 0.509980 0.333179
0.369267 0.509980 0.333179
0.375206 0.509980 0.333179
0.381146 0.509980 0.333179
0.387086 0.509980 0.333179
0.393025 0.509980 0.333179
0.398965 0.509980 0.333179
0.404904 0.509980 0.333179
0.410844 0.509980 0.333179
0.416784 0.509980 0.333179
0.422723 0.509980 0.333179
0.429379 0.509980 0.333179
0.446674 0.509980 0.333179
0.453026 0.509980 0.333179
0.459378 0.509980 0.333179
0.465730 0.509980 0.333179
0.472082 0.509980 0.333179
0.478434 0.509980 0.333179
0.484786 0.509980 0.333179
0.491138 0.509980 0.333179
0.497490 0.509980 0.333179
0.503842 0.509980 0.333179
0.510606 0.510392 0.333588
0.529199 0.522633 0.345735
0.546509 0.534029 0.357044
0.546509 0.534029 0.357044
0.546509 0.534029 0.357044
0.546509 0.534029 0.357044
0.346238 0.529969 0.346238
0.352556 0.529969 0.346238
0.358568 0.529969 0.346238
0.364507 0.529969 0.346238
0.370447 0.529969 0.346238
0.376387 0.529969 0.346238
0.382326 0.529969 0.346238
0.388266 0.529969 0.346238
0.394205 0.529969 0.346238
0.400145 0.529969 0.346238
0.406085 0.529969 0.346238
0.412024 0.529969 0.346238
0.417964 0.529969 0.346238
0.423903 0.529969 0.346238
0.429843 0.529969 0.346238
0.435783 0.529969 0.346238
0.442439 0.529969 0.346238
0.459834 0.529969 0.346238
0.466186 0.529969 0.346238
0.472538 0.529969 0.346238
0.478890 0.529969 0.346238
0.485242 0.529969 0.346238
0.491594 0.529969 0.346238
0.497946 0.529969 0.346238
