docs/luts/fuji_recipes/Classic_EM_Cross_Process.cube
TITLE "Fujifilm Recipe: EM Cross Process (Classic)"
# FilmSim=Classic HL=1 SH=2 Col=-1 WB=Auto WBR=-3 WBB=-8
LUT_3D_SIZE 33
DOMAIN_MIN 0.0 0.0 0.0
DOMAIN_MAX 1.0 1.0 1.0
0.000000 0.000000 0.000000
0.021086 0.005295 0.005295
0.042173 0.010589 0.010589
0.063259 0.015884 0.015884
0.084345 0.021179 0.021179
0.105432 0.026473 0.026473
0.126518 0.031768 0.031768
0.147604 0.037063 0.037063
0.168691 0.042357 0.042357
0.189777 0.047652 0.047652
0.210863 0.052947 0.052947
0.231950 0.058241 0.058241
0.253036 0.063536 0.063536
0.274122 0.068831 0.068831
0.295209 0.074125 0.074125
0.316295 0.079420 0.079420
0.337381 0.084715 0.084715
0.358468 0.090009 0.090009
0.382256 0.095983 0.095983
0.403003 0.101192 0.101192
0.423749 0.106401 0.106401
0.483391 0.115457 0.115457
0.506803 0.120930 0.120930
0.530214 0.126403 0.126403
0.553625 0.131876 0.131876
0.577036 0.137349 0.137349
0.600447 0.142821 0.142821
0.623858 0.148294 0.148294
0.647269 0.153767 0.153767
0.670680 0.159240 0.159240
0.694092 0.164713 0.164713
0.717503 0.170186 0.170186
0.740914 0.175658 0.175658
0.005667 0.022568 0.005667
0.021458 0.022568 0.005667
0.042173 0.027491 0.010589
0.063259 0.032785 0.015884
0.084345 0.038080 0.021179
0.105432 0.043375 0.026473
0.126518 0.048669 0.031768
0.147604 0.053964 0.037063
0.168691 0.059259 0.042357
0.189777 0.064553 0.047652
0.210863 0.069848 0.052947
0.231950 0.075143 0.058241
0.253036 0.080437 0.063536
0.274122 0.085732 0.068831
0.295209 0.091027 0.074125
0.316295 0.096321 0.079420
0.337381 0.101616 0.084715
0.358468 0.106911 0.090009
0.382256 0.112884 0.095983
0.403003 0.118093 0.101192
0.423749 0.123302 0.106401
0.483391 0.132359 0.115457
0.506803 0.137831 0.120930
0.530214 0.143304 0.126403
0.553625 0.148777 0.131876
0.577036 0.154250 0.137349
0.600447 0.159723 0.142821
0.623858 0.165196 0.148294
0.647269 0.170668 0.153767
0.670680 0.176141 0.159240
0.694092 0.181614 0.164713
0.717503 0.187087 0.170186
0.740914 0.192560 0.175658
0.011358 0.045234 0.011358
0.027150 0.045234 0.011358
0.042941 0.045234 0.011358
0.063259 0.049760 0.015884
0.084345 0.055055 0.021179
0.105432 0.060349 0.026473
0.126518 0.065644 0.031768
0.147604 0.070939 0.037063
0.168691 0.076233 0.042357
0.189777 0.081528 0.047652
0.210863 0.086823 0.052947
0.231950 0.092117 0.058241
0.253036 0.097412 0.063536
0.274122 0.102707 0.068831
0.295209 0.108001 0.074125
0.316295 0.113296 0.079420
0.337381 0.118591 0.084715
0.358468 0.123885 0.090009
0.382256 0.129858 0.095983
0.403003 0.135068 0.101192
0.423749 0.140277 0.106401
0.483391 0.149333 0.115457
0.506803 0.154806 0.120930
0.530214 0.160279 0.126403
0.553625 0.165752 0.131876
0.577036 0.171224 0.137349
0.600447 0.176697 0.142821
0.623858 0.182170 0.148294
0.647269 0.187643 0.153767
0.670680 0.193116 0.159240
0.694092 0.198589 0.164713
0.717503 0.204061 0.170186
0.740914 0.209534 0.175658
0.017058 0.067935 0.017058
0.032850 0.067935 0.017058
0.048641 0.067935 0.017058
0.064433 0.067935 0.017058
0.084345 0.072055 0.021179
0.105432 0.077350 0.026473
0.126518 0.082645 0.031768
0.147604 0.087939 0.037063
0.168691 0.093234 0.042357
0.189777 0.098529 0.047652
0.210863 0.103823 0.052947
0.231950 0.109118 0.058241
0.253036 0.114413 0.063536
0.274122 0.119707 0.068831
0.295209 0.125002 0.074125
0.316295 0.130297 0.079420
0.337381 0.135591 0.084715
0.358468 0.140886 0.090009
0.382256 0.146859 0.095983
0.403003 0.152068 0.101192
0.423749 0.157278 0.106401
0.483391 0.166334 0.115457
0.506803 0.171807 0.120930
0.530214 0.177280 0.126403
0.553625 0.182752 0.131876
0.577036 0.188225 0.137349
0.600447 0.193698 0.142821
0.623858 0.199171 0.148294
0.647269 0.204644 0.153767
0.670680 0.210117 0.159240
0.694092 0.215589 0.164713
0.717503 0.221062 0.170186
0.740914 0.226535 0.175658
0.022758 0.090635 0.022758
0.038550 0.090635 0.022758
0.054341 0.090635 0.022758
0.070133 0.090635 0.022758
0.085925 0.090635 0.022758
0.105432 0.094351 0.026473
0.126518 0.099645 0.031768
0.147604 0.104940 0.037063
0.168691 0.110235 0.042357
0.189777 0.115529 0.047652
0.210863 0.120824 0.052947
0.231950 0.126119 0.058241
0.253036 0.131413 0.063536
0.274122 0.136708 0.068831
0.295209 0.142003 0.074125
0.316295 0.147297 0.079420
0.337381 0.152592 0.084715
0.358468 0.157887 0.090009
0.382256 0.163860 0.095983
0.403003 0.169069 0.101192
0.423749 0.174278 0.106401
0.483391 0.183335 0.115457
0.506803 0.188807 0.120930
0.530214 0.194280 0.126403
0.553625 0.199753 0.131876
0.577036 0.205226 0.137349
0.600447 0.210699 0.142821
0.623858 0.216172 0.148294
0.647269 0.221644 0.153767
0.670680 0.227117 0.159240
0.694092 0.232590 0.164713
0.717503 0.238063 0.170186
0.740914 0.243536 0.175658
0.028458 0.113336 0.028458
0.044250 0.113336 0.028458
0.060041 0.113336 0.028458
0.075833 0.113336 0.028458
0.091625 0.113336 0.028458
0.107416 0.113336 0.028458
0.126518 0.116646 0.031768
0.147604 0.121941 0.037063
0.168691 0.127235 0.042357
0.189777 0.132530 0.047652
0.210863 0.137825 0.052947
0.231950 0.143119 0.058241
0.253036 0.148414 0.063536
0.274122 0.153709 0.068831
0.295209 0.159003 0.074125
0.316295 0.164298 0.079420
0.337381 0.169593 0.084715
0.358468 0.174887 0.090009
0.382256 0.180861 0.095983
0.403003 0.186070 0.101192
0.423749 0.191279 0.106401
0.483391 0.200335 0.115457
0.506803 0.205808 0.120930
0.530214 0.211281 0.126403
0.553625 0.216754 0.131876
0.577036 0.222227 0.137349
0.600447 0.227699 0.142821
0.623858 0.233172 0.148294
0.647269 0.238645 0.153767
0.670680 0.244118 0.159240
0.694092 0.249591 0.164713
0.717503 0.255064 0.170186
0.740914 0.260536 0.175658
0.034158 0.136037 0.034158
0.049950 0.136037 0.034158
0.065741 0.136037 0.034158
0.081533 0.136037 0.034158
0.097325 0.136037 0.034158
0.113116 0.136037 0.034158
0.128908 0.136037 0.034158
0.147604 0.138941 0.037063
0.168691 0.144236 0.042357
0.189777 0.149531 0.047652
0.210863 0.154825 0.052947
0.231950 0.160120 0.058241
0.253036 0.165415 0.063536
0.274122 0.170709 0.068831
0.295209 0.176004 0.074125
0.316295 0.181299 0.079420
0.337381 0.186593 0.084715
0.358468 0.191888 0.090009
0.382256 0.197861 0.095983
0.403003 0.203071 0.101192
0.423749 0.208280 0.106401
0.483391 0.217336 0.115457
0.506803 0.222809 0.120930
0.530214 0.228282 0.126403
0.553625 0.233755 0.131876
0.577036 0.239227 0.137349
0.600447 0.244700 0.142821
0.623858 0.250173 0.148294
0.647269 0.255646 0.153767
0.670680 0.261119 0.159240
0.694092 0.266592 0.164713
0.717503 0.272064 0.170186
0.740914 0.277537 0.175658
0.039858 0.158738 0.039858
0.055650 0.158738 0.039858
0.071442 0.158738 0.039858
0.087233 0.158738 0.039858
0.103025 0.158738 0.039858
0.118817 0.158738 0.039858
0.134608 0.158738 0.039858
0.150400 0.158738 0.039858
0.168691 0.161237 0.042357
0.189777 0.166532 0.047652
0.210863 0.171826 0.052947
0.231950 0.177121 0.058241
0.253036 0.182416 0.063536
0.274122 0.187710 0.068831
0.295209 0.193005 0.074125
0.316295 0.198300 0.079420
0.337381 0.203594 0.084715
0.358468 0.208889 0.090009
0.382256 0.214862 0.095983
0.403003 0.220071 0.101192
0.423749 0.225281 0.106401
0.483391 0.234337 0.115457
0.506803 0.239810 0.120930
0.530214 0.245282 0.126403
0.553625 0.250755 0.131876
0.577036 0.256228 0.137349
0.600447 0.261701 0.142821
0.623858 0.267174 0.148294
0.647269 0.272647 0.153767
0.670680 0.278119 0.159240
0.694092 0.283592 0.164713
0.717503 0.289065 0.170186
0.740914 0.294538 0.175658
0.045558 0.181439 0.045558
0.061350 0.181439 0.045558
0.077142 0.181439 0.045558
0.092933 0.181439 0.045558
0.108725 0.181439 0.045558
0.124517 0.181439 0.045558
0.140308 0.181439 0.045558
0.156100 0.181439 0.045558
0.171892 0.181439 0.045558
0.189777 0.183532 0.047652
0.210863 0.188827 0.052947
0.231950 0.194122 0.058241
0.253036 0.199416 0.063536
0.274122 0.204711 0.068831
0.295209 0.210006 0.074125
0.316295 0.215300 0.079420
0.337381 0.220595 0.084715
0.358468 0.225890 0.090009
0.382256 0.231863 0.095983
0.403003 0.237072 0.101192
0.423749 0.242281 0.106401
0.483391 0.251338 0.115457
0.506803 0.256810 0.120930
0.530214 0.262283 0.126403
0.553625 0.267756 0.131876
0.577036 0.273229 0.137349
0.600447 0.278702 0.142821
0.623858 0.284175 0.148294
0.647269 0.289647 0.153767
0.670680 0.295120 0.159240
0.694092 0.300593 0.164713
0.717503 0.306066 0.170186
0.740914 0.311539 0.175658
0.051258 0.204139 0.051258
0.067050 0.204139 0.051258
0.082842 0.204139 0.051258
0.098633 0.204139 0.051258
0.114425 0.204139 0.051258
0.130217 0.204139 0.051258
0.146008 0.204139 0.051258
0.161800 0.204139 0.051258
0.177592 0.204139 0.051258
0.193383 0.204139 0.051258
0.210863 0.205828 0.052947
0.231950 0.211122 0.058241
0.253036 0.216417 0.063536
0.274122 0.221712 0.068831
0.295209 0.227006 0.074125
0.316295 0.232301 0.079420
0.337381 0.237596 0.084715
0.358468 0.242890 0.090009
0.382256 0.248864 0.095983
0.403003 0.254073 0.101192
0.423749 0.259282 0.106401
0.483391 0.268338 0.115457
0.506803 0.273811 0.120930
0.530214 0.279284 0.126403
0.553625 0.284757 0.131876
0.577036 0.290230 0.137349
0.600447 0.295702 0.142821
0.623858 0.301175 0.148294
0.647269 0.306648 0.153767
0.670680 0.312121 0.159240
0.694092 0.317594 0.164713
0.717503 0.323067 0.170186
0.740914 0.328539 0.175658
0.056958 0.226840 0.056958
0.072750 0.226840 0.056958
0.088542 0.226840 0.056958
0.104333 0.226840 0.056958
0.120125 0.226840 0.056958
0.135917 0.226840 0.056958
0.151708 0.226840 0.056958
0.167500 0.226840 0.056958
0.183292 0.226840 0.056958
0.199083 0.226840 0.056958
0.214875 0.226840 0.056958
0.231950 0.228123 0.058241
0.253036 0.233418 0.063536
0.274122 0.238712 0.068831
0.295209 0.244007 0.074125
0.316295 0.249302 0.079420
0.337381 0.254596 0.084715
0.358468 0.259891 0.090009
0.382256 0.265864 0.095983
0.403003 0.271074 0.101192
0.423749 0.276283 0.106401
0.483391 0.285339 0.115457
0.506803 0.290812 0.120930
0.530214 0.296285 0.126403
0.553625 0.301757 0.131876
0.577036 0.307230 0.137349
0.600447 0.312703 0.142821
0.623858 0.318176 0.148294
0.647269 0.323649 0.153767
0.670680 0.329122 0.159240
0.694092 0.334594 0.164713
0.717503 0.340067 0.170186
0.740914 0.345540 0.175658
0.062658 0.249541 0.062658
0.078450 0.249541 0.062658
0.094242 0.249541 0.062658
0.110033 0.249541 0.062658
0.125825 0.249541 0.062658
0.141617 0.249541 0.062658
0.157408 0.249541 0.062658
0.173200 0.249541 0.062658
0.188992 0.249541 0.062658
0.204783 0.249541 0.062658
0.220575 0.249541 0.062658
0.236367 0.249541 0.062658
0.253036 0.250418 0.063536
0.274122 0.255713 0.068831
0.295209 0.261008 0.074125
0.316295 0.266302 0.079420
0.337381 0.271597 0.084715
0.358468 0.276892 0.090009
0.382256 0.282865 0.095983
0.403003 0.288074 0.101192
0.423749 0.293284 0.106401
0.483391 0.302340 0.115457
0.506803 0.307813 0.120930
0.530214 0.313285 0.126403
0.553625 0.318758 0.131876
0.577036 0.324231 0.137349
0.600447 0.329704 0.142821
0.623858 0.335177 0.148294
0.647269 0.340650 0.153767
0.670680 0.346122 0.159240
0.694092 0.351595 0.164713
0.717503 0.357068 0.170186
0.740914 0.362541 0.175658
0.068358 0.272242 0.068358
0.084150 0.272242 0.068358
0.099942 0.272242 0.068358
0.115733 0.272242 0.068358
0.131525 0.272242 0.068358
0.147317 0.272242 0.068358
0.163108 0.272242 0.068358
0.178900 0.272242 0.068358
0.194692 0.272242 0.068358
0.210483 0.272242 0.068358
0.226275 0.272242 0.068358
0.242067 0.272242 0.068358
0.257858 0.272242 0.068358
0.274122 0.272714 0.068831
0.295209 0.278009 0.074125
0.316295 0.283303 0.079420
0.337381 0.288598 0.084715
0.358468 0.293893 0.090009
0.382256 0.299866 0.095983
0.403003 0.305075 0.101192
0.423749 0.310284 0.106401
0.483391 0.319340 0.115457
0.506803 0.324813 0.120930
0.530214 0.330286 0.126403
0.553625 0.335759 0.131876
0.577036 0.341232 0.137349
0.600447 0.346705 0.142821
0.623858 0.352177 0.148294
0.647269 0.357650 0.153767
0.670680 0.363123 0.159240
0.694092 0.368596 0.164713
0.717503 0.374069 0.170186
0.740914 0.379542 0.175658
0.074058 0.294942 0.074058
0.089850 0.294942 0.074058
0.105642 0.294942 0.074058
0.121433 0.294942 0.074058
0.137225 0.294942 0.074058
0.153017 0.294942 0.074058
0.168808 0.294942 0.074058
0.184600 0.294942 0.074058
0.200392 0.294942 0.074058
0.216183 0.294942 0.074058
0.231975 0.294942 0.074058
0.247767 0.294942 0.074058
0.263558 0.294942 0.074058
0.279350 0.294942 0.074058
0.295209 0.295009 0.074125
0.316295 0.300304 0.079420
0.337381 0.305599 0.084715
0.358468 0.310893 0.090009
0.382256 0.316866 0.095983
0.403003 0.322076 0.101192
0.423749 0.327285 0.106401
0.483391 0.336341 0.115457
0.506803 0.341814 0.120930
0.530214 0.347287 0.126403
0.553625 0.352760 0.131876
0.577036 0.358233 0.137349
0.600447 0.363705 0.142821
0.623858 0.369178 0.148294
0.647269 0.374651 0.153767
0.670680 0.380124 0.159240
0.694092 0.385597 0.164713
0.717503 0.391069 0.170186
0.740914 0.396542 0.175658
0.079759 0.317643 0.079759
0.095550 0.317643 0.079759
0.111342 0.317643 0.079759
0.127134 0.317643 0.079759
0.142925 0.317643 0.079759
0.158717 0.317643 0.079759
0.174509 0.317643 0.079759
0.190300 0.317643 0.079759
0.206092 0.317643 0.079759
0.221884 0.317643 0.079759
0.237675 0.317643 0.079759
0.253467 0.317643 0.079759
0.269259 0.317643 0.079759
0.285050 0.317643 0.079759
0.300842 0.317643 0.079759
0.316634 0.317643 0.079759
0.337381 0.322599 0.084715
0.358468 0.327894 0.090009
0.382256 0.333867 0.095983
0.403003 0.339076 0.101192
0.423749 0.344286 0.106401
0.483391 0.353342 0.115457
0.506803 0.358815 0.120930
0.530214 0.364288 0.126403
0.553625 0.369760 0.131876
0.577036 0.375233 0.137349
0.600447 0.380706 0.142821
0.623858 0.386179 0.148294
0.647269 0.391652 0.153767
0.670680 0.397125 0.159240
0.694092 0.402597 0.164713
0.717503 0.408070 0.170186
0.740914 0.413543 0.175658
0.085459 0.340344 0.085459
0.101250 0.340344 0.085459
0.117042 0.340344 0.085459
0.132834 0.340344 0.085459
0.148625 0.340344 0.085459
0.164417 0.340344 0.085459
0.180209 0.340344 0.085459
0.196000 0.340344 0.085459
0.211792 0.340344 0.085459
0.227584 0.340344 0.085459
0.243375 0.340344 0.085459
0.259167 0.340344 0.085459
0.274959 0.340344 0.085459
0.290750 0.340344 0.085459
0.306542 0.340344 0.085459
0.322334 0.340344 0.085459
0.338125 0.340344 0.085459
0.358468 0.344895 0.090009
0.382256 0.350868 0.095983
0.403003 0.356077 0.101192
0.423749 0.361286 0.106401
0.483391 0.370343 0.115457
0.506803 0.375815 0.120930
0.530214 0.381288 0.126403
0.553625 0.386761 0.131876
0.577036 0.392234 0.137349
0.600447 0.397707 0.142821
0.623858 0.403180 0.148294
0.647269 0.408652 0.153767
0.670680 0.414125 0.159240
0.694092 0.419598 0.164713
0.717503 0.425071 0.170186
0.740914 0.430544 0.175658
0.091159 0.363045 0.091159
0.106950 0.363045 0.091159
0.122742 0.363045 0.091159
0.138534 0.363045 0.091159
0.154325 0.363045 0.091159
0.170117 0.363045 0.091159
0.185909 0.363045 0.091159
0.201700 0.363045 0.091159
0.217492 0.363045 0.091159
0.233284 0.363045 0.091159
0.249075 0.363045 0.091159
0.264867 0.363045 0.091159
0.280659 0.363045 0.091159
0.296450 0.363045 0.091159
0.312242 0.363045 0.091159
0.328034 0.363045 0.091159
0.343825 0.363045 0.091159
0.359617 0.363045 0.091159
0.382256 0.367869 0.095983
0.403003 0.373078 0.101192
0.423749 0.378287 0.106401
0.483391 0.387343 0.115457
0.506803 0.392816 0.120930
0.530214 0.398289 0.126403
0.553625 0.403762 0.131876
0.577036 0.409235 0.137349
0.600447 0.414708 0.142821
0.623858 0.420180 0.148294
0.647269 0.425653 0.153767
0.670680 0.431126 0.159240
0.694092 0.436599 0.164713
0.717503 0.442072 0.170186
0.740914 0.447545 0.175658
0.097512 0.388348 0.097512
0.113304 0.388348 0.097512
0.129095 0.388348 0.097512
0.144887 0.388348 0.097512
0.160679 0.388348 0.097512
0.176470 0.388348 0.097512
0.192262 0.388348 0.097512
0.208054 0.388348 0.097512
0.223845 0.388348 0.097512
0.239637 0.388348 0.097512
0.255429 0.388348 0.097512
0.271220 0.388348 0.097512
0.287012 0.388348 0.097512
0.302804 0.388348 0.097512
0.318595 0.388348 0.097512
0.334387 0.388348 0.097512
0.350179 0.388348 0.097512
0.365970 0.388348 0.097512
0.383786 0.388348 0.097512
0.403003 0.392028 0.101192
0.423749 0.397237 0.106401
0.483391 0.406293 0.115457
0.506803 0.411766 0.120930
0.530214 0.417239 0.126403
0.553625 0.422712 0.131876
0.577036 0.428185 0.137349
0.600447 0.433657 0.142821
0.623858 0.439130 0.148294
0.647269 0.444603 0.153767
0.670680 0.450076 0.159240
0.694092 0.488486 0.164713
0.717503 0.494334 0.170186
0.740914 0.500182 0.175658
0.103120 0.410683 0.103120
0.118912 0.410683 0.103120
0.134704 0.410683 0.103120
0.150495 0.410683 0.103120
0.166287 0.410683 0.103120
0.182079 0.410683 0.103120
0.197870 0.410683 0.103120
0.213662 0.410683 0.103120
0.229454 0.410683 0.103120
0.245245 0.410683 0.103120
0.261037 0.410683 0.103120
0.276829 0.410683 0.103120
0.292620 0.410683 0.103120
0.308412 0.410683 0.103120
0.324204 0.410683 0.103120
0.339995 0.410683 0.103120
0.355787 0.410683 0.103120
0.371579 0.410683 0.103120
0.389394 0.410683 0.103120
0.404931 0.410683 0.103120
0.423749 0.413964 0.106401
0.483391 0.423020 0.115457
0.506803 0.428493 0.120930
0.530214 0.433965 0.126403
0.553625 0.472309 0.131876
0.577036 0.478157 0.137349
0.600447 0.484004 0.142821
0.623858 0.489852 0.148294
0.647269 0.495699 0.153767
0.670680 0.501547 0.159240
0.694092 0.507395 0.164713
0.717503 0.513242 0.170186
0.740914 0.519090 0.175658
0.112429 0.470439 0.112429
0.128221 0.470439 0.112429
0.144013 0.470439 0.112429
0.159804 0.470439 0.112429
0.175596 0.470439 0.112429
0.191388 0.470439 0.112429
0.207179 0.470439 0.112429
0.222971 0.470439 0.112429
0.238763 0.470439 0.112429
0.254554 0.470439 0.112429
0.270346 0.470439 0.112429
0.286138 0.470439 0.112429
0.301929 0.470439 0.112429
0.317721 0.470439 0.112429
0.333513 0.470439 0.112429
0.349304 0.470439 0.112429
0.365096 0.470439 0.112429
0.380888 0.470439 0.112429
0.398703 0.470439 0.112429
0.414240 0.470439 0.112429
0.462593 0.470439 0.112429
0.483391 0.473674 0.115457
0.506803 0.479522 0.120930
0.530214 0.485370 0.126403
0.553625 0.491217 0.131876
0.577036 0.497065 0.137349
0.600447 0.502913 0.142821
0.623858 0.508760 0.148294
0.647269 0.514608 0.153767
0.670680 0.520455 0.159240
0.694092 0.526303 0.164713
0.717503 0.532151 0.170186
0.740914 0.537998 0.175658
0.118321 0.495643 0.118321
0.134113 0.495643 0.118321
0.149905 0.495643 0.118321
0.165696 0.495643 0.118321
0.181488 0.495643 0.118321
0.197280 0.495643 0.118321
0.213071 0.495643 0.118321
0.228863 0.495643 0.118321
0.244655 0.495643 0.118321
0.260446 0.495643 0.118321
0.276238 0.495643 0.118321
0.292030 0.495643 0.118321
0.307821 0.495643 0.118321
0.323613 0.495643 0.118321
0.339405 0.495643 0.118321
0.355196 0.495643 0.118321
0.370988 0.495643 0.118321
0.386780 0.495643 0.118321
0.404595 0.495643 0.118321
0.420132 0.495643 0.118321
0.468888 0.495643 0.118321
0.486452 0.495643 0.118321
0.506803 0.498430 0.120930
0.530214 0.504278 0.126403
0.553625 0.510126 0.131876
0.577036 0.515973 0.137349
0.600447 0.521821 0.142821
0.623858 0.527668 0.148294
0.647269 0.533516 0.153767
0.670680 0.539364 0.159240
0.694092 0.545211 0.164713
0.717503 0.551059 0.170186
0.740914 0.556906 0.175658
0.124213 0.520846 0.124213
0.140005 0.520846 0.124213
0.155796 0.520846 0.124213
0.171588 0.520846 0.124213
0.187380 0.520846 0.124213
0.203171 0.520846 0.124213
0.218963 0.520846 0.124213
0.234755 0.520846 0.124213
0.250546 0.520846 0.124213
0.266338 0.520846 0.124213
0.282130 0.520846 0.124213
0.297921 0.520846 0.124213
0.313713 0.520846 0.124213
0.329505 0.520846 0.124213
0.345296 0.520846 0.124213
0.361088 0.520846 0.124213
0.376880 0.520846 0.124213
0.392671 0.520846 0.124213
0.410487 0.520846 0.124213
0.426024 0.520846 0.124213
0.475183 0.520846 0.124213
0.492747 0.520846 0.124213
0.510310 0.520846 0.124213
0.530214 0.523186 0.126403
0.553625 0.529034 0.131876
0.577036 0.534881 0.137349
0.600447 0.540729 0.142821
0.623858 0.546577 0.148294
0.647269 0.552424 0.153767
0.670680 0.558272 0.159240
0.694092 0.564119 0.164713
0.717503 0.569967 0.170186
0.740914 0.575815 0.175658
0.130105 0.546050 0.130105
0.145897 0.546050 0.130105
0.161688 0.546050 0.130105
0.177480 0.546050 0.130105
0.193272 0.546050 0.130105
0.209063 0.546050 0.130105
0.224855 0.546050 0.130105
0.240647 0.546050 0.130105
0.256438 0.546050 0.130105
0.272230 0.546050 0.130105
0.288022 0.546050 0.130105
0.303813 0.546050 0.130105
0.319605 0.546050 0.130105
0.335397 0.546050 0.130105
0.351188 0.546050 0.130105
0.366980 0.546050 0.130105
0.382772 0.546050 0.130105
0.398563 0.546050 0.130105
0.416379 0.546050 0.130105
0.431916 0.546050 0.130105
0.481479 0.546050 0.130105
0.499042 0.546050 0.130105
0.516606 0.546050 0.130105
0.534169 0.546050 0.130105
0.553625 0.547942 0.131876
0.577036 0.553790 0.137349
0.600447 0.559637 0.142821
0.623858 0.565485 0.148294
0.647269 0.571332 0.153767
0.670680 0.577180 0.159240
0.694092 0.583028 0.164713
0.717503 0.588875 0.170186
0.740914 0.594723 0.175658
0.135997 0.571254 0.135997
0.151788 0.571254 0.135997
0.167580 0.571254 0.135997
0.183372 0.571254 0.135997
0.199163 0.571254 0.135997
0.214955 0.571254 0.135997
0.230747 0.571254 0.135997
0.246538 0.571254 0.135997
0.262330 0.571254 0.135997
0.278122 0.571254 0.135997
0.293913 0.571254 0.135997
0.309705 0.571254 0.135997
0.325497 0.571254 0.135997
0.341288 0.571254 0.135997
0.357080 0.571254 0.135997
0.372872 0.571254 0.135997
0.388663 0.571254 0.135997
0.404455 0.571254 0.135997
0.422271 0.571254 0.135997
0.437808 0.571254 0.135997
0.487774 0.571254 0.135997
0.505338 0.571254 0.135997
0.522901 0.571254 0.135997
0.540465 0.571254 0.135997
0.558028 0.571254 0.135997
0.577036 0.572698 0.137349
0.600447 0.578545 0.142821
0.623858 0.584393 0.148294
0.647269 0.590241 0.153767
0.670680 0.596088 0.159240
0.694092 0.601936 0.164713
0.717503 0.607784 0.170186
0.740914 0.613631 0.175658
0.141889 0.596457 0.141889
0.157680 0.596457 0.141889
0.173472 0.596457 0.141889
0.189264 0.596457 0.141889
0.205055 0.596457 0.141889
0.220847 0.596457 0.141889
0.236639 0.596457 0.141889
0.252430 0.596457 0.141889
0.268222 0.596457 0.141889
0.284014 0.596457 0.141889
0.299805 0.596457 0.141889
0.315597 0.596457 0.141889
0.331389 0.596457 0.141889
0.347180 0.596457 0.141889
0.362972 0.596457 0.141889
0.378764 0.596457 0.141889
0.394555 0.596457 0.141889
0.410347 0.596457 0.141889
0.428163 0.596457 0.141889
0.476506 0.596457 0.141889
0.494069 0.596457 0.141889
0.511633 0.596457 0.141889
0.529196 0.596457 0.141889
0.546760 0.596457 0.141889
0.564323 0.596457 0.141889
0.581887 0.596457 0.141889
0.600447 0.597454 0.142821
0.623858 0.603301 0.148294
0.647269 0.609149 0.153767
0.670680 0.614997 0.159240
0.694092 0.620844 0.164713
0.717503 0.626692 0.170186
0.740914 0.632539 0.175658
0.147781 0.621661 0.147781
0.163572 0.621661 0.147781
0.179364 0.621661 0.147781
0.195156 0.621661 0.147781
0.210947 0.621661 0.147781
0.226739 0.621661 0.147781
0.242531 0.621661 0.147781
0.258322 0.621661 0.147781
0.274114 0.621661 0.147781
0.289906 0.621661 0.147781
0.305697 0.621661 0.147781
0.321489 0.621661 0.147781
0.337281 0.621661 0.147781
0.353072 0.621661 0.147781
0.368864 0.621661 0.147781
0.384656 0.621661 0.147781
0.400447 0.621661 0.147781
0.416239 0.621661 0.147781
0.434054 0.621661 0.147781
0.482801 0.621661 0.147781
0.500365 0.621661 0.147781
0.517928 0.621661 0.147781
0.535492 0.621661 0.147781
0.553055 0.621661 0.147781
0.570619 0.621661 0.147781
0.588182 0.621661 0.147781
0.605746 0.621661 0.147781
0.623858 0.622210 0.148294
0.647269 0.628057 0.153767
0.670680 0.633905 0.159240
0.694092 0.639752 0.164713
0.717503 0.645600 0.170186
0.740914 0.651448 0.175658
0.153672 0.646864 0.153672
0.169464 0.646864 0.153672
0.185256 0.646864 0.153672
0.201047 0.646864 0.153672
0.216839 0.646864 0.153672
0.232631 0.646864 0.153672
0.248422 0.646864 0.153672
0.264214 0.646864 0.153672
0.280006 0.646864 0.153672
0.295797 0.646864 0.153672
0.311589 0.646864 0.153672
0.327381 0.646864 0.153672
0.343172 0.646864 0.153672
0.358964 0.646864 0.153672
0.374756 0.646864 0.153672
0.390547 0.646864 0.153672
0.406339 0.646864 0.153672
0.422131 0.646864 0.153672
0.439946 0.646864 0.153672
0.489096 0.646864 0.153672
0.506660 0.646864 0.153672
0.524223 0.646864 0.153672
0.541787 0.646864 0.153672
0.559351 0.646864 0.153672
