docs/luts/fuji_recipes/Classic_HF_Muted_Color.cube
TITLE "Fujifilm Recipe: HF Muted Color (Classic)"
# FilmSim=Classic HL=2 SH=0 Col=-2 WB=Auto WBR=0 WBB=0
LUT_3D_SIZE 5
DOMAIN_MIN 0.0 0.0 0.0
DOMAIN_MAX 1.0 1.0 1.0
0.000000 0.000000 0.000000
0.181933 0.066067 0.066067
0.363866 0.132134 0.132134
0.555216 0.200269 0.200269
0.748060 0.268310 0.268310
0.065730 0.181005 0.065730
0.181933 0.181342 0.066067
0.363866 0.247409 0.132134
0.555216 0.315544 0.200269
0.748060 0.383585 0.268310
0.131521 0.362178 0.131521
0.247387 0.362178 0.131521
0.363866 0.362791 0.132134
0.555216 0.430925 0.200269
0.748060 0.498966 0.268310
0.199353 0.552621 0.199353
0.315219 0.552621 0.199353
0.431085 0.552621 0.199353
0.555216 0.553559 0.200269
0.748060 0.623287 0.268310
0.267110 0.744659 0.267110
0.382975 0.744659 0.267110
0.498841 0.744659 0.267110
0.623714 0.744659 0.267110
0.748060 0.745889 0.268310
0.065051 0.065051 0.179134
0.181933 0.066067 0.180150
0.363866 0.132134 0.246217
0.555216 0.200269 0.314352
0.748060 0.268310 0.382393
0.065730 0.181005 0.179813
0.246984 0.246393 0.245201
0.428916 0.312460 0.311268
0.622429 0.381069 0.379877
0.815273 0.449110 0.447918
0.131521 0.362178 0.245604
0.312438 0.427229 0.310655
0.428916 0.427841 0.311268
0.622429 0.496451 0.379877
0.815273 0.565861 0.447918
0.199353 0.552621 0.313436
0.380744 0.619834 0.378962
0.496610 0.619834 0.378962
0.622429 0.620772 0.379877
0.815273 0.690500 0.447918
0.267110 0.744659 0.381193
0.448501 0.811872 0.446718
0.565792 0.811872 0.446718
0.690927 0.811872 0.446718
0.815273 0.813102 0.447918
0.130285 0.130285 0.358772
0.246150 0.130285 0.358772
0.363866 0.132134 0.360622
0.555216 0.200269 0.428756
0.748060 0.268310 0.496797
0.130285 0.245560 0.358772
0.311881 0.311290 0.424502
0.429596 0.313140 0.426352
0.623131 0.381754 0.494966
0.815975 0.449795 0.564221
0.131521 0.362178 0.360009
0.313454 0.428245 0.426076
0.494150 0.493075 0.490906
0.690170 0.563874 0.561532
0.883488 0.634076 0.631733
0.199353 0.552621 0.427841
0.381768 0.620885 0.494390
0.564090 0.687568 0.560587
0.690170 0.688513 0.561532
0.883488 0.758715 0.631733
0.267110 0.744659 0.495597
0.449525 0.812923 0.563339
0.633999 0.880079 0.630495
0.759134 0.880079 0.630495
0.883488 0.881317 0.631733
0.197506 0.197506 0.547385
0.313371 0.197506 0.547385
0.429237 0.197506 0.547385
0.555216 0.200269 0.550216
0.748060 0.268310 0.619944
0.197506 0.312781 0.547385
0.379581 0.378991 0.615300
0.495447 0.378991 0.615300
0.623131 0.381754 0.618132
0.815975 0.449795 0.687859
0.197506 0.428162 0.547385
0.379921 0.494711 0.615648
0.563520 0.562359 0.683655
0.691505 0.565210 0.686506
0.884824 0.635411 0.756708
0.199353 0.552621 0.549278
0.381768 0.620885 0.617542
0.566088 0.689566 0.686223
0.760669 0.759013 0.755670
0.953988 0.829214 0.825871
0.267110 0.744659 0.618714
0.449525 0.812923 0.686978
0.635996 0.882077 0.756132
0.829633 0.950578 0.824633
0.953988 0.951816 0.825871
0.264689 0.264689 0.737797
0.380554 0.264689 0.737797
0.496420 0.264689 0.737797
0.621233 0.264689 0.737797
0.748060 0.268310 0.741508
0.264689 0.379964 0.737797
0.446764 0.446174 0.805712
0.564013 0.446174 0.805712
0.689148 0.446174 0.805712
0.815975 0.449795 0.809423
0.264689 0.495345 0.737797
0.447104 0.563200 0.806060
0.632836 0.631675 0.874536
0.757971 0.631675 0.874536
0.884824 0.635411 0.878272
0.264689 0.619576 0.737797
0.447104 0.687839 0.806060
0.633498 0.756976 0.875197
0.829041 0.827384 0.945605
0.955894 0.831120 0.949341
0.267110 0.744659 0.740278
0.449525 0.812923 0.808542
0.635996 0.882077 0.877696
0.832484 0.953429 0.949048
1.000000 1.000000 1.000000
