docs/luts/fuji_recipes/Classic_GB_Classy_Chrome.cube
TITLE "Fujifilm Recipe: GB Classy Chrome (Classic)"
# FilmSim=Classic HL=-1 SH=-1 Col=0 WB=Daylight WBR=0 WBB=0
LUT_3D_SIZE 5
DOMAIN_MIN 0.0 0.0 0.0
DOMAIN_MAX 1.0 1.0 1.0
0.040000 0.040000 0.040000
0.240175 0.064001 0.064001
0.439191 0.089161 0.089161
0.616300 0.115187 0.115187
0.808877 0.139287 0.139287
0.089947 0.244889 0.071977
0.245939 0.227047 0.072141
0.451878 0.256435 0.104282
0.634946 0.288081 0.136422
0.808877 0.313315 0.139287
0.139939 0.449968 0.103983
0.319300 0.449968 0.103983
0.451878 0.414244 0.104282
0.634946 0.442657 0.136422
0.833343 0.472669 0.168045
0.187572 0.632277 0.135997
0.368618 0.632277 0.135997
0.541841 0.632277 0.135997
0.634946 0.581027 0.136422
0.833343 0.607504 0.168045
0.236321 0.829844 0.167487
0.418321 0.829844 0.167487
0.594540 0.829844 0.167487
0.742102 0.829844 0.167487
0.833343 0.761437 0.168045
0.071646 0.089430 0.242771
0.230722 0.072141 0.245939
0.451878 0.104282 0.295970
0.634946 0.136422 0.328591
0.808877 0.139287 0.311515
0.063874 0.239159 0.237347
0.277585 0.276699 0.274912
0.480090 0.298231 0.296369
0.659901 0.320951 0.319087
0.872896 0.324761 0.322768
0.103983 0.449968 0.254146
0.327766 0.481614 0.306754
0.483525 0.463675 0.307052
0.665933 0.493212 0.339193
0.864330 0.506092 0.370816
0.135997 0.632277 0.269392
0.375331 0.663264 0.338768
0.554139 0.663264 0.338768
0.665933 0.629867 0.339193
0.864330 0.657078 0.370816
0.167487 0.829844 0.282903
0.424081 0.860831 0.370258
0.583974 0.860831 0.370258
0.754346 0.860831 0.370258
0.864330 0.810276 0.370816
0.103382 0.138999 0.446113
0.236054 0.103382 0.446113
0.420930 0.104282 0.451878
0.634946 0.136422 0.518597
0.833343 0.168045 0.551786
0.103382 0.296689 0.446113
0.308271 0.325088 0.478090
0.470881 0.309171 0.483855
0.666257 0.341312 0.531421
0.864654 0.372934 0.540731
0.088927 0.437346 0.434069
0.299457 0.478800 0.475411
0.515260 0.513648 0.510394
0.696920 0.511595 0.508158
0.900991 0.523597 0.520052
0.135997 0.632277 0.459768
0.341936 0.663748 0.492440
0.544652 0.694338 0.521649
0.697008 0.676717 0.522066
0.895404 0.705013 0.553029
0.167487 0.829844 0.471741
0.373426 0.861315 0.482914
0.592817 0.891905 0.552483
0.768151 0.891905 0.552483
0.895404 0.857058 0.553029
0.135138 0.186243 0.626890
0.250620 0.135138 0.626890
0.425104 0.135138 0.626890
0.590370 0.136422 0.634946
0.833343 0.168045 0.714856
0.135138 0.345109 0.626890
0.340028 0.372263 0.658201
0.476582 0.340028 0.658201
0.639722 0.341312 0.666257
0.864654 0.372934 0.727347
0.135138 0.499148 0.626890
0.341077 0.530808 0.658361
0.524583 0.540246 0.689540
0.686989 0.525840 0.697597
0.895993 0.556804 0.741606
0.114850 0.613721 0.609152
0.321875 0.658064 0.653315
0.514002 0.695078 0.690176
0.728103 0.725850 0.721304
0.928764 0.741092 0.736064
0.139774 0.804569 0.632659
0.373426 0.861315 0.668994
0.558129 0.892787 0.700999
0.776732 0.923000 0.751721
0.926499 0.905628 0.752267
0.166362 0.234579 0.822784
0.263767 0.166362 0.822784
0.435226 0.166362 0.822784
0.588360 0.166362 0.822784
0.773680 0.168045 0.833343
0.166362 0.394185 0.822784
0.371251 0.420599 0.854095
0.468489 0.371251 0.854095
0.638566 0.371251 0.854095
0.823032 0.372934 0.864654
0.166362 0.549782 0.822784
0.372301 0.562009 0.854256
0.555156 0.588000 0.885435
0.687288 0.555156 0.885435
0.870227 0.556804 0.895993
0.138883 0.636376 0.797750
0.372301 0.713276 0.854256
0.557027 0.744283 0.885727
0.756006 0.770601 0.916781
0.919202 0.757654 0.927340
0.139774 0.804569 0.798589
0.326085 0.869625 0.862988
0.526054 0.898088 0.891465
0.744634 0.926243 0.919665
0.957072 0.954119 0.948162
