docs/luts/fuji_recipes/Classic_VM_Classic_Chrome.cube
TITLE "Fujifilm Recipe: VM Classic Chrome (Classic)"
# FilmSim=Classic HL=1 SH=2 Col=2 WB=Auto WBR=0 WBB=-1
LUT_3D_SIZE 9
DOMAIN_MIN 0.0 0.0 0.0
DOMAIN_MAX 1.0 1.0 1.0
0.000000 0.000000 0.000000
0.113669 0.000411 0.000411
0.227339 0.000821 0.000821
0.341008 0.001232 0.001232
0.454677 0.001643 0.001643
0.616804 0.000000 0.000000
0.741707 0.000000 0.000000
0.866611 0.000000 0.000000
0.991514 0.000000 0.000000
0.000408 0.112985 0.000408
0.113669 0.112988 0.000411
0.227339 0.113398 0.000821
0.341008 0.113809 0.001232
0.454677 0.114220 0.001643
0.616804 0.110442 0.000000
0.741707 0.110247 0.000000
0.866611 0.110109 0.000000
0.991514 0.110006 0.000000
0.000817 0.226180 0.000817
0.114076 0.226180 0.000817
0.227339 0.226184 0.000821
0.341008 0.226594 0.001232
0.454677 0.227005 0.001643
0.616804 0.221089 0.000000
0.741707 0.220699 0.000000
0.866611 0.220422 0.000000
0.991514 0.220215 0.000000
0.001226 0.339374 0.001226
0.114485 0.339374 0.001226
0.227743 0.339374 0.001226
0.341008 0.339380 0.001232
0.454677 0.339790 0.001643
0.616804 0.331735 0.000000
0.741707 0.331150 0.000000
0.866611 0.330735 0.000000
0.991514 0.330425 0.000000
0.001635 0.452568 0.001635
0.114894 0.452568 0.001635
0.228152 0.452568 0.001635
0.341411 0.452568 0.001635
0.454677 0.452576 0.001643
0.616804 0.442382 0.000000
0.741707 0.441601 0.000000
0.866611 0.441047 0.000000
0.991514 0.440634 0.000000
0.000000 0.613964 0.000000
0.111116 0.613964 0.000000
0.222233 0.613964 0.000000
0.333349 0.613964 0.000000
0.444465 0.613964 0.000000
0.616804 0.613994 0.000000
0.741707 0.615543 0.000000
0.866611 0.617400 0.000000
0.991514 0.619448 0.000000
0.000000 0.738346 0.000000
0.110919 0.738346 0.000000
0.221838 0.738346 0.000000
0.332758 0.738346 0.000000
0.443677 0.738346 0.000000
0.618301 0.738346 0.000000
0.741707 0.738387 0.000000
0.866611 0.740090 0.000000
0.991514 0.742023 0.000000
0.000000 0.862727 0.000000
0.110779 0.862727 0.000000
0.221559 0.862727 0.000000
0.332338 0.862727 0.000000
0.443118 0.862727 0.000000
0.620140 0.862727 0.000000
0.743349 0.862727 0.000000
0.866611 0.862780 0.000000
0.991514 0.864598 0.000000
0.000000 0.987109 0.000000
0.110675 0.987109 0.000000
0.221350 0.987109 0.000000
0.332025 0.987109 0.000000
0.442700 0.987109 0.000000
0.622171 0.987109 0.000000
0.745265 0.987109 0.000000
0.868358 0.987109 0.000000
0.991514 0.987173 0.000000
0.000393 0.000393 0.108799
0.113669 0.000411 0.108817
0.227339 0.000821 0.109227
0.341008 0.001232 0.109638
0.454677 0.001643 0.110049
0.616804 0.000000 0.106350
0.741707 0.000000 0.106163
0.866611 0.000000 0.106030
0.991514 0.000000 0.105930
0.000408 0.112985 0.108814
0.114062 0.113381 0.109210
0.227732 0.113792 0.109621
0.341401 0.114202 0.110031
0.455070 0.114613 0.110442
0.625427 0.106663 0.102492
0.752206 0.104787 0.100616
0.878985 0.102912 0.098741
1.000000 0.106747 0.102629
0.000817 0.226180 0.109223
0.114469 0.226573 0.109616
0.227732 0.226577 0.109621
0.341401 0.226988 0.110031
0.455070 0.227398 0.110442
0.625427 0.219448 0.102492
0.752206 0.217573 0.100616
0.878985 0.215697 0.098741
1.000000 0.218102 0.102629
0.001226 0.339374 0.109632
0.114878 0.339767 0.110025
0.228137 0.339767 0.110025
0.341401 0.339773 0.110031
0.455070 0.340184 0.110442
0.625427 0.332233 0.102492
0.752206 0.330358 0.100616
0.878985 0.328483 0.098741
1.000000 0.329457 0.102629
0.001635 0.452568 0.110041
0.115287 0.452961 0.110434
0.228545 0.452961 0.110434
0.341804 0.452961 0.110434
0.455070 0.452969 0.110442
0.625427 0.445019 0.102492
0.752206 0.443143 0.100616
0.878985 0.441268 0.098741
1.000000 0.496102 0.102629
0.000000 0.613964 0.106356
0.107387 0.622545 0.102534
0.220645 0.622545 0.102534
0.333904 0.622545 0.102534
0.447163 0.622545 0.102534
0.625427 0.622563 0.102492
0.752206 0.623376 0.100616
0.878985 0.624188 0.098741
1.000000 0.624066 0.102629
0.000000 0.738346 0.106167
0.105519 0.748794 0.100667
0.218778 0.748794 0.100667
0.332037 0.748794 0.100667
0.445295 0.748794 0.100667
0.626218 0.748794 0.100667
0.752206 0.748816 0.100616
0.878985 0.749628 0.098741
1.000000 0.747915 0.102629
0.000000 0.862727 0.106033
0.103652 0.875043 0.098799
0.216910 0.875043 0.098799
0.330169 0.875043 0.098799
0.443428 0.875043 0.098799
0.627027 0.875043 0.098799
0.752993 0.875043 0.098799
0.878985 0.875068 0.098741
1.000000 0.871764 0.102629
0.000000 0.987109 0.105933
0.103063 1.000000 0.098224
0.215998 1.000000 0.098224
0.328933 1.000000 0.098224
0.497886 1.000000 0.098224
0.627611 1.000000 0.098224
0.753217 1.000000 0.098224
0.878824 1.000000 0.098224
1.000000 0.995614 0.102629
0.000788 0.000788 0.218229
0.114047 0.000788 0.218229
0.227339 0.000821 0.218262
0.341008 0.001232 0.218673
0.454677 0.001643 0.219083
0.616804 0.000000 0.213317
0.741707 0.000000 0.212941
0.866611 0.000000 0.212674
0.991514 0.000000 0.212474
0.000788 0.113366 0.218229
0.114455 0.113774 0.218637
0.227747 0.113807 0.218670
0.341416 0.114217 0.219081
0.455085 0.114628 0.219492
0.625529 0.106665 0.211528
0.752308 0.104789 0.209653
0.879087 0.102914 0.207777
1.000000 0.106905 0.210408
0.000817 0.226180 0.218258
0.114487 0.226590 0.218669
0.228127 0.226972 0.219050
0.341796 0.227383 0.219461
0.455466 0.227794 0.219872
0.628104 0.219495 0.211574
0.754883 0.217620 0.209698
0.881662 0.215745 0.207823
1.000000 0.222144 0.214389
0.001226 0.339374 0.218667
0.114895 0.339785 0.219077
0.228532 0.340162 0.219455
0.341796 0.340168 0.219461
0.455466 0.340579 0.219872
0.628104 0.332281 0.211574
0.754883 0.330405 0.209698
0.881662 0.328530 0.207823
1.000000 0.332556 0.214389
0.001635 0.452568 0.219076
0.115304 0.452979 0.219486
0.228941 0.453357 0.219864
0.342199 0.453357 0.219864
0.455466 0.453364 0.219872
0.628104 0.445066 0.211574
0.754883 0.443191 0.209698
0.881662 0.497257 0.207823
1.000000 0.500365 0.214389
0.000000 0.613964 0.213328
0.107389 0.622664 0.211571
0.220693 0.625222 0.211616
0.333951 0.625222 0.211616
0.447210 0.625222 0.211616
0.628104 0.625241 0.211574
0.754883 0.626053 0.209698
0.881662 0.626866 0.207823
1.000000 0.627247 0.214389
0.000000 0.738346 0.212949
0.105521 0.748913 0.209703
0.218825 0.751471 0.209749
0.332084 0.751471 0.209749
0.445342 0.751471 0.209749
0.628895 0.751471 0.209749
0.754883 0.751493 0.209698
0.881662 0.752306 0.207823
1.000000 0.750048 0.214389
0.000000 0.862727 0.212681
0.103654 0.875162 0.207836
0.216958 0.877721 0.207881
0.330216 0.877721 0.207881
0.499608 0.877721 0.207881
0.629704 0.877721 0.207881
0.755670 0.877721 0.207881
0.881662 0.877746 0.207823
1.000000 0.872850 0.214389
0.000000 0.987109 0.212481
0.103198 1.000000 0.207053
0.218970 1.000000 0.209983
0.331101 1.000000 0.209983
0.501457 1.000000 0.209983
0.630259 1.000000 0.209983
0.754972 1.000000 0.209983
0.879685 1.000000 0.209983
1.000000 0.995651 0.214389
0.001184 0.001184 0.327659
0.114442 0.001184 0.327659
0.227701 0.001184 0.327659
0.341008 0.001232 0.327707
0.454677 0.001643 0.328118
0.616804 0.000000 0.320284
0.741707 0.000000 0.319719
0.866611 0.000000 0.319318
0.991514 0.000000 0.319019
0.001184 0.113761 0.327659
0.114851 0.114169 0.328067
0.228109 0.114169 0.328067
0.341416 0.114217 0.328115
0.455085 0.114628 0.328526
0.625529 0.106665 0.320563
0.752308 0.104789 0.318687
0.879087 0.102914 0.316812
1.000000 0.106905 0.318029
0.001184 0.226546 0.327659
0.114853 0.226957 0.328070
0.228518 0.227363 0.328476
0.341825 0.227412 0.328524
0.455494 0.227822 0.328935
0.628299 0.219499 0.320612
0.755078 0.217623 0.318736
0.881857 0.215748 0.316861
1.000000 0.222508 0.321424
0.001226 0.339374 0.327701
0.114895 0.339785 0.328112
0.228565 0.340195 0.328523
0.342192 0.340564 0.328891
0.455861 0.340974 0.329302
0.630782 0.332328 0.320655
0.757561 0.330453 0.318780
0.884340 0.328577 0.316905
1.000000 0.337447 0.326148
0.001635 0.452568 0.328110
0.115304 0.452979 0.328521
0.228974 0.453390 0.328932
0.342595 0.453752 0.329294
0.455861 0.453760 0.329302
0.630782 0.445113 0.320655
0.757561 0.499122 0.318780
0.884340 0.499935 0.316905
1.000000 0.505933 0.326148
0.000000 0.613964 0.320300
0.107389 0.622664 0.320606
0.220697 0.625445 0.320655
0.333999 0.627900 0.320698
0.447257 0.627900 0.320698
0.630782 0.627918 0.320655
0.757561 0.628731 0.318780
0.884340 0.629543 0.316905
1.000000 0.631401 0.326148
0.000000 0.738346 0.319732
0.105521 0.748913 0.318738
0.218829 0.751694 0.318787
0.332131 0.754149 0.318830
0.501476 0.754149 0.318830
0.631572 0.754149 0.318830
0.757561 0.754171 0.318780
0.884340 0.754983 0.316905
1.000000 0.752834 0.326148
0.000000 0.862727 0.319329
0.103654 0.875162 0.316870
0.216962 0.877943 0.316920
0.330264 0.880398 0.316963
0.502285 0.880398 0.316963
0.632381 0.880398 0.316963
0.758348 0.880398 0.316963
0.884340 0.880423 0.316905
1.000000 0.874266 0.326148
0.000000 0.987109 0.319028
0.103198 1.000000 0.315745
0.219287 1.000000 0.318182
0.334787 1.000000 0.321742
0.506127 1.000000 0.321742
0.633723 1.000000 0.321742
0.757268 1.000000 0.321742
0.880812 1.000000 0.321742
1.000000 0.995699 0.326148
0.001579 0.001579 0.437089
0.114838 0.001579 0.437089
0.228096 0.001579 0.437089
0.341355 0.001579 0.437089
0.454677 0.001643 0.437152
0.616804 0.000000 0.427251
0.741707 0.000000 0.426497
0.866611 0.000000 0.425962
0.991514 0.000000 0.425563
0.001579 0.114156 0.437089
0.115246 0.114565 0.437497
0.228505 0.114565 0.437497
0.341763 0.114565 0.437497
0.455085 0.114628 0.437561
0.625529 0.106665 0.429597
0.752308 0.104789 0.427722
0.879087 0.102914 0.425846
1.000000 0.106905 0.425650
0.001579 0.226942 0.437089
0.115249 0.227352 0.437500
0.228914 0.227759 0.437906
0.342172 0.227759 0.437906
0.455494 0.227822 0.437970
0.628299 0.219499 0.429646
0.755078 0.217623 0.427771
0.881857 0.215748 0.425895
1.000000 0.222508 0.483664
0.001579 0.339727 0.437089
0.115249 0.340138 0.437500
0.228918 0.340548 0.437910
0.342581 0.340953 0.438315
0.455903 0.341017 0.438379
0.631068 0.332333 0.429695
0.757847 0.330458 0.427820
0.884626 0.328582 0.482786
1.000000 0.338112 0.489777
0.001635 0.452568 0.437145
0.115304 0.452979 0.437556
0.228974 0.453390 0.437966
0.342643 0.453800 0.438377
0.456256 0.454155 0.438732
0.633459 0.500987 0.429737
0.752760 0.494321 0.476886
0.879183 0.494778 0.477343
1.000000 0.500470 0.483406
0.000000 0.613964 0.427272
0.107389 0.622664 0.429640
0.220697 0.625445 0.429689
0.334004 0.628226 0.429738
0.503344 0.630577 0.429780
0.633459 0.630595 0.429737
0.752760 0.623930 0.476886
0.879183 0.624386 0.477343
1.000000 0.627326 0.483406
0.000000 0.738346 0.426514
0.105521 0.748913 0.427773
0.218829 0.751694 0.427822
0.332137 0.754475 0.427871
0.496684 0.749357 0.476874
0.626781 0.749357 0.476874
0.752760 0.749370 0.476886
0.879183 0.749826 0.477343
1.000000 0.750101 0.483406
0.000000 0.862727 0.425976
0.103654 0.875162 0.425905
0.216962 0.877943 0.425954
0.330269 0.880724 0.482801
0.497139 0.875252 0.477329
0.627236 0.875252 0.477329
0.753202 0.875252 0.477329
0.879183 0.875266 0.477343
1.000000 0.872876 0.483406
0.000000 0.987109 0.425575
0.103198 1.000000 0.424438
0.219287 1.000000 0.482198
0.335375 1.000000 0.487394
0.498654 1.000000 0.478931
0.628181 1.000000 0.478931
0.753595 1.000000 0.478931
0.879009 1.000000 0.478931
1.000000 0.995652 0.483406
0.000000 0.000000 0.592819
0.111158 0.000000 0.592819
0.222316 0.000000 0.592819
0.333474 0.000000 0.592819
0.444632 0.000000 0.592819
0.616804 0.000000 0.593073
0.741707 0.000000 0.594659
0.866611 0.000000 0.596542
0.991514 0.000000 0.598609
0.000000 0.110489 0.592819
0.107706 0.107025 0.601184
0.220965 0.107025 0.601184
0.334223 0.107025 0.601184
0.447482 0.107025 0.601184
0.625529 0.106665 0.601340
0.752308 0.104789 0.602153
0.879087 0.102914 0.602965
1.000000 0.106905 0.603125
0.000000 0.221183 0.592819
0.107706 0.219810 0.601201
0.221014 0.219859 0.603954
0.334272 0.219859 0.603954
0.447531 0.219859 0.603954
0.628299 0.219499 0.604110
0.755078 0.217623 0.604922
0.881857 0.215748 0.605735
1.000000 0.222508 0.606650
0.000000 0.331876 0.592819
0.107706 0.332596 0.601201
0.221014 0.332645 0.603982
0.334321 0.332693 0.606723
0.447580 0.332693 0.606723
0.631068 0.332333 0.606879
0.757847 0.330458 0.607692
0.884626 0.328582 0.608504
1.000000 0.338112 0.611307
0.000000 0.442570 0.592819
0.107706 0.445381 0.601201
0.221014 0.445430 0.603982
0.334322 0.445479 0.606763
0.496215 0.493840 0.602123
0.626400 0.493928 0.602211
0.752823 0.494384 0.602667
0.879246 0.494841 0.603124
1.000000 0.500967 0.606844
0.000000 0.613964 0.593042
0.107389 0.622664 0.601338
0.220697 0.625445 0.604120
0.334004 0.628226 0.606901
0.496301 0.623534 0.602209
0.626792 0.623929 0.602603
0.753216 0.624385 0.603060
0.879639 0.624842 0.603517
1.000000 0.630718 0.610035
0.000000 0.738346 0.594612
0.105521 0.748913 0.602148
0.218829 0.751694 0.604929
0.332137 0.754475 0.607710
0.496756 0.749429 0.602664
0.627237 0.749813 0.603048
0.753216 0.749826 0.603060
0.879639 0.750282 0.603517
1.000000 0.752376 0.610035
0.000000 0.862727 0.596480
0.103654 0.875162 0.602957
0.216962 0.877943 0.605738
0.330269 0.880724 0.608519
0.497211 0.875324 0.603118
0.627692 0.875708 0.603503
0.753658 0.875708 0.603503
0.879639 0.875722 0.603517
1.000000 0.874033 0.610035
0.000000 0.987109 0.598534
0.103198 1.000000 0.603602
0.219287 1.000000 0.606580
0.335375 1.000000 0.610528
0.498885 1.000000 0.604280
0.629555 1.000000 0.605560
0.754505 1.000000 0.605560
0.879456 1.000000 0.605560
1.000000 0.995691 0.610035
0.000000 0.000000 0.713064
0.110954 0.000000 0.713064
0.221907 0.000000 0.713064
0.332861 0.000000 0.713064
0.443815 0.000000 0.713064
0.617960 0.000000 0.713064
0.741707 0.000000 0.713418
0.866611 0.000000 0.715152
0.991514 0.000000 0.717108
0.000000 0.110286 0.713064
0.105901 0.105219 0.723235
0.219159 0.105219 0.723235
0.332418 0.105219 0.723235
0.445677 0.105219 0.723235
0.626156 0.105219 0.723235
0.752308 0.104789 0.723421
0.879087 0.102914 0.724234
1.000000 0.106905 0.722821
0.000000 0.220776 0.713064
0.105901 0.218005 0.723252
0.219208 0.218053 0.726004
0.332467 0.218053 0.726004
0.445726 0.218053 0.726004
0.628925 0.218053 0.726004
0.755078 0.217623 0.726191
0.881857 0.215748 0.727003
1.000000 0.222508 0.725283
0.000000 0.331266 0.713064
0.105901 0.330790 0.723252
0.219209 0.330839 0.726033
0.332516 0.330888 0.728774
0.501598 0.330888 0.728774
0.631694 0.330888 0.728774
0.757847 0.330458 0.728960
0.884626 0.328582 0.729773
1.000000 0.338112 0.728535
0.000000 0.441756 0.713064
0.105901 0.443575 0.723252
0.219209 0.443625 0.726033
0.332516 0.499262 0.728814
0.496655 0.494280 0.723831
0.626752 0.494280 0.723831
0.752823 0.494384 0.723936
0.879246 0.494841 0.724392
1.000000 0.500967 0.725419
0.000000 0.615155 0.713064
0.105901 0.623309 0.723252
0.219209 0.626090 0.726033
0.332516 0.628871 0.728814
0.496664 0.623897 0.723840
0.627222 0.624358 0.724301
0.753293 0.624463 0.724406
0.879716 0.624920 0.724862
1.000000 0.631516 0.728236
0.000000 0.738346 0.713375
0.105521 0.748913 0.723416
0.218829 0.751694 0.726197
0.332137 0.754475 0.728978
0.496756 0.749429 0.723932
0.627324 0.749901 0.724404
0.753655 0.750265 0.724768
0.880078 0.750722 0.725225
1.000000 0.756500 0.732183
0.000000 0.862727 0.715094
0.103654 0.875162 0.724225
0.216962 0.877943 0.727006
0.330269 0.880724 0.729787
0.497211 0.875324 0.724387
0.627779 0.875796 0.724859
0.754098 0.876148 0.725211
0.880078 0.876162 0.725225
1.000000 0.876131 0.732183
0.000000 0.987109 0.717036
0.103198 1.000000 0.724490
0.219287 1.000000 0.726560
0.335375 1.000000 0.729303
0.498885 1.000000 0.724961
0.629925 1.000000 0.726125
0.756168 1.000000 0.727708
0.880273 1.000000 0.727708
1.000000 0.995763 0.732183
0.000000 0.000000 0.833309
0.110809 0.000000 0.833309
0.221617 0.000000 0.833309
0.332426 0.000000 0.833309
0.443235 0.000000 0.833309
0.619684 0.000000 0.833309
0.742926 0.000000 0.833309
0.866611 0.000000 0.833762
0.991514 0.000000 0.835607
0.000000 0.110142 0.833309
0.104095 0.103414 0.845285
0.217354 0.103414 0.845285
0.330613 0.103414 0.845285
0.443871 0.103414 0.845285
0.626938 0.103414 0.845285
0.752904 0.103414 0.845285
0.879087 0.102914 0.845502
1.000000 0.106905 0.842517
0.000000 0.220487 0.833309
0.104096 0.216199 0.845302
0.217403 0.216248 0.848055
0.330661 0.216248 0.848055
0.499611 0.216248 0.848055
0.629707 0.216248 0.848055
0.755674 0.216248 0.848055
0.881857 0.215748 0.848272
1.000000 0.222508 0.843916
0.000000 0.330833 0.833309
0.104096 0.328985 0.845302
0.217403 0.329034 0.848083
0.330710 0.329082 0.850824
0.502380 0.329082 0.850824
0.632477 0.329082 0.850824
0.758443 0.329082 0.850824
0.884626 0.328582 0.851041
1.000000 0.338112 0.845764
0.000000 0.441179 0.833309
0.104096 0.441770 0.845302
0.217403 0.497263 0.848083
0.330711 0.500045 0.850864
0.497095 0.494719 0.845539
0.627191 0.494719 0.845539
0.753158 0.494719 0.845539
0.879246 0.494841 0.845661
1.000000 0.500967 0.843993
0.000000 0.616883 0.833309
0.104096 0.624091 0.845302
0.217403 0.626872 0.848083
0.330711 0.629653 0.850864
0.497103 0.624336 0.845548
0.627661 0.624798 0.846009
0.753628 0.624798 0.846009
0.879716 0.624920 0.846131
1.000000 0.631516 0.845593
0.000000 0.739609 0.833309
0.104096 0.749531 0.845302
0.217403 0.752312 0.848083
0.330711 0.755093 0.850864
0.497103 0.749776 0.845548
0.627672 0.750248 0.846020
0.754083 0.750693 0.846464
0.880171 0.750814 0.846586
1.000000 0.757865 0.848690
0.000000 0.862727 0.833708
0.103654 0.875162 0.845494
0.216962 0.877943 0.848275
0.330269 0.880724 0.851056
0.497211 0.875324 0.845655
0.627779 0.875796 0.846127
0.754203 0.876253 0.846584
0.880518 0.876602 0.846933
1.000000 0.881418 0.854331
0.000000 0.987109 0.835538
0.103198 1.000000 0.845378
0.219287 1.000000 0.846539
0.335375 1.000000 0.848079
0.498885 1.000000 0.845642
0.629925 1.000000 0.846296
0.756805 1.000000 0.847583
0.882366 1.000000 0.849856
1.000000 0.995944 0.854331
0.000000 0.000000 0.953554
0.110701 0.000000 0.953554
0.221401 0.000000 0.953554
0.332102 0.000000 0.953554
0.442802 0.000000 0.953554
0.621609 0.000000 0.953554
0.744730 0.000000 0.953554
0.867851 0.000000 0.953554
0.991514 0.000000 0.954106
0.000000 0.110034 0.953554
0.102290 0.101608 0.967336
0.215548 0.101608 0.967336
0.328807 0.101608 0.967336
0.497623 0.101608 0.967336
0.627720 0.101608 0.967336
0.753686 0.101608 0.967336
0.879653 0.101608 0.967336
1.000000 0.106905 0.962213
0.000000 0.220272 0.953554
0.102290 0.214394 0.967353
0.215597 0.214443 0.970106
0.328856 0.214443 0.970106
0.500393 0.214443 0.970106
0.630489 0.214443 0.970106
0.756456 0.214443 0.970106
0.882422 0.214443 0.970106
1.000000 0.222508 0.962549
0.000000 0.330510 0.953554
0.102290 0.327179 0.967353
0.215598 0.327228 0.970134
0.328905 0.327277 0.972875
0.503162 0.327277 0.972875
0.633259 0.327277 0.972875
0.759225 0.327277 0.972875
0.885192 0.327277 0.972875
1.000000 0.338112 0.962992
0.000000 0.440748 0.953554
0.102290 0.495265 0.967353
0.215598 0.498046 0.970134
0.328906 0.500827 0.972915
0.497535 0.495159 0.967247
0.627631 0.495159 0.967247
0.753598 0.495159 0.967247
0.879564 0.495159 0.967247
1.000000 0.500967 0.962567
0.000000 0.618810 0.953554
0.102290 0.624873 0.967353
0.215598 0.627654 0.970134
0.328906 0.630435 0.972915
0.497543 0.624776 0.967256
0.628101 0.625237 0.967717
0.754068 0.625237 0.967717
0.880034 0.625237 0.967717
1.000000 0.631516 0.962951
0.000000 0.741417 0.953554
0.102290 0.750313 0.967353
0.215598 0.753094 0.970134
0.328906 0.755875 0.972915
0.497543 0.750216 0.967256
0.628111 0.750688 0.967728
0.754522 0.751132 0.968172
0.880489 0.751132 0.968172
1.000000 0.757865 0.963694
0.000000 0.864023 0.953554
0.102290 0.875753 0.967353
0.215598 0.878534 0.970134
0.328906 0.881315 0.972915
0.497543 0.875656 0.967256
0.628111 0.876128 0.967728
0.754535 0.876585 0.968184
0.880944 0.877027 0.968627
1.000000 0.884215 0.965872
0.000000 0.987109 0.954041
0.103198 1.000000 0.966266
0.219287 1.000000 0.966519
0.335375 1.000000 0.966855
0.498885 1.000000 0.966323
0.629925 1.000000 0.966466
0.756805 1.000000 0.966747
0.883685 1.000000 0.967610
1.000000 0.999048 0.974165
