docs/luts/fuji_recipes/Classic_RR_Kodak_Gold_200.cube
TITLE "Fujifilm Recipe: RR Kodak Gold 200 (Classic)"
# FilmSim=Classic HL=-2 SH=1 Col=3 WB=Daylight WBR=4 WBB=-5
LUT_3D_SIZE 9
DOMAIN_MIN 0.0 0.0 0.0
DOMAIN_MAX 1.0 1.0 1.0
0.000000 0.000000 0.000000
0.194081 0.000000 0.000000
0.368870 0.000000 0.000000
0.546411 0.000000 0.000000
0.726598 0.000000 0.000000
0.886172 0.000000 0.000000
0.940110 0.000000 0.000000
0.940110 0.000000 0.000000
0.940110 0.000000 0.000000
0.000000 0.175481 0.000000
0.194081 0.175481 0.000000
0.368870 0.175481 0.000000
0.546411 0.175481 0.000000
0.726598 0.174750 0.000000
0.886172 0.175788 0.000000
0.940110 0.176061 0.000000
0.940110 0.176061 0.000000
0.940110 0.176061 0.000000
0.000000 0.333717 0.000000
0.194081 0.333717 0.000000
0.368870 0.333717 0.000000
0.546411 0.333717 0.000000
0.726598 0.332327 0.000000
0.886172 0.334300 0.000000
0.940110 0.334819 0.000000
0.940110 0.334819 0.000000
0.940110 0.334819 0.000000
0.000000 0.495537 0.000000
0.194081 0.495537 0.000000
0.368870 0.495537 0.000000
0.546411 0.495537 0.000000
0.726598 0.493473 0.000000
0.886172 0.523626 0.000000
0.940110 0.523541 0.000000
0.940110 0.523541 0.000000
0.940110 0.523541 0.000000
0.000000 0.664278 0.000000
0.192680 0.664278 0.000000
0.366208 0.664278 0.000000
0.568896 0.664278 0.000000
0.726598 0.665290 0.000000
0.886172 0.666585 0.000000
0.940110 0.666722 0.000000
0.940110 0.666722 0.000000
0.940110 0.666722 0.000000
0.000000 0.808739 0.000000
0.193918 0.808739 0.000000
0.368561 0.808739 0.000000
0.570155 0.808739 0.000000
0.727662 0.808739 0.000000
0.886172 0.809544 0.000000
0.940110 0.809903 0.000000
0.940110 0.809903 0.000000
0.940110 0.809903 0.000000
0.000000 0.936277 0.000000
0.194702 0.936277 0.000000
0.370050 0.936277 0.000000
0.570334 0.936277 0.000000
0.728477 0.936277 0.000000
0.886621 0.936277 0.000000
0.940110 0.936311 0.000000
0.940110 0.936311 0.000000
0.940110 0.936311 0.000000
0.000000 0.936277 0.000000
0.194702 0.936277 0.000000
0.370050 0.936277 0.000000
0.570334 0.936277 0.000000
0.728477 0.936277 0.000000
0.886621 0.936277 0.000000
0.940110 0.936311 0.000000
0.940110 0.936311 0.000000
0.940110 0.936311 0.000000
0.000000 0.936277 0.000000
0.194702 0.936277 0.000000
0.370050 0.936277 0.000000
0.570334 0.936277 0.000000
0.728477 0.936277 0.000000
0.886621 0.936277 0.000000
0.940110 0.936311 0.000000
0.940110 0.936311 0.000000
0.940110 0.936311 0.000000
0.000000 0.000000 0.151775
0.194081 0.000000 0.151775
0.368870 0.000000 0.151775
0.546411 0.000000 0.151775
0.726598 0.000000 0.151143
0.886172 0.000000 0.152040
0.940110 0.000000 0.152277
0.940110 0.000000 0.152277
0.940110 0.000000 0.152277
0.000000 0.175481 0.151775
0.196708 0.175798 0.149148
0.382352 0.164944 0.138294
0.594928 0.148814 0.122164
0.761834 0.141482 0.114832
0.928740 0.134149 0.107499
0.985157 0.131671 0.105021
0.985157 0.131671 0.105021
0.985157 0.131671 0.105021
0.000000 0.333717 0.151775
0.188037 0.345015 0.140477
0.382352 0.342832 0.138294
0.594928 0.326702 0.122164
0.761834 0.319370 0.114832
0.928740 0.312038 0.107499
0.985157 0.309559 0.105021
0.985157 0.309559 0.105021
0.985157 0.309559 0.105021
0.000000 0.495537 0.151775
0.177988 0.516885 0.130428
0.374486 0.516885 0.130428
0.594928 0.508621 0.122164
0.761834 0.501289 0.114832
0.928740 0.521878 0.107499
0.985157 0.518392 0.105021
0.985157 0.518392 0.105021
0.985157 0.518392 0.105021
0.000000 0.664278 0.150680
0.165255 0.696651 0.117695
0.361754 0.696651 0.117695
0.588643 0.696651 0.117695
0.761834 0.692624 0.114832
0.928740 0.682312 0.107499
0.985157 0.678826 0.105021
0.985157 0.678826 0.105021
0.985157 0.678826 0.105021
0.000000 0.808739 0.151648
0.158617 0.847750 0.111057
0.355116 0.847750 0.111057
0.579308 0.847750 0.111057
0.756526 0.847750 0.111057
0.928740 0.842746 0.107499
0.985157 0.839260 0.105021
0.985157 0.839260 0.105021
0.985157 0.839260 0.105021
0.000000 0.936277 0.152261
0.152757 0.981148 0.105197
0.349255 0.981148 0.105197
0.571066 0.981148 0.105197
0.748284 0.981148 0.105197
0.925502 0.981148 0.105197
0.985157 0.980901 0.105021
0.985157 0.980901 0.105021
0.985157 0.980901 0.105021
0.000000 0.936277 0.152261
0.152757 0.981148 0.105197
0.349255 0.981148 0.105197
0.571066 0.981148 0.105197
0.748284 0.981148 0.105197
0.925502 0.981148 0.105197
0.985157 0.980901 0.105021
0.985157 0.980901 0.105021
0.985157 0.980901 0.105021
0.000000 0.936277 0.152261
0.152757 0.981148 0.105197
0.349255 0.981148 0.105197
0.571066 0.981148 0.105197
0.748284 0.981148 0.105197
0.925502 0.981148 0.105197
0.985157 0.980901 0.105021
0.985157 0.980901 0.105021
0.985157 0.980901 0.105021
0.000000 0.000000 0.289059
0.194081 0.000000 0.289059
0.368870 0.000000 0.289059
0.546411 0.000000 0.289059
0.726598 0.000000 0.287855
0.886172 0.000000 0.289564
0.940110 0.000000 0.290014
0.940110 0.000000 0.290014
0.940110 0.000000 0.290014
0.000000 0.175481 0.289059
0.189338 0.168428 0.296112
0.380880 0.163472 0.291156
0.593117 0.147414 0.275098
0.760023 0.140082 0.267766
0.926929 0.132749 0.260433
0.983347 0.130271 0.257955
0.983347 0.130271 0.257955
0.983347 0.130271 0.257955
0.000000 0.333717 0.289059
0.185410 0.342388 0.292184
0.373827 0.334307 0.284102
0.584441 0.318594 0.268390
0.751347 0.311262 0.261057
0.918254 0.303929 0.253725
0.974671 0.301451 0.251247
0.974671 0.301451 0.251247
0.974671 0.301451 0.251247
0.000000 0.495537 0.289059
0.175361 0.514258 0.282135
0.365961 0.508359 0.276236
0.584441 0.500513 0.268390
0.751347 0.521703 0.261057
0.918254 0.511391 0.253725
0.974671 0.507906 0.251247
0.974671 0.507906 0.251247
0.974671 0.507906 0.251247
0.000000 0.664278 0.286972
0.162757 0.693419 0.269531
0.353645 0.686164 0.263921
0.578156 0.686164 0.263921
0.751347 0.682137 0.261057
0.918254 0.671825 0.253725
0.974671 0.668340 0.251247
0.974671 0.668340 0.251247
0.974671 0.668340 0.251247
0.000000 0.808739 0.288816
0.156119 0.844518 0.262893
0.347007 0.837263 0.257283
0.568821 0.837263 0.257283
0.746039 0.837263 0.257283
0.918254 0.832259 0.253725
0.974671 0.828774 0.251247
0.974671 0.828774 0.251247
0.974671 0.828774 0.251247
0.000000 0.936277 0.289983
0.150258 0.977917 0.257032
0.341147 0.970662 0.251423
0.560580 0.970662 0.251423
0.737798 0.970662 0.251423
0.915016 0.970662 0.251423
0.974671 0.970414 0.251247
0.974671 0.970414 0.251247
0.974671 0.970414 0.251247
0.000000 0.936277 0.289983
0.150258 0.977917 0.257032
0.341147 0.970662 0.251423
0.560580 0.970662 0.251423
0.737798 0.970662 0.251423
0.915016 0.970662 0.251423
0.974671 0.970414 0.251247
0.974671 0.970414 0.251247
0.974671 0.970414 0.251247
0.000000 0.936277 0.289983
0.150258 0.977917 0.257032
0.341147 0.970662 0.251423
0.560580 0.970662 0.251423
0.737798 0.970662 0.251423
0.915016 0.970662 0.251423
0.974671 0.970414 0.251247
0.974671 0.970414 0.251247
0.974671 0.970414 0.251247
0.000000 0.000000 0.426342
0.194081 0.000000 0.426342
0.368870 0.000000 0.426342
0.546411 0.000000 0.426342
0.726598 0.000000 0.424567
0.886172 0.000000 0.427087
0.940110 0.000000 0.427751
0.940110 0.000000 0.427751
0.940110 0.000000 0.427751
0.000000 0.175481 0.426342
0.180813 0.159903 0.441921
0.377311 0.159903 0.441921
0.593117 0.147414 0.429432
0.760023 0.140082 0.422100
0.926929 0.132749 0.414767
0.983347 0.130271 0.412289
0.983347 0.130271 0.412289
0.983347 0.130271 0.412289
0.000000 0.333717 0.426342
0.179658 0.336636 0.440766
0.367485 0.327965 0.432094
0.581030 0.315956 0.420086
0.747936 0.308624 0.412754
0.914842 0.301292 0.405422
0.971259 0.298813 0.433188
0.971259 0.298813 0.433188
0.971259 0.298813 0.433188
0.000000 0.495537 0.426342
0.175361 0.514258 0.436469
0.361004 0.503403 0.425614
0.573954 0.521528 0.414616
0.740861 0.511216 0.407283
0.902569 0.495707 0.424400
0.959163 0.492398 0.421091
0.959163 0.492398 0.421091
0.959163 0.492398 0.421091
0.000000 0.664278 0.423265
0.162757 0.693419 0.423865
0.348931 0.680067 0.413541
0.567670 0.675677 0.410147
0.740861 0.671650 0.407283
0.902569 0.656141 0.424400
0.959163 0.652832 0.421091
0.959163 0.652832 0.421091
0.959163 0.652832 0.421091
0.000000 0.808739 0.425985
0.156119 0.844518 0.417227
0.342293 0.831166 0.406903
0.558334 0.826776 0.403509
0.735553 0.826776 0.403509
0.902569 0.816575 0.424400
0.959163 0.813266 0.421091
0.959163 0.813266 0.421091
0.959163 0.813266 0.421091
0.000000 0.936277 0.427706
0.150258 0.977917 0.411366
0.336433 0.964565 0.430750
0.545059 0.955141 0.421326
0.722277 0.955141 0.421326
0.899495 0.955141 0.421326
0.959163 0.954906 0.421091
0.959163 0.954906 0.421091
0.959163 0.954906 0.421091
0.000000 0.936277 0.427706
0.150258 0.977917 0.411366
0.336433 0.964565 0.430750
0.545059 0.955141 0.421326
0.722277 0.955141 0.421326
0.899495 0.955141 0.421326
0.959163 0.954906 0.421091
0.959163 0.954906 0.421091
0.959163 0.954906 0.421091
0.000000 0.936277 0.427706
0.150258 0.977917 0.411366
0.336433 0.964565 0.430750
0.545059 0.955141 0.421326
0.722277 0.955141 0.421326
0.899495 0.955141 0.421326
0.959163 0.954906 0.421091
0.959163 0.954906 0.421091
0.959163 0.954906 0.421091
0.000000 0.000000 0.585252
0.191755 0.000000 0.585252
0.364449 0.000000 0.585252
0.539861 0.000000 0.585252
0.726598 0.000000 0.587547
0.886172 0.000000 0.588381
0.940110 0.000000 0.588396
0.940110 0.000000 0.588396
0.940110 0.000000 0.588396
0.000000 0.173378 0.585252
0.167487 0.146576 0.612183
0.363985 0.146576 0.612183
0.591939 0.146576 0.612183
0.760023 0.140082 0.603049
0.926929 0.132749 0.592737
0.983347 0.130271 0.589251
0.983347 0.130271 0.589251
0.983347 0.130271 0.589251
0.000000 0.329716 0.585252
0.166388 0.323366 0.610762
0.354639 0.315119 0.600095
0.579852 0.315119 0.600095
0.747936 0.308624 0.590961
0.914842 0.301292 0.580650
0.971259 0.298813 0.577164
0.971259 0.298813 0.577164
0.971259 0.298813 0.577164
0.000000 0.489597 0.585252
0.166388 0.505285 0.610762
0.352563 0.524740 0.597410
0.562655 0.510228 0.582898
0.731201 0.501557 0.574227
0.898630 0.491768 0.564437
0.955224 0.488459 0.561128
0.955224 0.488459 0.561128
0.955224 0.488459 0.561128
0.000000 0.664278 0.586774
0.162757 0.693419 0.605655
0.348931 0.680067 0.592303
0.554911 0.662918 0.575154
0.727187 0.657977 0.570213
0.894616 0.648187 0.560423
0.951210 0.644878 0.557114
0.951210 0.644878 0.557114
0.951210 0.644878 0.557114
0.000000 0.808739 0.588147
0.156119 0.844518 0.596320
0.342293 0.831166 0.582968
0.546048 0.814490 0.566292
0.722148 0.813372 0.565174
0.894616 0.808622 0.560423
0.951210 0.805313 0.557114
0.951210 0.805313 0.557114
0.951210 0.805313 0.557114
0.000000 0.936277 0.588398
0.150258 0.977917 0.588078
0.336433 0.964565 0.574727
0.538224 0.948306 0.558468
0.714324 0.947188 0.557349
0.891542 0.947188 0.557349
0.951210 0.946953 0.557114
0.951210 0.946953 0.557114
0.951210 0.946953 0.557114
0.000000 0.936277 0.588398
0.150258 0.977917 0.588078
0.336433 0.964565 0.574727
0.538224 0.948306 0.558468
0.714324 0.947188 0.557349
0.891542 0.947188 0.557349
0.951210 0.946953 0.557114
0.951210 0.946953 0.557114
0.951210 0.946953 0.557114
0.000000 0.936277 0.588398
0.150258 0.977917 0.588078
0.336433 0.964565 0.574727
0.538224 0.948306 0.558468
0.714324 0.947188 0.557349
0.891542 0.947188 0.557349
0.951210 0.946953 0.557114
0.951210 0.946953 0.557114
0.951210 0.946953 0.557114
0.000000 0.000000 0.710585
0.193130 0.000000 0.710585
0.367063 0.000000 0.710585
0.569459 0.000000 0.710585
0.726598 0.000000 0.710845
0.886172 0.000000 0.712411
0.940110 0.000000 0.712619
0.940110 0.000000 0.712619
0.940110 0.000000 0.712619
0.000000 0.174621 0.710585
0.161728 0.140817 0.743275
0.358226 0.140817 0.743275
0.583840 0.140817 0.743275
0.760023 0.140082 0.742240
0.926929 0.132749 0.731928
0.983347 0.130271 0.728442
0.983347 0.130271 0.728442
0.983347 0.130271 0.728442
0.000000 0.332081 0.710585
0.160629 0.317607 0.741854
0.348880 0.309360 0.731187
0.571753 0.309360 0.731187
0.747936 0.308624 0.730153
0.914842 0.301292 0.719841
0.971259 0.298813 0.716355
0.971259 0.298813 0.716355
0.971259 0.298813 0.716355
0.000000 0.493109 0.710585
0.160629 0.529993 0.741854
0.346804 0.516641 0.728502
0.554966 0.502539 0.714400
0.731201 0.501557 0.713418
0.898630 0.491768 0.703629
0.955224 0.488459 0.700320
0.955224 0.488459 0.700320
0.955224 0.488459 0.700320
0.000000 0.665064 0.710585
0.160629 0.690427 0.741854
0.346804 0.677075 0.728502
0.552070 0.660077 0.711504
0.722339 0.653129 0.704556
0.889768 0.643339 0.694766
0.946362 0.640030 0.691457
0.946362 0.640030 0.691457
0.946362 0.640030 0.691457
0.000000 0.808739 0.711856
0.156119 0.844518 0.735511
0.342293 0.831166 0.722159
0.546048 0.814490 0.705483
0.714459 0.805683 0.696676
0.886927 0.800933 0.691926
0.943521 0.797624 0.688617
0.943521 0.797624 0.688617
0.943521 0.797624 0.688617
0.000000 0.936277 0.712608
0.150258 0.977917 0.727269
0.336433 0.964565 0.713918
0.538224 0.948306 0.697659
0.706635 0.939499 0.688852
0.883853 0.939499 0.688852
0.943521 0.939264 0.688617
0.943521 0.939264 0.688617
0.943521 0.939264 0.688617
0.000000 0.936277 0.712608
0.150258 0.977917 0.727269
0.336433 0.964565 0.713918
0.538224 0.948306 0.697659
0.706635 0.939499 0.688852
0.883853 0.939499 0.688852
0.943521 0.939264 0.688617
0.943521 0.939264 0.688617
0.943521 0.939264 0.688617
0.000000 0.936277 0.712608
0.150258 0.977917 0.727269
0.336433 0.964565 0.713918
0.538224 0.948306 0.697659
0.706635 0.939499 0.688852
0.883853 0.939499 0.688852
0.943521 0.939264 0.688617
0.943521 0.939264 0.688617
0.943521 0.939264 0.688617
0.000000 0.000000 0.821236
0.194006 0.000000 0.821236
0.368727 0.000000 0.821236
0.570204 0.000000 0.821236
0.727782 0.000000 0.821236
0.886172 0.000000 0.821911
0.940110 0.000000 0.822289
0.940110 0.000000 0.822289
0.940110 0.000000 0.822289
0.000000 0.175413 0.821236
0.156643 0.135733 0.859010
0.353141 0.135733 0.859010
0.576690 0.135733 0.859010
0.753908 0.135733 0.859010
0.926929 0.132749 0.854814
0.983347 0.130271 0.851328
0.983347 0.130271 0.851328
0.983347 0.130271 0.851328
0.000000 0.333587 0.821236
0.155545 0.312523 0.857589
0.343795 0.304275 0.846923
0.564602 0.304275 0.846923
0.741820 0.304275 0.846923
0.914842 0.301292 0.842727
0.971259 0.298813 0.839241
0.971259 0.298813 0.839241
0.971259 0.298813 0.839241
0.000000 0.495344 0.821236
0.155545 0.522842 0.857589
0.341719 0.509491 0.844237
0.548178 0.495751 0.830498
0.725396 0.495751 0.830498
0.898630 0.491768 0.826514
0.955224 0.488459 0.823205
0.955224 0.488459 0.823205
0.955224 0.488459 0.823205
0.000000 0.666241 0.821236
0.155545 0.683277 0.857589
0.341719 0.669925 0.844237
0.545282 0.653289 0.827602
0.716533 0.647323 0.821636
0.889768 0.643339 0.817652
0.946362 0.640030 0.814343
0.946362 0.640030 0.814343
0.946362 0.640030 0.814343
0.000000 0.808895 0.821236
0.155545 0.843711 0.857589
0.341719 0.830359 0.844237
0.545282 0.813723 0.827602
0.712710 0.803934 0.817813
0.880906 0.794911 0.808790
0.937499 0.791602 0.805481
0.937499 0.791602 0.805481
0.937499 0.791602 0.805481
0.000000 0.936277 0.822267
0.150258 0.977917 0.850155
0.336433 0.964565 0.836803
0.538224 0.948306 0.820544
0.705653 0.938517 0.810755
0.877065 0.932711 0.804949
0.936733 0.932476 0.804714
0.936733 0.932476 0.804714
0.936733 0.932476 0.804714
0.000000 0.936277 0.822267
0.150258 0.977917 0.850155
0.336433 0.964565 0.836803
0.538224 0.948306 0.820544
0.705653 0.938517 0.810755
0.877065 0.932711 0.804949
0.936733 0.932476 0.804714
0.936733 0.932476 0.804714
0.936733 0.932476 0.804714
0.000000 0.936277 0.822267
0.150258 0.977917 0.850155
0.336433 0.964565 0.836803
0.538224 0.948306 0.820544
0.705653 0.938517 0.810755
0.877065 0.932711 0.804949
0.936733 0.932476 0.804714
0.936733 0.932476 0.804714
0.936733 0.932476 0.804714
0.000000 0.000000 0.821236
0.194006 0.000000 0.821236
0.368727 0.000000 0.821236
0.570204 0.000000 0.821236
0.727782 0.000000 0.821236
0.886172 0.000000 0.821911
0.940110 0.000000 0.822289
0.940110 0.000000 0.822289
0.940110 0.000000 0.822289
0.000000 0.175413 0.821236
0.156643 0.135733 0.859010
0.353141 0.135733 0.859010
0.576690 0.135733 0.859010
0.753908 0.135733 0.859010
0.926929 0.132749 0.854814
0.983347 0.130271 0.851328
0.983347 0.130271 0.851328
0.983347 0.130271 0.851328
0.000000 0.333587 0.821236
0.155545 0.312523 0.857589
0.343795 0.304275 0.846923
0.564602 0.304275 0.846923
0.741820 0.304275 0.846923
0.914842 0.301292 0.842727
0.971259 0.298813 0.839241
0.971259 0.298813 0.839241
0.971259 0.298813 0.839241
0.000000 0.495344 0.821236
0.155545 0.522842 0.857589
0.341719 0.509491 0.844237
0.548178 0.495751 0.830498
0.725396 0.495751 0.830498
0.898630 0.491768 0.826514
0.955224 0.488459 0.823205
0.955224 0.488459 0.823205
0.955224 0.488459 0.823205
0.000000 0.666241 0.821236
0.155545 0.683277 0.857589
0.341719 0.669925 0.844237
0.545282 0.653289 0.827602
0.716533 0.647323 0.821636
0.889768 0.643339 0.817652
0.946362 0.640030 0.814343
0.946362 0.640030 0.814343
0.946362 0.640030 0.814343
0.000000 0.808895 0.821236
0.155545 0.843711 0.857589
0.341719 0.830359 0.844237
0.545282 0.813723 0.827602
0.712710 0.803934 0.817813
0.880906 0.794911 0.808790
0.937499 0.791602 0.805481
0.937499 0.791602 0.805481
0.937499 0.791602 0.805481
0.000000 0.936277 0.822267
0.150258 0.977917 0.850155
0.336433 0.964565 0.836803
0.538224 0.948306 0.820544
0.705653 0.938517 0.810755
0.877065 0.932711 0.804949
0.936733 0.932476 0.804714
0.936733 0.932476 0.804714
0.936733 0.932476 0.804714
0.000000 0.936277 0.822267
0.150258 0.977917 0.850155
0.336433 0.964565 0.836803
0.538224 0.948306 0.820544
0.705653 0.938517 0.810755
0.877065 0.932711 0.804949
0.936733 0.932476 0.804714
0.936733 0.932476 0.804714
0.936733 0.932476 0.804714
0.000000 0.936277 0.822267
0.150258 0.977917 0.850155
0.336433 0.964565 0.836803
0.538224 0.948306 0.820544
0.705653 0.938517 0.810755
0.877065 0.932711 0.804949
0.936733 0.932476 0.804714
0.936733 0.932476 0.804714
0.936733 0.932476 0.804714
0.000000 0.000000 0.821236
0.194006 0.000000 0.821236
0.368727 0.000000 0.821236
0.570204 0.000000 0.821236
0.727782 0.000000 0.821236
0.886172 0.000000 0.821911
0.940110 0.000000 0.822289
0.940110 0.000000 0.822289
0.940110 0.000000 0.822289
0.000000 0.175413 0.821236
0.156643 0.135733 0.859010
0.353141 0.135733 0.859010
0.576690 0.135733 0.859010
0.753908 0.135733 0.859010
0.926929 0.132749 0.854814
0.983347 0.130271 0.851328
0.983347 0.130271 0.851328
0.983347 0.130271 0.851328
0.000000 0.333587 0.821236
0.155545 0.312523 0.857589
0.343795 0.304275 0.846923
0.564602 0.304275 0.846923
0.741820 0.304275 0.846923
0.914842 0.301292 0.842727
0.971259 0.298813 0.839241
0.971259 0.298813 0.839241
0.971259 0.298813 0.839241
0.000000 0.495344 0.821236
0.155545 0.522842 0.857589
0.341719 0.509491 0.844237
0.548178 0.495751 0.830498
0.725396 0.495751 0.830498
0.898630 0.491768 0.826514
0.955224 0.488459 0.823205
0.955224 0.488459 0.823205
0.955224 0.488459 0.823205
0.000000 0.666241 0.821236
0.155545 0.683277 0.857589
0.341719 0.669925 0.844237
0.545282 0.653289 0.827602
0.716533 0.647323 0.821636
0.889768 0.643339 0.817652
0.946362 0.640030 0.814343
0.946362 0.640030 0.814343
0.946362 0.640030 0.814343
0.000000 0.808895 0.821236
0.155545 0.843711 0.857589
0.341719 0.830359 0.844237
0.545282 0.813723 0.827602
0.712710 0.803934 0.817813
0.880906 0.794911 0.808790
0.937499 0.791602 0.805481
0.937499 0.791602 0.805481
0.937499 0.791602 0.805481
0.000000 0.936277 0.822267
0.150258 0.977917 0.850155
0.336433 0.964565 0.836803
0.538224 0.948306 0.820544
0.705653 0.938517 0.810755
0.877065 0.932711 0.804949
0.936733 0.932476 0.804714
0.936733 0.932476 0.804714
0.936733 0.932476 0.804714
0.000000 0.936277 0.822267
0.150258 0.977917 0.850155
0.336433 0.964565 0.836803
0.538224 0.948306 0.820544
0.705653 0.938517 0.810755
0.877065 0.932711 0.804949
0.936733 0.932476 0.804714
0.936733 0.932476 0.804714
0.936733 0.932476 0.804714
0.000000 0.936277 0.822267
0.150258 0.977917 0.850155
0.336433 0.964565 0.836803
0.538224 0.948306 0.820544
0.705653 0.938517 0.810755
0.877065 0.932711 0.804949
0.936733 0.932476 0.804714
0.936733 0.932476 0.804714
0.936733 0.932476 0.804714
