docs/luts/fuji_recipes/Classic_RS_Kodak_Portra_400.cube
TITLE "Fujifilm Recipe: RS Kodak Portra 400 (Classic)"
# FilmSim=Classic HL=-1 SH=-1 Col=2 WB=Daylight WBR=4 WBB=-5
LUT_3D_SIZE 33
DOMAIN_MIN 0.0 0.0 0.0
DOMAIN_MAX 1.0 1.0 1.0
0.040000 0.040000 0.040000
0.088374 0.034820 0.034820
0.125270 0.031906 0.031906
0.161173 0.029418 0.029418
0.196880 0.027125 0.027125
0.232472 0.024948 0.024948
0.267991 0.022844 0.022844
0.303459 0.020791 0.020791
0.338891 0.018773 0.018773
0.374298 0.016781 0.016781
0.409685 0.014809 0.014809
0.445056 0.012852 0.012852
0.483649 0.010730 0.010730
0.518428 0.008827 0.008827
0.532726 0.011533 0.011533
0.566793 0.009790 0.009790
0.600855 0.008053 0.008053
0.634911 0.006321 0.006321
0.668963 0.004594 0.004594
0.703011 0.002870 0.002870
0.737056 0.001150 0.001150
0.770531 0.000000 0.000000
0.802856 0.000000 0.000000
0.835181 0.000000 0.000000
0.856619 0.000000 0.000000
0.856619 0.000000 0.000000
0.856619 0.000000 0.000000
0.856619 0.000000 0.000000
0.856619 0.000000 0.000000
0.856619 0.000000 0.000000
0.856619 0.000000 0.000000
0.856619 0.000000 0.000000
0.856619 0.000000 0.000000
0.035233 0.083686 0.035233
0.088374 0.083074 0.034820
0.125270 0.078989 0.031906
0.161173 0.075785 0.029418
0.196880 0.073004 0.027125
0.232472 0.070471 0.024948
0.267991 0.068097 0.022844
0.303459 0.065832 0.020791
0.338891 0.063643 0.018773
0.374298 0.061510 0.016781
0.409685 0.059420 0.014809
0.445056 0.057363 0.012852
0.483649 0.055147 0.010730
0.518428 0.053171 0.008827
0.532726 0.055943 0.011533
0.566793 0.054138 0.009790
0.600855 0.052346 0.008053
0.634911 0.050565 0.006321
0.668963 0.048793 0.004594
0.703011 0.047029 0.002870
0.737056 0.045271 0.001150
0.770531 0.044023 0.000000
0.802856 0.043808 0.000000
0.835181 0.043611 0.000000
0.856619 0.043490 0.000000
0.856619 0.043490 0.000000
0.856619 0.043490 0.000000
0.856619 0.043490 0.000000
0.856619 0.043490 0.000000
0.856619 0.043490 0.000000
0.856619 0.043490 0.000000
0.856619 0.043490 0.000000
0.856619 0.043490 0.000000
0.032506 0.117177 0.032506
0.084991 0.117177 0.032506
0.125270 0.116205 0.031906
0.161173 0.112436 0.029418
0.196880 0.109268 0.027125
0.232472 0.106454 0.024948
0.267991 0.103867 0.022844
0.303459 0.101434 0.020791
0.338891 0.099110 0.018773
0.374298 0.096866 0.016781
0.409685 0.094683 0.014809
0.445056 0.092546 0.012852
0.483649 0.090257 0.010730
0.518428 0.088223 0.008827
0.532726 0.091046 0.011533
0.566793 0.089192 0.009790
0.600855 0.087357 0.008053
0.634911 0.085536 0.006321
0.668963 0.083729 0.004594
0.703011 0.081933 0.002870
0.737056 0.080147 0.001150
0.770531 0.078820 0.000000
0.802856 0.078435 0.000000
0.835181 0.078083 0.000000
0.856619 0.077865 0.000000
0.856619 0.077865 0.000000
0.856619 0.077865 0.000000
0.856619 0.077865 0.000000
0.856619 0.077865 0.000000
0.856619 0.077865 0.000000
0.856619 0.077865 0.000000
0.856619 0.077865 0.000000
0.856619 0.077865 0.000000
0.030185 0.149748 0.030185
0.081864 0.149748 0.030185
0.122521 0.149748 0.030185
0.161173 0.148475 0.029418
0.196880 0.144927 0.027125
0.232472 0.141837 0.024948
0.267991 0.139040 0.022844
0.303459 0.136442 0.020791
0.338891 0.133985 0.018773
0.374298 0.131632 0.016781
0.409685 0.129357 0.014809
0.445056 0.127143 0.012852
0.483649 0.124780 0.010730
0.518428 0.122690 0.008827
0.532726 0.125564 0.011533
0.566793 0.123662 0.009790
0.600855 0.121783 0.008053
0.634911 0.119925 0.006321
0.668963 0.118083 0.004594
0.703011 0.116255 0.002870
0.737056 0.114440 0.001150
0.770531 0.113037 0.000000
0.802856 0.112484 0.000000
0.835181 0.111979 0.000000
0.856619 0.111668 0.000000
0.856619 0.111668 0.000000
0.856619 0.111668 0.000000
0.856619 0.111668 0.000000
0.856619 0.111668 0.000000
0.856619 0.111668 0.000000
0.856619 0.111668 0.000000
0.856619 0.111668 0.000000
0.856619 0.111668 0.000000
0.028056 0.182127 0.028056
0.079176 0.182127 0.028056
0.119393 0.182127 0.028056
0.158939 0.182127 0.028056
0.196880 0.180586 0.027125
0.232472 0.177220 0.024948
0.267991 0.174213 0.022844
0.303459 0.171450 0.020791
0.338891 0.168860 0.018773
0.374298 0.166398 0.016781
0.409685 0.164031 0.014809
0.445056 0.161739 0.012852
0.483649 0.159304 0.010730
0.518428 0.157157 0.008827
0.532726 0.160081 0.011533
0.566793 0.158131 0.009790
0.600855 0.156210 0.008053
0.634911 0.154313 0.006321
0.668963 0.152436 0.004594
0.703011 0.150577 0.002870
0.737056 0.148734 0.001150
0.770531 0.147254 0.000000
0.802856 0.146534 0.000000
0.835181 0.145876 0.000000
0.856619 0.145470 0.000000
0.856619 0.145470 0.000000
0.856619 0.145470 0.000000
0.856619 0.145470 0.000000
0.856619 0.145470 0.000000
0.856619 0.145470 0.000000
0.856619 0.145470 0.000000
0.856619 0.145470 0.000000
0.856619 0.145470 0.000000
0.026043 0.214389 0.026043
0.076753 0.214389 0.026043
0.116647 0.214389 0.026043
0.155875 0.214389 0.026043
0.195104 0.214389 0.026043
0.232472 0.212603 0.024948
0.267991 0.209386 0.022844
0.303459 0.206458 0.020791
0.338891 0.203736 0.018773
0.374298 0.201163 0.016781
0.409685 0.198705 0.014809
0.445056 0.196335 0.012852
0.483649 0.193828 0.010730
0.518428 0.191624 0.008827
0.532726 0.194599 0.011533
0.566793 0.192601 0.009790
0.600855 0.190637 0.008053
0.634911 0.188701 0.006321
0.668963 0.186790 0.004594
0.703011 0.184899 0.002870
0.737056 0.183027 0.001150
0.770531 0.181471 0.000000
0.802856 0.180583 0.000000
0.835181 0.179773 0.000000
0.856619 0.179272 0.000000
0.856619 0.179272 0.000000
0.856619 0.179272 0.000000
0.856619 0.179272 0.000000
0.856619 0.179272 0.000000
0.856619 0.179272 0.000000
0.856619 0.179272 0.000000
0.856619 0.179272 0.000000
0.856619 0.179272 0.000000
0.024106 0.246577 0.024106
0.074501 0.246577 0.024106
0.114148 0.246577 0.024106
0.153133 0.246577 0.024106
0.192118 0.246577 0.024106
0.231103 0.246577 0.024106
0.267991 0.244559 0.022844
0.303459 0.241467 0.020791
0.338891 0.238611 0.018773
0.374298 0.235929 0.016781
0.409685 0.233379 0.014809
0.445056 0.230931 0.012852
0.483649 0.228351 0.010730
0.518428 0.226091 0.008827
0.532726 0.229117 0.011533
0.566793 0.227071 0.009790
0.600855 0.225063 0.008053
0.634911 0.223089 0.006321
0.668963 0.221143 0.004594
0.703011 0.219221 0.002870
0.737056 0.217320 0.001150
0.770531 0.215687 0.000000
0.802856 0.214633 0.000000
0.835181 0.213669 0.000000
0.856619 0.213075 0.000000
0.856619 0.213075 0.000000
0.856619 0.213075 0.000000
0.856619 0.213075 0.000000
0.856619 0.213075 0.000000
0.856619 0.213075 0.000000
0.856619 0.213075 0.000000
0.856619 0.213075 0.000000
0.856619 0.213075 0.000000
0.022219 0.278714 0.022219
0.072366 0.278714 0.022219
0.111818 0.278714 0.022219
0.150611 0.278714 0.022219
0.189404 0.278714 0.022219
0.228197 0.278714 0.022219
0.266990 0.278714 0.022219
0.303459 0.276475 0.020791
0.338891 0.273486 0.018773
0.374298 0.270695 0.016781
0.409685 0.268053 0.014809
0.445056 0.265528 0.012852
0.483649 0.262875 0.010730
0.518428 0.260557 0.008827
0.532726 0.263634 0.011533
0.566793 0.261540 0.009790
0.600855 0.259490 0.008053
0.634911 0.257477 0.006321
0.668963 0.255497 0.004594
0.703011 0.253543 0.002870
0.737056 0.251614 0.001150
0.770531 0.249904 0.000000
0.802856 0.248682 0.000000
0.835181 0.247566 0.000000
0.856619 0.246877 0.000000
0.856619 0.246877 0.000000
0.856619 0.246877 0.000000
0.856619 0.246877 0.000000
0.856619 0.246877 0.000000
0.856619 0.246877 0.000000
0.856619 0.246877 0.000000
0.856619 0.246877 0.000000
0.856619 0.246877 0.000000
0.020369 0.310814 0.020369
0.070315 0.310814 0.020369
0.109608 0.310814 0.020369
0.148246 0.310814 0.020369
0.186884 0.310814 0.020369
0.225521 0.310814 0.020369
0.264159 0.310814 0.020369
0.302796 0.310814 0.020369
0.338891 0.308361 0.018773
0.374298 0.305461 0.016781
0.409685 0.302728 0.014809
0.445056 0.300124 0.012852
0.483649 0.297398 0.010730
0.518428 0.295024 0.008827
0.532726 0.298152 0.011533
0.566793 0.296010 0.009790
0.600855 0.293917 0.008053
0.634911 0.291866 0.006321
0.668963 0.289850 0.004594
0.703011 0.287865 0.002870
0.737056 0.285907 0.001150
0.770531 0.284121 0.000000
0.802856 0.282732 0.000000
0.835181 0.281462 0.000000
0.856619 0.280679 0.000000
0.856619 0.280679 0.000000
0.856619 0.280679 0.000000
0.856619 0.280679 0.000000
0.856619 0.280679 0.000000
0.856619 0.280679 0.000000
0.856619 0.280679 0.000000
0.856619 0.280679 0.000000
0.856619 0.280679 0.000000
0.018547 0.342886 0.018547
0.068326 0.342886 0.018547
0.107489 0.342886 0.018547
0.145998 0.342886 0.018547
0.184507 0.342886 0.018547
0.223016 0.342886 0.018547
0.261525 0.342886 0.018547
0.300034 0.342886 0.018547
0.338543 0.342886 0.018547
0.374298 0.340227 0.016781
0.409685 0.337402 0.014809
0.445056 0.334720 0.012852
0.483649 0.331922 0.010730
0.518428 0.329491 0.008827
0.532726 0.332670 0.011533
0.566793 0.330479 0.009790
0.600855 0.328344 0.008053
0.634911 0.326254 0.006321
0.668963 0.324204 0.004594
0.703011 0.322187 0.002870
0.737056 0.320200 0.001150
0.770531 0.318338 0.000000
0.802856 0.316781 0.000000
0.835181 0.315359 0.000000
0.856619 0.314481 0.000000
0.856619 0.314481 0.000000
0.856619 0.314481 0.000000
0.856619 0.314481 0.000000
0.856619 0.314481 0.000000
0.856619 0.314481 0.000000
0.856619 0.314481 0.000000
0.856619 0.314481 0.000000
0.856619 0.314481 0.000000
0.016745 0.374938 0.016745
0.066385 0.374938 0.016745
0.105437 0.374938 0.016745
0.143838 0.374938 0.016745
0.182239 0.374938 0.016745
0.220640 0.374938 0.016745
0.259041 0.374938 0.016745
0.297442 0.374938 0.016745
0.335843 0.374938 0.016745
0.374244 0.374938 0.016745
0.409685 0.372076 0.014809
0.445056 0.369316 0.012852
0.483649 0.366445 0.010730
0.518428 0.363958 0.008827
0.532726 0.367187 0.011533
0.566793 0.364949 0.009790
0.600855 0.362770 0.008053
0.634911 0.360642 0.006321
0.668963 0.358557 0.004594
0.703011 0.356509 0.002870
0.737056 0.354494 0.001150
0.770531 0.352554 0.000000
0.802856 0.350831 0.000000
0.835181 0.349256 0.000000
0.856619 0.348284 0.000000
0.856619 0.348284 0.000000
0.856619 0.348284 0.000000
0.856619 0.348284 0.000000
0.856619 0.348284 0.000000
0.856619 0.348284 0.000000
0.856619 0.348284 0.000000
0.856619 0.348284 0.000000
0.856619 0.348284 0.000000
0.014959 0.406974 0.014959
0.064480 0.406974 0.014959
0.103439 0.406974 0.014959
0.141748 0.406974 0.014959
0.180057 0.406974 0.014959
0.218365 0.406974 0.014959
0.256674 0.406974 0.014959
0.294983 0.406974 0.014959
0.333292 0.406974 0.014959
0.371601 0.406974 0.014959
0.409685 0.406750 0.014809
0.445056 0.403913 0.012852
0.483649 0.400969 0.010730
0.518428 0.398425 0.008827
0.532726 0.401705 0.011533
0.566793 0.399418 0.009790
0.600855 0.397197 0.008053
0.634911 0.395030 0.006321
0.668963 0.392911 0.004594
0.703011 0.390831 0.002870
0.737056 0.388787 0.001150
0.770531 0.386771 0.000000
0.802856 0.384880 0.000000
0.835181 0.383152 0.000000
0.856619 0.382086 0.000000
0.856619 0.382086 0.000000
0.856619 0.382086 0.000000
0.856619 0.382086 0.000000
0.856619 0.382086 0.000000
0.856619 0.382086 0.000000
0.856619 0.382086 0.000000
0.856619 0.382086 0.000000
0.856619 0.382086 0.000000
0.013186 0.438997 0.013186
0.062604 0.438997 0.013186
0.101483 0.438997 0.013186
0.139712 0.438997 0.013186
0.177941 0.438997 0.013186
0.216171 0.438997 0.013186
0.254400 0.438997 0.013186
0.292629 0.438997 0.013186
0.330859 0.438997 0.013186
0.369088 0.438997 0.013186
0.407318 0.438997 0.013186
0.445056 0.438509 0.012852
0.483649 0.435492 0.010730
0.518428 0.432892 0.008827
0.532726 0.436223 0.011533
0.566793 0.433888 0.009790
0.600855 0.431624 0.008053
0.634911 0.429419 0.006321
0.668963 0.427264 0.004594
0.703011 0.425154 0.002870
0.737056 0.423081 0.001150
0.770531 0.420988 0.000000
0.802856 0.418930 0.000000
0.835181 0.417049 0.000000
0.856619 0.415888 0.000000
0.856619 0.415888 0.000000
0.856619 0.415888 0.000000
0.856619 0.415888 0.000000
0.856619 0.415888 0.000000
0.856619 0.415888 0.000000
0.856619 0.415888 0.000000
0.856619 0.415888 0.000000
0.856619 0.415888 0.000000
0.011238 0.474395 0.011238
0.060558 0.474395 0.011238
0.099358 0.474395 0.011238
0.137512 0.474395 0.011238
0.175665 0.474395 0.011238
0.213819 0.474395 0.011238
0.251972 0.474395 0.011238
0.290125 0.474395 0.011238
0.328279 0.474395 0.011238
0.366432 0.474395 0.011238
0.404586 0.474395 0.011238
0.442739 0.474395 0.011238
0.483649 0.473667 0.010730
0.518428 0.471004 0.008827
0.532726 0.474391 0.011533
0.566793 0.472003 0.009790
0.600855 0.469691 0.008053
0.634911 0.467444 0.006321
0.668963 0.465251 0.004594
0.703011 0.463105 0.002870
0.737056 0.461001 0.001150
0.770531 0.458823 0.000000
0.802856 0.456580 0.000000
0.835181 0.454530 0.000000
0.856619 0.427512 0.000000
0.856619 0.427512 0.000000
0.856619 0.427512 0.000000
0.856619 0.427512 0.000000
0.856619 0.427512 0.000000
0.856619 0.427512 0.000000
0.856619 0.427512 0.000000
0.856619 0.427512 0.000000
0.856619 0.427512 0.000000
0.009512 0.505882 0.009512
0.058756 0.505882 0.009512
0.097497 0.505882 0.009512
0.135591 0.505882 0.009512
0.173685 0.505882 0.009512
0.211779 0.505882 0.009512
0.249874 0.505882 0.009512
0.287968 0.505882 0.009512
0.326062 0.505882 0.009512
0.364157 0.505882 0.009512
0.402251 0.505882 0.009512
0.440345 0.505882 0.009512
0.481923 0.505882 0.009512
0.518428 0.504915 0.008827
0.532726 0.508352 0.011533
0.566793 0.505917 0.009790
0.600855 0.503563 0.008053
0.634911 0.501277 0.006321
0.668963 0.499050 0.004594
0.703011 0.470691 0.002870
0.737056 0.468436 0.001150
0.770531 0.466099 0.000000
0.802856 0.463678 0.000000
0.835181 0.461454 0.000000
0.856619 0.460076 0.000000
0.856619 0.460076 0.000000
0.856619 0.460076 0.000000
0.856619 0.460076 0.000000
0.856619 0.460076 0.000000
0.856619 0.460076 0.000000
0.856619 0.460076 0.000000
0.856619 0.460076 0.000000
0.856619 0.460076 0.000000
0.007794 0.537363 0.007794
0.056969 0.537363 0.007794
0.095657 0.537363 0.007794
0.133699 0.537363 0.007794
0.171740 0.537363 0.007794
0.209782 0.537363 0.007794
0.247824 0.537363 0.007794
0.285866 0.537363 0.007794
0.323907 0.537363 0.007794
0.361949 0.537363 0.007794
0.399991 0.537363 0.007794
0.438033 0.537363 0.007794
0.479554 0.537363 0.007794
0.516982 0.537363 0.007794
0.532726 0.515996 0.011533
0.566793 0.513406 0.009790
0.600855 0.510898 0.008053
0.634911 0.508461 0.006321
0.668963 0.506083 0.004594
0.703011 0.503756 0.002870
0.737056 0.501474 0.001150
0.770531 0.499063 0.000000
0.802856 0.496481 0.000000
0.835181 0.494109 0.000000
0.856619 0.492640 0.000000
0.856619 0.492640 0.000000
0.856619 0.492640 0.000000
0.856619 0.492640 0.000000
0.856619 0.492640 0.000000
0.856619 0.492640 0.000000
0.856619 0.492640 0.000000
0.856619 0.492640 0.000000
0.856619 0.492640 0.000000
0.010748 0.548051 0.010748
0.060004 0.548051 0.010748
0.098755 0.548051 0.010748
0.136859 0.548051 0.010748
0.174963 0.548051 0.010748
0.213067 0.548051 0.010748
0.251171 0.548051 0.010748
0.289275 0.548051 0.010748
0.327379 0.548051 0.010748
0.365483 0.548051 0.010748
0.403587 0.548051 0.010748
0.441691 0.548051 0.010748
0.483280 0.548051 0.010748
0.520770 0.548051 0.010748
0.531539 0.548051 0.010748
0.566793 0.546613 0.009790
0.600855 0.544064 0.008053
0.634911 0.541589 0.006321
0.668963 0.539178 0.004594
0.703011 0.536821 0.002870
0.737056 0.534511 0.001150
0.770531 0.532026 0.000000
0.802856 0.529283 0.000000
0.835181 0.526765 0.000000
0.856619 0.525205 0.000000
0.856619 0.525205 0.000000
0.856619 0.525205 0.000000
0.856619 0.525205 0.000000
0.856619 0.525205 0.000000
0.856619 0.525205 0.000000
0.856619 0.525205 0.000000
0.856619 0.525205 0.000000
0.856619 0.525205 0.000000
0.009172 0.578890 0.009172
0.058369 0.578890 0.009172
0.097073 0.578890 0.009172
0.135131 0.578890 0.009172
0.173190 0.578890 0.009172
0.211248 0.578890 0.009172
0.249306 0.578890 0.009172
0.287364 0.578890 0.009172
0.325422 0.578890 0.009172
0.363481 0.578890 0.009172
0.401539 0.578890 0.009172
0.439597 0.578890 0.009172
0.481136 0.578890 0.009172
0.518580 0.578890 0.009172
0.529205 0.578890 0.009172
0.565870 0.578890 0.009172
0.600855 0.577230 0.008053
0.634911 0.574718 0.006321
0.668963 0.572273 0.004594
0.703011 0.569886 0.002870
0.737056 0.567548 0.001150
0.770531 0.564990 0.000000
0.802856 0.562085 0.000000
0.835181 0.559420 0.000000
0.856619 0.557769 0.000000
0.856619 0.557769 0.000000
0.856619 0.557769 0.000000
0.856619 0.557769 0.000000
0.856619 0.557769 0.000000
0.856619 0.557769 0.000000
0.856619 0.557769 0.000000
0.856619 0.557769 0.000000
0.856619 0.557769 0.000000
0.007602 0.609724 0.007602
0.056745 0.609724 0.007602
0.095407 0.609724 0.007602
0.133423 0.609724 0.007602
0.171440 0.609724 0.007602
0.209457 0.609724 0.007602
0.247474 0.609724 0.007602
0.285490 0.609724 0.007602
0.323507 0.609724 0.007602
0.361524 0.609724 0.007602
0.399541 0.609724 0.007602
0.437557 0.609724 0.007602
0.479051 0.609724 0.007602
0.516455 0.609724 0.007602
0.526938 0.609724 0.007602
0.563562 0.609724 0.007602
0.600187 0.609724 0.007602
0.634911 0.607847 0.006321
0.668963 0.605368 0.004594
0.703011 0.602951 0.002870
0.737056 0.600586 0.001150
0.770531 0.597953 0.000000
0.802856 0.594888 0.000000
0.835181 0.592075 0.000000
0.856619 0.590333 0.000000
0.856619 0.590333 0.000000
0.856619 0.590333 0.000000
0.856619 0.590333 0.000000
0.856619 0.590333 0.000000
0.856619 0.590333 0.000000
0.856619 0.590333 0.000000
0.856619 0.590333 0.000000
0.856619 0.590333 0.000000
0.006035 0.640554 0.006035
0.055129 0.640554 0.006035
0.093753 0.640554 0.006035
0.131732 0.640554 0.006035
0.169711 0.640554 0.006035
0.207690 0.640554 0.006035
0.245670 0.640554 0.006035
0.283649 0.640554 0.006035
0.321628 0.640554 0.006035
0.359607 0.640554 0.006035
0.397586 0.640554 0.006035
0.435565 0.640554 0.006035
0.477018 0.640554 0.006035
0.488139 0.640554 0.006035
0.524727 0.640554 0.006035
0.561315 0.640554 0.006035
0.597903 0.640554 0.006035
0.634491 0.640554 0.006035
0.668963 0.638464 0.004594
0.703011 0.636016 0.002870
0.737056 0.633623 0.001150
0.770531 0.630917 0.000000
0.802856 0.627690 0.000000
0.835181 0.624730 0.000000
0.856619 0.622897 0.000000
0.856619 0.622897 0.000000
0.856619 0.622897 0.000000
0.856619 0.622897 0.000000
0.856619 0.622897 0.000000
0.856619 0.622897 0.000000
0.856619 0.622897 0.000000
0.856619 0.622897 0.000000
0.856619 0.622897 0.000000
0.004471 0.671381 0.004471
0.053522 0.671381 0.004471
0.092110 0.671381 0.004471
0.130055 0.671381 0.004471
0.168000 0.671381 0.004471
0.205945 0.671381 0.004471
0.243890 0.671381 0.004471
0.281835 0.671381 0.004471
0.319780 0.671381 0.004471
0.357724 0.671381 0.004471
0.395669 0.671381 0.004471
0.433614 0.671381 0.004471
0.475029 0.671381 0.004471
0.486010 0.671381 0.004471
0.522565 0.671381 0.004471
0.559120 0.671381 0.004471
0.595675 0.671381 0.004471
0.632230 0.671381 0.004471
0.668785 0.671381 0.004471
0.703011 0.669081 0.002870
0.737056 0.666660 0.001150
0.770531 0.663880 0.000000
0.802856 0.660492 0.000000
0.835181 0.657385 0.000000
0.856619 0.655462 0.000000
0.856619 0.655462 0.000000
0.856619 0.655462 0.000000
0.856619 0.655462 0.000000
0.856619 0.655462 0.000000
0.856619 0.655462 0.000000
0.856619 0.655462 0.000000
0.856619 0.655462 0.000000
0.856619 0.655462 0.000000
0.002911 0.702204 0.002911
0.051921 0.702204 0.002911
0.090478 0.702204 0.002911
0.128391 0.702204 0.002911
0.166305 0.702204 0.002911
0.204218 0.702204 0.002911
0.242132 0.702204 0.002911
0.280045 0.702204 0.002911
0.317958 0.702204 0.002911
0.355872 0.702204 0.002911
0.393785 0.702204 0.002911
0.431699 0.702204 0.002911
0.473080 0.702204 0.002911
0.483921 0.702204 0.002911
0.520446 0.702204 0.002911
0.556971 0.702204 0.002911
0.593496 0.702204 0.002911
0.630021 0.702204 0.002911
0.666545 0.702204 0.002911
0.703011 0.702146 0.002870
0.737056 0.699698 0.001150
0.770531 0.696844 0.000000
0.802856 0.693295 0.000000
0.835181 0.690040 0.000000
0.856619 0.688026 0.000000
0.856619 0.688026 0.000000
0.856619 0.688026 0.000000
0.856619 0.688026 0.000000
0.856619 0.688026 0.000000
0.856619 0.688026 0.000000
0.856619 0.688026 0.000000
0.856619 0.688026 0.000000
0.856619 0.688026 0.000000
0.001354 0.733025 0.001354
0.050326 0.733025 0.001354
0.088854 0.733025 0.001354
0.126738 0.733025 0.001354
0.164623 0.733025 0.001354
0.202507 0.733025 0.001354
0.240392 0.733025 0.001354
0.278277 0.733025 0.001354
0.316161 0.733025 0.001354
0.354046 0.733025 0.001354
0.391930 0.733025 0.001354
0.429815 0.733025 0.001354
0.471164 0.733025 0.001354
0.481868 0.733025 0.001354
0.518365 0.733025 0.001354
0.554862 0.733025 0.001354
0.591359 0.733025 0.001354
0.627856 0.733025 0.001354
0.664353 0.733025 0.001354
0.700850 0.733025 0.001354
0.737056 0.732735 0.001150
0.770531 0.729808 0.000000
0.802856 0.726097 0.000000
0.835181 0.722695 0.000000
0.856619 0.720590 0.000000
0.856619 0.720590 0.000000
0.856619 0.720590 0.000000
0.856619 0.720590 0.000000
0.856619 0.720590 0.000000
0.856619 0.720590 0.000000
0.856619 0.720590 0.000000
0.856619 0.720590 0.000000
0.856619 0.720590 0.000000
0.000000 0.763642 0.000000
0.048912 0.763642 0.000000
0.087392 0.763642 0.000000
0.125230 0.763642 0.000000
0.163068 0.763642 0.000000
0.200906 0.763642 0.000000
0.238745 0.763642 0.000000
0.276583 0.763642 0.000000
0.314421 0.763642 0.000000
0.352259 0.763642 0.000000
0.390097 0.763642 0.000000
0.427935 0.763642 0.000000
0.469233 0.763642 0.000000
0.479794 0.763642 0.000000
0.516246 0.763642 0.000000
0.552698 0.763642 0.000000
0.589150 0.763642 0.000000
0.625602 0.763642 0.000000
0.662054 0.763642 0.000000
0.698507 0.763642 0.000000
0.734959 0.763642 0.000000
0.770531 0.762771 0.000000
0.802856 0.758900 0.000000
0.835181 0.755350 0.000000
0.856619 0.753154 0.000000
0.856619 0.753154 0.000000
0.856619 0.753154 0.000000
0.856619 0.753154 0.000000
0.856619 0.753154 0.000000
0.856619 0.753154 0.000000
0.856619 0.753154 0.000000
0.856619 0.753154 0.000000
0.856619 0.753154 0.000000
0.000000 0.792905 0.000000
0.048691 0.792905 0.000000
0.086997 0.792905 0.000000
0.124663 0.792905 0.000000
0.162330 0.792905 0.000000
0.199997 0.792905 0.000000
0.237663 0.792905 0.000000
0.275330 0.792905 0.000000
0.312997 0.792905 0.000000
0.350664 0.792905 0.000000
0.388330 0.792905 0.000000
0.425997 0.792905 0.000000
0.467108 0.792905 0.000000
0.477492 0.792905 0.000000
0.513779 0.792905 0.000000
0.550066 0.792905 0.000000
0.586353 0.792905 0.000000
0.622640 0.792905 0.000000
0.658927 0.792905 0.000000
0.695214 0.792905 0.000000
0.731501 0.792905 0.000000
0.767789 0.792905 0.000000
0.802856 0.791702 0.000000
0.835181 0.788005 0.000000
0.856619 0.785718 0.000000
0.856619 0.785718 0.000000
0.856619 0.785718 0.000000
0.856619 0.785718 0.000000
0.856619 0.785718 0.000000
0.856619 0.785718 0.000000
0.856619 0.785718 0.000000
0.856619 0.785718 0.000000
0.856619 0.785718 0.000000
0.000000 0.822169 0.000000
0.048487 0.822169 0.000000
0.086632 0.822169 0.000000
0.124141 0.822169 0.000000
0.161650 0.822169 0.000000
0.199159 0.822169 0.000000
0.236668 0.822169 0.000000
0.274177 0.822169 0.000000
0.311686 0.822169 0.000000
0.349195 0.822169 0.000000
0.386704 0.822169 0.000000
0.424213 0.822169 0.000000
0.439228 0.822169 0.000000
0.475363 0.822169 0.000000
0.511498 0.822169 0.000000
0.547633 0.822169 0.000000
0.583769 0.822169 0.000000
0.619904 0.822169 0.000000
0.656039 0.822169 0.000000
0.692174 0.822169 0.000000
0.728309 0.822169 0.000000
0.764444 0.822169 0.000000
0.800579 0.822169 0.000000
0.835181 0.820661 0.000000
0.856619 0.818283 0.000000
0.856619 0.818283 0.000000
0.856619 0.818283 0.000000
0.856619 0.818283 0.000000
0.856619 0.818283 0.000000
0.856619 0.818283 0.000000
0.856619 0.818283 0.000000
0.856619 0.818283 0.000000
0.856619 0.818283 0.000000
0.000000 0.851432 0.000000
0.048298 0.851432 0.000000
0.086296 0.851432 0.000000
0.123659 0.851432 0.000000
0.161022 0.851432 0.000000
0.198385 0.851432 0.000000
0.235749 0.851432 0.000000
0.273112 0.851432 0.000000
0.310475 0.851432 0.000000
0.347838 0.851432 0.000000
0.385201 0.851432 0.000000
0.422565 0.851432 0.000000
0.437393 0.851432 0.000000
0.473388 0.851432 0.000000
0.509383 0.851432 0.000000
0.545378 0.851432 0.000000
0.581372 0.851432 0.000000
0.617367 0.851432 0.000000
0.653362 0.851432 0.000000
0.689357 0.851432 0.000000
0.725351 0.851432 0.000000
0.761346 0.851432 0.000000
0.797341 0.851432 0.000000
0.833335 0.851432 0.000000
