docs/luts/fuji_recipes/Classic_RR_Urban_Vintage_Chrome.cube
TITLE "Fujifilm Recipe: RR Urban Vintage Chrome (Classic)"
# FilmSim=Classic HL=0 SH=2 Col=-4 WB=4300K WBR=-1 WBB=-3
LUT_3D_SIZE 5
DOMAIN_MIN 0.0 0.0 0.0
DOMAIN_MAX 1.0 1.0 1.0
0.000000 0.000000 0.000000
0.141320 0.093353 0.093353
0.283424 0.187224 0.187224
0.454826 0.297146 0.297146
0.546509 0.357044 0.357044
0.101326 0.153390 0.101326
0.149293 0.153390 0.101326
0.283424 0.239287 0.187224
0.454826 0.349210 0.297146
0.546509 0.409108 0.357044
0.201900 0.305642 0.201900
0.249867 0.305642 0.201900
0.298101 0.305642 0.201900
0.454826 0.412208 0.297146
0.546509 0.472569 0.357044
0.320119 0.489990 0.320119
0.368086 0.489990 0.320119
0.416320 0.489990 0.320119
0.477977 0.489990 0.320119
0.546509 0.527201 0.357044
0.384515 0.588558 0.384515
0.432482 0.588558 0.384515
0.492056 0.588558 0.384515
0.542871 0.588558 0.384515
0.574193 0.588558 0.384515
0.098611 0.098611 0.149279
0.146578 0.098611 0.149279
0.283424 0.187224 0.237892
0.454826 0.297146 0.347815
0.546509 0.357044 0.407713
0.101326 0.153390 0.151994
0.242646 0.246742 0.245347
0.382035 0.337898 0.336503
0.555299 0.448868 0.447473
0.646982 0.508766 0.507371
0.201900 0.305642 0.252569
0.357955 0.425191 0.360657
0.411502 0.430548 0.365971
0.555299 0.512681 0.447473
0.646982 0.573042 0.507371
0.320119 0.489990 0.370788
0.462431 0.585106 0.465133
0.527635 0.590463 0.470446
0.578450 0.590463 0.470446
0.646982 0.627674 0.507371
0.384515 0.588558 0.435184
0.526827 0.683674 0.529529
0.592529 0.689031 0.534842
0.643344 0.689031 0.534842
0.674666 0.689031 0.534842
0.195847 0.195847 0.296478
0.243814 0.195847 0.296478
0.292047 0.195847 0.296478
0.454826 0.297146 0.397777
0.546509 0.357044 0.469188
0.195847 0.247911 0.296478
0.337167 0.341264 0.389831
0.407781 0.363644 0.423418
0.558066 0.451612 0.512066
0.649748 0.511510 0.572428
0.201900 0.305642 0.302532
0.357955 0.425191 0.410620
0.527526 0.535724 0.532343
0.670659 0.628040 0.624659
0.762937 0.688998 0.685617
0.320119 0.489990 0.431978
0.462431 0.585106 0.527094
0.633850 0.696678 0.638666
0.694038 0.706051 0.648039
0.762937 0.743629 0.685617
0.384515 0.588558 0.496872
0.526827 0.683674 0.591988
0.699384 0.795886 0.704200
0.759573 0.805260 0.713574
0.790894 0.805260 0.713574
0.310042 0.310042 0.474565
0.358009 0.310042 0.474565
0.406242 0.310042 0.474565
0.467821 0.310042 0.474565
0.546509 0.357044 0.521931
0.310042 0.362105 0.474565
0.452353 0.456450 0.569681
0.520245 0.464508 0.577804
0.571061 0.464508 0.577804
0.649748 0.511510 0.625170
0.310042 0.425203 0.474565
0.452353 0.520319 0.569681
0.623594 0.631791 0.681152
0.690362 0.647744 0.697105
0.769517 0.695577 0.744939
0.320119 0.489990 0.484720
0.462431 0.585106 0.579836
0.633850 0.696678 0.691408
0.783562 0.795575 0.790305
0.865584 0.846276 0.841006
0.384515 0.588558 0.549615
0.526827 0.683674 0.644730
0.699384 0.795886 0.756943
0.849096 0.894783 0.855840
0.893541 0.907906 0.868963
0.352869 0.352869 0.540119
0.400836 0.352869 0.540119
0.449070 0.352869 0.540119
0.510980 0.352869 0.540119
0.546509 0.357044 0.544326
0.352869 0.404933 0.540119
0.495181 0.499278 0.635235
0.563404 0.507335 0.643358
0.614220 0.507335 0.643358
0.649748 0.511510 0.647565
0.352869 0.468362 0.540119
0.495181 0.563478 0.635235
0.667179 0.675376 0.747133
0.733947 0.691329 0.763086
0.769517 0.695577 0.767334
0.352869 0.522993 0.540119
0.495181 0.618109 0.635235
0.667179 0.730007 0.747133
0.816891 0.828904 0.846029
0.875840 0.856532 0.873657
0.384515 0.588558 0.572010
0.526827 0.683674 0.667126
0.699384 0.795886 0.779338
0.849096 0.894783 0.878235
0.937126 0.951491 0.934943
