docs/luts/fuji_recipes/Classic_GB_Classy_Chrome.cube
TITLE "Fujifilm Recipe: GB Classy Chrome (Classic)"
# FilmSim=Classic HL=-1 SH=-1 Col=0 WB=Daylight WBR=0 WBB=0
LUT_3D_SIZE 9
DOMAIN_MIN 0.0 0.0 0.0
DOMAIN_MAX 1.0 1.0 1.0
0.040000 0.040000 0.040000
0.140492 0.051596 0.051596
0.240175 0.064001 0.064001
0.339709 0.076555 0.076555
0.439191 0.089161 0.089161
0.520464 0.102684 0.102684
0.616300 0.115187 0.115187
0.712128 0.127698 0.127698
0.808877 0.139287 0.139287
0.064950 0.142350 0.055974
0.142970 0.133449 0.056070
0.245939 0.148146 0.072141
0.348909 0.163950 0.088211
0.439191 0.176142 0.089161
0.520464 0.189611 0.102684
0.616300 0.202012 0.115187
0.712128 0.214448 0.127698
0.808877 0.226221 0.139287
0.089947 0.244889 0.071977
0.179626 0.244889 0.071977
0.245939 0.227047 0.072141
0.348909 0.241100 0.088211
0.451878 0.256435 0.104282
0.535748 0.272477 0.120611
0.634946 0.288081 0.136422
0.734145 0.303766 0.152234
0.808877 0.313315 0.139287
0.114943 0.347429 0.087980
0.205549 0.347429 0.087980
0.292421 0.347429 0.087980
0.348909 0.320646 0.088211
0.451878 0.334347 0.104282
0.535748 0.349734 0.120611
0.634946 0.364858 0.136422
0.734145 0.380250 0.152234
0.833343 0.395789 0.168045
0.139939 0.449968 0.103983
0.230999 0.449968 0.103983
0.319300 0.449968 0.103983
0.404745 0.449968 0.103983
0.451878 0.414244 0.104282
0.535748 0.428431 0.120611
0.634946 0.442657 0.136422
0.734145 0.457496 0.152234
0.833343 0.472669 0.168045
0.163197 0.533493 0.120252
0.254475 0.533493 0.120252
0.343468 0.533493 0.120252
0.430073 0.533493 0.120252
0.514307 0.533493 0.120252
0.535748 0.490823 0.120611
0.634946 0.503705 0.136422
0.734145 0.517597 0.152234
0.833343 0.532046 0.168045
0.187572 0.632277 0.135997
0.279036 0.632277 0.135997
0.368618 0.632277 0.135997
0.456227 0.632277 0.135997
0.541841 0.632277 0.135997
0.606722 0.632277 0.135997
0.634946 0.581027 0.136422
0.734145 0.593804 0.152234
0.833343 0.607504 0.168045
0.211947 0.731060 0.151742
0.303542 0.731060 0.151742
0.393540 0.731060 0.151742
0.481863 0.731060 0.151742
0.568476 0.731060 0.151742
0.633986 0.731060 0.151742
0.714584 0.731060 0.151742
0.734145 0.671232 0.152234
0.833343 0.683928 0.168045
0.236321 0.829844 0.167487
0.328015 0.829844 0.167487
0.418321 0.829844 0.167487
0.507175 0.829844 0.167487
0.594540 0.829844 0.167487
0.660447 0.829844 0.167487
0.742102 0.829844 0.167487
0.822415 0.829844 0.167487
0.833343 0.761437 0.168045
0.055779 0.064645 0.141100
0.135618 0.056070 0.142970
0.245939 0.072141 0.167718
0.348909 0.088211 0.184045
0.439191 0.089161 0.175079
0.520464 0.102684 0.188549
0.616300 0.115187 0.200951
0.712128 0.127698 0.213388
0.808877 0.139287 0.225159
0.051522 0.139891 0.138812
0.158748 0.158225 0.157170
0.260070 0.168910 0.167810
0.360580 0.180479 0.179388
0.460701 0.192439 0.191356
0.541948 0.205683 0.204602
0.638127 0.217838 0.216761
0.735704 0.228604 0.227523
0.859147 0.213596 0.212418
0.071977 0.244889 0.146800
0.183855 0.260668 0.173077
0.261718 0.251693 0.173240
0.364687 0.266390 0.189311
0.467657 0.282188 0.205381
0.541948 0.294283 0.204602
0.638127 0.306154 0.216761
0.735704 0.317218 0.227523
0.859147 0.310146 0.212418
0.087980 0.347429 0.153177
0.208852 0.363207 0.189080
0.298452 0.363207 0.189080
0.364687 0.345291 0.189311
0.467657 0.359348 0.205381
0.551198 0.375057 0.221711
0.650396 0.390472 0.237522
0.749594 0.406068 0.253333
0.848793 0.421749 0.269144
0.103983 0.449968 0.159843
0.233849 0.465746 0.205083
0.324399 0.465746 0.205083
0.411228 0.465746 0.205083
0.467657 0.438890 0.205381
0.551198 0.453239 0.221711
0.650396 0.467764 0.237522
0.749594 0.482868 0.253333
0.848793 0.480328 0.269144
0.120252 0.533493 0.168947
0.257073 0.548943 0.221351
0.348006 0.548943 0.221351
0.436012 0.548943 0.221351
0.521006 0.548943 0.221351
0.551198 0.515174 0.221711
0.650396 0.528215 0.237522
0.749594 0.542358 0.253333
0.848793 0.557039 0.269144
0.135997 0.632277 0.175909
0.281447 0.647727 0.237097
0.372678 0.647727 0.237097
0.461605 0.647727 0.237097
0.548129 0.647727 0.237097
0.613101 0.647727 0.237097
0.650396 0.605378 0.237522
0.749594 0.618270 0.253333
0.848793 0.632172 0.269144
0.151742 0.731060 0.182913
0.305822 0.746510 0.252842
0.397248 0.746510 0.252842
0.486779 0.746510 0.252842
0.574326 0.746510 0.252842
0.640027 0.746510 0.252842
0.721014 0.746510 0.252842
0.749594 0.695583 0.253333
0.848793 0.708367 0.269144
0.167487 0.829844 0.189944
0.330197 0.845294 0.268587
0.421761 0.845294 0.268587
0.511717 0.845294 0.268587
0.579597 0.845294 0.268587
0.666118 0.845294 0.268587
0.748275 0.845294 0.268587
0.828876 0.845294 0.268587
0.848793 0.785788 0.269144
0.071646 0.089430 0.242771
0.138011 0.071646 0.242771
0.230722 0.072141 0.245939
0.348909 0.088211 0.279186
0.451878 0.104282 0.295970
0.535748 0.120611 0.312578
0.634946 0.136422 0.328591
0.734145 0.152234 0.344524
0.808877 0.139287 0.311515
0.071646 0.168201 0.242771
0.173996 0.182313 0.258744
0.255674 0.174491 0.261913
0.364882 0.190561 0.285505
0.467852 0.206632 0.301826
0.542199 0.205877 0.292662
0.638384 0.218031 0.304536
0.736694 0.228059 0.315106
0.859316 0.213775 0.308330
0.063874 0.239159 0.237347
0.169645 0.259380 0.257515
0.277585 0.276699 0.274912
0.379153 0.287093 0.285218
0.480090 0.298231 0.296369
0.561481 0.311022 0.309168
0.659901 0.320951 0.319087
0.769136 0.320156 0.318190
0.872896 0.324761 0.322768
0.087980 0.347429 0.248239
0.190950 0.363499 0.264600
0.302767 0.379075 0.290751
0.380555 0.370077 0.290982
0.483525 0.384778 0.307052
0.566735 0.400872 0.323382
0.659901 0.411215 0.319087
0.769136 0.415304 0.318190
0.872896 0.421224 0.322768
0.103983 0.449968 0.254146
0.206953 0.466038 0.270989
0.327766 0.481614 0.306754
0.417309 0.481614 0.306754
0.483525 0.463675 0.307052
0.566735 0.478284 0.323382
0.665933 0.493212 0.339193
0.765132 0.490726 0.355004
0.864330 0.506092 0.370816
0.120252 0.533493 0.262824
0.223221 0.549229 0.280027
0.350956 0.564480 0.323022
0.441306 0.564480 0.323022
0.527627 0.564480 0.323022
0.566735 0.539662 0.323382
0.665933 0.552941 0.339193
0.765132 0.567408 0.355004
0.864330 0.582354 0.370816
0.135997 0.632277 0.269392
0.238966 0.648012 0.286918
0.375331 0.663264 0.338768
0.466214 0.663264 0.338768
0.554139 0.663264 0.338768
0.619424 0.663264 0.338768
0.665933 0.629867 0.339193
0.765132 0.642922 0.355004
0.864330 0.657078 0.370816
0.151742 0.731060 0.276101
0.254712 0.746796 0.293881
0.399706 0.762047 0.354513
0.490900 0.762047 0.354513
0.559296 0.762047 0.354513
0.645877 0.762047 0.354513
0.727429 0.762047 0.354513
0.765132 0.720072 0.355004
0.864330 0.732974 0.370816
0.167487 0.829844 0.282903
0.270457 0.845580 0.300886
0.424081 0.860831 0.370258
0.515478 0.860831 0.370258
0.583974 0.860831 0.370258
0.671502 0.860831 0.370258
0.754346 0.860831 0.370258
0.835343 0.860831 0.370258
0.864330 0.810276 0.370816
0.087514 0.114215 0.344442
0.144023 0.087514 0.344442
0.231006 0.087514 0.344442
0.325826 0.088211 0.348909
0.451878 0.104282 0.390367
0.535748 0.120611 0.407612
0.634946 0.136422 0.424092
0.734145 0.152234 0.440310
0.833343 0.168045 0.456386
0.087514 0.193638 0.344442
0.189864 0.207098 0.360415
0.256822 0.189864 0.360415
0.350778 0.190561 0.364882
0.467852 0.206632 0.396984
0.551389 0.222961 0.413904
0.650587 0.238772 0.430090
0.749786 0.254584 0.446106
0.848984 0.270395 0.462040
0.087514 0.270779 0.344442
0.190484 0.286590 0.360512
0.292403 0.300304 0.376419
0.375779 0.293100 0.380886
0.483855 0.309171 0.403303
0.567059 0.325500 0.419842
0.661123 0.320450 0.408532
0.769429 0.320482 0.412854
0.873183 0.325067 0.418718
0.076374 0.338279 0.335735
0.181148 0.359497 0.356891
0.288386 0.378251 0.375606
0.396423 0.395174 0.392653
0.499392 0.411244 0.408723
0.580874 0.416551 0.413874
0.681861 0.423955 0.421225
0.783265 0.430923 0.428160
0.886658 0.435911 0.433105
0.088927 0.437346 0.347662
0.206953 0.466038 0.366030
0.309923 0.482109 0.382400
0.412195 0.497482 0.408425
0.499392 0.497780 0.408723
0.582272 0.503563 0.425053
0.681861 0.495807 0.421225
0.783265 0.503260 0.428160
0.886658 0.509025 0.433105
0.120252 0.533493 0.358046
0.223221 0.549229 0.374459
0.326191 0.564964 0.391245
0.444837 0.580017 0.424694
0.533930 0.580017 0.424694
0.582272 0.564151 0.425053
0.681471 0.577819 0.440864
0.780669 0.592697 0.456675
0.879867 0.607926 0.472487
0.135997 0.632277 0.364109
0.238966 0.648012 0.380799
0.341936 0.663748 0.397998
0.469213 0.678801 0.440439
0.538826 0.678801 0.440439
0.625549 0.678801 0.440439
0.681471 0.654356 0.440864
0.780669 0.667653 0.456675
0.879867 0.682136 0.472487
0.151742 0.731060 0.370411
0.254712 0.746796 0.387364
0.357681 0.762532 0.404889
0.493589 0.777585 0.456184
0.563194 0.777585 0.456184
0.651319 0.777585 0.456184
0.733750 0.777585 0.456184
0.780669 0.744560 0.456675
0.879867 0.757629 0.472487
0.167487 0.829844 0.376885
0.270457 0.845580 0.394072
0.373426 0.861315 0.411853
0.517964 0.876368 0.471929
0.587418 0.876368 0.471929
0.676361 0.876368 0.471929
0.760189 0.876368 0.471929
0.841757 0.876368 0.471929
0.879867 0.834765 0.472487
0.103382 0.138999 0.446113
0.150515 0.103382 0.446113
0.236054 0.103382 0.446113
0.324474 0.103382 0.446113
0.420930 0.104282 0.451878
0.535748 0.120611 0.501243
0.634946 0.136422 0.518597
0.734145 0.152234 0.535354
0.833343 0.168045 0.551786
0.103382 0.218778 0.446113
0.205732 0.231883 0.462086
0.262817 0.205732 0.462086
0.349835 0.205732 0.462086
0.445882 0.206632 0.467852
0.551389 0.222961 0.508061
0.650587 0.238772 0.525108
0.749786 0.254584 0.541598
0.848984 0.270395 0.535396
0.103382 0.296689 0.446113
0.206351 0.312027 0.462183
0.308271 0.325088 0.478090
0.375681 0.308271 0.478090
0.470881 0.309171 0.483855
0.567059 0.325500 0.514783
0.666257 0.341312 0.531421
0.765455 0.357123 0.525147
0.864654 0.372934 0.540731
0.088454 0.349747 0.433622
0.206351 0.389165 0.462183
0.309321 0.404978 0.478254
0.412060 0.410810 0.494093
0.499859 0.411710 0.494993
0.582729 0.428040 0.521242
0.682295 0.424437 0.492817
0.783682 0.431389 0.500217
0.887063 0.436346 0.505899
0.088927 0.437346 0.434069
0.193046 0.459218 0.455876
0.299457 0.478800 0.475411
0.412892 0.498179 0.494926
0.515260 0.513648 0.510394
0.597291 0.503208 0.499804
0.696920 0.511595 0.508158
0.797877 0.518665 0.515184
0.900991 0.523597 0.520052
0.102400 0.518285 0.447324
0.206235 0.540135 0.468260
0.326191 0.564964 0.486484
0.429161 0.580700 0.502792
0.510996 0.595554 0.506232
0.597810 0.586548 0.506584
0.697008 0.600691 0.522066
0.796206 0.615888 0.537547
0.900991 0.619436 0.520052
0.135997 0.632277 0.459768
0.238966 0.648012 0.476035
0.341936 0.663748 0.492440
0.444906 0.679484 0.487180
0.544652 0.694338 0.521649
0.633588 0.694338 0.521649
0.697008 0.676717 0.522066
0.796206 0.690261 0.537547
0.895404 0.705013 0.553029
0.151742 0.731060 0.465641
0.254712 0.746796 0.482090
0.357681 0.762532 0.476601
0.460651 0.778267 0.493723
0.568735 0.793122 0.537066
0.658671 0.793122 0.537066
0.742171 0.793122 0.537066
0.796206 0.766888 0.537547
0.895404 0.780098 0.553029
0.167487 0.829844 0.471741
0.270457 0.845580 0.466168
0.373426 0.861315 0.482914
0.476396 0.877051 0.500355
0.592817 0.891905 0.552483
0.683251 0.891905 0.552483
0.768151 0.891905 0.552483
0.850348 0.891905 0.552483
0.895404 0.857058 0.553029
0.119526 0.162074 0.528943
0.159509 0.119526 0.528943
0.244348 0.119526 0.528943
0.331597 0.119526 0.528943
0.421238 0.119526 0.528943
0.498715 0.120611 0.535748
0.634946 0.136422 0.590795
0.734145 0.152234 0.607824
0.833343 0.168045 0.624310
0.119526 0.242033 0.528943
0.221876 0.254923 0.544584
0.271683 0.221876 0.544584
0.357507 0.221876 0.544584
0.446388 0.221876 0.544584
0.523368 0.222961 0.551389
0.650587 0.238772 0.597249
0.749786 0.254584 0.614020
0.848984 0.270395 0.630271
0.119526 0.320379 0.528943
0.222496 0.335357 0.544678
0.324416 0.348094 0.560253
0.384153 0.324416 0.560253
0.471694 0.324416 0.560253
0.548067 0.325500 0.567059
0.666257 0.341312 0.603630
0.765455 0.357123 0.620071
0.864654 0.372934 0.636055
0.119526 0.397362 0.528943
0.222496 0.413116 0.544678
0.325466 0.428523 0.560414
0.426955 0.441265 0.575923
0.497310 0.426955 0.575923
0.572769 0.428040 0.582729
0.681927 0.443851 0.609841
0.781125 0.459662 0.625867
0.880323 0.475473 0.641573
0.101827 0.450047 0.513889
0.205680 0.471084 0.535720
0.311661 0.490306 0.555422
0.428435 0.521313 0.576150
0.510875 0.509297 0.591593
0.598399 0.510359 0.592655
0.697597 0.525840 0.618050
0.796795 0.541322 0.633766
0.901516 0.524146 0.615707
0.102400 0.518285 0.514420
0.206235 0.540135 0.536202
0.312189 0.559864 0.555881
0.417937 0.579801 0.575699
0.511877 0.596436 0.592595
0.613618 0.611715 0.607875
0.712433 0.620697 0.616583
0.812598 0.628574 0.624400
0.915084 0.634160 0.629897
0.114850 0.613721 0.526059
0.218332 0.635924 0.546895
0.321875 0.658064 0.566961
0.444906 0.679484 0.581593
0.527295 0.695219 0.597586
0.638085 0.710146 0.622940
0.712816 0.701411 0.623356
0.812014 0.715587 0.638838
0.911212 0.730797 0.654320
0.151742 0.731060 0.539390
0.254712 0.746796 0.555255
0.357681 0.762532 0.571212
0.460651 0.778267 0.587371
0.542712 0.794003 0.603755
0.662176 0.808930 0.638357
0.748279 0.808930 0.638357
0.812014 0.791580 0.638838
0.911212 0.805144 0.654320
0.167487 0.829844 0.544844
0.270457 0.845580 0.560854
0.373426 0.861315 0.577021
0.476396 0.877051 0.593492
0.558129 0.892787 0.610189
0.686261 0.907714 0.653774
0.773343 0.907714 0.653774
0.856871 0.907714 0.653774
0.911212 0.881750 0.654320
0.135138 0.186243 0.626890
0.166377 0.135138 0.626890
0.250620 0.135138 0.626890
0.336855 0.135138 0.626890
0.425104 0.135138 0.626890
0.494741 0.135138 0.626890
0.590370 0.136422 0.634946
0.734145 0.152234 0.697640
0.833343 0.168045 0.714856
0.135138 0.266360 0.626890
0.237488 0.279091 0.642531
0.278441 0.237488 0.642531
0.363334 0.237488 0.642531
0.450662 0.237488 0.642531
0.519549 0.237488 0.642531
0.615023 0.238772 0.650587
0.749786 0.254584 0.704140
0.848984 0.270395 0.721149
0.135138 0.345109 0.626890
0.238108 0.359762 0.642626
0.340028 0.372263 0.658201
0.390679 0.340028 0.658201
0.476582 0.340028 0.658201
0.544490 0.340028 0.658201
0.639722 0.341312 0.666257
0.765455 0.357123 0.710600
0.864654 0.372934 0.727347
0.135138 0.422603 0.626890
0.238108 0.438086 0.642626
0.341077 0.453082 0.658361
0.442567 0.465434 0.673871
0.483381 0.442567 0.673871
0.569622 0.442567 0.673871
0.664423 0.443851 0.681927
0.781125 0.459662 0.716970
0.880323 0.475473 0.733383
0.135138 0.499148 0.626890
0.238108 0.515040 0.642626
0.341077 0.530808 0.658361
0.444047 0.527975 0.674097
0.524583 0.540246 0.689540
0.592841 0.524583 0.689540
0.686989 0.525840 0.697597
0.796795 0.541322 0.725465
0.895993 0.556804 0.741606
0.114171 0.529281 0.608517
0.217669 0.550223 0.630703
0.323138 0.569490 0.650918
0.444047 0.604970 0.674097
0.526454 0.620501 0.689832
0.626649 0.633054 0.705470
0.711885 0.627907 0.713526
0.812724 0.643389 0.731726
0.911923 0.658870 0.747421
0.114850 0.613721 0.609152
0.218332 0.635924 0.631283
0.321875 0.658064 0.653315
0.425821 0.679802 0.674880
0.514002 0.695078 0.690176
0.623616 0.710821 0.705954
0.728103 0.725850 0.721304
0.827193 0.734551 0.729652
0.928764 0.741092 0.736064
0.127309 0.709148 0.620853
0.229761 0.732380 0.642585
0.321443 0.766382 0.669764
0.432798 0.780711 0.684413
0.542712 0.794003 0.695288
0.645162 0.809992 0.711598
0.752636 0.824217 0.736304
0.827301 0.815459 0.736785
0.926499 0.829639 0.752267
0.139774 0.804569 0.632659
0.270457 0.845580 0.653124
0.373426 0.861315 0.668994
0.476396 0.877051 0.684960
0.558129 0.892787 0.700999
0.660579 0.908776 0.717798
0.776732 0.923000 0.751721
0.862781 0.923000 0.751721
0.926499 0.905628 0.752267
0.150750 0.210411 0.724837
0.173299 0.150750 0.724837
0.257123 0.150750 0.724837
0.342637 0.150750 0.724837
0.429876 0.150750 0.724837
0.498223 0.150750 0.724837
0.585134 0.150750 0.724837
0.682025 0.152234 0.734145
0.833343 0.168045 0.804461
0.150750 0.290643 0.724837
0.253100 0.303260 0.740478
0.285303 0.253100 0.740478
0.369584 0.253100 0.740478
0.455877 0.253100 0.740478
0.523367 0.253100 0.740478
0.609893 0.253100 0.740478
0.706678 0.254584 0.749786
0.848984 0.270395 0.810990
0.150750 0.369695 0.724837
0.253720 0.384091 0.740573
0.355639 0.396431 0.756148
0.397427 0.355639 0.756148
0.462392 0.355639 0.756148
0.548780 0.355639 0.756148
0.634745 0.355639 0.756148
0.731377 0.357123 0.765455
0.864654 0.372934 0.817497
0.150750 0.447602 0.724837
0.253720 0.462825 0.740573
0.356689 0.477491 0.756308
0.458179 0.489602 0.771818
0.489800 0.458179 0.771818
0.574605 0.458179 0.771818
0.659686 0.458179 0.771818
0.756077 0.459662 0.781125
0.880323 0.475473 0.823951
0.150750 0.524579 0.724837
0.253720 0.540296 0.740573
0.356689 0.537669 0.756308
0.459659 0.552090 0.772044
0.539870 0.564123 0.787488
0.598535 0.539870 0.787488
0.682521 0.539870 0.787488
0.778608 0.541322 0.796795
0.895993 0.556804 0.832595
0.126524 0.540945 0.703137
0.253720 0.598978 0.740573
0.356689 0.614519 0.756308
0.459659 0.629879 0.772044
0.541740 0.645030 0.787780
0.641936 0.656933 0.803417
0.708187 0.641936 0.803417
0.803495 0.643389 0.812724
0.911923 0.658870 0.839167
0.126524 0.624678 0.703137
0.229748 0.646039 0.725597
0.321082 0.674160 0.759946
0.432407 0.688811 0.774305
0.541740 0.719301 0.787780
0.644191 0.735046 0.803769
0.740720 0.746722 0.818834
0.827596 0.742172 0.828142
0.927340 0.757654 0.845209
0.127309 0.709148 0.703873
0.229761 0.732380 0.727016
0.321443 0.766382 0.760610
0.432798 0.780711 0.774958
0.521085 0.795527 0.789791
0.631510 0.810458 0.804756
0.738034 0.825311 0.819660
0.842587 0.839985 0.834733
0.942579 0.847858 0.842095
0.139774 0.804569 0.715624
0.214333 0.855694 0.756869
0.326085 0.869625 0.770898
0.437823 0.883571 0.784979
0.526054 0.898088 0.799572
0.660579 0.908776 0.809279
0.759778 0.924258 0.825084
0.867186 0.938287 0.849668
0.941786 0.929507 0.850214
0.166362 0.234579 0.822784
0.180256 0.166362 0.822784
0.263767 0.166362 0.822784
0.348745 0.166362 0.822784
0.435226 0.166362 0.822784
0.502515 0.166362 0.822784
0.588360 0.166362 0.822784
0.675557 0.166362 0.822784
0.773680 0.168045 0.833343
0.166362 0.314899 0.822784
0.268712 0.327428 0.838425
0.292221 0.268712 0.838425
0.376074 0.268712 0.838425
0.441582 0.268712 0.838425
0.528031 0.268712 0.838425
0.613372 0.268712 0.838425
0.700287 0.268712 0.838425
0.798333 0.270395 0.848984
0.166362 0.394185 0.822784
0.269331 0.408375 0.838520
0.371251 0.420599 0.854095
0.404282 0.371251 0.854095
0.468489 0.371251 0.854095
0.553915 0.371251 0.854095
0.638566 0.371251 0.854095
0.725090 0.371251 0.854095
0.823032 0.372934 0.864654
0.166362 0.472427 0.822784
0.269331 0.487416 0.838520
0.372301 0.501822 0.854256
0.473790 0.513770 0.869765
0.496359 0.473790 0.869765
0.580334 0.473790 0.869765
0.663984 0.473790 0.869765
0.749941 0.473790 0.869765
0.847732 0.475473 0.880323
0.166362 0.549782 0.822784
0.269331 0.547238 0.838520
0.372301 0.562009 0.854256
0.475271 0.576106 0.869991
0.555156 0.588000 0.885435
0.604741 0.555156 0.885435
0.687288 0.555156 0.885435
0.772610 0.555156 0.885435
0.870227 0.556804 0.895993
0.166362 0.608553 0.822784
0.269331 0.624037 0.838520
0.372301 0.639375 0.854256
0.475271 0.654429 0.869991
0.557027 0.669264 0.885727
0.657222 0.680810 0.901364
0.713902 0.657222 0.901364
0.797861 0.657222 0.901364
0.895113 0.658870 0.911923
0.138883 0.636376 0.797750
0.214091 0.669105 0.848225
0.372301 0.713276 0.854256
0.475271 0.728812 0.869991
0.557027 0.744283 0.885727
0.659478 0.759557 0.901716
0.756006 0.770601 0.916781
0.822695 0.756006 0.916781
0.919202 0.757654 0.927340
0.138883 0.720053 0.797750
0.214091 0.761984 0.848225
0.325831 0.776026 0.862170
0.437551 0.790123 0.876134
0.525797 0.804735 0.890661
0.659478 0.833854 0.901716
0.758676 0.849098 0.917198
0.854790 0.860390 0.932198
0.942757 0.856438 0.942206
0.139774 0.804569 0.798589
0.214333 0.855694 0.849050
0.326085 0.869625 0.862988
0.437823 0.883571 0.876943
0.526054 0.898088 0.891465
0.637140 0.912359 0.905752
0.744634 0.926243 0.919665
0.851948 0.940306 0.933788
0.957072 0.954119 0.948162
