docs/luts/fuji_recipes/Classic_RR_Kodak_Gold_200.cube
TITLE "Fujifilm Recipe: RR Kodak Gold 200 (Classic)"
# FilmSim=Classic HL=-2 SH=1 Col=3 WB=Daylight WBR=4 WBB=-5
LUT_3D_SIZE 33
DOMAIN_MIN 0.0 0.0 0.0
DOMAIN_MAX 1.0 1.0 1.0
0.000000 0.000000 0.000000
0.062248 0.000000 0.000000
0.106687 0.000000 0.000000
0.150384 0.000000 0.000000
0.194081 0.000000 0.000000
0.237779 0.000000 0.000000
0.281476 0.000000 0.000000
0.325173 0.000000 0.000000
0.368870 0.000000 0.000000
0.412568 0.000000 0.000000
0.456265 0.000000 0.000000
0.503419 0.000000 0.000000
0.546411 0.000000 0.000000
0.606917 0.000000 0.000000
0.646811 0.000000 0.000000
0.686704 0.000000 0.000000
0.726598 0.000000 0.000000
0.766491 0.000000 0.000000
0.806385 0.000000 0.000000
0.846278 0.000000 0.000000
0.886172 0.000000 0.000000
0.926065 0.000000 0.000000
0.940110 0.000000 0.000000
0.940110 0.000000 0.000000
0.940110 0.000000 0.000000
0.940110 0.000000 0.000000
0.940110 0.000000 0.000000
0.940110 0.000000 0.000000
0.940110 0.000000 0.000000
0.940110 0.000000 0.000000
0.940110 0.000000 0.000000
0.940110 0.000000 0.000000
0.940110 0.000000 0.000000
0.000000 0.056133 0.000000
0.062248 0.056133 0.000000
0.106687 0.056133 0.000000
0.150384 0.056133 0.000000
0.194081 0.056133 0.000000
0.237779 0.056133 0.000000
0.281476 0.056133 0.000000
0.325173 0.056133 0.000000
0.368870 0.056133 0.000000
0.412568 0.056133 0.000000
0.456265 0.056133 0.000000
0.503419 0.056133 0.000000
0.546411 0.056133 0.000000
0.606917 0.055541 0.000000
0.646811 0.055675 0.000000
0.686704 0.055793 0.000000
0.726598 0.055900 0.000000
0.766491 0.055995 0.000000
0.806385 0.056082 0.000000
0.846278 0.056160 0.000000
0.886172 0.056232 0.000000
0.926065 0.056297 0.000000
0.940110 0.056319 0.000000
0.940110 0.056319 0.000000
0.940110 0.056319 0.000000
0.940110 0.056319 0.000000
0.940110 0.056319 0.000000
0.940110 0.056319 0.000000
0.940110 0.056319 0.000000
0.940110 0.056319 0.000000
0.940110 0.056319 0.000000
0.940110 0.056319 0.000000
0.940110 0.056319 0.000000
0.000000 0.096364 0.000000
0.062248 0.096364 0.000000
0.106687 0.096364 0.000000
0.150384 0.096364 0.000000
0.194081 0.096364 0.000000
0.237779 0.096364 0.000000
0.281476 0.096364 0.000000
0.325173 0.096364 0.000000
0.368870 0.096364 0.000000
0.412568 0.096364 0.000000
0.456265 0.096364 0.000000
0.503419 0.096364 0.000000
0.546411 0.096364 0.000000
0.606917 0.095346 0.000000
0.646811 0.095576 0.000000
0.686704 0.095780 0.000000
0.726598 0.095962 0.000000
0.766491 0.096126 0.000000
0.806385 0.096274 0.000000
0.846278 0.096409 0.000000
0.886172 0.096532 0.000000
0.926065 0.096645 0.000000
0.940110 0.096682 0.000000
0.940110 0.096682 0.000000
0.940110 0.096682 0.000000
0.940110 0.096682 0.000000
0.940110 0.096682 0.000000
0.940110 0.096682 0.000000
0.940110 0.096682 0.000000
0.940110 0.096682 0.000000
0.940110 0.096682 0.000000
0.940110 0.096682 0.000000
0.940110 0.096682 0.000000
0.000000 0.135922 0.000000
0.062248 0.135922 0.000000
0.106687 0.135922 0.000000
0.150384 0.135922 0.000000
0.194081 0.135922 0.000000
0.237779 0.135922 0.000000
0.281476 0.135922 0.000000
0.325173 0.135922 0.000000
0.368870 0.135922 0.000000
0.412568 0.135922 0.000000
0.456265 0.135922 0.000000
0.503419 0.135922 0.000000
0.546411 0.135922 0.000000
0.606917 0.134487 0.000000
0.646811 0.134811 0.000000
0.686704 0.135099 0.000000
0.726598 0.135356 0.000000
0.766491 0.135588 0.000000
0.806385 0.135797 0.000000
0.846278 0.135987 0.000000
0.886172 0.136160 0.000000
0.926065 0.136319 0.000000
0.940110 0.136371 0.000000
0.940110 0.136371 0.000000
0.940110 0.136371 0.000000
0.940110 0.136371 0.000000
0.940110 0.136371 0.000000
0.940110 0.136371 0.000000
0.940110 0.136371 0.000000
0.940110 0.136371 0.000000
0.940110 0.136371 0.000000
0.940110 0.136371 0.000000
0.940110 0.136371 0.000000
0.000000 0.175481 0.000000
0.062248 0.175481 0.000000
0.106687 0.175481 0.000000
0.150384 0.175481 0.000000
0.194081 0.175481 0.000000
0.237779 0.175481 0.000000
0.281476 0.175481 0.000000
0.325173 0.175481 0.000000
0.368870 0.175481 0.000000
0.412568 0.175481 0.000000
0.456265 0.175481 0.000000
0.503419 0.175481 0.000000
0.546411 0.175481 0.000000
0.606917 0.173628 0.000000
0.646811 0.174047 0.000000
0.686704 0.174418 0.000000
0.726598 0.174750 0.000000
0.766491 0.175049 0.000000
0.806385 0.175319 0.000000
0.846278 0.175564 0.000000
0.886172 0.175788 0.000000
0.926065 0.175993 0.000000
0.940110 0.176061 0.000000
0.940110 0.176061 0.000000
0.940110 0.176061 0.000000
0.940110 0.176061 0.000000
0.940110 0.176061 0.000000
0.940110 0.176061 0.000000
0.940110 0.176061 0.000000
0.940110 0.176061 0.000000
0.940110 0.176061 0.000000
0.940110 0.176061 0.000000
0.940110 0.176061 0.000000
0.000000 0.215040 0.000000
0.062248 0.215040 0.000000
0.106687 0.215040 0.000000
0.150384 0.215040 0.000000
0.194081 0.215040 0.000000
0.237779 0.215040 0.000000
0.281476 0.215040 0.000000
0.325173 0.215040 0.000000
0.368870 0.215040 0.000000
0.412568 0.215040 0.000000
0.456265 0.215040 0.000000
0.503419 0.215040 0.000000
0.546411 0.215040 0.000000
0.606917 0.212769 0.000000
0.646811 0.213282 0.000000
0.686704 0.213737 0.000000
0.726598 0.214144 0.000000
0.766491 0.214510 0.000000
0.806385 0.214841 0.000000
0.846278 0.215142 0.000000
0.886172 0.215416 0.000000
0.926065 0.215667 0.000000
0.940110 0.215751 0.000000
0.940110 0.215751 0.000000
0.940110 0.215751 0.000000
0.940110 0.215751 0.000000
0.940110 0.215751 0.000000
0.940110 0.215751 0.000000
0.940110 0.215751 0.000000
0.940110 0.215751 0.000000
0.940110 0.215751 0.000000
0.940110 0.215751 0.000000
0.940110 0.215751 0.000000
0.000000 0.254599 0.000000
0.062248 0.254599 0.000000
0.106687 0.254599 0.000000
0.150384 0.254599 0.000000
0.194081 0.254599 0.000000
0.237779 0.254599 0.000000
0.281476 0.254599 0.000000
0.325173 0.254599 0.000000
0.368870 0.254599 0.000000
0.412568 0.254599 0.000000
0.456265 0.254599 0.000000
0.503419 0.254599 0.000000
0.546411 0.254599 0.000000
0.606917 0.251910 0.000000
0.646811 0.252517 0.000000
0.686704 0.253057 0.000000
0.726598 0.253538 0.000000
0.766491 0.253972 0.000000
0.806385 0.254363 0.000000
0.846278 0.254719 0.000000
0.886172 0.255044 0.000000
0.926065 0.255341 0.000000
0.940110 0.255440 0.000000
0.940110 0.255440 0.000000
0.940110 0.255440 0.000000
0.940110 0.255440 0.000000
0.940110 0.255440 0.000000
0.940110 0.255440 0.000000
0.940110 0.255440 0.000000
0.940110 0.255440 0.000000
0.940110 0.255440 0.000000
0.940110 0.255440 0.000000
0.940110 0.255440 0.000000
0.000000 0.294158 0.000000
0.062248 0.294158 0.000000
0.106687 0.294158 0.000000
0.150384 0.294158 0.000000
0.194081 0.294158 0.000000
0.237779 0.294158 0.000000
0.281476 0.294158 0.000000
0.325173 0.294158 0.000000
0.368870 0.294158 0.000000
0.412568 0.294158 0.000000
0.456265 0.294158 0.000000
0.503419 0.294158 0.000000
0.546411 0.294158 0.000000
0.606917 0.291051 0.000000
0.646811 0.291753 0.000000
0.686704 0.292376 0.000000
0.726598 0.292933 0.000000
0.766491 0.293433 0.000000
0.806385 0.293886 0.000000
0.846278 0.294297 0.000000
0.886172 0.294672 0.000000
0.926065 0.295015 0.000000
0.940110 0.295130 0.000000
0.940110 0.295130 0.000000
0.940110 0.295130 0.000000
0.940110 0.295130 0.000000
0.940110 0.295130 0.000000
0.940110 0.295130 0.000000
0.940110 0.295130 0.000000
0.940110 0.295130 0.000000
0.940110 0.295130 0.000000
0.940110 0.295130 0.000000
0.940110 0.295130 0.000000
0.000000 0.333717 0.000000
0.062248 0.333717 0.000000
0.106687 0.333717 0.000000
0.150384 0.333717 0.000000
0.194081 0.333717 0.000000
0.237779 0.333717 0.000000
0.281476 0.333717 0.000000
0.325173 0.333717 0.000000
0.368870 0.333717 0.000000
0.412568 0.333717 0.000000
0.456265 0.333717 0.000000
0.503419 0.333717 0.000000
0.546411 0.333717 0.000000
0.606917 0.330192 0.000000
0.646811 0.330988 0.000000
0.686704 0.331695 0.000000
0.726598 0.332327 0.000000
0.766491 0.332894 0.000000
0.806385 0.333408 0.000000
0.846278 0.333874 0.000000
0.886172 0.334300 0.000000
0.926065 0.334690 0.000000
0.940110 0.334819 0.000000
0.940110 0.334819 0.000000
0.940110 0.334819 0.000000
0.940110 0.334819 0.000000
0.940110 0.334819 0.000000
0.940110 0.334819 0.000000
0.940110 0.334819 0.000000
0.940110 0.334819 0.000000
0.940110 0.334819 0.000000
0.940110 0.334819 0.000000
0.940110 0.334819 0.000000
0.000000 0.373275 0.000000
0.062248 0.373275 0.000000
0.106687 0.373275 0.000000
0.150384 0.373275 0.000000
0.194081 0.373275 0.000000
0.237779 0.373275 0.000000
0.281476 0.373275 0.000000
0.325173 0.373275 0.000000
0.368870 0.373275 0.000000
0.412568 0.373275 0.000000
0.456265 0.373275 0.000000
0.503419 0.373275 0.000000
0.546411 0.373275 0.000000
0.606917 0.369333 0.000000
0.646811 0.370224 0.000000
0.686704 0.371014 0.000000
0.726598 0.371721 0.000000
0.766491 0.372356 0.000000
0.806385 0.372930 0.000000
0.846278 0.373452 0.000000
0.886172 0.373928 0.000000
0.926065 0.374364 0.000000
0.940110 0.374509 0.000000
0.940110 0.374509 0.000000
0.940110 0.374509 0.000000
0.940110 0.374509 0.000000
0.940110 0.374509 0.000000
0.940110 0.374509 0.000000
0.940110 0.374509 0.000000
0.940110 0.374509 0.000000
0.940110 0.374509 0.000000
0.940110 0.374509 0.000000
0.940110 0.374509 0.000000
0.000000 0.412834 0.000000
0.062248 0.412834 0.000000
0.106687 0.412834 0.000000
0.150384 0.412834 0.000000
0.194081 0.412834 0.000000
0.237779 0.412834 0.000000
0.281476 0.412834 0.000000
0.325173 0.412834 0.000000
0.368870 0.412834 0.000000
0.412568 0.412834 0.000000
0.456265 0.412834 0.000000
0.503419 0.412834 0.000000
0.546411 0.412834 0.000000
0.606917 0.408475 0.000000
0.646811 0.409459 0.000000
0.686704 0.410333 0.000000
0.726598 0.411115 0.000000
0.766491 0.411817 0.000000
0.806385 0.412452 0.000000
0.846278 0.413029 0.000000
0.886172 0.413556 0.000000
0.926065 0.414038 0.000000
0.940110 0.414198 0.000000
0.940110 0.414198 0.000000
0.940110 0.414198 0.000000
0.940110 0.414198 0.000000
0.940110 0.414198 0.000000
0.940110 0.414198 0.000000
0.940110 0.414198 0.000000
0.940110 0.414198 0.000000
0.940110 0.414198 0.000000
0.940110 0.414198 0.000000
0.940110 0.414198 0.000000
0.000000 0.452393 0.000000
0.062248 0.452393 0.000000
0.106687 0.452393 0.000000
0.150384 0.452393 0.000000
0.194081 0.452393 0.000000
0.237779 0.452393 0.000000
0.281476 0.452393 0.000000
0.325173 0.452393 0.000000
0.368870 0.452393 0.000000
0.412568 0.452393 0.000000
0.456265 0.452393 0.000000
0.503419 0.452393 0.000000
0.546411 0.452393 0.000000
0.606917 0.447616 0.000000
0.646811 0.448695 0.000000
0.686704 0.449653 0.000000
0.726598 0.450509 0.000000
0.766491 0.451279 0.000000
0.806385 0.451975 0.000000
0.846278 0.452607 0.000000
0.886172 0.453184 0.000000
0.926065 0.453712 0.000000
0.940110 0.453888 0.000000
0.940110 0.453888 0.000000
0.940110 0.453888 0.000000
0.940110 0.453888 0.000000
0.940110 0.453888 0.000000
0.940110 0.453888 0.000000
0.940110 0.453888 0.000000
0.940110 0.453888 0.000000
0.940110 0.453888 0.000000
0.940110 0.453888 0.000000
0.940110 0.453888 0.000000
0.000000 0.495537 0.000000
0.062248 0.495537 0.000000
0.106687 0.495537 0.000000
0.150384 0.495537 0.000000
0.194081 0.495537 0.000000
0.237779 0.495537 0.000000
0.281476 0.495537 0.000000
0.325173 0.495537 0.000000
0.368870 0.495537 0.000000
0.412568 0.495537 0.000000
0.456265 0.495537 0.000000
0.503419 0.495537 0.000000
0.546411 0.495537 0.000000
0.606917 0.490304 0.000000
0.646811 0.491486 0.000000
0.686704 0.492535 0.000000
0.726598 0.493473 0.000000
0.766491 0.494316 0.000000
0.806385 0.495079 0.000000
0.846278 0.495771 0.000000
0.886172 0.523626 0.000000
0.926065 0.523572 0.000000
0.940110 0.523541 0.000000
0.940110 0.523541 0.000000
0.940110 0.523541 0.000000
0.940110 0.523541 0.000000
0.940110 0.523541 0.000000
0.940110 0.523541 0.000000
0.940110 0.523541 0.000000
0.940110 0.523541 0.000000
0.940110 0.523541 0.000000
0.940110 0.523541 0.000000
0.940110 0.523541 0.000000
0.000000 0.534458 0.000000
0.062248 0.534458 0.000000
0.106687 0.534458 0.000000
0.150384 0.534458 0.000000
0.194081 0.534458 0.000000
0.237779 0.534458 0.000000
0.281476 0.534458 0.000000
0.325173 0.534458 0.000000
0.368870 0.534458 0.000000
0.412568 0.534458 0.000000
0.456265 0.534458 0.000000
0.503419 0.534458 0.000000
0.546411 0.534458 0.000000
0.606917 0.528814 0.000000
0.646811 0.530089 0.000000
0.686704 0.558301 0.000000
0.726598 0.558704 0.000000
0.766491 0.558998 0.000000
0.806385 0.559198 0.000000
0.846278 0.559317 0.000000
0.886172 0.559366 0.000000
0.926065 0.559354 0.000000
0.940110 0.559336 0.000000
0.940110 0.559336 0.000000
0.940110 0.559336 0.000000
0.940110 0.559336 0.000000
0.940110 0.559336 0.000000
0.940110 0.559336 0.000000
0.940110 0.559336 0.000000
0.940110 0.559336 0.000000
0.940110 0.559336 0.000000
0.940110 0.559336 0.000000
0.940110 0.559336 0.000000
0.000000 0.592048 0.000000
0.061530 0.592048 0.000000
0.105457 0.592048 0.000000
0.148650 0.592048 0.000000
0.191844 0.592048 0.000000
0.235037 0.592048 0.000000
0.278231 0.592048 0.000000
0.321424 0.592048 0.000000
0.364618 0.592048 0.000000
0.407812 0.592048 0.000000
0.451005 0.592048 0.000000
0.497615 0.592048 0.000000
0.540112 0.592048 0.000000
0.606917 0.592383 0.000000
0.646811 0.593154 0.000000
0.686704 0.593762 0.000000
0.726598 0.594233 0.000000
0.766491 0.594587 0.000000
0.806385 0.594842 0.000000
0.846278 0.595011 0.000000
0.886172 0.595106 0.000000
0.926065 0.595135 0.000000
0.940110 0.595132 0.000000
0.940110 0.595132 0.000000
0.940110 0.595132 0.000000
0.940110 0.595132 0.000000
0.940110 0.595132 0.000000
0.940110 0.595132 0.000000
0.940110 0.595132 0.000000
0.940110 0.595132 0.000000
0.940110 0.595132 0.000000
0.940110 0.595132 0.000000
0.940110 0.595132 0.000000
0.000000 0.628163 0.000000
0.061672 0.628163 0.000000
0.105699 0.628163 0.000000
0.148992 0.628163 0.000000
0.192285 0.628163 0.000000
0.235578 0.628163 0.000000
0.278871 0.628163 0.000000
0.322164 0.628163 0.000000
0.365457 0.628163 0.000000
0.408750 0.628163 0.000000
0.452043 0.628163 0.000000
0.498760 0.628163 0.000000
0.568324 0.628163 0.000000
0.607369 0.628163 0.000000
0.646811 0.628540 0.000000
0.686704 0.629223 0.000000
0.726598 0.629761 0.000000
0.766491 0.630177 0.000000
0.806385 0.630487 0.000000
0.846278 0.630706 0.000000
0.886172 0.630846 0.000000
0.926065 0.630917 0.000000
0.940110 0.630927 0.000000
0.940110 0.630927 0.000000
0.940110 0.630927 0.000000
0.940110 0.630927 0.000000
0.940110 0.630927 0.000000
0.940110 0.630927 0.000000
0.940110 0.630927 0.000000
0.940110 0.630927 0.000000
0.940110 0.630927 0.000000
0.940110 0.630927 0.000000
0.940110 0.630927 0.000000
0.000000 0.664278 0.000000
0.061798 0.664278 0.000000
0.105916 0.664278 0.000000
0.149298 0.664278 0.000000
0.192680 0.664278 0.000000
0.236062 0.664278 0.000000
0.279444 0.664278 0.000000
0.322826 0.664278 0.000000
0.366208 0.664278 0.000000
0.409590 0.664278 0.000000
0.452972 0.664278 0.000000
0.499785 0.664278 0.000000
0.568896 0.664278 0.000000
0.608022 0.664278 0.000000
0.647147 0.664278 0.000000
0.686704 0.664684 0.000000
0.726598 0.665290 0.000000
0.766491 0.665766 0.000000
0.806385 0.666131 0.000000
0.846278 0.666400 0.000000
0.886172 0.666585 0.000000
0.926065 0.666698 0.000000
0.940110 0.666722 0.000000
0.940110 0.666722 0.000000
0.940110 0.666722 0.000000
0.940110 0.666722 0.000000
0.940110 0.666722 0.000000
0.940110 0.666722 0.000000
0.940110 0.666722 0.000000
0.940110 0.666722 0.000000
0.940110 0.666722 0.000000
0.940110 0.666722 0.000000
0.940110 0.666722 0.000000
0.000000 0.700393 0.000000
0.061912 0.700393 0.000000
0.106112 0.700393 0.000000
0.149574 0.700393 0.000000
0.193036 0.700393 0.000000
0.236498 0.700393 0.000000
0.279960 0.700393 0.000000
0.323422 0.700393 0.000000
0.366884 0.700393 0.000000
0.410346 0.700393 0.000000
0.453808 0.700393 0.000000
0.500708 0.700393 0.000000
0.569350 0.700393 0.000000
0.608548 0.700393 0.000000
0.647746 0.700393 0.000000
0.686943 0.700393 0.000000
0.726598 0.700819 0.000000
0.766491 0.701356 0.000000
0.806385 0.701775 0.000000
0.846278 0.702094 0.000000
0.886172 0.702325 0.000000
0.926065 0.702479 0.000000
0.940110 0.702517 0.000000
0.940110 0.702517 0.000000
0.940110 0.702517 0.000000
0.940110 0.702517 0.000000
0.940110 0.702517 0.000000
0.940110 0.702517 0.000000
0.940110 0.702517 0.000000
0.940110 0.702517 0.000000
0.940110 0.702517 0.000000
0.940110 0.702517 0.000000
0.940110 0.702517 0.000000
0.000000 0.736509 0.000000
0.062016 0.736509 0.000000
0.106289 0.736509 0.000000
0.149824 0.736509 0.000000
0.193358 0.736509 0.000000
0.236893 0.736509 0.000000
0.280427 0.736509 0.000000
0.323962 0.736509 0.000000
0.367496 0.736509 0.000000
0.411031 0.736509 0.000000
0.454565 0.736509 0.000000
0.501543 0.736509 0.000000
0.569703 0.736509 0.000000
0.608965 0.736509 0.000000
0.648228 0.736509 0.000000
0.687491 0.736509 0.000000
0.726754 0.736509 0.000000
0.766491 0.736945 0.000000
0.806385 0.737420 0.000000
0.846278 0.737788 0.000000
0.886172 0.738065 0.000000
0.926065 0.738261 0.000000
0.940110 0.738313 0.000000
0.940110 0.738313 0.000000
0.940110 0.738313 0.000000
0.940110 0.738313 0.000000
0.940110 0.738313 0.000000
0.940110 0.738313 0.000000
0.940110 0.738313 0.000000
0.940110 0.738313 0.000000
0.940110 0.738313 0.000000
0.940110 0.738313 0.000000
0.940110 0.738313 0.000000
0.000000 0.772624 0.000000
0.062110 0.772624 0.000000
0.106450 0.772624 0.000000
0.150050 0.772624 0.000000
0.193651 0.772624 0.000000
0.237251 0.772624 0.000000
0.280852 0.772624 0.000000
0.324452 0.772624 0.000000
0.368053 0.772624 0.000000
0.411653 0.772624 0.000000
0.455254 0.772624 0.000000
0.502302 0.772624 0.000000
0.569967 0.772624 0.000000
0.609289 0.772624 0.000000
0.648612 0.772624 0.000000
0.687934 0.772624 0.000000
0.727257 0.772624 0.000000
0.766579 0.772624 0.000000
0.806385 0.773064 0.000000
0.846278 0.773483 0.000000
0.886172 0.773805 0.000000
0.926065 0.774042 0.000000
0.940110 0.774108 0.000000
0.940110 0.774108 0.000000
0.940110 0.774108 0.000000
0.940110 0.774108 0.000000
0.940110 0.774108 0.000000
0.940110 0.774108 0.000000
0.940110 0.774108 0.000000
0.940110 0.774108 0.000000
0.940110 0.774108 0.000000
0.940110 0.774108 0.000000
0.940110 0.774108 0.000000
0.000000 0.808739 0.000000
0.062195 0.808739 0.000000
0.106597 0.808739 0.000000
0.150258 0.808739 0.000000
0.193918 0.808739 0.000000
0.237579 0.808739 0.000000
0.281240 0.808739 0.000000
0.324900 0.808739 0.000000
0.368561 0.808739 0.000000
0.412222 0.808739 0.000000
0.455882 0.808739 0.000000
0.502996 0.808739 0.000000
0.570155 0.808739 0.000000
0.609531 0.808739 0.000000
0.648908 0.808739 0.000000
0.688285 0.808739 0.000000
0.727662 0.808739 0.000000
0.767039 0.808739 0.000000
0.806415 0.808739 0.000000
0.846278 0.809177 0.000000
0.886172 0.809544 0.000000
0.926065 0.809824 0.000000
0.940110 0.809903 0.000000
0.940110 0.809903 0.000000
0.940110 0.809903 0.000000
0.940110 0.809903 0.000000
0.940110 0.809903 0.000000
0.940110 0.809903 0.000000
0.940110 0.809903 0.000000
0.940110 0.809903 0.000000
0.940110 0.809903 0.000000
0.940110 0.809903 0.000000
0.940110 0.809903 0.000000
0.000000 0.844854 0.000000
0.062274 0.844854 0.000000
0.106732 0.844854 0.000000
0.150448 0.844854 0.000000
0.194164 0.844854 0.000000
0.237880 0.844854 0.000000
0.281595 0.844854 0.000000
0.325311 0.844854 0.000000
0.369027 0.844854 0.000000
0.412743 0.844854 0.000000
0.456459 0.844854 0.000000
0.530849 0.844854 0.000000
0.570276 0.844854 0.000000
0.609702 0.844854 0.000000
0.649129 0.844854 0.000000
0.688555 0.844854 0.000000
0.727982 0.844854 0.000000
0.767408 0.844854 0.000000
0.806835 0.844854 0.000000
0.846278 0.844871 0.000000
0.886172 0.845284 0.000000
0.926065 0.845605 0.000000
0.940110 0.845698 0.000000
0.940110 0.845698 0.000000
0.940110 0.845698 0.000000
0.940110 0.845698 0.000000
0.940110 0.845698 0.000000
0.940110 0.845698 0.000000
0.940110 0.845698 0.000000
0.940110 0.845698 0.000000
0.940110 0.845698 0.000000
0.940110 0.845698 0.000000
0.940110 0.845698 0.000000
0.000000 0.880970 0.000000
0.062347 0.880970 0.000000
0.106856 0.880970 0.000000
0.150623 0.880970 0.000000
0.194389 0.880970 0.000000
0.238156 0.880970 0.000000
0.281923 0.880970 0.000000
0.325689 0.880970 0.000000
0.369456 0.880970 0.000000
0.413223 0.880970 0.000000
0.456989 0.880970 0.000000
0.530865 0.880970 0.000000
0.570338 0.880970 0.000000
0.609810 0.880970 0.000000
0.649283 0.880970 0.000000
0.688755 0.880970 0.000000
0.728227 0.880970 0.000000
0.767700 0.880970 0.000000
0.807172 0.880970 0.000000
0.846644 0.880970 0.000000
0.886172 0.881024 0.000000
0.926065 0.881386 0.000000
0.940110 0.881494 0.000000
0.940110 0.881494 0.000000
0.940110 0.881494 0.000000
0.940110 0.881494 0.000000
0.940110 0.881494 0.000000
0.940110 0.881494 0.000000
0.940110 0.881494 0.000000
0.940110 0.881494 0.000000
0.940110 0.881494 0.000000
0.940110 0.881494 0.000000
0.940110 0.881494 0.000000
0.000000 0.917085 0.000000
0.062413 0.917085 0.000000
0.106970 0.917085 0.000000
0.150784 0.917085 0.000000
0.194598 0.917085 0.000000
0.238411 0.917085 0.000000
0.282225 0.917085 0.000000
0.326038 0.917085 0.000000
0.369852 0.917085 0.000000
0.413666 0.917085 0.000000
0.457479 0.917085 0.000000
0.530833 0.917085 0.000000
0.570348 0.917085 0.000000
0.609862 0.917085 0.000000
0.649377 0.917085 0.000000
0.688892 0.917085 0.000000
0.728406 0.917085 0.000000
0.767921 0.917085 0.000000
0.807436 0.917085 0.000000
0.846951 0.917085 0.000000
0.886465 0.917085 0.000000
0.926065 0.917168 0.000000
0.940110 0.917289 0.000000
0.940110 0.917289 0.000000
0.940110 0.917289 0.000000
0.940110 0.917289 0.000000
0.940110 0.917289 0.000000
0.940110 0.917289 0.000000
0.940110 0.917289 0.000000
0.940110 0.917289 0.000000
0.940110 0.917289 0.000000
0.940110 0.917289 0.000000
0.940110 0.917289 0.000000
0.000000 0.936277 0.000000
0.062447 0.936277 0.000000
0.107028 0.936277 0.000000
0.150865 0.936277 0.000000
0.194702 0.936277 0.000000
0.238539 0.936277 0.000000
0.282376 0.936277 0.000000
0.326213 0.936277 0.000000
0.370050 0.936277 0.000000
0.413888 0.936277 0.000000
0.457725 0.936277 0.000000
0.530798 0.936277 0.000000
0.570334 0.936277 0.000000
0.609870 0.936277 0.000000
0.649406 0.936277 0.000000
0.688941 0.936277 0.000000
0.728477 0.936277 0.000000
0.768013 0.936277 0.000000
0.807549 0.936277 0.000000
0.847085 0.936277 0.000000
0.886621 0.936277 0.000000
0.926157 0.936277 0.000000
0.940110 0.936311 0.000000
0.940110 0.936311 0.000000
0.940110 0.936311 0.000000
0.940110 0.936311 0.000000
0.940110 0.936311 0.000000
0.940110 0.936311 0.000000
0.940110 0.936311 0.000000
0.940110 0.936311 0.000000
0.940110 0.936311 0.000000
0.940110 0.936311 0.000000
0.940110 0.936311 0.000000
0.000000 0.936277 0.000000
0.062447 0.936277 0.000000
0.107028 0.936277 0.000000
0.150865 0.936277 0.000000
0.194702 0.936277 0.000000
0.238539 0.936277 0.000000
0.282376 0.936277 0.000000
0.326213 0.936277 0.000000
0.370050 0.936277 0.000000
0.413888 0.936277 0.000000
0.457725 0.936277 0.000000
0.530798 0.936277 0.000000
0.570334 0.936277 0.000000
0.609870 0.936277 0.000000
0.649406 0.936277 0.000000
0.688941 0.936277 0.000000
0.728477 0.936277 0.000000
0.768013 0.936277 0.000000
0.807549 0.936277 0.000000
0.847085 0.936277 0.000000
0.886621 0.936277 0.000000
0.926157 0.936277 0.000000
0.940110 0.936311 0.000000
0.940110 0.936311 0.000000
0.940110 0.936311 0.000000
0.940110 0.936311 0.000000
0.940110 0.936311 0.000000
0.940110 0.936311 0.000000
0.940110 0.936311 0.000000
0.940110 0.936311 0.000000
0.940110 0.936311 0.000000
0.940110 0.936311 0.000000
0.940110 0.936311 0.000000
0.000000 0.936277 0.000000
0.062447 0.936277 0.000000
0.107028 0.936277 0.000000
0.150865 0.936277 0.000000
0.194702 0.936277 0.000000
0.238539 0.936277 0.000000
0.282376 0.936277 0.000000
0.326213 0.936277 0.000000
0.370050 0.936277 0.000000
0.413888 0.936277 0.000000
0.457725 0.936277 0.000000
0.530798 0.936277 0.000000
0.570334 0.936277 0.000000
0.609870 0.936277 0.000000
0.649406 0.936277 0.000000
0.688941 0.936277 0.000000
0.728477 0.936277 0.000000
0.768013 0.936277 0.000000
0.807549 0.936277 0.000000
0.847085 0.936277 0.000000
0.886621 0.936277 0.000000
0.926157 0.936277 0.000000
0.940110 0.936311 0.000000
0.940110 0.936311 0.000000
