docs/luts/fuji_recipes/Classic_RR_Kodak_Portra_160.cube
TITLE "Fujifilm Recipe: RR Kodak Portra 160 (Classic)"
# FilmSim=Classic HL=-2 SH=-2 Col=1 WB=Daylight WBR=4 WBB=-5
LUT_3D_SIZE 33
DOMAIN_MIN 0.0 0.0 0.0
DOMAIN_MAX 1.0 1.0 1.0
0.080000 0.080000 0.080000
0.135520 0.084134 0.084134
0.175156 0.087085 0.087085
0.214131 0.089987 0.089987
0.253105 0.092889 0.092889
0.292080 0.095791 0.095791
0.331054 0.098694 0.098694
0.370029 0.101596 0.101596
0.409003 0.104498 0.104498
0.447978 0.107400 0.107400
0.486952 0.110302 0.110302
0.529009 0.113433 0.113433
0.567355 0.116289 0.116289
0.560746 0.122856 0.122856
0.597403 0.125850 0.125850
0.634060 0.128845 0.128845
0.670717 0.131840 0.131840
0.707374 0.134834 0.134834
0.744031 0.137829 0.137829
0.780688 0.140824 0.140824
0.817345 0.143819 0.143819
0.854002 0.146813 0.146813
0.866908 0.147868 0.147868
0.866908 0.147868 0.147868
0.866908 0.147868 0.147868
0.866908 0.147868 0.147868
0.866908 0.147868 0.147868
0.866908 0.147868 0.147868
0.866908 0.147868 0.147868
0.866908 0.147868 0.147868
0.866908 0.147868 0.147868
0.866908 0.147868 0.147868
0.866908 0.147868 0.147868
0.083728 0.130067 0.083728
0.135520 0.130473 0.084134
0.175156 0.133424 0.087085
0.214131 0.136326 0.089987
0.253105 0.139228 0.092889
0.292080 0.142130 0.095791
0.331054 0.145032 0.098694
0.370029 0.147934 0.101596
0.409003 0.150836 0.104498
0.447978 0.153738 0.107400
0.486952 0.156640 0.110302
0.529009 0.159772 0.113433
0.567355 0.162627 0.116289
0.560746 0.169194 0.122856
0.597403 0.172189 0.125850
0.634060 0.175184 0.128845
0.670717 0.178178 0.131840
0.707374 0.181173 0.134834
0.744031 0.184168 0.137829
0.780688 0.187162 0.140824
0.817345 0.190157 0.143819
0.854002 0.193152 0.146813
0.866908 0.194206 0.147868
0.866908 0.194206 0.147868
0.866908 0.194206 0.147868
0.866908 0.194206 0.147868
0.866908 0.194206 0.147868
0.866908 0.194206 0.147868
0.866908 0.194206 0.147868
0.866908 0.194206 0.147868
0.866908 0.194206 0.147868
0.866908 0.194206 0.147868
0.866908 0.194206 0.147868
0.086400 0.165949 0.086400
0.137786 0.165949 0.086400
0.175156 0.166634 0.087085
0.214131 0.169536 0.089987
0.253105 0.172438 0.092889
0.292080 0.175340 0.095791
0.331054 0.178242 0.098694
0.370029 0.181145 0.101596
0.409003 0.184047 0.104498
0.447978 0.186949 0.107400
0.486952 0.189851 0.110302
0.529009 0.192982 0.113433
0.567355 0.195837 0.116289
0.560746 0.202405 0.122856
0.597403 0.205399 0.125850
0.634060 0.208394 0.128845
0.670717 0.211389 0.131840
0.707374 0.214383 0.134834
0.744031 0.217378 0.137829
0.780688 0.220373 0.140824
0.817345 0.223367 0.143819
0.854002 0.226362 0.146813
0.866908 0.227417 0.147868
0.866908 0.227417 0.147868
0.866908 0.227417 0.147868
0.866908 0.227417 0.147868
0.866908 0.227417 0.147868
0.866908 0.227417 0.147868
0.866908 0.227417 0.147868
0.866908 0.227417 0.147868
0.866908 0.227417 0.147868
0.866908 0.227417 0.147868
0.866908 0.227417 0.147868
0.089027 0.201232 0.089027
0.140413 0.201232 0.089027
0.177098 0.201232 0.089027
0.214131 0.202192 0.089987
0.253105 0.205095 0.092889
0.292080 0.207997 0.095791
0.331054 0.210899 0.098694
0.370029 0.213801 0.101596
0.409003 0.216703 0.104498
0.447978 0.219605 0.107400
0.486952 0.222507 0.110302
0.529009 0.225638 0.113433
0.567355 0.228494 0.116289
0.560746 0.235061 0.122856
0.597403 0.238055 0.125850
0.634060 0.241050 0.128845
0.670717 0.244045 0.131840
0.707374 0.247040 0.134834
0.744031 0.250034 0.137829
0.780688 0.253029 0.140824
0.817345 0.256024 0.143819
0.854002 0.259018 0.146813
0.866908 0.260073 0.147868
0.866908 0.260073 0.147868
0.866908 0.260073 0.147868
0.866908 0.260073 0.147868
0.866908 0.260073 0.147868
0.866908 0.260073 0.147868
0.866908 0.260073 0.147868
0.866908 0.260073 0.147868
0.866908 0.260073 0.147868
0.866908 0.260073 0.147868
0.866908 0.260073 0.147868
0.091654 0.236515 0.091654
0.143040 0.236515 0.091654
0.179725 0.236515 0.091654
0.215797 0.236515 0.091654
0.253105 0.237751 0.092889
0.292080 0.240653 0.095791
0.331054 0.243555 0.098694
0.370029 0.246457 0.101596
0.409003 0.249359 0.104498
0.447978 0.252261 0.107400
0.486952 0.255163 0.110302
0.529009 0.258295 0.113433
0.567355 0.261150 0.116289
0.560746 0.267717 0.122856
0.597403 0.270712 0.125850
0.634060 0.273706 0.128845
0.670717 0.276701 0.131840
0.707374 0.279696 0.134834
0.744031 0.282690 0.137829
0.780688 0.285685 0.140824
0.817345 0.288680 0.143819
0.854002 0.291674 0.146813
0.866908 0.292729 0.147868
0.866908 0.292729 0.147868
0.866908 0.292729 0.147868
0.866908 0.292729 0.147868
0.866908 0.292729 0.147868
0.866908 0.292729 0.147868
0.866908 0.292729 0.147868
0.866908 0.292729 0.147868
0.866908 0.292729 0.147868
0.866908 0.292729 0.147868
0.866908 0.292729 0.147868
0.094281 0.271799 0.094281
0.145667 0.271799 0.094281
0.182352 0.271799 0.094281
0.218424 0.271799 0.094281
0.254497 0.271799 0.094281
0.292080 0.273309 0.095791
0.331054 0.276211 0.098694
0.370029 0.279113 0.101596
0.409003 0.282015 0.104498
0.447978 0.284917 0.107400
0.486952 0.287819 0.110302
0.529009 0.290951 0.113433
0.567355 0.293806 0.116289
0.560746 0.300373 0.122856
0.597403 0.303368 0.125850
0.634060 0.306362 0.128845
0.670717 0.309357 0.131840
0.707374 0.312352 0.134834
0.744031 0.315347 0.137829
0.780688 0.318341 0.140824
0.817345 0.321336 0.143819
0.854002 0.324331 0.146813
0.866908 0.325385 0.147868
0.866908 0.325385 0.147868
0.866908 0.325385 0.147868
0.866908 0.325385 0.147868
0.866908 0.325385 0.147868
0.866908 0.325385 0.147868
0.866908 0.325385 0.147868
0.866908 0.325385 0.147868
0.866908 0.325385 0.147868
0.866908 0.325385 0.147868
0.866908 0.325385 0.147868
0.096909 0.307082 0.096909
0.148295 0.307082 0.096909
0.184979 0.307082 0.096909
0.221052 0.307082 0.096909
0.257124 0.307082 0.096909
0.293197 0.307082 0.096909
0.331054 0.308867 0.098694
0.370029 0.311769 0.101596
0.409003 0.314671 0.104498
0.447978 0.317573 0.107400
0.486952 0.320475 0.110302
0.529009 0.323607 0.113433
0.567355 0.326462 0.116289
0.560746 0.333029 0.122856
0.597403 0.336024 0.125850
0.634060 0.339019 0.128845
0.670717 0.342013 0.131840
0.707374 0.345008 0.134834
0.744031 0.348003 0.137829
0.780688 0.350997 0.140824
0.817345 0.353992 0.143819
0.854002 0.356987 0.146813
0.866908 0.358041 0.147868
0.866908 0.358041 0.147868
0.866908 0.358041 0.147868
0.866908 0.358041 0.147868
0.866908 0.358041 0.147868
0.866908 0.358041 0.147868
0.866908 0.358041 0.147868
0.866908 0.358041 0.147868
0.866908 0.358041 0.147868
0.866908 0.358041 0.147868
0.866908 0.358041 0.147868
0.099536 0.342365 0.099536
0.150922 0.342365 0.099536
0.187606 0.342365 0.099536
0.223679 0.342365 0.099536
0.259751 0.342365 0.099536
0.295824 0.342365 0.099536
0.331896 0.342365 0.099536
0.370029 0.344425 0.101596
0.409003 0.347327 0.104498
0.447978 0.350229 0.107400
0.486952 0.353131 0.110302
0.529009 0.356263 0.113433
0.567355 0.359118 0.116289
0.560746 0.365685 0.122856
0.597403 0.368680 0.125850
0.634060 0.371675 0.128845
0.670717 0.374669 0.131840
0.707374 0.377664 0.134834
0.744031 0.380659 0.137829
0.780688 0.383653 0.140824
0.817345 0.386648 0.143819
0.854002 0.389643 0.146813
0.866908 0.390697 0.147868
0.866908 0.390697 0.147868
0.866908 0.390697 0.147868
0.866908 0.390697 0.147868
0.866908 0.390697 0.147868
0.866908 0.390697 0.147868
0.866908 0.390697 0.147868
0.866908 0.390697 0.147868
0.866908 0.390697 0.147868
0.866908 0.390697 0.147868
0.866908 0.390697 0.147868
0.102163 0.377649 0.102163
0.153549 0.377649 0.102163
0.190234 0.377649 0.102163
0.226306 0.377649 0.102163
0.262379 0.377649 0.102163
0.298451 0.377649 0.102163
0.334524 0.377649 0.102163
0.370596 0.377649 0.102163
0.409003 0.379983 0.104498
0.447978 0.382885 0.107400
0.486952 0.385788 0.110302
0.529009 0.388919 0.113433
0.567355 0.391774 0.116289
0.560746 0.398341 0.122856
0.597403 0.401336 0.125850
0.634060 0.404331 0.128845
0.670717 0.407326 0.131840
0.707374 0.410320 0.134834
0.744031 0.413315 0.137829
0.780688 0.416310 0.140824
0.817345 0.419304 0.143819
0.854002 0.422299 0.146813
0.866908 0.423353 0.147868
0.866908 0.423353 0.147868
0.866908 0.423353 0.147868
0.866908 0.423353 0.147868
0.866908 0.423353 0.147868
0.866908 0.423353 0.147868
0.866908 0.423353 0.147868
0.866908 0.423353 0.147868
0.866908 0.423353 0.147868
0.866908 0.423353 0.147868
0.866908 0.423353 0.147868
0.104790 0.412932 0.104790
0.156176 0.412932 0.104790
0.192861 0.412932 0.104790
0.228933 0.412932 0.104790
0.265006 0.412932 0.104790
0.301078 0.412932 0.104790
0.337151 0.412932 0.104790
0.373223 0.412932 0.104790
0.409296 0.412932 0.104790
0.447978 0.415542 0.107400
0.486952 0.418444 0.110302
0.529009 0.421575 0.113433
0.567355 0.424430 0.116289
0.560746 0.430998 0.122856
0.597403 0.433992 0.125850
0.634060 0.436987 0.128845
0.670717 0.439982 0.131840
0.707374 0.442976 0.134834
0.744031 0.445971 0.137829
0.780688 0.448966 0.140824
0.817345 0.451960 0.143819
0.854002 0.454955 0.146813
0.866908 0.456010 0.147868
0.866908 0.456010 0.147868
0.866908 0.456010 0.147868
0.866908 0.456010 0.147868
0.866908 0.456010 0.147868
0.866908 0.456010 0.147868
0.866908 0.456010 0.147868
0.866908 0.456010 0.147868
0.866908 0.456010 0.147868
0.866908 0.456010 0.147868
0.866908 0.456010 0.147868
0.107417 0.448215 0.107417
0.158803 0.448215 0.107417
0.195488 0.448215 0.107417
0.231560 0.448215 0.107417
0.267633 0.448215 0.107417
0.303705 0.448215 0.107417
0.339778 0.448215 0.107417
0.375850 0.448215 0.107417
0.411923 0.448215 0.107417
0.447995 0.448215 0.107417
0.486952 0.451100 0.110302
0.529009 0.454231 0.113433
0.567355 0.457087 0.116289
0.560746 0.463654 0.122856
0.597403 0.466648 0.125850
0.634060 0.469643 0.128845
0.670717 0.472638 0.131840
0.707374 0.475633 0.134834
0.744031 0.478627 0.137829
0.780688 0.481622 0.140824
0.817345 0.484617 0.143819
0.854002 0.487611 0.146813
0.866908 0.488666 0.147868
0.866908 0.488666 0.147868
0.866908 0.488666 0.147868
0.866908 0.488666 0.147868
0.866908 0.488666 0.147868
0.866908 0.488666 0.147868
0.866908 0.488666 0.147868
0.866908 0.488666 0.147868
0.866908 0.488666 0.147868
0.866908 0.488666 0.147868
0.866908 0.488666 0.147868
0.110045 0.483499 0.110045
0.161431 0.483499 0.110045
0.198115 0.483499 0.110045
0.234188 0.483499 0.110045
0.270260 0.483499 0.110045
0.306333 0.483499 0.110045
0.342405 0.483499 0.110045
0.378478 0.483499 0.110045
0.414550 0.483499 0.110045
0.450623 0.483499 0.110045
0.486952 0.483756 0.110302
0.529009 0.486888 0.113433
0.567355 0.489743 0.116289
0.560746 0.496310 0.122856
0.597403 0.499305 0.125850
0.634060 0.502299 0.128845
0.670717 0.505294 0.131840
0.707374 0.508289 0.134834
0.744031 0.511283 0.137829
0.780688 0.514278 0.140824
0.817345 0.517273 0.143819
0.854002 0.520267 0.146813
0.866908 0.521322 0.147868
0.866908 0.521322 0.147868
0.866908 0.521322 0.147868
0.866908 0.521322 0.147868
0.866908 0.521322 0.147868
0.866908 0.521322 0.147868
0.866908 0.521322 0.147868
0.866908 0.521322 0.147868
0.866908 0.521322 0.147868
0.866908 0.521322 0.147868
0.866908 0.521322 0.147868
0.112910 0.521980 0.112910
0.164296 0.521980 0.112910
0.200981 0.521980 0.112910
0.237053 0.521980 0.112910
0.273126 0.521980 0.112910
0.309198 0.521980 0.112910
0.345271 0.521980 0.112910
0.381343 0.521980 0.112910
0.417415 0.521980 0.112910
0.453488 0.521980 0.112910
0.489560 0.521980 0.112910
0.529009 0.522503 0.113433
0.567355 0.525359 0.116289
0.560746 0.531926 0.122856
0.597403 0.534920 0.125850
0.634060 0.537915 0.128845
0.670717 0.540910 0.131840
0.707374 0.543904 0.134834
0.744031 0.546899 0.137829
0.780688 0.549894 0.140824
0.817345 0.505593 0.143819
0.854002 0.508303 0.146813
0.866908 0.509256 0.147868
0.866908 0.509256 0.147868
0.866908 0.509256 0.147868
0.866908 0.509256 0.147868
0.866908 0.509256 0.147868
0.866908 0.509256 0.147868
0.866908 0.509256 0.147868
0.866908 0.509256 0.147868
0.866908 0.509256 0.147868
0.866908 0.509256 0.147868
0.866908 0.509256 0.147868
0.115495 0.556694 0.115495
0.166881 0.556694 0.115495
0.203565 0.556694 0.115495
0.239638 0.556694 0.115495
0.275710 0.556694 0.115495
0.311783 0.556694 0.115495
0.347855 0.556694 0.115495
0.383928 0.556694 0.115495
0.420000 0.556694 0.115495
0.456073 0.556694 0.115495
0.492145 0.556694 0.115495
0.531071 0.556694 0.115495
0.567355 0.557488 0.116289
0.560494 0.563803 0.122603
0.597403 0.567050 0.125850
0.634060 0.522779 0.128845
0.670717 0.525488 0.131840
0.707374 0.528198 0.134834
0.744031 0.530907 0.137829
0.780688 0.533616 0.140824
0.817345 0.536326 0.143819
0.854002 0.539035 0.146813
0.866908 0.539989 0.147868
0.866908 0.539989 0.147868
0.866908 0.539989 0.147868
0.866908 0.539989 0.147868
0.866908 0.539989 0.147868
0.866908 0.539989 0.147868
0.866908 0.539989 0.147868
0.866908 0.539989 0.147868
0.866908 0.539989 0.147868
0.866908 0.539989 0.147868
0.866908 0.539989 0.147868
0.121739 0.547083 0.121739
0.173125 0.547083 0.121739
0.209810 0.547083 0.121739
0.245883 0.547083 0.121739
0.281955 0.547083 0.121739
0.318028 0.547083 0.121739
0.354100 0.547083 0.121739
0.390173 0.547083 0.121739
0.426245 0.547083 0.121739
0.462318 0.547083 0.121739
0.498390 0.547083 0.121739
0.537316 0.547083 0.121739
0.570844 0.545121 0.119777
0.560746 0.548093 0.122856
0.597403 0.550802 0.125850
0.634060 0.553512 0.128845
0.670717 0.556221 0.131840
0.707374 0.558930 0.134834
0.744031 0.561640 0.137829
0.780688 0.564349 0.140824
0.817345 0.567058 0.143819
0.854002 0.569768 0.146813
0.866908 0.570721 0.147868
0.866908 0.570721 0.147868
0.866908 0.570721 0.147868
0.866908 0.570721 0.147868
0.866908 0.570721 0.147868
0.866908 0.570721 0.147868
0.866908 0.570721 0.147868
0.866908 0.570721 0.147868
0.866908 0.570721 0.147868
0.866908 0.570721 0.147868
0.866908 0.570721 0.147868
0.124450 0.580268 0.124450
0.175836 0.580268 0.124450
0.212521 0.580268 0.124450
0.248594 0.580268 0.124450
0.284666 0.580268 0.124450
0.320739 0.580268 0.124450
0.356811 0.580268 0.124450
0.392884 0.580268 0.124450
0.428956 0.580268 0.124450
0.465029 0.580268 0.124450
0.501101 0.580268 0.124450
0.540027 0.580268 0.124450
0.528242 0.580268 0.124450
0.562189 0.580268 0.124450
0.597403 0.581535 0.125850
0.634060 0.584244 0.128845
0.670717 0.586953 0.131840
0.707374 0.589663 0.134834
0.744031 0.592372 0.137829
0.780688 0.595081 0.140824
0.817345 0.597791 0.143819
0.854002 0.600500 0.146813
0.866908 0.601454 0.147868
0.866908 0.601454 0.147868
0.866908 0.601454 0.147868
0.866908 0.601454 0.147868
0.866908 0.601454 0.147868
0.866908 0.601454 0.147868
0.866908 0.601454 0.147868
0.866908 0.601454 0.147868
0.866908 0.601454 0.147868
0.866908 0.601454 0.147868
0.866908 0.601454 0.147868
0.127162 0.613453 0.127162
0.178548 0.613453 0.127162
0.215232 0.613453 0.127162
0.251305 0.613453 0.127162
0.287377 0.613453 0.127162
0.323450 0.613453 0.127162
0.359522 0.613453 0.127162
0.395595 0.613453 0.127162
0.431667 0.613453 0.127162
0.467740 0.613453 0.127162
0.503812 0.613453 0.127162
0.542738 0.613453 0.127162
0.530694 0.613453 0.127162
0.564642 0.613453 0.127162
0.598590 0.613453 0.127162
0.634060 0.614977 0.128845
0.670717 0.617686 0.131840
0.707374 0.620395 0.134834
0.744031 0.623105 0.137829
0.780688 0.625814 0.140824
0.817345 0.628523 0.143819
0.854002 0.631233 0.146813
0.866908 0.632186 0.147868
0.866908 0.632186 0.147868
0.866908 0.632186 0.147868
0.866908 0.632186 0.147868
0.866908 0.632186 0.147868
0.866908 0.632186 0.147868
0.866908 0.632186 0.147868
0.866908 0.632186 0.147868
0.866908 0.632186 0.147868
0.866908 0.632186 0.147868
0.866908 0.632186 0.147868
0.129873 0.646639 0.129873
0.181259 0.646639 0.129873
0.217943 0.646639 0.129873
0.254016 0.646639 0.129873
0.290088 0.646639 0.129873
0.326161 0.646639 0.129873
0.362233 0.646639 0.129873
0.398306 0.646639 0.129873
0.434378 0.646639 0.129873
0.470451 0.646639 0.129873
0.506523 0.646639 0.129873
0.545449 0.646639 0.129873
0.533147 0.646639 0.129873
0.567095 0.646639 0.129873
0.601042 0.646639 0.129873
0.634990 0.646639 0.129873
0.670717 0.648418 0.131840
0.707374 0.651128 0.134834
0.744031 0.653837 0.137829
0.780688 0.656546 0.140824
0.817345 0.659256 0.143819
0.854002 0.661965 0.146813
0.866908 0.662919 0.147868
0.866908 0.662919 0.147868
0.866908 0.662919 0.147868
0.866908 0.662919 0.147868
0.866908 0.662919 0.147868
0.866908 0.662919 0.147868
0.866908 0.662919 0.147868
0.866908 0.662919 0.147868
0.866908 0.662919 0.147868
0.866908 0.662919 0.147868
0.866908 0.662919 0.147868
0.132584 0.679824 0.132584
0.183970 0.679824 0.132584
0.220654 0.679824 0.132584
0.256727 0.679824 0.132584
0.292799 0.679824 0.132584
0.328872 0.679824 0.132584
0.364944 0.679824 0.132584
0.401017 0.679824 0.132584
0.437089 0.679824 0.132584
0.473162 0.679824 0.132584
0.509234 0.679824 0.132584
0.548160 0.679824 0.132584
0.535600 0.679824 0.132584
0.569547 0.679824 0.132584
0.603495 0.679824 0.132584
0.637443 0.679824 0.132584
0.671390 0.679824 0.132584
0.707374 0.681860 0.134834
0.744031 0.684570 0.137829
0.780688 0.687279 0.140824
0.817345 0.689988 0.143819
0.854002 0.692698 0.146813
0.866908 0.693651 0.147868
0.866908 0.693651 0.147868
0.866908 0.693651 0.147868
0.866908 0.693651 0.147868
0.866908 0.693651 0.147868
0.866908 0.693651 0.147868
0.866908 0.693651 0.147868
0.866908 0.693651 0.147868
0.866908 0.693651 0.147868
0.866908 0.693651 0.147868
0.866908 0.693651 0.147868
0.135295 0.713009 0.135295
0.186681 0.713009 0.135295
0.223365 0.713009 0.135295
0.259438 0.713009 0.135295
0.295510 0.713009 0.135295
0.331583 0.713009 0.135295
0.367655 0.713009 0.135295
0.403728 0.713009 0.135295
0.439800 0.713009 0.135295
0.475873 0.713009 0.135295
0.511945 0.713009 0.135295
0.550871 0.713009 0.135295
0.538053 0.713009 0.135295
0.572000 0.713009 0.135295
0.605948 0.713009 0.135295
0.639895 0.713009 0.135295
0.673843 0.713009 0.135295
0.707791 0.713009 0.135295
0.744031 0.715302 0.137829
0.780688 0.718011 0.140824
0.817345 0.720721 0.143819
0.854002 0.723430 0.146813
0.866908 0.724384 0.147868
0.866908 0.724384 0.147868
0.866908 0.724384 0.147868
0.866908 0.724384 0.147868
0.866908 0.724384 0.147868
0.866908 0.724384 0.147868
0.866908 0.724384 0.147868
0.866908 0.724384 0.147868
0.866908 0.724384 0.147868
0.866908 0.724384 0.147868
0.866908 0.724384 0.147868
0.138006 0.746194 0.138006
0.189392 0.746194 0.138006
0.226077 0.746194 0.138006
0.262149 0.746194 0.138006
0.298222 0.746194 0.138006
0.334294 0.746194 0.138006
0.370367 0.746194 0.138006
0.406439 0.746194 0.138006
0.442512 0.746194 0.138006
0.478584 0.746194 0.138006
0.514657 0.746194 0.138006
0.553582 0.746194 0.138006
0.540505 0.746194 0.138006
0.574453 0.746194 0.138006
0.608401 0.746194 0.138006
0.642348 0.746194 0.138006
0.676296 0.746194 0.138006
0.710243 0.746194 0.138006
0.744191 0.746194 0.138006
0.780688 0.748744 0.140824
0.817345 0.751453 0.143819
0.854002 0.754163 0.146813
0.866908 0.755116 0.147868
0.866908 0.755116 0.147868
0.866908 0.755116 0.147868
0.866908 0.755116 0.147868
0.866908 0.755116 0.147868
0.866908 0.755116 0.147868
0.866908 0.755116 0.147868
0.866908 0.755116 0.147868
0.866908 0.755116 0.147868
0.866908 0.755116 0.147868
0.866908 0.755116 0.147868
0.140717 0.779380 0.140717
0.192103 0.779380 0.140717
0.228788 0.779380 0.140717
0.264860 0.779380 0.140717
0.300933 0.779380 0.140717
0.337005 0.779380 0.140717
0.373078 0.779380 0.140717
0.409150 0.779380 0.140717
0.445223 0.779380 0.140717
0.481295 0.779380 0.140717
0.517368 0.779380 0.140717
0.509010 0.779380 0.140717
0.542958 0.779380 0.140717
0.576906 0.779380 0.140717
0.610853 0.779380 0.140717
0.644801 0.779380 0.140717
0.678748 0.779380 0.140717
0.712696 0.779380 0.140717
0.746644 0.779380 0.140717
0.780688 0.779476 0.140824
0.817345 0.782186 0.143819
0.854002 0.784895 0.146813
0.866908 0.785849 0.147868
0.866908 0.785849 0.147868
0.866908 0.785849 0.147868
0.866908 0.785849 0.147868
0.866908 0.785849 0.147868
0.866908 0.785849 0.147868
0.866908 0.785849 0.147868
0.866908 0.785849 0.147868
0.866908 0.785849 0.147868
0.866908 0.785849 0.147868
0.866908 0.785849 0.147868
0.143428 0.812565 0.143428
0.194814 0.812565 0.143428
0.231499 0.812565 0.143428
0.267571 0.812565 0.143428
0.303644 0.812565 0.143428
0.339716 0.812565 0.143428
0.375789 0.812565 0.143428
0.411861 0.812565 0.143428
0.447934 0.812565 0.143428
0.484006 0.812565 0.143428
0.520079 0.812565 0.143428
0.511463 0.812565 0.143428
0.545411 0.812565 0.143428
0.579358 0.812565 0.143428
0.613306 0.812565 0.143428
0.647254 0.812565 0.143428
0.681201 0.812565 0.143428
0.715149 0.812565 0.143428
0.749096 0.812565 0.143428
0.783044 0.812565 0.143428
0.817345 0.812918 0.143819
0.854002 0.815628 0.146813
0.866908 0.816581 0.147868
0.866908 0.816581 0.147868
0.866908 0.816581 0.147868
0.866908 0.816581 0.147868
0.866908 0.816581 0.147868
0.866908 0.816581 0.147868
0.866908 0.816581 0.147868
0.866908 0.816581 0.147868
0.866908 0.816581 0.147868
0.866908 0.816581 0.147868
0.866908 0.816581 0.147868
0.146139 0.845750 0.146139
0.197525 0.845750 0.146139
0.234210 0.845750 0.146139
0.270282 0.845750 0.146139
0.306355 0.845750 0.146139
0.342427 0.845750 0.146139
0.378500 0.845750 0.146139
0.414572 0.845750 0.146139
0.450645 0.845750 0.146139
0.486717 0.845750 0.146139
0.522790 0.845750 0.146139
0.513916 0.845750 0.146139
0.547864 0.845750 0.146139
0.581811 0.845750 0.146139
0.615759 0.845750 0.146139
0.649706 0.845750 0.146139
0.683654 0.845750 0.146139
0.717602 0.845750 0.146139
0.751549 0.845750 0.146139
0.785497 0.845750 0.146139
0.819444 0.845750 0.146139
0.854002 0.846360 0.146813
0.866908 0.847314 0.147868
0.866908 0.847314 0.147868
0.866908 0.847314 0.147868
0.866908 0.847314 0.147868
0.866908 0.847314 0.147868
0.866908 0.847314 0.147868
0.866908 0.847314 0.147868
0.866908 0.847314 0.147868
0.866908 0.847314 0.147868
0.866908 0.847314 0.147868
0.866908 0.847314 0.147868
0.147580 0.863386 0.147580
0.198966 0.863386 0.147580
0.235650 0.863386 0.147580
0.271723 0.863386 0.147580
0.307795 0.863386 0.147580
0.343868 0.863386 0.147580
0.379940 0.863386 0.147580
0.416013 0.863386 0.147580
0.452085 0.863386 0.147580
0.488158 0.863386 0.147580
0.524230 0.863386 0.147580
0.515219 0.863386 0.147580
0.549167 0.863386 0.147580
0.583115 0.863386 0.147580
0.617062 0.863386 0.147580
0.651010 0.863386 0.147580
0.684957 0.863386 0.147580
0.718905 0.863386 0.147580
0.752853 0.863386 0.147580
0.786800 0.863386 0.147580
0.820748 0.863386 0.147580
0.854695 0.863386 0.147580
0.866908 0.863646 0.147868
0.866908 0.863646 0.147868
0.866908 0.863646 0.147868
0.866908 0.863646 0.147868
0.866908 0.863646 0.147868
0.866908 0.863646 0.147868
0.866908 0.863646 0.147868
0.866908 0.863646 0.147868
0.866908 0.863646 0.147868
0.866908 0.863646 0.147868
0.866908 0.863646 0.147868
0.147580 0.863386 0.147580
0.198966 0.863386 0.147580
0.235650 0.863386 0.147580
0.271723 0.863386 0.147580
0.307795 0.863386 0.147580
0.343868 0.863386 0.147580
0.379940 0.863386 0.147580
0.416013 0.863386 0.147580
0.452085 0.863386 0.147580
0.488158 0.863386 0.147580
0.524230 0.863386 0.147580
0.515219 0.863386 0.147580
0.549167 0.863386 0.147580
0.583115 0.863386 0.147580
0.617062 0.863386 0.147580
0.651010 0.863386 0.147580
0.684957 0.863386 0.147580
0.718905 0.863386 0.147580
0.752853 0.863386 0.147580
0.786800 0.863386 0.147580
0.820748 0.863386 0.147580
0.854695 0.863386 0.147580
0.866908 0.863646 0.147868
0.866908 0.863646 0.147868
0.866908 0.863646 0.147868
0.866908 0.863646 0.147868
0.866908 0.863646 0.147868
0.866908 0.863646 0.147868
0.866908 0.863646 0.147868
0.866908 0.863646 0.147868
0.866908 0.863646 0.147868
0.866908 0.863646 0.147868
0.866908 0.863646 0.147868
0.147580 0.863386 0.147580
0.198966 0.863386 0.147580
0.235650 0.863386 0.147580
0.271723 0.863386 0.147580
0.307795 0.863386 0.147580
0.343868 0.863386 0.147580
0.379940 0.863386 0.147580
0.416013 0.863386 0.147580
0.452085 0.863386 0.147580
0.488158 0.863386 0.147580
0.524230 0.863386 0.147580
0.515219 0.863386 0.147580
0.549167 0.863386 0.147580
0.583115 0.863386 0.147580
0.617062 0.863386 0.147580
0.651010 0.863386 0.147580
0.684957 0.863386 0.147580
0.718905 0.863386 0.147580
0.752853 0.863386 0.147580
0.786800 0.863386 0.147580
0.820748 0.863386 0.147580
0.854695 0.863386 0.147580
0.866908 0.863646 0.147868
0.866908 0.863646 0.147868
