docs/luts/fuji_recipes/Classic_RR_Kodacolor_II_160.cube
TITLE "Fujifilm Recipe: RR Kodacolor II 160 (Classic)"
# FilmSim=Classic HL=-1 SH=3 Col=-4 WB=6300K WBR=6 WBB=3
LUT_3D_SIZE 33
DOMAIN_MIN 0.0 0.0 0.0
DOMAIN_MAX 1.0 1.0 1.0
0.000000 0.000000 0.000000
0.031031 0.019470 0.019470
0.054703 0.034322 0.034322
0.077980 0.048927 0.048927
0.101256 0.063532 0.063532
0.124533 0.078136 0.078136
0.147810 0.092741 0.092741
0.171087 0.107346 0.107346
0.194363 0.121950 0.121950
0.217640 0.136555 0.136555
0.240917 0.151160 0.151160
0.266209 0.167029 0.167029
0.289110 0.181398 0.181398
0.350284 0.215723 0.215723
0.374613 0.230836 0.230836
0.398941 0.245949 0.245949
0.423269 0.261062 0.261062
0.447597 0.276175 0.276175
0.471925 0.291288 0.291288
0.496253 0.306401 0.306401
0.520581 0.321514 0.321514
0.544909 0.336626 0.336626
0.567797 0.350845 0.350845
0.567797 0.350845 0.350845
0.567797 0.350845 0.350845
0.567797 0.350845 0.350845
0.567797 0.350845 0.350845
0.567797 0.350845 0.350845
0.567797 0.350845 0.350845
0.567797 0.350845 0.350845
0.567797 0.350845 0.350845
0.567797 0.350845 0.350845
0.567797 0.350845 0.350845
0.015817 0.025209 0.015817
0.031031 0.028862 0.019470
0.054703 0.043714 0.034322
0.077980 0.058319 0.048927
0.101256 0.072924 0.063532
0.124533 0.087528 0.078136
0.147810 0.102133 0.092741
0.171087 0.116738 0.107346
0.194363 0.131342 0.121950
0.217640 0.145947 0.136555
0.240917 0.160552 0.151160
0.266209 0.176421 0.167029
0.289110 0.190790 0.181398
0.350284 0.225103 0.215723
0.374613 0.240216 0.230836
0.398941 0.255329 0.245949
0.423269 0.270443 0.261062
0.447597 0.285556 0.276175
0.471925 0.300669 0.291288
0.496253 0.315782 0.306401
0.520581 0.330895 0.321514
0.544909 0.346008 0.336626
0.567797 0.360227 0.350845
0.567797 0.360227 0.350845
0.567797 0.360227 0.350845
0.567797 0.360227 0.350845
0.567797 0.360227 0.350845
0.567797 0.360227 0.350845
0.567797 0.360227 0.350845
0.567797 0.360227 0.350845
0.567797 0.360227 0.350845
0.567797 0.360227 0.350845
0.567797 0.360227 0.350845
0.028320 0.045135 0.028320
0.039881 0.045135 0.028320
0.054703 0.051138 0.034322
0.077980 0.065743 0.048927
0.101256 0.080348 0.063532
0.124533 0.094952 0.078136
0.147810 0.109557 0.092741
0.171087 0.124162 0.107346
0.194363 0.138766 0.121950
0.217640 0.153371 0.136555
0.240917 0.167975 0.151160
0.266209 0.183845 0.167029
0.289110 0.198214 0.181398
0.350284 0.232517 0.215723
0.374613 0.247631 0.230836
0.398941 0.262744 0.245949
0.423269 0.277858 0.261062
0.447597 0.292971 0.276175
0.471925 0.308084 0.291288
0.496253 0.323198 0.306401
0.520581 0.338311 0.321514
0.544909 0.353424 0.336626
0.567797 0.367643 0.350845
0.567797 0.367643 0.350845
0.567797 0.367643 0.350845
0.567797 0.367643 0.350845
0.567797 0.367643 0.350845
0.567797 0.367643 0.350845
0.567797 0.367643 0.350845
0.567797 0.367643 0.350845
0.567797 0.367643 0.350845
0.567797 0.367643 0.350845
0.567797 0.367643 0.350845
0.040613 0.064729 0.040613
0.052174 0.064729 0.040613
0.060994 0.064729 0.040613
0.077980 0.073043 0.048927
0.101256 0.087648 0.063532
0.124533 0.102252 0.078136
0.147810 0.116857 0.092741
0.171087 0.131462 0.107346
0.194363 0.146066 0.121950
0.217640 0.160671 0.136555
0.240917 0.175275 0.151160
0.266209 0.191145 0.167029
0.289110 0.205514 0.181398
0.350284 0.239808 0.215723
0.374613 0.254921 0.230836
0.398941 0.270035 0.245949
0.423269 0.285149 0.261062
0.447597 0.300262 0.276175
0.471925 0.315376 0.291288
0.496253 0.330489 0.306401
0.520581 0.345603 0.321514
0.544909 0.360716 0.336626
0.567797 0.374935 0.350845
0.567797 0.374935 0.350845
0.567797 0.374935 0.350845
0.567797 0.374935 0.350845
0.567797 0.374935 0.350845
0.567797 0.374935 0.350845
0.567797 0.374935 0.350845
0.567797 0.374935 0.350845
0.567797 0.374935 0.350845
0.567797 0.374935 0.350845
0.567797 0.374935 0.350845
0.052907 0.084323 0.052907
0.064468 0.084323 0.052907
0.073288 0.084323 0.052907
0.081960 0.084323 0.052907
0.101256 0.094948 0.063532
0.124533 0.109552 0.078136
0.147810 0.124157 0.092741
0.171087 0.138762 0.107346
0.194363 0.153366 0.121950
0.217640 0.167971 0.136555
0.240917 0.182575 0.151160
0.266209 0.198445 0.167029
0.289110 0.212814 0.181398
0.350284 0.247098 0.215723
0.374613 0.262212 0.230836
0.398941 0.277326 0.245949
0.423269 0.292440 0.261062
0.447597 0.307554 0.276175
0.471925 0.322668 0.291288
0.496253 0.337781 0.306401
0.520581 0.352895 0.321514
0.544909 0.368008 0.336626
0.567797 0.382227 0.350845
0.567797 0.382227 0.350845
0.567797 0.382227 0.350845
0.567797 0.382227 0.350845
0.567797 0.382227 0.350845
0.567797 0.382227 0.350845
0.567797 0.382227 0.350845
0.567797 0.382227 0.350845
0.567797 0.382227 0.350845
0.567797 0.382227 0.350845
0.567797 0.382227 0.350845
0.065201 0.103917 0.065201
0.076762 0.103917 0.065201
0.085581 0.103917 0.065201
0.094254 0.103917 0.065201
0.102926 0.103917 0.065201
0.124533 0.116852 0.078136
0.147810 0.131457 0.092741
0.171087 0.146061 0.107346
0.194363 0.160666 0.121950
0.217640 0.175271 0.136555
0.240917 0.189875 0.151160
0.266209 0.205745 0.167029
0.289110 0.220114 0.181398
0.350284 0.254389 0.215723
0.374613 0.269503 0.230836
0.398941 0.284617 0.245949
0.423269 0.299731 0.261062
0.447597 0.314845 0.276175
0.471925 0.329959 0.291288
0.496253 0.345073 0.306401
0.520581 0.360187 0.321514
0.544909 0.375300 0.336626
0.567797 0.389519 0.350845
0.567797 0.389519 0.350845
0.567797 0.389519 0.350845
0.567797 0.389519 0.350845
0.567797 0.389519 0.350845
0.567797 0.389519 0.350845
0.567797 0.389519 0.350845
0.567797 0.389519 0.350845
0.567797 0.389519 0.350845
0.567797 0.389519 0.350845
0.567797 0.389519 0.350845
0.077495 0.123511 0.077495
0.089056 0.123511 0.077495
0.097875 0.123511 0.077495
0.106547 0.123511 0.077495
0.115219 0.123511 0.077495
0.124533 0.124152 0.078136
0.147810 0.138757 0.092741
0.171087 0.153361 0.107346
0.194363 0.167966 0.121950
0.217640 0.182571 0.136555
0.240917 0.197175 0.151160
0.266209 0.213045 0.167029
0.289110 0.227414 0.181398
0.350284 0.261679 0.215723
0.374613 0.276794 0.230836
0.398941 0.291908 0.245949
0.423269 0.307023 0.261062
0.447597 0.322137 0.276175
0.471925 0.337251 0.291288
0.496253 0.352365 0.306401
0.520581 0.367479 0.321514
0.544909 0.382592 0.336626
0.567797 0.396811 0.350845
0.567797 0.396811 0.350845
0.567797 0.396811 0.350845
0.567797 0.396811 0.350845
0.567797 0.396811 0.350845
0.567797 0.396811 0.350845
0.567797 0.396811 0.350845
0.567797 0.396811 0.350845
0.567797 0.396811 0.350845
0.567797 0.396811 0.350845
0.567797 0.396811 0.350845
0.089789 0.143105 0.089789
0.101350 0.143105 0.089789
0.110169 0.143105 0.089789
0.118841 0.143105 0.089789
0.127513 0.143105 0.089789
0.136185 0.143105 0.089789
0.147810 0.146057 0.092741
0.171087 0.160661 0.107346
0.194363 0.175266 0.121950
0.217640 0.189871 0.136555
0.240917 0.204475 0.151160
0.266209 0.220345 0.167029
0.289110 0.234714 0.181398
0.350284 0.268970 0.215723
0.374613 0.284085 0.230836
0.398941 0.299199 0.245949
0.423269 0.314314 0.261062
0.447597 0.329428 0.276175
0.471925 0.344542 0.291288
0.496253 0.359657 0.306401
0.520581 0.374771 0.321514
0.544909 0.389884 0.336626
0.567797 0.404103 0.350845
0.567797 0.404103 0.350845
0.567797 0.404103 0.350845
0.567797 0.404103 0.350845
0.567797 0.404103 0.350845
0.567797 0.404103 0.350845
0.567797 0.404103 0.350845
0.567797 0.404103 0.350845
0.567797 0.404103 0.350845
0.567797 0.404103 0.350845
0.567797 0.404103 0.350845
0.102083 0.162698 0.102083
0.113644 0.162698 0.102083
0.122463 0.162698 0.102083
0.131135 0.162698 0.102083
0.139807 0.162698 0.102083
0.148479 0.162698 0.102083
0.157151 0.162698 0.102083
0.171087 0.167961 0.107346
0.194363 0.182566 0.121950
0.217640 0.197171 0.136555
0.240917 0.211775 0.151160
0.266209 0.227645 0.167029
0.289110 0.242014 0.181398
0.350284 0.276260 0.215723
0.374613 0.291375 0.230836
0.398941 0.306490 0.245949
0.423269 0.321605 0.261062
0.447597 0.336720 0.276175
0.471925 0.351834 0.291288
0.496253 0.366948 0.306401
0.520581 0.382062 0.321514
0.544909 0.397176 0.336626
0.567797 0.411396 0.350845
0.567797 0.411396 0.350845
0.567797 0.411396 0.350845
0.567797 0.411396 0.350845
0.567797 0.411396 0.350845
0.567797 0.411396 0.350845
0.567797 0.411396 0.350845
0.567797 0.411396 0.350845
0.567797 0.411396 0.350845
0.567797 0.411396 0.350845
0.567797 0.411396 0.350845
0.114376 0.182292 0.114376
0.125937 0.182292 0.114376
0.134757 0.182292 0.114376
0.143429 0.182292 0.114376
0.152101 0.182292 0.114376
0.160773 0.182292 0.114376
0.169445 0.182292 0.114376
0.178117 0.182292 0.114376
0.194363 0.189866 0.121950
0.217640 0.204471 0.136555
0.240917 0.219075 0.151160
0.266209 0.234944 0.167029
0.289110 0.249314 0.181398
0.350284 0.283550 0.215723
0.374613 0.298666 0.230836
0.398941 0.313781 0.245949
0.423269 0.328896 0.261062
0.447597 0.344011 0.276175
0.471925 0.359126 0.291288
0.496253 0.374240 0.306401
0.520581 0.389354 0.321514
0.544909 0.404469 0.336626
0.567797 0.418688 0.350845
0.567797 0.418688 0.350845
0.567797 0.418688 0.350845
0.567797 0.418688 0.350845
0.567797 0.418688 0.350845
0.567797 0.418688 0.350845
0.567797 0.418688 0.350845
0.567797 0.418688 0.350845
0.567797 0.418688 0.350845
0.567797 0.418688 0.350845
0.567797 0.418688 0.350845
0.126670 0.201886 0.126670
0.138231 0.201886 0.126670
0.147051 0.201886 0.126670
0.155723 0.201886 0.126670
0.164395 0.201886 0.126670
0.173067 0.201886 0.126670
0.181739 0.201886 0.126670
0.190411 0.201886 0.126670
0.199083 0.201886 0.126670
0.217640 0.211771 0.136555
0.240917 0.226375 0.151160
0.266209 0.242244 0.167029
0.289110 0.256614 0.181398
0.350284 0.290841 0.215723
0.374613 0.305957 0.230836
0.398941 0.321072 0.245949
0.423269 0.336188 0.261062
0.447597 0.351303 0.276175
0.471925 0.366417 0.291288
0.496253 0.381532 0.306401
0.520581 0.396646 0.321514
0.544909 0.411761 0.336626
0.567797 0.425980 0.350845
0.567797 0.425980 0.350845
0.567797 0.425980 0.350845
0.567797 0.425980 0.350845
0.567797 0.425980 0.350845
0.567797 0.425980 0.350845
0.567797 0.425980 0.350845
0.567797 0.425980 0.350845
0.567797 0.425980 0.350845
0.567797 0.425980 0.350845
0.567797 0.425980 0.350845
0.138964 0.221480 0.138964
0.150525 0.221480 0.138964
0.159344 0.221480 0.138964
0.168017 0.221480 0.138964
0.176689 0.221480 0.138964
0.185361 0.221480 0.138964
0.194033 0.221480 0.138964
0.202705 0.221480 0.138964
0.211377 0.221480 0.138964
0.220049 0.221480 0.138964
0.240917 0.233675 0.151160
0.266209 0.249544 0.167029
0.289110 0.263914 0.181398
0.350284 0.298131 0.215723
0.374613 0.313248 0.230836
0.398941 0.328363 0.245949
0.423269 0.343479 0.261062
0.447597 0.358594 0.276175
0.471925 0.373709 0.291288
0.496253 0.388824 0.306401
0.520581 0.403938 0.321514
0.544909 0.419053 0.336626
0.567797 0.433272 0.350845
0.567797 0.433272 0.350845
0.567797 0.433272 0.350845
0.567797 0.433272 0.350845
0.567797 0.433272 0.350845
0.567797 0.433272 0.350845
0.567797 0.433272 0.350845
0.567797 0.433272 0.350845
0.567797 0.433272 0.350845
0.567797 0.433272 0.350845
0.567797 0.433272 0.350845
0.151258 0.241074 0.151258
0.162819 0.241074 0.151258
0.171638 0.241074 0.151258
0.180310 0.241074 0.151258
0.188983 0.241074 0.151258
0.197655 0.241074 0.151258
0.206327 0.241074 0.151258
0.214999 0.241074 0.151258
0.223671 0.241074 0.151258
0.232343 0.241074 0.151258
0.241015 0.241074 0.151258
0.266209 0.256844 0.167029
0.289110 0.271214 0.181398
0.350284 0.305422 0.215723
0.374613 0.320538 0.230836
0.398941 0.335654 0.245949
0.423269 0.350770 0.261062
0.447597 0.365885 0.276175
0.471925 0.381001 0.291288
0.496253 0.396115 0.306401
0.520581 0.411230 0.321514
0.544909 0.426345 0.336626
0.567797 0.440564 0.350845
0.567797 0.440564 0.350845
0.567797 0.440564 0.350845
0.567797 0.440564 0.350845
0.567797 0.440564 0.350845
0.567797 0.440564 0.350845
0.567797 0.440564 0.350845
0.567797 0.440564 0.350845
0.567797 0.440564 0.350845
0.567797 0.440564 0.350845
0.567797 0.440564 0.350845
0.164852 0.262740 0.164852
0.176413 0.262740 0.164852
0.185232 0.262740 0.164852
0.193904 0.262740 0.164852
0.202577 0.262740 0.164852
0.211249 0.262740 0.164852
0.219921 0.262740 0.164852
0.228593 0.262740 0.164852
0.237265 0.262740 0.164852
0.245937 0.262740 0.164852
0.254609 0.262740 0.164852
0.266209 0.264916 0.167029
0.289110 0.279286 0.181398
0.350284 0.313483 0.215723
0.374613 0.328600 0.230836
0.398941 0.343716 0.245949
0.423269 0.358832 0.261062
0.447597 0.373948 0.276175
0.471925 0.389063 0.291288
0.496253 0.404178 0.306401
0.520581 0.419293 0.321514
0.544909 0.434408 0.336626
0.567797 0.466810 0.350845
0.567797 0.466810 0.350845
0.567797 0.466810 0.350845
0.567797 0.466810 0.350845
0.567797 0.466810 0.350845
0.567797 0.466810 0.350845
0.567797 0.466810 0.350845
0.567797 0.466810 0.350845
0.567797 0.466810 0.350845
0.567797 0.466810 0.350845
0.567797 0.466810 0.350845
0.176948 0.282017 0.176948
0.188509 0.282017 0.176948
0.197328 0.282017 0.176948
0.206000 0.282017 0.176948
0.214672 0.282017 0.176948
0.223344 0.282017 0.176948
0.232016 0.282017 0.176948
0.240688 0.282017 0.176948
0.249361 0.282017 0.176948
0.258033 0.282017 0.176948
0.266705 0.282017 0.176948
0.276128 0.282017 0.176948
0.289110 0.286468 0.181398
0.350284 0.320656 0.215723
0.374613 0.335773 0.230836
0.398941 0.350890 0.245949
0.423269 0.366006 0.261062
0.447597 0.381122 0.276175
0.471925 0.414484 0.291288
0.496253 0.429707 0.306401
0.520581 0.444930 0.321514
0.544909 0.460153 0.336626
0.567797 0.474474 0.350845
0.567797 0.474474 0.350845
0.567797 0.474474 0.350845
0.567797 0.474474 0.350845
0.567797 0.474474 0.350845
0.567797 0.474474 0.350845
0.567797 0.474474 0.350845
0.567797 0.474474 0.350845
0.567797 0.474474 0.350845
0.567797 0.474474 0.350845
0.567797 0.474474 0.350845
0.189043 0.301295 0.189043
0.200604 0.301295 0.189043
0.209423 0.301295 0.189043
0.218096 0.301295 0.189043
0.226768 0.301295 0.189043
0.235440 0.301295 0.189043
0.244112 0.301295 0.189043
0.252784 0.301295 0.189043
0.261456 0.301295 0.189043
0.270128 0.301295 0.189043
0.278800 0.301295 0.189043
0.288223 0.301295 0.189043
0.296756 0.301295 0.189043
0.350284 0.346025 0.215723
0.374613 0.361251 0.230836
0.398941 0.376475 0.245949
0.423269 0.391700 0.261062
0.447597 0.406924 0.276175
0.471925 0.422147 0.291288
0.496253 0.437371 0.306401
0.520581 0.452594 0.321514
0.544909 0.467816 0.336626
0.567797 0.482138 0.350845
0.567797 0.482138 0.350845
0.567797 0.482138 0.350845
0.567797 0.482138 0.350845
0.567797 0.482138 0.350845
0.567797 0.482138 0.350845
0.567797 0.482138 0.350845
0.567797 0.482138 0.350845
0.567797 0.482138 0.350845
0.567797 0.482138 0.350845
0.567797 0.482138 0.350845
0.221373 0.359379 0.221373
0.232919 0.359379 0.221373
0.241727 0.359379 0.221373
0.250388 0.359379 0.221373
0.259049 0.359379 0.221373
0.267710 0.359379 0.221373
0.276371 0.359379 0.221373
0.285032 0.359379 0.221373
0.293693 0.359379 0.221373
0.302354 0.359379 0.221373
0.311015 0.359379 0.221373
0.320426 0.359379 0.221373
0.328947 0.359379 0.221373
0.355976 0.359379 0.221373
0.374613 0.368913 0.230836
0.398941 0.384138 0.245949
0.423269 0.399363 0.261062
0.447597 0.414587 0.276175
0.471925 0.429811 0.291288
0.496253 0.445034 0.306401
0.520581 0.460257 0.321514
0.544909 0.475480 0.336626
0.567797 0.489802 0.350845
0.567797 0.489802 0.350845
0.567797 0.489802 0.350845
0.567797 0.489802 0.350845
0.567797 0.489802 0.350845
0.567797 0.489802 0.350845
0.567797 0.489802 0.350845
0.567797 0.489802 0.350845
0.567797 0.489802 0.350845
0.567797 0.489802 0.350845
0.567797 0.489802 0.350845
0.234095 0.379858 0.234095
0.245641 0.379858 0.234095
0.254449 0.379858 0.234095
0.263111 0.379858 0.234095
0.271772 0.379858 0.234095
0.280433 0.379858 0.234095
0.289094 0.379858 0.234095
0.297756 0.379858 0.234095
0.306417 0.379858 0.234095
0.315078 0.379858 0.234095
0.323739 0.379858 0.234095
0.333150 0.379858 0.234095
0.341672 0.379858 0.234095
0.368793 0.379858 0.234095
0.377895 0.379858 0.234095
0.398941 0.391801 0.245949
0.423269 0.407025 0.261062
0.447597 0.422250 0.276175
0.471925 0.437474 0.291288
0.496253 0.452697 0.306401
0.520581 0.467921 0.321514
0.544909 0.483144 0.336626
0.567797 0.497465 0.350845
0.567797 0.497465 0.350845
0.567797 0.497465 0.350845
0.567797 0.497465 0.350845
0.567797 0.497465 0.350845
0.567797 0.497465 0.350845
0.567797 0.497465 0.350845
0.567797 0.497465 0.350845
0.567797 0.497465 0.350845
0.567797 0.497465 0.350845
0.567797 0.497465 0.350845
0.246816 0.400337 0.246816
0.258363 0.400337 0.246816
0.267172 0.400337 0.246816
0.275833 0.400337 0.246816
0.284495 0.400337 0.246816
0.293156 0.400337 0.246816
0.301818 0.400337 0.246816
0.310479 0.400337 0.246816
0.319141 0.400337 0.246816
0.327802 0.400337 0.246816
0.336464 0.400337 0.246816
0.345875 0.400337 0.246816
0.354397 0.400337 0.246816
0.381609 0.400337 0.246816
0.390712 0.400337 0.246816
0.399814 0.400337 0.246816
0.423269 0.414688 0.261062
0.447597 0.429913 0.276175
0.471925 0.445137 0.291288
0.496253 0.460361 0.306401
0.520581 0.475584 0.321514
0.544909 0.490807 0.336626
0.567797 0.505129 0.350845
0.567797 0.505129 0.350845
0.567797 0.505129 0.350845
0.567797 0.505129 0.350845
0.567797 0.505129 0.350845
0.567797 0.505129 0.350845
0.567797 0.505129 0.350845
0.567797 0.505129 0.350845
0.567797 0.505129 0.350845
0.567797 0.505129 0.350845
0.567797 0.505129 0.350845
0.259538 0.420816 0.259538
0.271085 0.420816 0.259538
0.279894 0.420816 0.259538
0.288556 0.420816 0.259538
0.297217 0.420816 0.259538
0.305879 0.420816 0.259538
0.314541 0.420816 0.259538
0.323202 0.420816 0.259538
0.331864 0.420816 0.259538
0.340526 0.420816 0.259538
0.349188 0.420816 0.259538
0.358599 0.420816 0.259538
0.385321 0.420816 0.259538
0.394424 0.420816 0.259538
0.403527 0.420816 0.259538
0.412631 0.420816 0.259538
0.423269 0.422351 0.261062
0.447597 0.437576 0.276175
0.471925 0.452800 0.291288
0.496253 0.468024 0.306401
0.520581 0.483248 0.321514
0.544909 0.498471 0.336626
0.567797 0.512793 0.350845
0.567797 0.512793 0.350845
0.567797 0.512793 0.350845
0.567797 0.512793 0.350845
0.567797 0.512793 0.350845
0.567797 0.512793 0.350845
0.567797 0.512793 0.350845
0.567797 0.512793 0.350845
0.567797 0.512793 0.350845
0.567797 0.512793 0.350845
0.567797 0.512793 0.350845
0.272260 0.441294 0.272260
0.283807 0.441294 0.272260
0.292616 0.441294 0.272260
0.301278 0.441294 0.272260
0.309940 0.441294 0.272260
0.318602 0.441294 0.272260
0.327264 0.441294 0.272260
0.335926 0.441294 0.272260
0.344587 0.441294 0.272260
0.353249 0.441294 0.272260
0.361911 0.441294 0.272260
0.371323 0.441294 0.272260
0.398136 0.441294 0.272260
0.407240 0.441294 0.272260
0.416343 0.441294 0.272260
0.425446 0.441294 0.272260
0.434550 0.441294 0.272260
0.447597 0.445239 0.276175
0.471925 0.460463 0.291288
0.496253 0.475687 0.306401
0.520581 0.490911 0.321514
0.544909 0.506134 0.336626
0.567797 0.520456 0.350845
0.567797 0.520456 0.350845
0.567797 0.520456 0.350845
0.567797 0.520456 0.350845
0.567797 0.520456 0.350845
0.567797 0.520456 0.350845
0.567797 0.520456 0.350845
0.567797 0.520456 0.350845
0.567797 0.520456 0.350845
0.567797 0.520456 0.350845
0.567797 0.520456 0.350845
0.284981 0.461773 0.284981
0.296529 0.461773 0.284981
0.305338 0.461773 0.284981
0.314000 0.461773 0.284981
0.322662 0.461773 0.284981
0.331324 0.461773 0.284981
0.339987 0.461773 0.284981
0.348649 0.461773 0.284981
0.357311 0.461773 0.284981
0.365973 0.461773 0.284981
0.374635 0.461773 0.284981
0.384047 0.461773 0.284981
0.410951 0.461773 0.284981
0.420055 0.461773 0.284981
0.429158 0.461773 0.284981
0.438262 0.461773 0.284981
0.447365 0.461773 0.284981
0.456469 0.461773 0.284981
0.471925 0.468126 0.291288
0.496253 0.483351 0.306401
0.520581 0.498574 0.321514
0.544909 0.513798 0.336626
0.567797 0.528120 0.350845
0.567797 0.528120 0.350845
0.567797 0.528120 0.350845
0.567797 0.528120 0.350845
0.567797 0.528120 0.350845
0.567797 0.528120 0.350845
0.567797 0.528120 0.350845
0.567797 0.528120 0.350845
0.567797 0.528120 0.350845
0.567797 0.528120 0.350845
0.567797 0.528120 0.350845
0.297703 0.482252 0.297703
0.309251 0.482252 0.297703
0.318060 0.482252 0.297703
0.326722 0.482252 0.297703
0.335385 0.482252 0.297703
0.344047 0.482252 0.297703
0.352709 0.482252 0.297703
0.361372 0.482252 0.297703
0.370034 0.482252 0.297703
0.378696 0.482252 0.297703
0.387358 0.482252 0.297703
0.396771 0.482252 0.297703
0.423766 0.482252 0.297703
0.432870 0.482252 0.297703
0.441973 0.482252 0.297703
0.451077 0.482252 0.297703
0.460180 0.482252 0.297703
0.469284 0.482252 0.297703
0.478388 0.482252 0.297703
0.496253 0.491014 0.306401
0.520581 0.506238 0.321514
0.544909 0.521462 0.336626
0.567797 0.535784 0.350845
0.567797 0.535784 0.350845
0.567797 0.535784 0.350845
0.567797 0.535784 0.350845
0.567797 0.535784 0.350845
0.567797 0.535784 0.350845
0.567797 0.535784 0.350845
0.567797 0.535784 0.350845
0.567797 0.535784 0.350845
0.567797 0.535784 0.350845
0.567797 0.535784 0.350845
0.310425 0.502731 0.310425
0.321973 0.502731 0.310425
0.330782 0.502731 0.310425
0.339445 0.502731 0.310425
0.348107 0.502731 0.310425
0.356770 0.502731 0.310425
0.365432 0.502731 0.310425
0.374094 0.502731 0.310425
0.382757 0.502731 0.310425
0.391419 0.502731 0.310425
0.400082 0.502731 0.310425
0.409494 0.502731 0.310425
0.436580 0.502731 0.310425
0.445684 0.502731 0.310425
0.454788 0.502731 0.310425
0.463892 0.502731 0.310425
0.472995 0.502731 0.310425
0.482099 0.502731 0.310425
0.491203 0.502731 0.310425
0.500307 0.502731 0.310425
0.520581 0.513901 0.321514
0.544909 0.529125 0.336626
0.567797 0.543448 0.350845
0.567797 0.543448 0.350845
0.567797 0.543448 0.350845
0.567797 0.543448 0.350845
0.567797 0.543448 0.350845
0.567797 0.543448 0.350845
0.567797 0.543448 0.350845
0.567797 0.543448 0.350845
0.567797 0.543448 0.350845
0.567797 0.543448 0.350845
0.567797 0.543448 0.350845
0.323146 0.523210 0.323146
0.334695 0.523210 0.323146
0.343504 0.523210 0.323146
0.352167 0.523210 0.323146
0.360829 0.523210 0.323146
0.369492 0.523210 0.323146
0.378155 0.523210 0.323146
0.386817 0.523210 0.323146
0.395480 0.523210 0.323146
0.404142 0.523210 0.323146
0.412805 0.523210 0.323146
0.422217 0.523210 0.323146
0.449395 0.523210 0.323146
0.458498 0.523210 0.323146
0.467602 0.523210 0.323146
0.476706 0.523210 0.323146
0.485810 0.523210 0.323146
0.494914 0.523210 0.323146
0.504018 0.523210 0.323146
0.513122 0.523210 0.323146
0.522226 0.523210 0.323146
0.544909 0.536789 0.336626
0.567797 0.551111 0.350845
0.567797 0.551111 0.350845
0.567797 0.551111 0.350845
0.567797 0.551111 0.350845
0.567797 0.551111 0.350845
0.567797 0.551111 0.350845
0.567797 0.551111 0.350845
0.567797 0.551111 0.350845
0.567797 0.551111 0.350845
0.567797 0.551111 0.350845
0.567797 0.551111 0.350845
0.335868 0.543689 0.335868
0.347417 0.543689 0.335868
0.356226 0.543689 0.335868
0.364889 0.543689 0.335868
0.373552 0.543689 0.335868
0.382214 0.543689 0.335868
0.390877 0.543689 0.335868
0.399540 0.543689 0.335868
0.408203 0.543689 0.335868
0.416865 0.543689 0.335868
0.425528 0.543689 0.335868
0.434941 0.543689 0.335868
0.462209 0.543689 0.335868
0.471313 0.543689 0.335868
0.480417 0.543689 0.335868
0.489521 0.543689 0.335868
0.498625 0.543689 0.335868
0.507729 0.543689 0.335868
0.516833 0.543689 0.335868
0.525937 0.543689 0.335868
0.535041 0.543689 0.335868
0.544909 0.544453 0.336626
0.567797 0.558775 0.350845
0.567797 0.558775 0.350845
0.567797 0.558775 0.350845
0.567797 0.558775 0.350845
0.567797 0.558775 0.350845
0.567797 0.558775 0.350845
0.567797 0.558775 0.350845
0.567797 0.558775 0.350845
0.567797 0.558775 0.350845
0.567797 0.558775 0.350845
0.567797 0.558775 0.350845
0.348590 0.564167 0.348590
0.360138 0.564167 0.348590
0.368948 0.564167 0.348590
0.377611 0.564167 0.348590
0.386274 0.564167 0.348590
0.394937 0.564167 0.348590
0.403600 0.564167 0.348590
0.412262 0.564167 0.348590
0.420925 0.564167 0.348590
0.429588 0.564167 0.348590
0.438251 0.564167 0.348590
0.465918 0.564167 0.348590
0.475023 0.564167 0.348590
0.484127 0.564167 0.348590
0.493231 0.564167 0.348590
0.502335 0.564167 0.348590
0.511439 0.564167 0.348590
0.520544 0.564167 0.348590
0.529648 0.564167 0.348590
0.538752 0.564167 0.348590
0.547856 0.564167 0.348590
0.556961 0.564167 0.348590
0.567797 0.566439 0.350845
0.567797 0.566439 0.350845
