docs/luts/fuji_recipes/Classic_RR_Kodacolor.cube
TITLE "Fujifilm Recipe: RR Kodacolor (Classic)"
# FilmSim=Classic HL=-1 SH=2 Col=-2 WB=6300K WBR=-1 WBB=-4
LUT_3D_SIZE 33
DOMAIN_MIN 0.0 0.0 0.0
DOMAIN_MAX 1.0 1.0 1.0
0.000000 0.000000 0.000000
0.033948 0.012328 0.012328
0.059845 0.021732 0.021732
0.085309 0.030979 0.030979
0.110774 0.040227 0.040227
0.136239 0.049474 0.049474
0.161703 0.058721 0.058721
0.187168 0.067968 0.067968
0.212633 0.077216 0.077216
0.238097 0.086463 0.086463
0.263562 0.095710 0.095710
0.289027 0.104957 0.104957
0.314491 0.114205 0.114205
0.342572 0.124402 0.124402
0.367626 0.133500 0.133500
0.425533 0.149810 0.149810
0.451114 0.159023 0.159023
0.476694 0.168237 0.168237
0.502275 0.177451 0.177451
0.527856 0.186665 0.186665
0.553436 0.195878 0.195878
0.579017 0.205092 0.205092
0.604597 0.214306 0.214306
0.630178 0.223519 0.223519
0.655758 0.232733 0.232733
0.681339 0.241947 0.241947
0.688615 0.244567 0.244567
0.688615 0.244567 0.244567
0.688615 0.244567 0.244567
0.688615 0.244567 0.244567
0.688615 0.244567 0.244567
0.688615 0.244567 0.244567
0.688615 0.244567 0.244567
0.011812 0.032529 0.011812
0.033948 0.033044 0.012328
0.059845 0.042448 0.021732
0.085309 0.051695 0.030979
0.110774 0.060943 0.040227
0.136239 0.070190 0.049474
0.161703 0.079437 0.058721
0.187168 0.088684 0.067968
0.212633 0.097932 0.077216
0.238097 0.107179 0.086463
0.263562 0.116426 0.095710
0.289027 0.125674 0.104957
0.314491 0.134921 0.114205
0.342572 0.145118 0.124402
0.367626 0.154216 0.133500
0.425533 0.170526 0.149810
0.451114 0.179740 0.159023
0.476694 0.188953 0.168237
0.502275 0.198167 0.177451
0.527856 0.207381 0.186665
0.553436 0.216594 0.195878
0.579017 0.225808 0.205092
0.604597 0.235022 0.214306
0.630178 0.244236 0.223519
0.655758 0.253449 0.232733
0.681339 0.262663 0.241947
0.688615 0.265284 0.244567
0.688615 0.265284 0.244567
0.688615 0.265284 0.244567
0.688615 0.265284 0.244567
0.688615 0.265284 0.244567
0.688615 0.265284 0.244567
0.688615 0.265284 0.244567
0.021150 0.058241 0.021150
0.042769 0.058241 0.021150
0.059845 0.058823 0.021732
0.085309 0.068070 0.030979
0.110774 0.077318 0.040227
0.136239 0.086565 0.049474
0.161703 0.095812 0.058721
0.187168 0.105059 0.067968
0.212633 0.114307 0.077216
0.238097 0.123554 0.086463
0.263562 0.132801 0.095710
0.289027 0.142048 0.104957
0.314491 0.151296 0.114205
0.342572 0.161493 0.124402
0.367626 0.170591 0.133500
0.425533 0.186901 0.149810
0.451114 0.196115 0.159023
0.476694 0.205328 0.168237
0.502275 0.214542 0.177451
0.527856 0.223756 0.186665
0.553436 0.232969 0.195878
0.579017 0.242183 0.205092
0.604597 0.251397 0.214306
0.630178 0.260611 0.223519
0.655758 0.269824 0.232733
0.681339 0.279038 0.241947
0.688615 0.281659 0.244567
0.688615 0.281659 0.244567
0.688615 0.281659 0.244567
0.688615 0.281659 0.244567
0.688615 0.281659 0.244567
0.688615 0.281659 0.244567
0.688615 0.281659 0.244567
0.030331 0.083524 0.030331
0.051951 0.083524 0.030331
0.068443 0.083524 0.030331
0.085309 0.084172 0.030979
0.110774 0.093419 0.040227
0.136239 0.102667 0.049474
0.161703 0.111914 0.058721
0.187168 0.121161 0.067968
0.212633 0.130408 0.077216
0.238097 0.139656 0.086463
0.263562 0.148903 0.095710
0.289027 0.158150 0.104957
0.314491 0.167397 0.114205
0.342572 0.177595 0.124402
0.367626 0.186693 0.133500
0.425533 0.203003 0.149810
0.451114 0.212216 0.159023
0.476694 0.221430 0.168237
0.502275 0.230644 0.177451
0.527856 0.239857 0.186665
0.553436 0.249071 0.195878
0.579017 0.258285 0.205092
0.604597 0.267498 0.214306
0.630178 0.276712 0.223519
0.655758 0.285926 0.232733
0.681339 0.295140 0.241947
0.688615 0.297760 0.244567
0.688615 0.297760 0.244567
0.688615 0.297760 0.244567
0.688615 0.297760 0.244567
0.688615 0.297760 0.244567
0.688615 0.297760 0.244567
0.688615 0.297760 0.244567
0.039512 0.108807 0.039512
0.061132 0.108807 0.039512
0.077625 0.108807 0.039512
0.093842 0.108807 0.039512
0.110774 0.109521 0.040227
0.136239 0.118768 0.049474
0.161703 0.128016 0.058721
0.187168 0.137263 0.067968
0.212633 0.146510 0.077216
0.238097 0.155757 0.086463
0.263562 0.165005 0.095710
0.289027 0.174252 0.104957
0.314491 0.183499 0.114205
0.342572 0.193696 0.124402
0.367626 0.202794 0.133500
0.425533 0.219104 0.149810
0.451114 0.228318 0.159023
0.476694 0.237532 0.168237
0.502275 0.246745 0.177451
0.527856 0.255959 0.186665
0.553436 0.265173 0.195878
0.579017 0.274386 0.205092
0.604597 0.283600 0.214306
0.630178 0.292814 0.223519
0.655758 0.302028 0.232733
0.681339 0.311241 0.241947
0.688615 0.313862 0.244567
0.688615 0.313862 0.244567
0.688615 0.313862 0.244567
0.688615 0.313862 0.244567
0.688615 0.313862 0.244567
0.688615 0.313862 0.244567
0.688615 0.313862 0.244567
0.048693 0.134090 0.048693
0.070313 0.134090 0.048693
0.086806 0.134090 0.048693
0.103023 0.134090 0.048693
0.119241 0.134090 0.048693
0.136239 0.134870 0.049474
0.161703 0.144117 0.058721
0.187168 0.153364 0.067968
0.212633 0.162612 0.077216
0.238097 0.171859 0.086463
0.263562 0.181106 0.095710
0.289027 0.190353 0.104957
0.314491 0.199601 0.114205
0.342572 0.209798 0.124402
0.367626 0.218896 0.133500
0.425533 0.235206 0.149810
0.451114 0.244420 0.159023
0.476694 0.253633 0.168237
0.502275 0.262847 0.177451
0.527856 0.272061 0.186665
0.553436 0.281274 0.195878
0.579017 0.290488 0.205092
0.604597 0.299702 0.214306
0.630178 0.308916 0.223519
0.655758 0.318129 0.232733
0.681339 0.327343 0.241947
0.688615 0.329964 0.244567
0.688615 0.329964 0.244567
0.688615 0.329964 0.244567
0.688615 0.329964 0.244567
0.688615 0.329964 0.244567
0.688615 0.329964 0.244567
0.688615 0.329964 0.244567
0.057875 0.159372 0.057875
0.079495 0.159372 0.057875
0.095987 0.159372 0.057875
0.112205 0.159372 0.057875
0.128422 0.159372 0.057875
0.144639 0.159372 0.057875
0.161703 0.160219 0.058721
0.187168 0.169466 0.067968
0.212633 0.178713 0.077216
0.238097 0.187961 0.086463
0.263562 0.197208 0.095710
0.289027 0.206455 0.104957
0.314491 0.215702 0.114205
0.342572 0.225900 0.124402
0.367626 0.234998 0.133500
0.425533 0.251308 0.149810
0.451114 0.260521 0.159023
0.476694 0.269735 0.168237
0.502275 0.278949 0.177451
0.527856 0.288162 0.186665
0.553436 0.297376 0.195878
0.579017 0.306590 0.205092
0.604597 0.315804 0.214306
0.630178 0.325017 0.223519
0.655758 0.334231 0.232733
0.681339 0.343445 0.241947
0.688615 0.346065 0.244567
0.688615 0.346065 0.244567
0.688615 0.346065 0.244567
0.688615 0.346065 0.244567
0.688615 0.346065 0.244567
0.688615 0.346065 0.244567
0.688615 0.346065 0.244567
0.067056 0.184655 0.067056
0.088676 0.184655 0.067056
0.105168 0.184655 0.067056
0.121386 0.184655 0.067056
0.137603 0.184655 0.067056
0.153821 0.184655 0.067056
0.170038 0.184655 0.067056
0.187168 0.185568 0.067968
0.212633 0.194815 0.077216
0.238097 0.204062 0.086463
0.263562 0.213310 0.095710
0.289027 0.222557 0.104957
0.314491 0.231804 0.114205
0.342572 0.242001 0.124402
0.367626 0.251099 0.133500
0.425533 0.267409 0.149810
0.451114 0.276623 0.159023
0.476694 0.285837 0.168237
0.502275 0.295050 0.177451
0.527856 0.304264 0.186665
0.553436 0.313478 0.195878
0.579017 0.322691 0.205092
0.604597 0.331905 0.214306
0.630178 0.341119 0.223519
0.655758 0.350333 0.232733
0.681339 0.359546 0.241947
0.688615 0.362167 0.244567
0.688615 0.362167 0.244567
0.688615 0.362167 0.244567
0.688615 0.362167 0.244567
0.688615 0.362167 0.244567
0.688615 0.362167 0.244567
0.688615 0.362167 0.244567
0.076237 0.209938 0.076237
0.097857 0.209938 0.076237
0.114350 0.209938 0.076237
0.130567 0.209938 0.076237
0.146785 0.209938 0.076237
0.163002 0.209938 0.076237
0.179219 0.209938 0.076237
0.195437 0.209938 0.076237
0.212633 0.210917 0.077216
0.238097 0.220164 0.086463
0.263562 0.229411 0.095710
0.289027 0.238659 0.104957
0.314491 0.247906 0.114205
0.342572 0.258103 0.124402
0.367626 0.267201 0.133500
0.425533 0.283511 0.149810
0.451114 0.292725 0.159023
0.476694 0.301938 0.168237
0.502275 0.311152 0.177451
0.527856 0.320366 0.186665
0.553436 0.329579 0.195878
0.579017 0.338793 0.205092
0.604597 0.348007 0.214306
0.630178 0.357221 0.223519
0.655758 0.366434 0.232733
0.681339 0.375648 0.241947
0.688615 0.378269 0.244567
0.688615 0.378269 0.244567
0.688615 0.378269 0.244567
0.688615 0.378269 0.244567
0.688615 0.378269 0.244567
0.688615 0.378269 0.244567
0.688615 0.378269 0.244567
0.085418 0.235221 0.085418
0.107038 0.235221 0.085418
0.123531 0.235221 0.085418
0.139748 0.235221 0.085418
0.155966 0.235221 0.085418
0.172183 0.235221 0.085418
0.188401 0.235221 0.085418
0.204618 0.235221 0.085418
0.220835 0.235221 0.085418
0.238097 0.236266 0.086463
0.263562 0.245513 0.095710
0.289027 0.254760 0.104957
0.314491 0.264007 0.114205
0.342572 0.274205 0.124402
0.367626 0.283303 0.133500
0.425533 0.299613 0.149810
0.451114 0.308826 0.159023
0.476694 0.318040 0.168237
0.502275 0.327254 0.177451
0.527856 0.336467 0.186665
0.553436 0.345681 0.195878
0.579017 0.354895 0.205092
0.604597 0.364109 0.214306
0.630178 0.373322 0.223519
0.655758 0.382536 0.232733
0.681339 0.391750 0.241947
0.688615 0.394370 0.244567
0.688615 0.394370 0.244567
0.688615 0.394370 0.244567
0.688615 0.394370 0.244567
0.688615 0.394370 0.244567
0.688615 0.394370 0.244567
0.688615 0.394370 0.244567
0.094600 0.260504 0.094600
0.116220 0.260504 0.094600
0.132712 0.260504 0.094600
0.148930 0.260504 0.094600
0.165147 0.260504 0.094600
0.181364 0.260504 0.094600
0.197582 0.260504 0.094600
0.213799 0.260504 0.094600
0.230017 0.260504 0.094600
0.246234 0.260504 0.094600
0.263562 0.261615 0.095710
0.289027 0.270862 0.104957
0.314491 0.280109 0.114205
0.342572 0.290306 0.124402
0.367626 0.299404 0.133500
0.425533 0.315714 0.149810
0.451114 0.324928 0.159023
0.476694 0.334142 0.168237
0.502275 0.343355 0.177451
0.527856 0.352569 0.186665
0.553436 0.361783 0.195878
0.579017 0.370997 0.205092
0.604597 0.380210 0.214306
0.630178 0.389424 0.223519
0.655758 0.398638 0.232733
0.681339 0.407851 0.241947
0.688615 0.410472 0.244567
0.688615 0.410472 0.244567
0.688615 0.410472 0.244567
0.688615 0.410472 0.244567
0.688615 0.410472 0.244567
0.688615 0.410472 0.244567
0.688615 0.410472 0.244567
0.103781 0.285787 0.103781
0.125401 0.285787 0.103781
0.141894 0.285787 0.103781
0.158111 0.285787 0.103781
0.174328 0.285787 0.103781
0.190546 0.285787 0.103781
0.206763 0.285787 0.103781
0.222981 0.285787 0.103781
0.239198 0.285787 0.103781
0.255415 0.285787 0.103781
0.271633 0.285787 0.103781
0.289027 0.286964 0.104957
0.314491 0.296211 0.114205
0.342572 0.306408 0.124402
0.367626 0.315506 0.133500
0.425533 0.331816 0.149810
0.451114 0.341030 0.159023
0.476694 0.350243 0.168237
0.502275 0.359457 0.177451
0.527856 0.368671 0.186665
0.553436 0.377885 0.195878
0.579017 0.387098 0.205092
0.604597 0.396312 0.214306
0.630178 0.405526 0.223519
0.655758 0.414739 0.232733
0.681339 0.423953 0.241947
0.688615 0.426574 0.244567
0.688615 0.426574 0.244567
0.688615 0.426574 0.244567
0.688615 0.426574 0.244567
0.688615 0.426574 0.244567
0.688615 0.426574 0.244567
0.688615 0.426574 0.244567
0.112962 0.311070 0.112962
0.134582 0.311070 0.112962
0.151075 0.311070 0.112962
0.167292 0.311070 0.112962
0.183510 0.311070 0.112962
0.199727 0.311070 0.112962
0.215944 0.311070 0.112962
0.232162 0.311070 0.112962
0.248379 0.311070 0.112962
0.264597 0.311070 0.112962
0.280814 0.311070 0.112962
0.297031 0.311070 0.112962
0.314491 0.312312 0.114205
0.342572 0.322510 0.124402
0.367626 0.331608 0.133500
0.425533 0.347918 0.149810
0.451114 0.357131 0.159023
0.476694 0.366345 0.168237
0.502275 0.375559 0.177451
0.527856 0.384772 0.186665
0.553436 0.393986 0.195878
0.579017 0.403200 0.205092
0.604597 0.412414 0.214306
0.630178 0.421627 0.223519
0.655758 0.430841 0.232733
0.681339 0.440055 0.241947
0.688615 0.442675 0.244567
0.688615 0.442675 0.244567
0.688615 0.442675 0.244567
0.688615 0.442675 0.244567
0.688615 0.442675 0.244567
0.688615 0.442675 0.244567
0.688615 0.442675 0.244567
0.123114 0.339027 0.123114
0.144734 0.339027 0.123114
0.161227 0.339027 0.123114
0.177444 0.339027 0.123114
0.193662 0.339027 0.123114
0.209879 0.339027 0.123114
0.226097 0.339027 0.123114
0.242314 0.339027 0.123114
0.258532 0.339027 0.123114
0.274749 0.339027 0.123114
0.290966 0.339027 0.123114
0.307184 0.339027 0.123114
0.323401 0.339027 0.123114
0.342572 0.340314 0.124402
0.367626 0.349412 0.133500
0.425533 0.365722 0.149810
0.451114 0.374936 0.159023
0.476694 0.384150 0.168237
0.502275 0.393363 0.177451
0.527856 0.402577 0.186665
0.553436 0.411791 0.195878
0.579017 0.421004 0.205092
0.604597 0.430218 0.214306
0.630178 0.439432 0.223519
0.655758 0.448646 0.232733
0.681339 0.457859 0.241947
0.688615 0.460480 0.244567
0.688615 0.460480 0.244567
0.688615 0.460480 0.244567
0.688615 0.460480 0.244567
0.688615 0.460480 0.244567
0.688615 0.460480 0.244567
0.688615 0.460480 0.244567
0.132148 0.363902 0.132148
0.153768 0.363902 0.132148
0.170260 0.363902 0.132148
0.186478 0.363902 0.132148
0.202695 0.363902 0.132148
0.218912 0.363902 0.132148
0.235130 0.363902 0.132148
0.251347 0.363902 0.132148
0.267565 0.363902 0.132148
0.283782 0.363902 0.132148
0.300000 0.363902 0.132148
0.316217 0.363902 0.132148
0.332434 0.363902 0.132148
0.350318 0.363902 0.132148
0.367626 0.365254 0.133500
0.425533 0.381564 0.149810
0.451114 0.390778 0.159023
0.476694 0.399992 0.168237
0.502275 0.409205 0.177451
0.527856 0.418419 0.186665
0.553436 0.427633 0.195878
0.579017 0.462475 0.205092
0.604597 0.471753 0.214306
0.630178 0.481031 0.223519
0.655758 0.490308 0.232733
0.681339 0.499586 0.241947
0.688615 0.502225 0.244567
0.688615 0.502225 0.244567
0.688615 0.502225 0.244567
0.688615 0.502225 0.244567
0.688615 0.502225 0.244567
0.688615 0.502225 0.244567
0.688615 0.502225 0.244567
0.141181 0.388777 0.141181
0.162801 0.388777 0.141181
0.179293 0.388777 0.141181
0.195511 0.388777 0.141181
0.211728 0.388777 0.141181
0.227946 0.388777 0.141181
0.244163 0.388777 0.141181
0.260380 0.388777 0.141181
0.276598 0.388777 0.141181
0.292815 0.388777 0.141181
0.309033 0.388777 0.141181
0.325250 0.388777 0.141181
0.341468 0.388777 0.141181
0.359351 0.388777 0.141181
0.375307 0.388777 0.141181
0.425533 0.397406 0.149810
0.451114 0.432272 0.159023
0.476694 0.441550 0.168237
0.502275 0.450828 0.177451
0.527856 0.460106 0.186665
0.553436 0.469383 0.195878
0.579017 0.478661 0.205092
0.604597 0.487939 0.214306
0.630178 0.497217 0.223519
0.655758 0.506495 0.232733
0.681339 0.515773 0.241947
0.688615 0.518412 0.244567
0.688615 0.518412 0.244567
0.688615 0.518412 0.244567
0.688615 0.518412 0.244567
0.688615 0.518412 0.244567
0.688615 0.518412 0.244567
0.688615 0.518412 0.244567
0.157523 0.446947 0.157523
0.179143 0.446947 0.157523
0.195635 0.446947 0.157523
0.211853 0.446947 0.157523
0.228070 0.446947 0.157523
0.244287 0.446947 0.157523
0.260505 0.446947 0.157523
0.276722 0.446947 0.157523
0.292940 0.446947 0.157523
0.309157 0.446947 0.157523
0.325374 0.446947 0.157523
0.341592 0.446947 0.157523
0.357809 0.446947 0.157523
0.375693 0.446947 0.157523
0.391648 0.446947 0.157523
0.433300 0.446947 0.157523
0.451114 0.448458 0.159023
0.476694 0.457736 0.168237
0.502275 0.467014 0.177451
0.527856 0.476292 0.186665
0.553436 0.485570 0.195878
0.579017 0.494848 0.205092
0.604597 0.504125 0.214306
0.630178 0.513403 0.223519
0.655758 0.522681 0.232733
0.681339 0.531959 0.241947
0.688615 0.534598 0.244567
0.688615 0.534598 0.244567
0.688615 0.534598 0.244567
0.688615 0.534598 0.244567
0.688615 0.534598 0.244567
0.688615 0.534598 0.244567
0.688615 0.534598 0.244567
0.166671 0.472345 0.166671
0.188290 0.472345 0.166671
0.204783 0.472345 0.166671
0.221001 0.472345 0.166671
0.237218 0.472345 0.166671
0.253435 0.472345 0.166671
0.269653 0.472345 0.166671
0.285870 0.472345 0.166671
0.302088 0.472345 0.166671
0.318305 0.472345 0.166671
0.334522 0.472345 0.166671
0.350740 0.472345 0.166671
0.366957 0.472345 0.166671
0.384841 0.472345 0.166671
0.400796 0.472345 0.166671
0.442512 0.472345 0.166671
0.458814 0.472345 0.166671
0.476694 0.473923 0.168237
0.502275 0.483200 0.177451
0.527856 0.492478 0.186665
0.553436 0.501756 0.195878
0.579017 0.511034 0.205092
0.604597 0.520312 0.214306
0.630178 0.529590 0.223519
0.655758 0.538868 0.232733
0.681339 0.548145 0.241947
0.688615 0.550784 0.244567
0.688615 0.550784 0.244567
0.688615 0.550784 0.244567
0.688615 0.550784 0.244567
0.688615 0.550784 0.244567
0.688615 0.550784 0.244567
0.688615 0.550784 0.244567
0.175819 0.497743 0.175819
0.197438 0.497743 0.175819
0.213931 0.497743 0.175819
0.230148 0.497743 0.175819
0.246366 0.497743 0.175819
0.262583 0.497743 0.175819
0.278801 0.497743 0.175819
0.295018 0.497743 0.175819
0.311236 0.497743 0.175819
0.327453 0.497743 0.175819
0.343670 0.497743 0.175819
0.359888 0.497743 0.175819
0.376105 0.497743 0.175819
0.393988 0.497743 0.175819
0.409944 0.497743 0.175819
0.451723 0.497743 0.175819
0.468026 0.497743 0.175819
0.484329 0.497743 0.175819
0.502275 0.499387 0.177451
0.527856 0.508665 0.186665
0.553436 0.517942 0.195878
0.579017 0.527220 0.205092
0.604597 0.536498 0.214306
0.630178 0.545776 0.223519
0.655758 0.555054 0.232733
0.681339 0.564332 0.241947
0.688615 0.566971 0.244567
0.688615 0.566971 0.244567
0.688615 0.566971 0.244567
0.688615 0.566971 0.244567
0.688615 0.566971 0.244567
0.688615 0.566971 0.244567
0.688615 0.566971 0.244567
0.184966 0.523141 0.184966
0.206586 0.523141 0.184966
0.223079 0.523141 0.184966
0.239296 0.523141 0.184966
0.255514 0.523141 0.184966
0.271731 0.523141 0.184966
0.287949 0.523141 0.184966
0.304166 0.523141 0.184966
0.320384 0.523141 0.184966
0.336601 0.523141 0.184966
0.352818 0.523141 0.184966
0.369036 0.523141 0.184966
0.385253 0.523141 0.184966
0.403136 0.523141 0.184966
0.419092 0.523141 0.184966
0.460935 0.523141 0.184966
0.477238 0.523141 0.184966
0.493540 0.523141 0.184966
0.509843 0.523141 0.184966
0.527856 0.524851 0.186665
0.553436 0.534129 0.195878
0.579017 0.543407 0.205092
0.604597 0.552685 0.214306
0.630178 0.561962 0.223519
0.655758 0.571240 0.232733
0.681339 0.580518 0.241947
0.688615 0.583157 0.244567
0.688615 0.583157 0.244567
0.688615 0.583157 0.244567
0.688615 0.583157 0.244567
0.688615 0.583157 0.244567
0.688615 0.583157 0.244567
0.688615 0.583157 0.244567
0.194114 0.548539 0.194114
0.215734 0.548539 0.194114
0.232227 0.548539 0.194114
0.248444 0.548539 0.194114
0.264662 0.548539 0.194114
0.280879 0.548539 0.194114
0.297097 0.548539 0.194114
0.313314 0.548539 0.194114
0.329531 0.548539 0.194114
0.345749 0.548539 0.194114
0.361966 0.548539 0.194114
0.378184 0.548539 0.194114
0.394401 0.548539 0.194114
0.412284 0.548539 0.194114
0.453844 0.548539 0.194114
0.470146 0.548539 0.194114
0.486449 0.548539 0.194114
0.502752 0.548539 0.194114
0.519055 0.548539 0.194114
0.535357 0.548539 0.194114
0.553436 0.550315 0.195878
0.579017 0.559593 0.205092
0.604597 0.568871 0.214306
0.630178 0.578149 0.223519
0.655758 0.587427 0.232733
0.681339 0.596704 0.241947
0.688615 0.599343 0.244567
0.688615 0.599343 0.244567
0.688615 0.599343 0.244567
0.688615 0.599343 0.244567
0.688615 0.599343 0.244567
0.688615 0.599343 0.244567
0.688615 0.599343 0.244567
0.203262 0.573937 0.203262
0.224882 0.573937 0.203262
0.241375 0.573937 0.203262
0.257592 0.573937 0.203262
0.273810 0.573937 0.203262
0.290027 0.573937 0.203262
0.306245 0.573937 0.203262
0.322462 0.573937 0.203262
0.338679 0.573937 0.203262
0.354897 0.573937 0.203262
0.371114 0.573937 0.203262
0.387332 0.573937 0.203262
0.403549 0.573937 0.203262
0.421432 0.573937 0.203262
0.463055 0.573937 0.203262
0.479358 0.573937 0.203262
0.495661 0.573937 0.203262
0.511964 0.573937 0.203262
0.528266 0.573937 0.203262
0.544569 0.573937 0.203262
0.560872 0.573937 0.203262
0.579017 0.575779 0.205092
0.604597 0.585057 0.214306
0.630178 0.594335 0.223519
0.655758 0.603613 0.232733
0.681339 0.612891 0.241947
0.688615 0.615530 0.244567
0.688615 0.615530 0.244567
0.688615 0.615530 0.244567
0.688615 0.615530 0.244567
0.688615 0.615530 0.244567
0.688615 0.615530 0.244567
0.688615 0.615530 0.244567
0.212410 0.599335 0.212410
0.234030 0.599335 0.212410
0.250523 0.599335 0.212410
0.266740 0.599335 0.212410
0.282958 0.599335 0.212410
0.299175 0.599335 0.212410
0.315393 0.599335 0.212410
0.331610 0.599335 0.212410
0.347827 0.599335 0.212410
0.364045 0.599335 0.212410
0.380262 0.599335 0.212410
0.396480 0.599335 0.212410
0.412697 0.599335 0.212410
0.430580 0.599335 0.212410
0.472267 0.599335 0.212410
0.488570 0.599335 0.212410
0.504872 0.599335 0.212410
0.521175 0.599335 0.212410
0.537478 0.599335 0.212410
0.553781 0.599335 0.212410
0.570083 0.599335 0.212410
0.586386 0.599335 0.212410
0.604597 0.601244 0.214306
0.630178 0.610522 0.223519
0.655758 0.619799 0.232733
0.681339 0.629077 0.241947
0.688615 0.631716 0.244567
0.688615 0.631716 0.244567
0.688615 0.631716 0.244567
0.688615 0.631716 0.244567
0.688615 0.631716 0.244567
0.688615 0.631716 0.244567
0.688615 0.631716 0.244567
0.221558 0.624733 0.221558
0.243178 0.624733 0.221558
0.259671 0.624733 0.221558
0.275888 0.624733 0.221558
0.292106 0.624733 0.221558
0.308323 0.624733 0.221558
0.324540 0.624733 0.221558
0.340758 0.624733 0.221558
0.356975 0.624733 0.221558
0.373193 0.624733 0.221558
0.389410 0.624733 0.221558
0.405628 0.624733 0.221558
0.421845 0.624733 0.221558
0.439728 0.624733 0.221558
0.481479 0.624733 0.221558
0.497781 0.624733 0.221558
0.514084 0.624733 0.221558
0.530387 0.624733 0.221558
0.546690 0.624733 0.221558
0.562992 0.624733 0.221558
0.579295 0.624733 0.221558
0.595598 0.624733 0.221558
0.611900 0.624733 0.221558
0.630178 0.626708 0.223519
0.655758 0.635986 0.232733
0.681339 0.645264 0.241947
0.688615 0.647902 0.244567
0.688615 0.647902 0.244567
0.688615 0.647902 0.244567
0.688615 0.647902 0.244567
0.688615 0.647902 0.244567
0.688615 0.647902 0.244567
0.688615 0.647902 0.244567
0.230706 0.650131 0.230706
0.252326 0.650131 0.230706
0.268819 0.650131 0.230706
0.285036 0.650131 0.230706
0.301254 0.650131 0.230706
0.317471 0.650131 0.230706
0.333688 0.650131 0.230706
0.349906 0.650131 0.230706
0.366123 0.650131 0.230706
0.382341 0.650131 0.230706
0.398558 0.650131 0.230706
0.414776 0.650131 0.230706
0.430993 0.650131 0.230706
0.448876 0.650131 0.230706
0.490690 0.650131 0.230706
0.506993 0.650131 0.230706
0.523296 0.650131 0.230706
0.539598 0.650131 0.230706
0.555901 0.650131 0.230706
0.572204 0.650131 0.230706
0.588507 0.650131 0.230706
0.604809 0.650131 0.230706
0.621112 0.650131 0.230706
0.637415 0.650131 0.230706
0.655758 0.652172 0.232733
0.681339 0.661450 0.241947
0.688615 0.664089 0.244567
0.688615 0.664089 0.244567
0.688615 0.664089 0.244567
0.688615 0.664089 0.244567
0.688615 0.664089 0.244567
0.688615 0.664089 0.244567
0.688615 0.664089 0.244567
0.239854 0.675529 0.239854
0.261474 0.675529 0.239854
0.277967 0.675529 0.239854
0.294184 0.675529 0.239854
0.310402 0.675529 0.239854
0.326619 0.675529 0.239854
0.342836 0.675529 0.239854
0.359054 0.675529 0.239854
0.375271 0.675529 0.239854
0.391489 0.675529 0.239854
0.407706 0.675529 0.239854
0.423923 0.675529 0.239854
0.440141 0.675529 0.239854
0.458024 0.675529 0.239854
0.499902 0.675529 0.239854
0.516205 0.675529 0.239854
0.532507 0.675529 0.239854
0.548810 0.675529 0.239854
0.565113 0.675529 0.239854
0.581416 0.675529 0.239854
0.597718 0.675529 0.239854
0.614021 0.675529 0.239854
0.630324 0.675529 0.239854
0.646626 0.675529 0.239854
0.662929 0.675529 0.239854
0.681339 0.677636 0.241947
0.688615 0.680275 0.244567
0.688615 0.680275 0.244567
0.688615 0.680275 0.244567
0.688615 0.680275 0.244567
0.688615 0.680275 0.244567
0.688615 0.680275 0.244567
0.688615 0.680275 0.244567
0.249002 0.700927 0.249002
0.270622 0.700927 0.249002
0.287115 0.700927 0.249002
0.303332 0.700927 0.249002
0.319550 0.700927 0.249002
0.335767 0.700927 0.249002
0.351984 0.700927 0.249002
0.368202 0.700927 0.249002
0.384419 0.700927 0.249002
0.400637 0.700927 0.249002
0.416854 0.700927 0.249002
0.433071 0.700927 0.249002
0.449289 0.700927 0.249002
0.492811 0.700927 0.249002
0.509114 0.700927 0.249002
0.525416 0.700927 0.249002
0.541719 0.700927 0.249002
0.558022 0.700927 0.249002
0.574324 0.700927 0.249002
0.590627 0.700927 0.249002
0.606930 0.700927 0.249002
0.623233 0.700927 0.249002
0.639535 0.700927 0.249002
0.655838 0.700927 0.249002
