docs/luts/fuji_recipes/Classic_RR_Kodacolor_S__Shore.cube
TITLE "Fujifilm Recipe: RR Kodacolor S. Shore (Classic)"
# FilmSim=Classic HL=-1 SH=2 Col=0 WB=6300K WBR=-1 WBB=-4
LUT_3D_SIZE 9
DOMAIN_MIN 0.0 0.0 0.0
DOMAIN_MAX 1.0 1.0 1.0
0.000000 0.000000 0.000000
0.130615 0.020385 0.020385
0.250719 0.039129 0.039129
0.370822 0.057874 0.057874
0.533264 0.076873 0.076873
0.653999 0.095315 0.095315
0.774734 0.113757 0.113757
0.813503 0.119679 0.119679
0.813503 0.119679 0.119679
0.020023 0.128296 0.020023
0.130615 0.128658 0.020385
0.250719 0.147402 0.039129
0.370822 0.166147 0.057874
0.533264 0.185146 0.076873
0.653999 0.203588 0.095315
0.774734 0.222030 0.113757
0.813503 0.227952 0.119679
0.813503 0.227952 0.119679
0.038634 0.247542 0.038634
0.148864 0.247542 0.038634
0.250719 0.248038 0.039129
0.370822 0.266782 0.057874
0.533264 0.285781 0.076873
0.653999 0.304223 0.095315
0.774734 0.322665 0.113757
0.813503 0.328587 0.119679
0.813503 0.328587 0.119679
0.057244 0.366788 0.057244
0.167475 0.366788 0.057244
0.268833 0.366788 0.057244
0.370822 0.367418 0.057874
0.533264 0.386417 0.076873
0.653999 0.404859 0.095315
0.774734 0.423301 0.113757
0.813503 0.429223 0.119679
0.813503 0.429223 0.119679
0.076122 0.528348 0.076122
0.186352 0.528348 0.076122
0.287711 0.528348 0.076122
0.389070 0.528348 0.076122
0.533264 0.529115 0.076873
0.653999 0.547958 0.095315
0.774734 0.566801 0.113757
0.813503 0.572852 0.119679
0.813503 0.572852 0.119679
0.094432 0.648221 0.094432
0.204663 0.648221 0.094432
0.306022 0.648221 0.094432
0.407380 0.648221 0.094432
0.551206 0.648221 0.094432
0.653999 0.649123 0.095315
0.774734 0.667966 0.113757
0.813503 0.674017 0.119679
0.813503 0.674017 0.119679
0.112743 0.768094 0.112743
0.222973 0.768094 0.112743
0.324332 0.768094 0.112743
0.425691 0.768094 0.112743
0.569914 0.768094 0.112743
0.671806 0.768094 0.112743
0.774734 0.769131 0.113757
0.813503 0.775181 0.119679
0.813503 0.775181 0.119679
0.122175 0.829844 0.122175
0.232405 0.829844 0.122175
0.333764 0.829844 0.122175
0.435123 0.829844 0.122175
0.579551 0.829844 0.122175
0.681443 0.829844 0.122175
0.783335 0.829844 0.122175
0.816053 0.829844 0.122175
0.816053 0.829844 0.122175
0.122175 0.829844 0.122175
0.232405 0.829844 0.122175
0.333764 0.829844 0.122175
0.435123 0.829844 0.122175
0.579551 0.829844 0.122175
0.681443 0.829844 0.122175
0.783335 0.829844 0.122175
0.816053 0.829844 0.122175
0.816053 0.829844 0.122175
0.017141 0.017141 0.109828
0.130615 0.020385 0.113072
0.250719 0.039129 0.131817
0.370822 0.057874 0.150561
0.533264 0.076873 0.169560
0.653999 0.095315 0.188002
0.774734 0.113757 0.206445
0.813503 0.119679 0.212366
0.813503 0.119679 0.212366
0.020023 0.128296 0.112710
0.147756 0.145798 0.130213
0.267859 0.164543 0.148958
0.387963 0.183287 0.167702
0.550778 0.202286 0.186701
0.671513 0.220729 0.205143
0.792248 0.239171 0.223585
0.831017 0.245093 0.229507
0.831017 0.245093 0.229507
0.038634 0.247542 0.131321
0.166005 0.264683 0.148462
0.267859 0.265178 0.148958
0.387963 0.283923 0.167702
0.550778 0.302922 0.186701
0.671513 0.321364 0.205143
0.792248 0.339806 0.223585
0.831017 0.345728 0.229507
0.831017 0.345728 0.229507
0.057244 0.366788 0.149932
0.184615 0.383929 0.167073
0.285974 0.383929 0.167073
0.387963 0.384558 0.167702
0.550778 0.403557 0.186701
0.671513 0.422000 0.205143
0.792248 0.440442 0.223585
0.831017 0.446364 0.229507
0.831017 0.446364 0.229507
0.076122 0.528348 0.168809
0.203493 0.545861 0.185950
0.304852 0.545861 0.185950
0.406211 0.545861 0.185950
0.550778 0.546628 0.186701
0.671513 0.565471 0.205143
0.792248 0.584315 0.223585
0.831017 0.590365 0.229507
0.831017 0.590365 0.229507
0.094432 0.648221 0.187120
0.221804 0.665734 0.204261
0.323162 0.665734 0.204261
0.424521 0.665734 0.204261
0.568719 0.665734 0.204261
0.671513 0.666636 0.205143
0.792248 0.685479 0.223585
0.831017 0.691530 0.229507
0.831017 0.691530 0.229507
0.112743 0.768094 0.205430
0.240114 0.785608 0.222571
0.341473 0.785608 0.222571
0.442832 0.785608 0.222571
0.587428 0.785608 0.222571
0.689319 0.785608 0.222571
0.792248 0.786644 0.223585
0.831017 0.792695 0.229507
0.831017 0.792695 0.229507
0.122175 0.829844 0.214863
0.249546 0.847358 0.232003
0.350905 0.847358 0.232003
0.452264 0.847358 0.232003
0.597065 0.847358 0.232003
0.698957 0.847358 0.232003
0.800849 0.847358 0.232003
0.833567 0.847358 0.232003
0.833567 0.847358 0.232003
0.122175 0.829844 0.214863
0.249546 0.847358 0.232003
0.350905 0.847358 0.232003
0.452264 0.847358 0.232003
0.597065 0.847358 0.232003
0.698957 0.847358 0.232003
0.800849 0.847358 0.232003
0.833567 0.847358 0.232003
0.833567 0.847358 0.232003
0.033285 0.033285 0.213273
0.143516 0.033285 0.213273
0.250719 0.039129 0.219117
0.370822 0.057874 0.237861
0.533264 0.076873 0.256860
0.653999 0.095315 0.275302
0.774734 0.113757 0.293744
0.813503 0.119679 0.299666
0.813503 0.119679 0.299666
0.033285 0.141558 0.213273
0.163539 0.161581 0.233296
0.270742 0.167425 0.239140
0.390845 0.186170 0.257884
0.553723 0.205169 0.276883
0.674458 0.223611 0.295325
0.795193 0.242053 0.313767
0.833961 0.247975 0.319689
0.833961 0.247975 0.319689
0.038634 0.247542 0.218621
0.169249 0.267927 0.239006
0.284004 0.281323 0.252402
0.404107 0.300067 0.271146
0.567273 0.319066 0.290146
0.688008 0.337509 0.308588
0.808743 0.355951 0.327030
0.847512 0.361873 0.332952
0.847512 0.361873 0.332952
0.057244 0.366788 0.237232
0.187860 0.387173 0.257617
0.302119 0.400073 0.270517
0.404107 0.400703 0.271146
0.567273 0.419702 0.290146
0.688008 0.438144 0.308588
0.808743 0.456586 0.327030
0.847512 0.502563 0.332952
0.847512 0.502563 0.332952
0.076122 0.528348 0.256109
0.206737 0.549176 0.276494
0.320996 0.562357 0.289395
0.422355 0.562357 0.289395
0.567273 0.563124 0.290146
0.688008 0.581967 0.308588
0.808743 0.600810 0.327030
0.847512 0.606861 0.332952
0.847512 0.606861 0.332952
0.094432 0.648221 0.274420
0.225048 0.669049 0.294805
0.339307 0.682230 0.307705
0.440666 0.682230 0.307705
0.585214 0.682230 0.307705
0.688008 0.683132 0.308588
0.808743 0.701975 0.327030
0.847512 0.708025 0.332952
0.847512 0.708025 0.332952
0.112743 0.768094 0.292730
0.243358 0.788923 0.313115
0.357617 0.802103 0.326016
0.458976 0.802103 0.326016
0.603923 0.802103 0.326016
0.705815 0.802103 0.326016
0.808743 0.803140 0.327030
0.847512 0.809190 0.332952
0.847512 0.809190 0.332952
0.122175 0.829844 0.302162
0.252791 0.850672 0.322547
0.367050 0.863853 0.335448
0.508591 0.863853 0.335448
0.613560 0.863853 0.335448
0.715452 0.863853 0.335448
0.817344 0.863853 0.335448
0.850062 0.863853 0.335448
0.850062 0.863853 0.335448
0.122175 0.829844 0.302162
0.252791 0.850672 0.322547
0.367050 0.863853 0.335448
0.508591 0.863853 0.335448
0.613560 0.863853 0.335448
0.715452 0.863853 0.335448
0.817344 0.863853 0.335448
0.850062 0.863853 0.335448
0.850062 0.863853 0.335448
0.049430 0.049430 0.316717
0.159660 0.049430 0.316717
0.261019 0.049430 0.316717
0.370822 0.057874 0.325161
0.533264 0.076873 0.344160
0.653999 0.095315 0.362602
0.774734 0.113757 0.381044
0.813503 0.119679 0.386966
0.813503 0.119679 0.386966
0.049430 0.157702 0.316717
0.179683 0.177725 0.336740
0.281042 0.177725 0.336740
0.390845 0.186170 0.345184
0.553723 0.205169 0.364183
0.674458 0.223611 0.382625
0.795193 0.242053 0.401067
0.833961 0.247975 0.406989
0.833961 0.247975 0.406989
0.049430 0.258338 0.316717
0.180045 0.278723 0.337102
0.299653 0.296972 0.355351
0.409456 0.305416 0.363795
0.572738 0.324415 0.382794
0.693473 0.342857 0.401236
0.814208 0.361299 0.419678
0.852977 0.367221 0.425600
0.852977 0.367221 0.425600
0.057244 0.366788 0.324531
0.187860 0.387173 0.344917
0.307963 0.405918 0.363661
0.420252 0.416847 0.374591
0.583769 0.435846 0.393590
0.704504 0.454289 0.412032
0.825239 0.513007 0.430474
0.864008 0.519058 0.436396
0.864008 0.519058 0.436396
0.076122 0.528348 0.343409
0.206737 0.549176 0.363794
0.326841 0.568328 0.382539
0.438500 0.578852 0.392839
0.583769 0.579619 0.393590
0.704504 0.598462 0.412032
0.825239 0.617305 0.430474
0.864008 0.623356 0.436396
0.864008 0.623356 0.436396
0.094432 0.648221 0.361720
0.225048 0.669049 0.382105
0.345151 0.688201 0.400849
0.456810 0.698725 0.411149
0.601710 0.698725 0.411149
0.704504 0.699627 0.412032
0.825239 0.718470 0.430474
0.864008 0.724521 0.436396
0.864008 0.724521 0.436396
0.112743 0.768094 0.380030
0.243358 0.788923 0.400415
0.363462 0.808075 0.419160
0.515449 0.818599 0.429460
0.620418 0.818599 0.429460
0.722310 0.818599 0.429460
0.825239 0.819635 0.430474
0.864008 0.825686 0.436396
0.864008 0.825686 0.436396
0.122175 0.829844 0.389462
0.252791 0.850672 0.409847
0.372894 0.869824 0.428592
0.525087 0.880348 0.438892
0.630056 0.880348 0.438892
0.731948 0.880348 0.438892
0.833840 0.880348 0.438892
0.866558 0.880348 0.438892
0.866558 0.880348 0.438892
0.122175 0.829844 0.389462
0.252791 0.850672 0.409847
0.372894 0.869824 0.428592
0.525087 0.880348 0.438892
0.630056 0.880348 0.438892
0.731948 0.880348 0.438892
0.833840 0.880348 0.438892
0.866558 0.880348 0.438892
0.866558 0.880348 0.438892
0.066007 0.066007 0.422934
0.176237 0.066007 0.422934
0.277596 0.066007 0.422934
0.378955 0.066007 0.422934
0.533264 0.076873 0.433800
0.653999 0.095315 0.452242
0.774734 0.113757 0.510916
0.813503 0.119679 0.516967
0.813503 0.119679 0.516967
0.066007 0.174280 0.422934
0.196260 0.194303 0.442957
0.297619 0.194303 0.442957
0.398978 0.194303 0.442957
0.553723 0.205169 0.453823
0.674458 0.223611 0.512532
0.795193 0.242053 0.531375
0.833961 0.247975 0.537425
0.833961 0.247975 0.537425
0.066007 0.274915 0.422934
0.196622 0.295300 0.443319
0.316230 0.313549 0.501602
0.417589 0.313549 0.501602
0.572738 0.324415 0.512704
0.693473 0.342857 0.531547
0.814208 0.361299 0.550390
0.852977 0.367221 0.556441
0.852977 0.367221 0.556441
0.066007 0.375551 0.422934
0.196622 0.395936 0.443319
0.316726 0.414680 0.502108
0.436199 0.432795 0.520617
0.591753 0.443661 0.531719
0.712488 0.502149 0.550562
0.833223 0.520992 0.569405
0.871992 0.527043 0.575456
0.871992 0.527043 0.575456
0.076122 0.528348 0.433049
0.206737 0.549176 0.453434
0.326841 0.568328 0.512443
0.446944 0.587480 0.531595
0.600706 0.596557 0.540672
0.721441 0.615400 0.559515
0.842176 0.634243 0.578358
0.880945 0.640294 0.584409
0.880945 0.640294 0.584409
0.094432 0.648221 0.451360
0.225048 0.669049 0.512000
0.345151 0.688201 0.531152
0.505369 0.707353 0.550304
0.618648 0.715663 0.558614
0.721441 0.716565 0.559515
0.842176 0.735408 0.578358
0.880945 0.741459 0.584409
0.880945 0.741459 0.584409
0.112743 0.768094 0.509880
0.243358 0.788923 0.530708
0.363462 0.808075 0.549860
0.524077 0.827226 0.569012
0.637356 0.835536 0.577322
0.739248 0.835536 0.577322
0.842176 0.836573 0.578358
0.880945 0.842623 0.584409
0.880945 0.842623 0.584409
0.122175 0.829844 0.519517
0.252791 0.850672 0.540346
0.372894 0.869824 0.559498
0.533714 0.888976 0.578650
0.646993 0.897286 0.586959
0.748885 0.897286 0.586959
0.850777 0.897286 0.586959
0.883495 0.897286 0.586959
0.883495 0.897286 0.586959
0.122175 0.829844 0.519517
0.252791 0.850672 0.540346
0.372894 0.869824 0.559498
0.533714 0.888976 0.578650
0.646993 0.897286 0.586959
0.748885 0.897286 0.586959
0.850777 0.897286 0.586959
0.883495 0.897286 0.586959
0.883495 0.897286 0.586959
0.081891 0.081891 0.566117
0.192121 0.081891 0.566117
0.293480 0.081891 0.566117
0.394839 0.081891 0.566117
0.538392 0.081891 0.566117
0.653999 0.095315 0.579832
0.774734 0.113757 0.598676
0.813503 0.119679 0.604726
0.813503 0.119679 0.604726
0.081891 0.190164 0.566117
0.212144 0.210187 0.586575
0.313503 0.210187 0.586575
0.414862 0.210187 0.586575
0.558850 0.210187 0.586575
0.674458 0.223611 0.600291
0.795193 0.242053 0.619134
0.833961 0.247975 0.625184
0.833961 0.247975 0.625184
0.081891 0.290799 0.566117
0.212506 0.311184 0.586945
0.332114 0.329433 0.605590
0.433473 0.329433 0.605590
0.577865 0.329433 0.605590
0.693473 0.342857 0.619306
0.814208 0.361299 0.638149
0.852977 0.367221 0.644200
0.852977 0.367221 0.644200
0.081891 0.391435 0.566117
0.212506 0.411820 0.586945
0.332610 0.430564 0.606097
0.452083 0.448679 0.624606
0.596880 0.448679 0.624606
0.712488 0.502149 0.638321
0.833223 0.520992 0.657164
0.871992 0.527043 0.663215
0.871992 0.527043 0.663215
0.081891 0.534242 0.566117
0.212506 0.555070 0.586945
0.332610 0.574222 0.606097
0.452713 0.593374 0.625249
0.616168 0.612019 0.643894
0.731776 0.625735 0.657609
0.852511 0.644578 0.676452
0.891280 0.650629 0.682503
0.891280 0.650629 0.682503
0.094432 0.648221 0.578931
0.225048 0.669049 0.599759
0.345151 0.688201 0.618911
0.505369 0.707353 0.638063
0.629750 0.726765 0.657475
0.737671 0.732794 0.663504
0.858406 0.751637 0.682347
0.897175 0.757688 0.688398
0.897175 0.757688 0.688398
0.112743 0.768094 0.597639
0.243358 0.788923 0.618467
0.363462 0.808075 0.637619
0.524077 0.827226 0.656771
0.648458 0.846639 0.676183
0.755477 0.851766 0.681311
0.858406 0.852802 0.682347
0.897175 0.858853 0.688398
0.897175 0.858853 0.688398
0.122175 0.829844 0.607276
0.252791 0.850672 0.628105
0.372894 0.869824 0.647257
0.533714 0.888976 0.666409
0.658096 0.908388 0.685821
0.765115 0.913515 0.690948
0.867007 0.913515 0.690948
0.899725 0.913515 0.690948
0.899725 0.913515 0.690948
0.122175 0.829844 0.607276
0.252791 0.850672 0.628105
0.372894 0.869824 0.647257
0.533714 0.888976 0.666409
0.658096 0.908388 0.685821
0.765115 0.913515 0.690948
0.867007 0.913515 0.690948
0.899725 0.913515 0.690948
0.899725 0.913515 0.690948
0.097775 0.097775 0.670105
0.208006 0.097775 0.670105
0.309364 0.097775 0.670105
0.410723 0.097775 0.670105
0.554621 0.097775 0.670105
0.656513 0.097775 0.670105
0.774734 0.113757 0.686435
0.813503 0.119679 0.692485
0.813503 0.119679 0.692485
0.097775 0.206048 0.670105
0.228029 0.226071 0.690563
0.329387 0.226071 0.690563
0.430746 0.226071 0.690563
0.575079 0.226071 0.690563
0.676971 0.226071 0.690563
0.795193 0.242053 0.706893
0.833961 0.247975 0.712943
0.833961 0.247975 0.712943
0.097775 0.306683 0.670105
0.228391 0.327068 0.690933
0.347998 0.345317 0.709579
0.449357 0.345317 0.709579
0.594095 0.345317 0.709579
0.695986 0.345317 0.709579
0.814208 0.361299 0.725908
0.852977 0.367221 0.731959
0.852977 0.367221 0.731959
0.097775 0.407319 0.670105
0.228391 0.427704 0.690933
0.348494 0.446448 0.710085
0.508141 0.504662 0.728594
0.613110 0.504662 0.728594
0.715002 0.504662 0.728594
0.833223 0.520992 0.744923
0.871992 0.527043 0.750974
0.871992 0.527043 0.750974
0.097775 0.550472 0.670105
0.228391 0.571300 0.690933
0.348494 0.590452 0.710085
0.508784 0.609604 0.729237
0.632398 0.628248 0.747882
0.734290 0.628248 0.747882
0.852511 0.644578 0.764211
0.891280 0.650629 0.770262
0.891280 0.650629 0.770262
0.097775 0.651636 0.670105
0.228391 0.672465 0.690933
0.348494 0.691617 0.710085
0.508784 0.710769 0.729237
0.633165 0.730181 0.748649
0.752998 0.748122 0.766591
0.871220 0.764451 0.782920
0.909989 0.770502 0.788971
0.909989 0.770502 0.788971
0.112743 0.768094 0.685398
0.243358 0.788923 0.706226
0.363462 0.808075 0.725378
0.524077 0.827226 0.744530
0.648458 0.846639 0.763942
0.769193 0.865482 0.782785
0.874635 0.869031 0.786335
0.913404 0.875082 0.792386
0.913404 0.875082 0.792386
0.122175 0.829844 0.695035
0.252791 0.850672 0.715864
0.372894 0.869824 0.735016
0.533714 0.888976 0.754168
0.658096 0.908388 0.773580
0.778830 0.927231 0.792423
0.883236 0.929745 0.794936
0.915954 0.929745 0.794936
0.915954 0.929745 0.794936
0.122175 0.829844 0.695035
0.252791 0.850672 0.715864
0.372894 0.869824 0.735016
0.533714 0.888976 0.754168
0.658096 0.908388 0.773580
0.778830 0.927231 0.792423
0.883236 0.929745 0.794936
0.915954 0.929745 0.794936
0.915954 0.929745 0.794936
0.105958 0.105958 0.723672
0.216188 0.105958 0.723672
0.317547 0.105958 0.723672
0.418905 0.105958 0.723672
0.562981 0.105958 0.723672
0.664873 0.105958 0.723672
0.774734 0.113757 0.731641
0.813503 0.119679 0.737692
0.813503 0.119679 0.737692
0.105958 0.214230 0.723672
0.236211 0.234253 0.744130
0.337570 0.234253 0.744130
0.438929 0.234253 0.744130
0.583439 0.234253 0.744130
0.685331 0.234253 0.744130
0.795193 0.242053 0.752100
0.833961 0.247975 0.758150
0.833961 0.247975 0.758150
0.105958 0.314866 0.723672
0.236573 0.335251 0.744500
0.356180 0.353499 0.763146
0.457539 0.353499 0.763146
0.602455 0.353499 0.763146
0.704347 0.353499 0.763146
0.814208 0.361299 0.771115
0.852977 0.367221 0.777166
0.852977 0.367221 0.777166
0.105958 0.415501 0.723672
0.236573 0.435886 0.744500
0.356676 0.454631 0.763652
0.516501 0.513023 0.782161
0.621470 0.513023 0.782161
0.723362 0.513023 0.782161
0.833223 0.520992 0.790130
0.871992 0.527043 0.796181
0.871992 0.527043 0.796181
0.105958 0.558832 0.723672
0.236573 0.579660 0.744500
0.356676 0.598812 0.763652
0.517144 0.617964 0.782804
0.640758 0.636609 0.801449
0.742650 0.636609 0.801449
0.852511 0.644578 0.809418
0.891280 0.650629 0.815469
0.891280 0.650629 0.815469
0.105958 0.659997 0.723672
0.236573 0.680825 0.744500
0.356676 0.699977 0.763652
0.517144 0.719129 0.782804
0.641525 0.738541 0.802216
0.761358 0.756482 0.820157
0.871220 0.764451 0.828127
0.909989 0.770502 0.834177
0.909989 0.770502 0.834177
0.112743 0.768094 0.730605
0.243358 0.788923 0.751433
0.363462 0.808075 0.770585
0.524077 0.827226 0.789737
0.648458 0.846639 0.809149
0.769193 0.865482 0.827992
0.882995 0.877392 0.839902
0.921764 0.883442 0.845953
0.921764 0.883442 0.845953
0.122175 0.829844 0.740242
0.252791 0.850672 0.761071
0.372894 0.869824 0.780222
0.533714 0.888976 0.799374
0.658096 0.908388 0.818786
0.778830 0.927231 0.837629
0.891596 0.938105 0.848503
0.924314 0.938105 0.848503
0.924314 0.938105 0.848503
0.122175 0.829844 0.740242
0.252791 0.850672 0.761071
0.372894 0.869824 0.780222
0.533714 0.888976 0.799374
0.658096 0.908388 0.818786
0.778830 0.927231 0.837629
0.891596 0.938105 0.848503
0.924314 0.938105 0.848503
0.924314 0.938105 0.848503
0.105958 0.105958 0.723672
0.216188 0.105958 0.723672
0.317547 0.105958 0.723672
0.418905 0.105958 0.723672
0.562981 0.105958 0.723672
0.664873 0.105958 0.723672
0.774734 0.113757 0.731641
0.813503 0.119679 0.737692
0.813503 0.119679 0.737692
0.105958 0.214230 0.723672
0.236211 0.234253 0.744130
0.337570 0.234253 0.744130
0.438929 0.234253 0.744130
0.583439 0.234253 0.744130
0.685331 0.234253 0.744130
0.795193 0.242053 0.752100
0.833961 0.247975 0.758150
0.833961 0.247975 0.758150
0.105958 0.314866 0.723672
0.236573 0.335251 0.744500
0.356180 0.353499 0.763146
0.457539 0.353499 0.763146
0.602455 0.353499 0.763146
0.704347 0.353499 0.763146
0.814208 0.361299 0.771115
0.852977 0.367221 0.777166
0.852977 0.367221 0.777166
0.105958 0.415501 0.723672
0.236573 0.435886 0.744500
0.356676 0.454631 0.763652
0.516501 0.513023 0.782161
0.621470 0.513023 0.782161
0.723362 0.513023 0.782161
0.833223 0.520992 0.790130
0.871992 0.527043 0.796181
0.871992 0.527043 0.796181
0.105958 0.558832 0.723672
0.236573 0.579660 0.744500
0.356676 0.598812 0.763652
0.517144 0.617964 0.782804
0.640758 0.636609 0.801449
0.742650 0.636609 0.801449
0.852511 0.644578 0.809418
0.891280 0.650629 0.815469
0.891280 0.650629 0.815469
0.105958 0.659997 0.723672
0.236573 0.680825 0.744500
0.356676 0.699977 0.763652
0.517144 0.719129 0.782804
0.641525 0.738541 0.802216
0.761358 0.756482 0.820157
0.871220 0.764451 0.828127
0.909989 0.770502 0.834177
0.909989 0.770502 0.834177
0.112743 0.768094 0.730605
0.243358 0.788923 0.751433
0.363462 0.808075 0.770585
0.524077 0.827226 0.789737
0.648458 0.846639 0.809149
0.769193 0.865482 0.827992
0.882995 0.877392 0.839902
0.921764 0.883442 0.845953
0.921764 0.883442 0.845953
0.122175 0.829844 0.740242
0.252791 0.850672 0.761071
0.372894 0.869824 0.780222
0.533714 0.888976 0.799374
0.658096 0.908388 0.818786
0.778830 0.927231 0.837629
0.891596 0.938105 0.848503
0.924314 0.938105 0.848503
0.924314 0.938105 0.848503
0.122175 0.829844 0.740242
0.252791 0.850672 0.761071
0.372894 0.869824 0.780222
0.533714 0.888976 0.799374
0.658096 0.908388 0.818786
0.778830 0.927231 0.837629
0.891596 0.938105 0.848503
0.924314 0.938105 0.848503
0.924314 0.938105 0.848503
