docs/luts/fuji_recipes/Classic_RR_Agfacolor_Vintage.cube
TITLE "Fujifilm Recipe: RR Agfacolor Vintage (Classic)"
# FilmSim=Classic HL=2 SH=1 Col=-4 WB=Auto WBR=-3 WBB=-4
LUT_3D_SIZE 9
DOMAIN_MIN 0.0 0.0 0.0
DOMAIN_MAX 1.0 1.0 1.0
0.000000 0.000000 0.000000
0.057629 0.038069 0.038069
0.117911 0.077889 0.077889
0.178192 0.117710 0.117710
0.238474 0.157530 0.157530
0.300874 0.198751 0.198751
0.375972 0.246810 0.246810
0.442097 0.289822 0.289822
0.508221 0.332834 0.332834
0.040896 0.061910 0.040896
0.060457 0.061910 0.040896
0.117911 0.098903 0.077889
0.178192 0.138723 0.117710
0.238474 0.178544 0.157530
0.300874 0.219764 0.198751
0.375972 0.267824 0.246810
0.442097 0.310836 0.289822
0.508221 0.353848 0.332834
0.083766 0.126806 0.083766
0.103326 0.126806 0.083766
0.123787 0.126806 0.083766
0.178192 0.160751 0.117710
0.238474 0.200571 0.157530
0.300874 0.241791 0.198751
0.375972 0.289851 0.246810
0.442097 0.332863 0.289822
0.508221 0.375875 0.332834
0.126635 0.191703 0.126635
0.146196 0.191703 0.126635
0.166656 0.191703 0.126635
0.187117 0.191703 0.126635
0.238474 0.222599 0.157530
0.300874 0.263819 0.198751
0.375972 0.311879 0.246810
0.442097 0.354891 0.289822
0.508221 0.397903 0.332834
0.169504 0.256600 0.169504
0.189065 0.256600 0.169504
0.209526 0.256600 0.169504
0.229987 0.256600 0.169504
0.250448 0.256600 0.169504
0.300874 0.285846 0.198751
0.375972 0.333906 0.246810
0.442097 0.376918 0.289822
0.508221 0.419930 0.332834
0.213531 0.323249 0.213531
0.233092 0.323249 0.213531
0.253552 0.323249 0.213531
0.274013 0.323249 0.213531
0.294474 0.323249 0.213531
0.315654 0.323249 0.213531
0.375972 0.356528 0.246810
0.442097 0.405346 0.289822
0.508221 0.448824 0.332834
0.266330 0.405981 0.266330
0.285891 0.405981 0.266330
0.306352 0.405981 0.266330
0.326813 0.405981 0.266330
0.347273 0.405981 0.266330
0.368453 0.405981 0.266330
0.395703 0.405981 0.266330
0.442097 0.429727 0.289822
0.508221 0.473205 0.332834
0.312635 0.477168 0.312635
0.332196 0.477168 0.312635
0.352657 0.477168 0.312635
0.373118 0.477168 0.312635
0.393579 0.477168 0.312635
0.414759 0.477168 0.312635
0.442509 0.477168 0.312635
0.465157 0.477168 0.312635
0.508221 0.497586 0.332834
0.358940 0.548356 0.358940
0.378501 0.548356 0.358940
0.398962 0.548356 0.358940
0.419423 0.548356 0.358940
0.439884 0.548356 0.358940
0.466668 0.548356 0.358940
0.489315 0.548356 0.358940
0.511963 0.548356 0.358940
0.534610 0.548356 0.358940
0.036310 0.036310 0.054967
0.057629 0.038069 0.056725
0.117911 0.077889 0.096546
0.178192 0.117710 0.136367
0.238474 0.157530 0.176187
0.300874 0.198751 0.217407
0.375972 0.246810 0.265467
0.442097 0.289822 0.308479
0.508221 0.332834 0.351491
0.040896 0.061910 0.059553
0.096767 0.098219 0.095863
0.154220 0.135212 0.132856
0.214502 0.175033 0.172676
0.274783 0.214854 0.212497
0.337183 0.256074 0.253717
0.413268 0.304688 0.302332
0.479392 0.347700 0.345344
0.545517 0.390712 0.388355
0.083766 0.126806 0.102422
0.139636 0.163116 0.138732
0.160097 0.163116 0.138732
0.214502 0.197060 0.172676
0.274783 0.236881 0.212497
0.337183 0.278101 0.253717
0.413268 0.326716 0.302332
0.479392 0.369728 0.345344
0.545517 0.412739 0.388355
0.126635 0.191703 0.145292
0.182505 0.228013 0.181602
0.202966 0.228013 0.181602
0.223427 0.228013 0.181602
0.274783 0.258908 0.212497
0.337183 0.300129 0.253717
0.413268 0.348743 0.302332
0.479392 0.391755 0.345344
0.545517 0.434767 0.388355
0.169504 0.256600 0.188161
0.225375 0.292910 0.224471
0.245836 0.292910 0.224471
0.266296 0.292910 0.224471
0.286757 0.292910 0.224471
0.337183 0.322156 0.253717
0.413268 0.370770 0.302332
0.479392 0.413782 0.345344
0.545517 0.456794 0.388355
0.213531 0.323249 0.232188
0.269401 0.359559 0.268498
0.289862 0.359559 0.268498
0.310323 0.359559 0.268498
0.330784 0.359559 0.268498
0.351964 0.359559 0.268498
0.413268 0.399165 0.302332
0.479392 0.442642 0.345344
0.545517 0.486119 0.388355
0.266330 0.405981 0.284987
0.322755 0.443277 0.321851
0.343216 0.443277 0.321851
0.363677 0.443277 0.321851
0.384138 0.443277 0.321851
0.405318 0.443277 0.321851
0.432999 0.443277 0.321851
0.479392 0.467023 0.345344
0.545517 0.510500 0.388355
0.312635 0.477168 0.331292
0.369060 0.514464 0.368157
0.389521 0.514464 0.368157
0.409982 0.514464 0.368157
0.430443 0.514464 0.368157
0.451623 0.514464 0.368157
0.479805 0.514464 0.368157
0.502452 0.514464 0.368157
0.545517 0.534881 0.388355
0.358940 0.548356 0.377597
0.415365 0.585651 0.414462
0.435826 0.585651 0.414462
0.456287 0.585651 0.414462
0.476748 0.585651 0.414462
0.503964 0.585651 0.414462
0.526611 0.585651 0.414462
0.549258 0.585651 0.414462
0.571905 0.585651 0.414462
0.074566 0.074566 0.112879
0.094126 0.074566 0.112879
0.117911 0.077889 0.116203
0.178192 0.117710 0.156023
0.238474 0.157530 0.195844
0.300874 0.198751 0.237064
0.375972 0.246810 0.285124
0.442097 0.289822 0.328136
0.508221 0.332834 0.371148
0.074566 0.095579 0.112879
0.132195 0.133648 0.150948
0.158807 0.139799 0.157099
0.219088 0.179619 0.196920
0.279370 0.219440 0.236740
0.341770 0.260660 0.277960
0.417979 0.309345 0.326645
0.484103 0.352356 0.369657
0.550228 0.395368 0.412669
0.083766 0.126806 0.122079
0.141395 0.164875 0.160148
0.198353 0.201372 0.196645
0.252758 0.235316 0.230589
0.313039 0.275137 0.270410
0.375439 0.316357 0.311630
0.452562 0.365556 0.360828
0.518687 0.408567 0.403840
0.584811 0.451579 0.446852
0.126635 0.191703 0.164949
0.184264 0.229772 0.203017
0.241222 0.266269 0.239514
0.261683 0.266269 0.239514
0.313039 0.297164 0.270410
0.375439 0.338384 0.311630
0.452562 0.387583 0.360828
0.518687 0.430595 0.403840
0.584811 0.473607 0.446852
0.169504 0.256600 0.207818
0.227133 0.294669 0.245887
0.284091 0.331166 0.282384
0.304552 0.331166 0.282384
0.325013 0.331166 0.282384
0.375439 0.360412 0.311630
0.452562 0.409610 0.360828
0.518687 0.452622 0.403840
0.584811 0.495634 0.446852
0.213531 0.323249 0.251845
0.271160 0.361317 0.289913
0.335751 0.411384 0.334043
0.356212 0.411384 0.334043
0.376673 0.411384 0.334043
0.397853 0.411384 0.334043
0.452562 0.438459 0.360828
0.518687 0.481936 0.403840
0.584811 0.525414 0.446852
0.266330 0.405981 0.304644
0.324541 0.445083 0.343294
0.382056 0.482571 0.380348
0.402517 0.482571 0.380348
0.422978 0.482571 0.380348
0.444158 0.482571 0.380348
0.472293 0.482571 0.380348
0.518687 0.506317 0.403840
0.584811 0.549795 0.446852
0.312635 0.477168 0.350949
0.370846 0.516270 0.389599
0.428361 0.553758 0.426653
0.448822 0.553758 0.426653
0.469283 0.553758 0.426653
0.496452 0.553758 0.426653
0.519099 0.553758 0.426653
0.541747 0.553758 0.426653
0.584811 0.574176 0.446852
0.358940 0.548356 0.397254
0.417151 0.587458 0.435904
0.474666 0.624946 0.472958
0.495127 0.624946 0.472958
0.515588 0.624946 0.472958
0.543258 0.624946 0.472958
0.565905 0.624946 0.472958
0.588553 0.624946 0.472958
0.611200 0.624946 0.472958
0.112821 0.112821 0.170792
0.132382 0.112821 0.170792
0.152843 0.112821 0.170792
0.178192 0.117710 0.175680
0.238474 0.157530 0.215501
0.300874 0.198751 0.256721
0.375972 0.246810 0.304781
0.442097 0.289822 0.347793
0.508221 0.332834 0.390805
0.112821 0.133835 0.170792
0.170450 0.171903 0.208860
0.193739 0.174731 0.211688
0.219088 0.179619 0.216576
0.279370 0.219440 0.256397
0.341770 0.260660 0.297617
0.417979 0.309345 0.346302
0.484103 0.352356 0.389314
0.550228 0.395368 0.432325
0.112821 0.155862 0.170792
0.170450 0.193931 0.208860
0.230732 0.233751 0.248681
0.261958 0.244516 0.259446
0.322239 0.284337 0.299266
0.384639 0.325557 0.340487
0.462012 0.374896 0.389826
0.528136 0.417908 0.432838
0.594261 0.460920 0.475850
0.126635 0.191703 0.184605
0.184264 0.229772 0.222674
0.244546 0.269592 0.262495
0.299939 0.304525 0.297427
0.351295 0.335420 0.328322
0.413695 0.376640 0.369542
0.491857 0.426423 0.419325
0.557981 0.469435 0.462337
0.624106 0.512447 0.505349
0.169504 0.256600 0.227475
0.227133 0.294669 0.265543
0.287415 0.334489 0.305364
0.342808 0.369421 0.340296
0.363269 0.369421 0.340296
0.413695 0.398668 0.369542
0.491857 0.448450 0.419325
0.557981 0.491462 0.462337
0.624106 0.534474 0.505349
0.213531 0.323249 0.271502
0.271160 0.361317 0.309570
0.339125 0.414798 0.357074
0.395052 0.450678 0.392540
0.415513 0.450678 0.392540
0.436693 0.450678 0.392540
0.491857 0.477753 0.419325
0.557981 0.521231 0.462337
0.624106 0.564708 0.505349
0.266330 0.405981 0.324301
0.324541 0.445083 0.362951
0.385430 0.485985 0.403379
0.441357 0.521866 0.438845
0.461818 0.521866 0.438845
0.488940 0.521866 0.438845
0.511588 0.521866 0.438845
0.557981 0.545612 0.462337
0.624106 0.589089 0.505349
0.312635 0.477168 0.370606
0.370846 0.516270 0.409256
0.431735 0.557172 0.449684
0.487662 0.593053 0.485150
0.508123 0.593053 0.485150
0.535747 0.593053 0.485150
0.558394 0.593053 0.485150
0.581041 0.593053 0.485150
0.624106 0.613470 0.505349
0.358940 0.548356 0.416911
0.417151 0.587458 0.455561
0.478041 0.628359 0.495990
0.533967 0.664240 0.531455
0.554428 0.664240 0.531455
0.582553 0.664240 0.531455
0.605200 0.664240 0.531455
0.627847 0.664240 0.531455
0.650494 0.664240 0.531455
0.151077 0.151077 0.228704
0.170638 0.151077 0.228704
0.191099 0.151077 0.228704
0.211559 0.151077 0.228704
0.238474 0.157530 0.235158
0.300874 0.198751 0.276378
0.375972 0.246810 0.324438
0.442097 0.289822 0.367450
0.508221 0.332834 0.410462
0.151077 0.172091 0.228704
0.208706 0.210159 0.266773
0.231995 0.212987 0.269601
0.252456 0.212987 0.269601
0.279370 0.219440 0.276054
0.341770 0.260660 0.317274
0.417979 0.309345 0.365958
0.484103 0.352356 0.408970
0.550228 0.395368 0.451982
0.151077 0.194118 0.228704
0.208706 0.232187 0.266773
0.268988 0.272007 0.306594
0.295325 0.277883 0.312470
0.322239 0.284337 0.318923
0.384639 0.325557 0.360143
0.462012 0.374896 0.409482
0.528136 0.417908 0.452494
0.594261 0.460920 0.495506
0.151077 0.216145 0.228704
0.208706 0.254214 0.266773
0.268988 0.294035 0.306594
0.329269 0.333855 0.346414
0.365108 0.349234 0.361793
0.427509 0.390454 0.403013
0.506045 0.440448 0.453007
0.572170 0.483459 0.496018
0.638294 0.526471 0.539030
0.169504 0.256600 0.247132
0.227133 0.294669 0.285200
0.287415 0.334489 0.325021
0.347696 0.374310 0.364841
0.401525 0.407677 0.398209
0.465026 0.444278 0.434810
0.531151 0.487290 0.477822
0.597275 0.530302 0.520834
0.663400 0.573314 0.563846
0.213531 0.323249 0.291158
0.271160 0.361317 0.329227
0.339125 0.414798 0.376731
0.400015 0.455699 0.417160
0.454353 0.489973 0.451037
0.481429 0.489973 0.451037
0.531151 0.517048 0.477822
0.597275 0.560525 0.520834
0.663400 0.604002 0.563846
0.266330 0.405981 0.343958
0.324541 0.445083 0.382607
0.385430 0.485985 0.423036
0.446320 0.526887 0.463465
0.500658 0.561160 0.497342
0.528235 0.561160 0.497342
0.550882 0.561160 0.497342
0.597275 0.584906 0.520834
0.663400 0.628383 0.563846
0.312635 0.477168 0.390263
0.370846 0.516270 0.428913
0.431735 0.557172 0.469341
0.492625 0.598074 0.509770
0.546963 0.632347 0.543647
0.575041 0.632347 0.543647
0.597688 0.632347 0.543647
0.620335 0.632347 0.543647
0.663400 0.652765 0.563846
0.358940 0.548356 0.436568
0.417151 0.587458 0.475218
0.478041 0.628359 0.515646
0.538930 0.669261 0.556075
0.593268 0.703534 0.589952
0.621847 0.703534 0.589952
0.644494 0.703534 0.589952
0.667141 0.703534 0.589952
0.689789 0.703534 0.589952
0.189333 0.189333 0.286617
0.208893 0.189333 0.286617
0.229354 0.189333 0.286617
0.249815 0.189333 0.286617
0.270276 0.189333 0.286617
0.300874 0.198751 0.296035
0.375972 0.246810 0.344094
0.442097 0.289822 0.387106
0.508221 0.332834 0.430118
0.189333 0.210346 0.286617
0.246962 0.248415 0.324685
0.270250 0.251242 0.327513
0.290711 0.251242 0.327513
0.311172 0.251242 0.327513
0.341770 0.260660 0.336931
0.417979 0.309345 0.385615
0.484103 0.352356 0.428627
0.550228 0.395368 0.471639
0.189333 0.232374 0.286617
0.246962 0.270442 0.324685
0.307243 0.310263 0.364506
0.333581 0.316139 0.370382
0.354042 0.316139 0.370382
0.384639 0.325557 0.379800
0.462012 0.374896 0.429139
0.528136 0.417908 0.472151
0.594261 0.460920 0.520875
0.189333 0.254401 0.286617
0.246962 0.292470 0.324685
0.307243 0.332290 0.364506
0.367525 0.372111 0.404327
0.396911 0.381036 0.413252
0.427509 0.390454 0.422670
0.506045 0.440448 0.472663
0.572170 0.483459 0.521431
0.638294 0.526471 0.564909
0.189333 0.276429 0.286617
0.246962 0.314497 0.324685
0.307243 0.354318 0.364506
0.367525 0.394138 0.404327
0.427806 0.433959 0.444147
0.483954 0.462987 0.473175
0.550078 0.505999 0.521987
0.616203 0.549011 0.565465
0.682328 0.592023 0.608942
0.213531 0.323249 0.310815
0.271160 0.361317 0.348884
0.339125 0.414798 0.396388
0.400015 0.455699 0.436817
0.460904 0.496601 0.477245
0.528110 0.536654 0.522666
0.578205 0.564102 0.550114
0.644928 0.608178 0.594190
0.711651 0.652253 0.638265
0.266330 0.405981 0.363614
0.324541 0.445083 0.402264
0.385430 0.485985 0.442693
0.446320 0.526887 0.483122
0.507210 0.567788 0.529419
0.575561 0.608486 0.570117
0.598208 0.608486 0.570117
0.644928 0.632559 0.594190
0.711651 0.676634 0.638265
0.312635 0.477168 0.409919
0.370846 0.516270 0.448569
0.431735 0.557172 0.488998
0.492625 0.598074 0.535324
0.553515 0.638976 0.576225
0.623011 0.680317 0.617567
0.645658 0.680317 0.617567
0.668305 0.680317 0.617567
0.711651 0.701015 0.638265
0.358940 0.548356 0.456225
0.417151 0.587458 0.494874
0.478041 0.628359 0.541228
0.538930 0.669261 0.582130
0.599820 0.710163 0.623032
0.670461 0.752148 0.665017
0.693108 0.752148 0.665017
0.715755 0.752148 0.665017
0.738403 0.752148 0.665017
0.236459 0.236459 0.360059
0.256020 0.236459 0.360059
0.276481 0.236459 0.360059
0.296942 0.236459 0.360059
0.317403 0.236459 0.360059
0.338583 0.236459 0.360059
0.375972 0.246810 0.370522
0.442097 0.289822 0.413999
0.508221 0.332834 0.457477
0.236459 0.257473 0.360059
0.294670 0.296123 0.399161
0.318002 0.298994 0.402066
0.338462 0.298994 0.402066
0.358923 0.298994 0.402066
0.380103 0.298994 0.402066
0.417979 0.309345 0.412529
0.484103 0.352356 0.456006
0.550228 0.395368 0.499483
0.236459 0.279500 0.360059
0.294670 0.318150 0.399161
0.355559 0.358579 0.440063
0.381986 0.364545 0.446099
0.402447 0.364545 0.446099
0.423627 0.364545 0.446099
0.462012 0.374896 0.456562
0.528136 0.417908 0.500039
0.594261 0.460920 0.543516
0.236459 0.301528 0.360059
0.294670 0.340178 0.399161
0.355559 0.380606 0.440063
0.416449 0.421035 0.480965
0.445971 0.430097 0.490132
0.472935 0.430097 0.490132
0.506045 0.440448 0.500595
0.572170 0.483459 0.544072
0.638294 0.526471 0.587550
0.236459 0.323555 0.360059
0.294670 0.362205 0.399161
0.355559 0.402634 0.440063
0.416449 0.443062 0.480965
0.477339 0.483491 0.521866
0.516968 0.495648 0.534165
0.550078 0.505999 0.544628
0.616203 0.549011 0.588106
0.682328 0.592023 0.631583
0.236459 0.346177 0.360059
0.294670 0.390508 0.399161
0.355559 0.431410 0.440063
0.416449 0.472311 0.480965
0.477339 0.513213 0.521866
0.555546 0.564090 0.572743
0.605428 0.591325 0.599978
0.672151 0.635400 0.644054
0.738874 0.679476 0.688129
0.266330 0.405981 0.390253
0.324541 0.445083 0.429355
0.385430 0.485985 0.470257
0.446320 0.526887 0.511159
0.507210 0.567788 0.552060
0.586156 0.619081 0.603353
0.642271 0.652549 0.636821
0.688992 0.676622 0.660894
0.755714 0.720698 0.704970
0.312635 0.477168 0.437059
0.370846 0.516270 0.476161
0.431735 0.557172 0.517063
0.492625 0.598074 0.557965
0.553515 0.638976 0.598866
0.633606 0.690912 0.650803
0.689722 0.724381 0.684271
0.712369 0.724381 0.684271
0.755714 0.745079 0.704970
0.358940 0.548356 0.483865
0.417151 0.587458 0.522967
0.478041 0.628359 0.563869
0.538930 0.669261 0.604771
0.599820 0.710163 0.645673
0.681056 0.762743 0.698253
0.737172 0.796212 0.731722
0.759819 0.796212 0.731722
0.782466 0.796212 0.731722
0.277781 0.277781 0.423585
0.297342 0.277781 0.423585
0.317803 0.277781 0.423585
0.338263 0.277781 0.423585
0.358724 0.277781 0.423585
0.379904 0.277781 0.423585
0.407278 0.277781 0.423585
0.442097 0.289822 0.435757
0.508221 0.332834 0.479234
0.277781 0.298795 0.423585
0.335992 0.337444 0.462687
0.359323 0.340315 0.465592
0.379784 0.340315 0.465592
0.400245 0.340315 0.465592
0.421425 0.340315 0.465592
0.449284 0.340315 0.465592
0.484103 0.352356 0.477763
0.550228 0.395368 0.521240
0.277781 0.320822 0.423585
0.335992 0.359472 0.462687
0.396881 0.399901 0.503589
0.423308 0.405867 0.509625
0.443769 0.405867 0.509625
0.470671 0.405867 0.509625
0.493318 0.405867 0.509625
0.528136 0.417908 0.521796
0.594261 0.460920 0.565274
0.277781 0.342849 0.423585
0.335992 0.381499 0.462687
0.396881 0.421928 0.503589
0.457771 0.462357 0.544491
0.487293 0.471418 0.553658
0.514704 0.471418 0.553658
0.537351 0.471418 0.553658
0.572170 0.483459 0.565830
0.638294 0.526471 0.609307
0.277781 0.364877 0.423585
0.335992 0.403527 0.462687
0.396881 0.443955 0.503589
0.457771 0.484384 0.544491
0.518660 0.524813 0.585392
0.558737 0.536970 0.597691
0.581384 0.536970 0.597691
0.616203 0.549011 0.609863
0.682328 0.592023 0.653340
0.277781 0.393175 0.423585
0.335992 0.432277 0.462687
0.396881 0.473179 0.503589
0.457771 0.514080 0.544491
0.518660 0.554982 0.585392
0.597889 0.606433 0.636844
0.637165 0.623061 0.653472
0.672151 0.635400 0.665811
0.738874 0.679476 0.709886
0.277781 0.417556 0.423585
0.335992 0.456658 0.462687
0.396881 0.497560 0.503589
0.457771 0.538461 0.544491
0.518660 0.579363 0.585392
0.597889 0.630815 0.636844
0.664612 0.674890 0.680919
0.719601 0.707232 0.713261
0.786324 0.751307 0.757337
0.312635 0.477168 0.458816
0.370846 0.516270 0.497919
0.431735 0.557172 0.538820
0.492625 0.598074 0.579722
0.553515 0.638976 0.620624
0.633606 0.690912 0.672560
0.700329 0.734988 0.716636
0.754712 0.766724 0.748372
0.798058 0.787423 0.769071
0.358940 0.548356 0.505623
0.417151 0.587458 0.544725
0.478041 0.628359 0.585626
0.538930 0.669261 0.626528
0.599820 0.710163 0.667430
0.681056 0.762743 0.720010
0.747779 0.806819 0.764086
0.802163 0.838556 0.795822
0.824810 0.838556 0.795822
0.319103 0.319103 0.487111
0.338663 0.319103 0.487111
0.359124 0.319103 0.487111
0.379585 0.319103 0.487111
0.400046 0.319103 0.487111
0.421226 0.319103 0.487111
0.449047 0.319103 0.487111
0.471694 0.319103 0.487111
0.508221 0.332834 0.500991
0.319103 0.340116 0.487111
0.377313 0.378766 0.526213
0.400645 0.381637 0.529118
0.421106 0.381637 0.529118
0.441567 0.381637 0.529118
0.468406 0.381637 0.529118
0.491053 0.381637 0.529118
0.513700 0.381637 0.529118
0.550228 0.395368 0.542998
0.319103 0.362144 0.487111
0.377313 0.400794 0.526213
0.438203 0.441222 0.567115
0.464630 0.447188 0.573151
0.485091 0.447188 0.573151
0.512439 0.447188 0.573151
0.535086 0.447188 0.573151
0.557734 0.447188 0.573151
0.594261 0.460920 0.587031
0.319103 0.384171 0.487111
0.377313 0.422821 0.526213
0.438203 0.463250 0.567115
0.499092 0.503678 0.608017
0.528615 0.512740 0.617184
0.556473 0.512740 0.617184
0.579120 0.512740 0.617184
0.601767 0.512740 0.617184
0.638294 0.526471 0.631064
0.319103 0.406199 0.487111
0.377313 0.444848 0.526213
0.438203 0.485277 0.567115
0.499092 0.525706 0.608017
0.559982 0.566135 0.648918
0.600506 0.578291 0.661217
0.623153 0.578291 0.661217
0.645800 0.578291 0.661217
0.682328 0.592023 0.675097
0.319103 0.434944 0.487111
0.377313 0.474046 0.526213
0.438203 0.514947 0.567115
0.499092 0.555849 0.608017
0.559982 0.596751 0.648918
0.640233 0.648777 0.700945
0.679508 0.665405 0.717573
0.702156 0.665405 0.717573
0.738874 0.679476 0.731644
0.319103 0.459325 0.487111
0.377313 0.498427 0.526213
0.438203 0.539328 0.567115
0.499092 0.580230 0.608017
0.559982 0.621132 0.648918
0.640233 0.673158 0.700945
0.706956 0.717234 0.745020
0.749606 0.737236 0.765023
0.786324 0.751307 0.779094
0.319103 0.483706 0.487111
0.377313 0.522808 0.526213
0.438203 0.563710 0.567115
0.499092 0.604611 0.608017
0.559982 0.645513 0.648918
0.640233 0.697539 0.700945
0.706956 0.741615 0.745020
0.773679 0.785691 0.789096
0.833774 0.823139 0.826544
0.358940 0.548356 0.527380
0.417151 0.587458 0.566482
0.478041 0.628359 0.607384
0.538930 0.669261 0.648285
0.599820 0.710163 0.689187
0.681056 0.762743 0.741767
0.747779 0.806819 0.785843
0.814502 0.850895 0.829919
0.867153 0.880899 0.859923
