docs/luts/fuji_recipes/Classic_RR_Classic_Slide.cube
TITLE "Fujifilm Recipe: RR Classic Slide (Classic)"
# FilmSim=Classic HL=1 SH=2 Col=0 WB=Daylight WBR=-2 WBB=3
LUT_3D_SIZE 9
DOMAIN_MIN 0.0 0.0 0.0
DOMAIN_MAX 1.0 1.0 1.0
0.000000 0.000000 0.000000
0.122565 0.019129 0.019129
0.236325 0.036883 0.036883
0.350084 0.054637 0.054637
0.506683 0.072715 0.072715
0.633206 0.090182 0.090182
0.759729 0.107650 0.107650
0.824904 0.116649 0.116649
0.824904 0.116649 0.116649
0.020023 0.128296 0.020023
0.123460 0.128296 0.020023
0.236325 0.145156 0.036883
0.350084 0.162910 0.054637
0.506683 0.180987 0.072715
0.633206 0.198455 0.090182
0.759729 0.215923 0.107650
0.824904 0.224921 0.116649
0.824904 0.224921 0.116649
0.038634 0.247542 0.038634
0.142070 0.247542 0.038634
0.238075 0.247542 0.038634
0.350084 0.263546 0.054637
0.506683 0.281623 0.072715
0.633206 0.299091 0.090182
0.759729 0.316559 0.107650
0.824904 0.325557 0.116649
0.824904 0.325557 0.116649
0.057244 0.366788 0.057244
0.160681 0.366788 0.057244
0.256686 0.366788 0.057244
0.352691 0.366788 0.057244
0.506683 0.382258 0.072715
0.633206 0.399726 0.090182
0.759729 0.417194 0.107650
0.824904 0.426192 0.116649
0.824904 0.426192 0.116649
0.076122 0.531363 0.076122
0.179559 0.531363 0.076122
0.275564 0.531363 0.076122
0.371569 0.531363 0.076122
0.510534 0.531363 0.076122
0.633206 0.547258 0.090182
0.759729 0.567004 0.107650
0.824904 0.577176 0.116649
0.824904 0.577176 0.116649
0.094432 0.663989 0.094432
0.197869 0.663989 0.094432
0.293874 0.663989 0.094432
0.389879 0.663989 0.094432
0.531233 0.663989 0.094432
0.638010 0.663989 0.094432
0.759729 0.678931 0.107650
0.824904 0.689103 0.116649
0.824904 0.689103 0.116649
0.112743 0.796615 0.112743
0.216180 0.796615 0.112743
0.312185 0.796615 0.112743
0.408190 0.796615 0.112743
0.551932 0.796615 0.112743
0.658709 0.796615 0.112743
0.765486 0.796615 0.112743
0.824904 0.801030 0.116649
0.824904 0.801030 0.116649
0.122175 0.864934 0.122175
0.225612 0.864934 0.122175
0.321617 0.864934 0.122175
0.417622 0.864934 0.122175
0.562595 0.864934 0.122175
0.669371 0.864934 0.122175
0.776148 0.864934 0.122175
0.831152 0.864934 0.122175
0.831152 0.864934 0.122175
0.122175 0.864934 0.122175
0.225612 0.864934 0.122175
0.321617 0.864934 0.122175
0.417622 0.864934 0.122175
0.562595 0.864934 0.122175
0.669371 0.864934 0.122175
0.776148 0.864934 0.122175
0.831152 0.864934 0.122175
0.831152 0.864934 0.122175
0.021287 0.021287 0.136396
0.124724 0.021287 0.136396
0.236325 0.036883 0.151992
0.350084 0.054637 0.169746
0.506683 0.072715 0.187823
0.633206 0.090182 0.205291
0.759729 0.107650 0.222759
0.824904 0.116649 0.231757
0.824904 0.116649 0.231757
0.021287 0.129560 0.136396
0.143853 0.148689 0.155525
0.256348 0.165179 0.172015
0.370107 0.182933 0.189769
0.529317 0.201010 0.207846
0.655841 0.218478 0.225314
0.782364 0.235946 0.242782
0.847539 0.244944 0.251780
0.847539 0.244944 0.251780
0.038634 0.247542 0.153742
0.161199 0.266671 0.172871
0.259363 0.268829 0.175030
0.371371 0.284833 0.191033
0.530746 0.302910 0.209110
0.657270 0.320378 0.226578
0.783793 0.337846 0.244046
0.848968 0.346844 0.253044
0.848968 0.346844 0.253044
0.057244 0.366788 0.172353
0.179810 0.385917 0.191482
0.277973 0.388075 0.193640
0.373978 0.388075 0.193640
0.530746 0.403545 0.209110
0.657270 0.421013 0.226578
0.783793 0.438481 0.244046
0.848968 0.447480 0.253044
0.848968 0.447480 0.253044
0.076122 0.531363 0.191231
0.198687 0.552987 0.210359
0.296851 0.555427 0.212518
0.392856 0.555427 0.212518
0.534598 0.555427 0.212518
0.657270 0.571322 0.226578
0.783793 0.591068 0.244046
0.848968 0.601240 0.253044
0.848968 0.601240 0.253044
0.094432 0.663989 0.209541
0.216998 0.685613 0.228670
0.315161 0.688053 0.230828
0.411166 0.688053 0.230828
0.555297 0.688053 0.230828
0.662074 0.688053 0.230828
0.783793 0.702995 0.244046
0.848968 0.713167 0.253044
0.848968 0.713167 0.253044
0.112743 0.796615 0.227852
0.235308 0.818239 0.246980
0.333472 0.820679 0.249139
0.429477 0.820679 0.249139
0.575996 0.820679 0.249139
0.682773 0.820679 0.249139
0.789550 0.820679 0.249139
0.848968 0.825094 0.253044
0.848968 0.825094 0.253044
0.122175 0.864934 0.237284
0.244741 0.886558 0.256413
0.342904 0.888998 0.258571
0.438909 0.888998 0.258571
0.586658 0.888998 0.258571
0.693435 0.888998 0.258571
0.800212 0.888998 0.258571
0.855216 0.888998 0.258571
0.855216 0.888998 0.258571
0.122175 0.864934 0.237284
0.244741 0.886558 0.256413
0.342904 0.888998 0.258571
0.438909 0.888998 0.258571
0.586658 0.888998 0.258571
0.693435 0.888998 0.258571
0.800212 0.888998 0.258571
0.855216 0.888998 0.258571
0.855216 0.888998 0.258571
0.041124 0.041124 0.263500
0.144561 0.041124 0.263500
0.240566 0.041124 0.263500
0.350084 0.054637 0.277013
0.506683 0.072715 0.295090
0.633206 0.090182 0.312558
0.759729 0.107650 0.330026
0.824904 0.116649 0.339024
0.824904 0.116649 0.339024
0.041124 0.149397 0.263500
0.163690 0.168526 0.282629
0.260589 0.169420 0.283523
0.370107 0.182933 0.297036
0.529317 0.201010 0.315113
0.655841 0.218478 0.332581
0.782364 0.235946 0.350049
0.847539 0.244944 0.359047
0.847539 0.244944 0.359047
0.041124 0.250032 0.263500
0.163690 0.269161 0.282629
0.277449 0.286915 0.300383
0.388718 0.302179 0.315647
0.550355 0.320256 0.333724
0.676879 0.337724 0.351192
0.803402 0.355192 0.368660
0.868577 0.364190 0.377658
0.868577 0.364190 0.377658
0.057244 0.366788 0.279620
0.179810 0.385917 0.298749
0.293569 0.403671 0.316503
0.393815 0.407912 0.320744
0.553171 0.423382 0.336215
0.679694 0.440850 0.353682
0.806217 0.458318 0.371150
0.871393 0.508271 0.380149
0.871393 0.508271 0.380149
0.076122 0.531363 0.298498
0.198687 0.552987 0.317626
0.312447 0.573057 0.335381
0.412693 0.577852 0.339622
0.557023 0.577852 0.339622
0.679694 0.593746 0.353682
0.806217 0.613493 0.371150
0.871393 0.623664 0.380149
0.871393 0.623664 0.380149
0.094432 0.663989 0.316808
0.216998 0.685613 0.335937
0.330757 0.705683 0.353691
0.431003 0.710478 0.357933
0.577722 0.710478 0.357933
0.684498 0.710478 0.357933
0.806217 0.725420 0.371150
0.871393 0.735591 0.380149
0.871393 0.735591 0.380149
0.112743 0.796615 0.335119
0.235308 0.818239 0.354247
0.349068 0.838309 0.372002
0.449314 0.843103 0.376243
0.598420 0.843103 0.376243
0.705197 0.843103 0.376243
0.811974 0.843103 0.376243
0.871393 0.847518 0.380149
0.871393 0.847518 0.380149
0.122175 0.864934 0.344551
0.244741 0.886558 0.363680
0.358500 0.906628 0.381434
0.458746 0.911422 0.385675
0.609083 0.911422 0.385675
0.715860 0.911422 0.385675
0.822637 0.911422 0.385675
0.877640 0.911422 0.385675
0.877640 0.911422 0.385675
0.122175 0.864934 0.344551
0.244741 0.886558 0.363680
0.358500 0.906628 0.381434
0.458746 0.911422 0.385675
0.609083 0.911422 0.385675
0.715860 0.911422 0.385675
0.822637 0.911422 0.385675
0.877640 0.911422 0.385675
0.877640 0.911422 0.385675
0.060961 0.060961 0.390604
0.164398 0.060961 0.390604
0.260403 0.060961 0.390604
0.356408 0.060961 0.390604
0.506683 0.072715 0.402357
0.633206 0.090182 0.419825
0.759729 0.107650 0.437293
0.824904 0.116649 0.446291
0.824904 0.116649 0.446291
0.060961 0.169234 0.390604
0.183527 0.188363 0.409733
0.280426 0.189257 0.410627
0.376431 0.189257 0.410627
0.529317 0.201010 0.422380
0.655841 0.218478 0.439848
0.782364 0.235946 0.457316
0.847539 0.244944 0.507138
0.847539 0.244944 0.507138
0.060961 0.269869 0.390604
0.183527 0.288998 0.409733
0.297286 0.306753 0.427487
0.395042 0.308503 0.429238
0.550355 0.320256 0.440991
0.676879 0.337724 0.458459
0.803402 0.355192 0.518004
0.868577 0.364190 0.528176
0.868577 0.364190 0.528176
0.060961 0.370505 0.390604
0.183527 0.389634 0.409733
0.297286 0.407388 0.427487
0.411045 0.425142 0.445242
0.571394 0.439503 0.459602
0.697917 0.456971 0.519296
0.824440 0.516322 0.539043
0.889615 0.526494 0.549214
0.889615 0.526494 0.549214
0.076122 0.531363 0.405765
0.198687 0.552987 0.424894
0.312447 0.573057 0.442648
0.426206 0.593127 0.500455
0.579447 0.600276 0.507604
0.702119 0.616171 0.523498
0.828642 0.635917 0.543244
0.893817 0.646089 0.553416
0.893817 0.646089 0.553416
0.094432 0.663989 0.424075
0.216998 0.685613 0.443204
0.330757 0.705683 0.501083
0.444516 0.725753 0.521154
0.600146 0.732902 0.528302
0.706923 0.732902 0.528302
0.828642 0.747844 0.543244
0.893817 0.758016 0.553416
0.893817 0.758016 0.553416
0.112743 0.796615 0.442386
0.235308 0.818239 0.501712
0.349068 0.838309 0.521782
0.503196 0.858379 0.541852
0.620845 0.865528 0.549001
0.727622 0.865528 0.549001
0.834399 0.865528 0.549001
0.893817 0.869943 0.553416
0.893817 0.869943 0.553416
0.122175 0.864934 0.451818
0.244741 0.886558 0.512375
0.358500 0.906628 0.532445
0.513858 0.926698 0.552515
0.631507 0.933847 0.559664
0.738284 0.933847 0.559664
0.845061 0.933847 0.559664
0.900065 0.933847 0.559664
0.900065 0.933847 0.559664
0.122175 0.864934 0.451818
0.244741 0.886558 0.512375
0.358500 0.906628 0.532445
0.513858 0.926698 0.552515
0.631507 0.933847 0.559664
0.738284 0.933847 0.559664
0.845061 0.933847 0.559664
0.900065 0.933847 0.559664
0.900065 0.933847 0.559664
0.080986 0.080986 0.566591
0.184422 0.080986 0.566591
0.280427 0.080986 0.566591
0.376432 0.080986 0.566591
0.516032 0.080986 0.566591
0.633206 0.090182 0.576988
0.759729 0.107650 0.596734
0.824904 0.116649 0.606906
0.824904 0.116649 0.606906
0.080986 0.189258 0.566591
0.203551 0.208387 0.588215
0.300450 0.209281 0.589226
0.396455 0.209281 0.589226
0.538667 0.209281 0.589226
0.655841 0.218478 0.599623
0.782364 0.235946 0.619369
0.847539 0.244944 0.629541
0.847539 0.244944 0.629541
0.080986 0.289894 0.566591
0.203551 0.309022 0.588215
0.317310 0.326777 0.608285
0.415066 0.328527 0.610264
0.559705 0.328527 0.610264
0.676879 0.337724 0.620661
0.803402 0.355192 0.640407
0.868577 0.364190 0.650579
0.868577 0.364190 0.650579
0.080986 0.390529 0.566591
0.203551 0.409658 0.588215
0.317310 0.427412 0.608285
0.431070 0.445167 0.628355
0.580744 0.447774 0.631303
0.697917 0.456971 0.641699
0.824440 0.516322 0.661445
0.889615 0.526494 0.671617
0.889615 0.526494 0.671617
0.080986 0.536861 0.566591
0.203551 0.558485 0.588215
0.317310 0.578555 0.608285
0.431070 0.598625 0.628355
0.598231 0.619060 0.648790
0.719257 0.633309 0.663039
0.845780 0.653055 0.682785
0.910955 0.663227 0.692957
0.910955 0.663227 0.692957
0.094432 0.663989 0.581792
0.216998 0.685613 0.603416
0.330757 0.705683 0.623486
0.444516 0.725753 0.643556
0.613432 0.746188 0.663991
0.729559 0.755538 0.673341
0.851278 0.770480 0.688283
0.916453 0.780652 0.698455
0.916453 0.780652 0.698455
0.112743 0.796615 0.602491
0.235308 0.818239 0.624115
0.349068 0.838309 0.644185
0.503196 0.858379 0.664255
0.634131 0.878814 0.684690
0.750258 0.888164 0.694040
0.857035 0.888164 0.694040
0.916453 0.892579 0.698455
0.916453 0.892579 0.698455
0.122175 0.864934 0.613154
0.244741 0.886558 0.634777
0.358500 0.906628 0.654847
0.513858 0.926698 0.674918
0.644794 0.947133 0.695353
0.760920 0.956483 0.704703
0.867697 0.956483 0.704703
0.922701 0.956483 0.704703
0.922701 0.956483 0.704703
0.122175 0.864934 0.613154
0.244741 0.886558 0.634777
0.358500 0.906628 0.654847
0.513858 0.926698 0.674918
0.644794 0.947133 0.695353
0.760920 0.956483 0.704703
0.867697 0.956483 0.704703
0.922701 0.956483 0.704703
0.922701 0.956483 0.704703
0.100503 0.100503 0.707957
0.203939 0.100503 0.707957
0.299944 0.100503 0.707957
0.395949 0.100503 0.707957
0.538095 0.100503 0.707957
0.644872 0.100503 0.707957
0.759729 0.107650 0.716037
0.824904 0.116649 0.726209
0.824904 0.116649 0.726209
0.100503 0.208775 0.707957
0.223068 0.227904 0.729581
0.319967 0.228798 0.730592
0.415972 0.228798 0.730592
0.560730 0.228798 0.730592
0.667507 0.228798 0.730592
0.782364 0.235946 0.738672
0.847539 0.244944 0.748844
0.847539 0.244944 0.748844
0.100503 0.309411 0.707957
0.223068 0.328540 0.729581
0.336827 0.346294 0.749651
0.434583 0.348045 0.751630
0.581768 0.348045 0.751630
0.688545 0.348045 0.751630
0.803402 0.355192 0.759710
0.868577 0.364190 0.769882
0.868577 0.364190 0.769882
0.100503 0.410046 0.707957
0.223068 0.429175 0.729581
0.336827 0.446929 0.749651
0.450587 0.505295 0.769721
0.602806 0.508242 0.772668
0.709583 0.508242 0.772668
0.824440 0.516322 0.780748
0.889615 0.526494 0.790920
0.889615 0.526494 0.790920
0.100503 0.558924 0.707957
0.223068 0.580548 0.729581
0.336827 0.600618 0.749651
0.450587 0.620688 0.769721
0.620294 0.641123 0.790156
0.730923 0.644975 0.794008
0.845780 0.653055 0.802088
0.910955 0.663227 0.812260
0.910955 0.663227 0.812260
0.100503 0.670851 0.707957
0.223068 0.692475 0.729581
0.336827 0.712545 0.749651
0.450587 0.732615 0.769721
0.620294 0.753050 0.790156
0.746818 0.772797 0.809902
0.866479 0.785681 0.822787
0.931654 0.795853 0.832959
0.931654 0.795853 0.832959
0.112743 0.796615 0.721794
0.235308 0.818239 0.743418
0.349068 0.838309 0.763488
0.503196 0.858379 0.783558
0.634131 0.878814 0.803993
0.760654 0.898561 0.823739
0.879098 0.910227 0.835406
0.938516 0.914642 0.839821
0.938516 0.914642 0.839821
0.122175 0.864934 0.732456
0.244741 0.886558 0.754080
0.358500 0.906628 0.774150
0.513858 0.926698 0.794220
0.644794 0.947133 0.814655
0.771317 0.966879 0.834402
0.889760 0.978546 0.846068
0.944763 0.978546 0.846068
0.944763 0.978546 0.846068
0.122175 0.864934 0.732456
0.244741 0.886558 0.754080
0.358500 0.906628 0.774150
0.513858 0.926698 0.794220
0.644794 0.947133 0.814655
0.771317 0.966879 0.834402
0.889760 0.978546 0.846068
0.944763 0.978546 0.846068
0.944763 0.978546 0.846068
0.120020 0.120020 0.849323
0.223457 0.120020 0.849323
0.319461 0.120020 0.849323
0.415466 0.120020 0.849323
0.560158 0.120020 0.849323
0.666935 0.120020 0.849323
0.773712 0.120020 0.849323
0.828715 0.120020 0.849323
0.828715 0.120020 0.849323
0.120020 0.228292 0.849323
0.242585 0.247421 0.870946
0.339485 0.248316 0.871957
0.435489 0.248316 0.871957
0.582793 0.248316 0.871957
0.689570 0.248316 0.871957
0.796347 0.248316 0.871957
0.851350 0.248316 0.871957
0.851350 0.248316 0.871957
0.120020 0.328928 0.849323
0.242585 0.348057 0.870946
0.356345 0.365811 0.891016
0.454100 0.367562 0.892995
0.603831 0.367562 0.892995
0.710608 0.367562 0.892995
0.817385 0.367562 0.892995
0.872388 0.367562 0.892995
0.872388 0.367562 0.892995
0.120020 0.429564 0.849323
0.242585 0.448692 0.870946
0.356345 0.507287 0.891016
0.511422 0.527358 0.911087
0.624869 0.530305 0.914034
0.731646 0.530305 0.914034
0.838423 0.530305 0.914034
0.893426 0.530305 0.914034
0.893426 0.530305 0.914034
0.120020 0.580987 0.849323
0.242585 0.602611 0.870946
0.356345 0.622681 0.891016
0.511422 0.642751 0.911087
0.642357 0.663186 0.931522
0.752986 0.667038 0.935373
0.859763 0.667038 0.935373
0.914766 0.667038 0.935373
0.914766 0.667038 0.935373
0.120020 0.692914 0.849323
0.242585 0.714538 0.870946
0.356345 0.734608 0.891016
0.511422 0.754678 0.911087
0.642357 0.775113 0.931522
0.768880 0.794860 0.951268
0.880462 0.799664 0.956072
0.935465 0.799664 0.956072
0.935465 0.799664 0.956072
0.120020 0.804841 0.849323
0.242585 0.826465 0.870946
0.356345 0.846535 0.891016
0.511422 0.866605 0.911087
0.642357 0.887040 0.931522
0.768880 0.906787 0.951268
0.895404 0.926533 0.971014
0.956164 0.932290 0.976771
0.956164 0.932290 0.976771
0.122175 0.864934 0.851759
0.244741 0.886558 0.873383
0.358500 0.906628 0.893453
0.513858 0.926698 0.913523
0.644794 0.947133 0.933958
0.771317 0.966879 0.953704
0.897840 0.986626 0.973451
0.963015 0.996798 0.983623
0.963015 0.996798 0.983623
0.122175 0.864934 0.851759
0.244741 0.886558 0.873383
0.358500 0.906628 0.893453
0.513858 0.926698 0.913523
0.644794 0.947133 0.933958
0.771317 0.966879 0.953704
0.897840 0.986626 0.973451
0.963015 0.996798 0.983623
0.963015 0.996798 0.983623
0.121097 0.121097 0.857123
0.224534 0.121097 0.857123
0.320538 0.121097 0.857123
0.416543 0.121097 0.857123
0.561376 0.121097 0.857123
0.668152 0.121097 0.857123
0.774929 0.121097 0.857123
0.829933 0.121097 0.857123
0.829933 0.121097 0.857123
0.121097 0.229369 0.857123
0.243662 0.248498 0.878747
0.340561 0.249392 0.879758
0.436566 0.249392 0.879758
0.584010 0.249392 0.879758
0.690787 0.249392 0.879758
0.797564 0.249392 0.879758
0.852567 0.249392 0.879758
0.852567 0.249392 0.879758
0.121097 0.330005 0.857123
0.243662 0.349134 0.878747
0.357422 0.366888 0.898817
0.455177 0.368639 0.900796
0.605048 0.368639 0.900796
0.711825 0.368639 0.900796
0.818602 0.368639 0.900796
0.873606 0.368639 0.900796
0.873606 0.368639 0.900796
0.121097 0.430640 0.857123
0.243662 0.449769 0.878747
0.357422 0.508505 0.898817
0.512639 0.528575 0.918887
0.626087 0.531522 0.921834
0.732863 0.531522 0.921834
0.839640 0.531522 0.921834
0.894644 0.531522 0.921834
0.894644 0.531522 0.921834
0.121097 0.582205 0.857123
0.243662 0.603828 0.878747
0.357422 0.623898 0.898817
0.512639 0.643969 0.918887
0.643575 0.664404 0.939322
0.754203 0.668255 0.943174
0.860980 0.668255 0.943174
0.915984 0.668255 0.943174
0.915984 0.668255 0.943174
0.121097 0.694132 0.857123
0.243662 0.715755 0.878747
0.357422 0.735825 0.898817
0.512639 0.755896 0.918887
0.643575 0.776331 0.939322
0.770098 0.796077 0.959069
0.881679 0.800881 0.963873
0.936682 0.800881 0.963873
0.936682 0.800881 0.963873
0.121097 0.806059 0.857123
0.243662 0.827682 0.878747
0.357422 0.847752 0.898817
0.512639 0.867823 0.918887
0.643575 0.888258 0.939322
0.770098 0.908004 0.959069
0.896621 0.927750 0.978815
0.957381 0.933507 0.984572
0.957381 0.933507 0.984572
0.122175 0.864934 0.858342
0.244741 0.886558 0.879966
0.358500 0.906628 0.900036
0.513858 0.926698 0.920106
0.644794 0.947133 0.940541
0.771317 0.966879 0.960288
0.897840 0.986626 0.980034
0.963015 0.996798 0.990206
0.963015 0.996798 0.990206
0.122175 0.864934 0.858342
0.244741 0.886558 0.879966
0.358500 0.906628 0.900036
0.513858 0.926698 0.920106
0.644794 0.947133 0.940541
0.771317 0.966879 0.960288
0.897840 0.986626 0.980034
0.963015 0.996798 0.990206
0.963015 0.996798 0.990206
0.121097 0.121097 0.857123
0.224534 0.121097 0.857123
0.320538 0.121097 0.857123
0.416543 0.121097 0.857123
0.561376 0.121097 0.857123
0.668152 0.121097 0.857123
0.774929 0.121097 0.857123
0.829933 0.121097 0.857123
0.829933 0.121097 0.857123
0.121097 0.229369 0.857123
0.243662 0.248498 0.878747
0.340561 0.249392 0.879758
0.436566 0.249392 0.879758
0.584010 0.249392 0.879758
0.690787 0.249392 0.879758
0.797564 0.249392 0.879758
0.852567 0.249392 0.879758
0.852567 0.249392 0.879758
0.121097 0.330005 0.857123
0.243662 0.349134 0.878747
0.357422 0.366888 0.898817
0.455177 0.368639 0.900796
0.605048 0.368639 0.900796
0.711825 0.368639 0.900796
0.818602 0.368639 0.900796
0.873606 0.368639 0.900796
0.873606 0.368639 0.900796
0.121097 0.430640 0.857123
0.243662 0.449769 0.878747
0.357422 0.508505 0.898817
0.512639 0.528575 0.918887
0.626087 0.531522 0.921834
0.732863 0.531522 0.921834
0.839640 0.531522 0.921834
0.894644 0.531522 0.921834
0.894644 0.531522 0.921834
0.121097 0.582205 0.857123
0.243662 0.603828 0.878747
0.357422 0.623898 0.898817
0.512639 0.643969 0.918887
0.643575 0.664404 0.939322
0.754203 0.668255 0.943174
0.860980 0.668255 0.943174
0.915984 0.668255 0.943174
0.915984 0.668255 0.943174
0.121097 0.694132 0.857123
0.243662 0.715755 0.878747
0.357422 0.735825 0.898817
0.512639 0.755896 0.918887
0.643575 0.776331 0.939322
0.770098 0.796077 0.959069
0.881679 0.800881 0.963873
0.936682 0.800881 0.963873
0.936682 0.800881 0.963873
0.121097 0.806059 0.857123
0.243662 0.827682 0.878747
0.357422 0.847752 0.898817
0.512639 0.867823 0.918887
0.643575 0.888258 0.939322
0.770098 0.908004 0.959069
0.896621 0.927750 0.978815
0.957381 0.933507 0.984572
0.957381 0.933507 0.984572
0.122175 0.864934 0.858342
0.244741 0.886558 0.879966
0.358500 0.906628 0.900036
0.513858 0.926698 0.920106
0.644794 0.947133 0.940541
0.771317 0.966879 0.960288
0.897840 0.986626 0.980034
0.963015 0.996798 0.990206
0.963015 0.996798 0.990206
0.122175 0.864934 0.858342
0.244741 0.886558 0.879966
0.358500 0.906628 0.900036
0.513858 0.926698 0.920106
0.644794 0.947133 0.940541
0.771317 0.966879 0.960288
0.897840 0.986626 0.980034
0.963015 0.996798 0.990206
0.963015 0.996798 0.990206
