docs/luts/fuji_recipes/ClassicNEGA_GB_Classy_Neg.cube
TITLE "Fujifilm Recipe: GB Classy Neg (ClassicNEGA)"
# FilmSim=ClassicNEGA HL=-2 SH=-2 Col=2 WB=Auto WBR=0 WBB=0
LUT_3D_SIZE 9
DOMAIN_MIN 0.0 0.0 0.0
DOMAIN_MAX 1.0 1.0 1.0
0.094720 0.094720 0.094720
0.201180 0.102097 0.102097
0.307447 0.109460 0.109460
0.413714 0.116823 0.116823
0.513058 0.123707 0.123707
0.569308 0.138220 0.138220
0.668732 0.146148 0.146148
0.768156 0.154076 0.154076
0.864108 0.161728 0.161728
0.112289 0.200547 0.102053
0.201180 0.190331 0.102097
0.307447 0.196129 0.109460
0.413714 0.203188 0.116823
0.513058 0.222201 0.123707
0.569308 0.236715 0.138220
0.668732 0.244643 0.146148
0.768156 0.252571 0.154076
0.864108 0.260222 0.161728
0.129857 0.306374 0.109386
0.232108 0.306374 0.109386
0.307447 0.285936 0.109460
0.413714 0.291002 0.116823
0.513058 0.297083 0.123707
0.569308 0.311389 0.138220
0.668732 0.319021 0.146148
0.768156 0.326774 0.154076
0.864108 0.358716 0.161728
0.147426 0.412202 0.116718
0.250734 0.412202 0.116718
0.349603 0.412202 0.116718
0.413714 0.381541 0.116823
0.513058 0.385846 0.123707
0.569308 0.399680 0.138220
0.668732 0.406632 0.146148
0.768156 0.413980 0.154076
0.864108 0.421269 0.161728
0.164953 0.517781 0.124034
0.268778 0.517781 0.124034
0.369271 0.517781 0.124034
0.466513 0.517781 0.124034
0.517781 0.480984 0.124034
0.569308 0.489695 0.138220
0.668732 0.495392 0.146148
0.768156 0.501979 0.154076
0.864108 0.460006 0.161728
0.182628 0.567070 0.138042
0.286579 0.567070 0.138042
0.387471 0.567070 0.138042
0.485379 0.567070 0.138042
0.567070 0.559881 0.138042
0.569308 0.522554 0.138220
0.668732 0.526552 0.146148
0.768156 0.531702 0.154076
0.864108 0.537262 0.161728
0.199992 0.666083 0.145937
0.304188 0.666083 0.145937
0.405855 0.666083 0.145937
0.505074 0.666083 0.145937
0.595604 0.666083 0.145937
0.634675 0.666083 0.145937
0.668732 0.612110 0.146148
0.768156 0.615979 0.154076
0.864108 0.620719 0.161728
0.217357 0.765095 0.153832
0.321723 0.765095 0.153832
0.423928 0.765095 0.153832
0.524067 0.765095 0.153832
0.615782 0.765095 0.153832
0.654313 0.765095 0.153832
0.743663 0.765095 0.153832
0.768156 0.701666 0.154076
0.864108 0.705288 0.161728
0.234721 0.864108 0.161728
0.339213 0.864108 0.161728
0.441811 0.864108 0.161728
0.542628 0.864108 0.161728
0.580882 0.864108 0.161728
0.673042 0.864108 0.161728
0.763605 0.864108 0.161728
0.852612 0.864108 0.161728
0.864108 0.791114 0.161728
0.101964 0.112077 0.199270
0.192775 0.102097 0.201180
0.307447 0.109460 0.218460
0.413714 0.116823 0.226118
0.513058 0.123707 0.221012
0.569308 0.138220 0.235526
0.668732 0.146148 0.243454
0.768156 0.154076 0.251382
0.864108 0.161728 0.259033
0.102053 0.200547 0.199358
0.208425 0.207835 0.206646
0.314692 0.215199 0.214010
0.420958 0.222562 0.221373
0.520303 0.229445 0.228256
0.575520 0.244117 0.242928
0.674944 0.252045 0.250856
0.774368 0.259973 0.258784
0.870320 0.267624 0.266435
0.109386 0.306374 0.194743
0.226183 0.313619 0.213935
0.314692 0.303293 0.214010
0.420958 0.309093 0.221373
0.520303 0.315678 0.228256
0.575520 0.330289 0.242928
0.674944 0.350539 0.250856
0.774368 0.358467 0.258784
0.870320 0.366118 0.266435
0.116718 0.412202 0.191118
0.243752 0.419446 0.221268
0.345730 0.419446 0.221268
0.420958 0.398898 0.221373
0.520303 0.403574 0.228256
0.575520 0.417787 0.242928
0.674944 0.425112 0.250856
0.774368 0.432725 0.258784
0.870320 0.440196 0.266435
0.124034 0.517781 0.187829
0.261280 0.525025 0.228584
0.364338 0.525025 0.228584
0.463158 0.525025 0.228584
0.525025 0.498341 0.228584
0.575520 0.507296 0.242928
0.674944 0.513284 0.250856
0.774368 0.471357 0.258784
0.870320 0.477672 0.266435
0.138042 0.567070 0.198070
0.278989 0.573282 0.242749
0.382268 0.573282 0.242749
0.481765 0.573282 0.242749
0.571303 0.573282 0.242749
0.575520 0.539002 0.242928
0.674944 0.543206 0.250856
0.774368 0.548671 0.258784
0.870320 0.554504 0.266435
0.145937 0.666083 0.196296
0.296353 0.672295 0.250645
0.400043 0.672295 0.250645
0.500808 0.672295 0.250645
0.592263 0.672295 0.250645
0.630428 0.672295 0.250645
0.674944 0.628558 0.250856
0.774368 0.632575 0.258784
0.870320 0.637557 0.266435
0.153832 0.765095 0.194580
0.313718 0.771307 0.258540
0.417669 0.771307 0.258540
0.519244 0.771307 0.258540
0.557605 0.771307 0.258540
0.649632 0.771307 0.258540
0.739486 0.771307 0.258540
0.774368 0.718114 0.258784
0.870320 0.721841 0.266435
0.161728 0.864108 0.192899
0.331082 0.870320 0.266435
0.435214 0.870320 0.266435
0.537348 0.870320 0.266435
0.574832 0.870320 0.266435
0.667900 0.870320 0.266435
0.759102 0.870320 0.266435
0.848477 0.870320 0.266435
0.870320 0.807562 0.266435
0.109236 0.129498 0.304210
0.184923 0.109236 0.304210
0.290077 0.109460 0.307447
0.413714 0.116823 0.334413
0.513058 0.123707 0.342075
0.569308 0.138220 0.356790
0.668732 0.146148 0.365005
0.768156 0.154076 0.373103
0.864108 0.161728 0.356702
0.109236 0.219319 0.304210
0.215063 0.224537 0.311543
0.307648 0.215287 0.314780
0.421047 0.222650 0.330737
0.520391 0.229534 0.337895
0.575596 0.244207 0.352624
0.675020 0.252135 0.348615
0.774443 0.260063 0.356543
0.870395 0.267714 0.364194
0.109386 0.306374 0.304360
0.215846 0.313751 0.311737
0.321963 0.320964 0.318950
0.428230 0.328328 0.326313
0.527574 0.335211 0.333197
0.581755 0.350041 0.348026
0.681179 0.357968 0.355954
0.780603 0.365896 0.363882
0.876555 0.373548 0.371533
0.116718 0.412202 0.299328
0.223179 0.419578 0.307035
0.339851 0.426717 0.326208
0.428230 0.416320 0.326313
0.527574 0.421684 0.333197
0.581755 0.436327 0.348026
0.681179 0.444052 0.355954
0.780603 0.464391 0.363882
0.876555 0.472042 0.371533
0.124034 0.517781 0.295177
0.230494 0.525158 0.303433
0.357381 0.532297 0.333524
0.459291 0.532297 0.333524
0.532297 0.515765 0.333524
0.581755 0.524994 0.348026
0.681179 0.482560 0.355954
0.780603 0.489193 0.363882
0.876555 0.513273 0.371533
0.138042 0.567070 0.305178
0.244663 0.573396 0.313904
0.375123 0.579517 0.347848
0.477510 0.579517 0.347848
0.568291 0.579517 0.347848
0.581755 0.555511 0.348026
0.681179 0.560038 0.355954
0.780603 0.565912 0.363882
0.876555 0.572053 0.371533
0.145937 0.666083 0.302906
0.252558 0.672408 0.312026
0.392488 0.678530 0.355743
0.495675 0.678530 0.355743
0.534278 0.678530 0.355743
0.626025 0.678530 0.355743
0.681179 0.645067 0.355954
0.780603 0.649299 0.363882
0.876555 0.654592 0.371533
0.153832 0.765095 0.300817
0.260453 0.771421 0.310251
0.409853 0.777542 0.363638
0.513480 0.777542 0.363638
0.551283 0.777542 0.363638
0.644607 0.777542 0.363638
0.735218 0.777542 0.363638
0.780603 0.734623 0.363882
0.876555 0.738496 0.371533
0.161728 0.864108 0.298850
0.268348 0.870433 0.308534
0.427218 0.876555 0.371533
0.531121 0.876555 0.371533
0.567957 0.876555 0.371533
0.662287 0.876555 0.371533
0.754388 0.876555 0.371533
0.844281 0.876555 0.371533
0.876555 0.824071 0.371533
0.116507 0.146919 0.409150
0.180974 0.116507 0.409150
0.279976 0.116507 0.409150
0.387378 0.116823 0.413714
0.513058 0.123707 0.449443
0.569308 0.138220 0.464618
0.668732 0.146148 0.473495
0.768156 0.154076 0.481987
0.864108 0.161728 0.489990
0.116507 0.237483 0.409150
0.222334 0.241958 0.416483
0.298531 0.222334 0.416483
0.404949 0.222650 0.421047
0.520391 0.229534 0.446141
0.575596 0.244207 0.461251
0.675020 0.252135 0.469752
0.774443 0.260063 0.477979
0.870395 0.267714 0.485800
0.116507 0.325283 0.409150
0.222967 0.332363 0.416527
0.328161 0.337166 0.423816
0.422522 0.328478 0.428380
0.527724 0.335361 0.442500
0.581884 0.350194 0.457497
0.681307 0.358122 0.465605
0.780731 0.366050 0.461704
0.876683 0.373701 0.469355
0.116718 0.412202 0.409362
0.223179 0.419578 0.416738
0.329446 0.426942 0.424101
0.435501 0.434093 0.431253
0.534845 0.440977 0.438137
0.587990 0.455964 0.453124
0.687414 0.463892 0.461052
0.786838 0.471820 0.468980
0.882790 0.479471 0.476631
0.124034 0.517781 0.416677
0.230494 0.525158 0.411620
0.336761 0.532521 0.419322
0.453475 0.539568 0.438464
0.539568 0.533191 0.438464
0.587990 0.493810 0.453124
0.687414 0.506257 0.461052
0.786838 0.513000 0.468980
0.882790 0.519508 0.476631
0.138042 0.567070 0.413861
0.244663 0.573396 0.421756
0.351090 0.579710 0.429948
0.471254 0.585752 0.452946
0.510805 0.585752 0.452946
0.587990 0.572021 0.453124
0.687414 0.577113 0.461052
0.786838 0.583502 0.468980
0.882790 0.589953 0.476631
0.145937 0.666083 0.410981
0.252558 0.672408 0.419167
0.358985 0.678722 0.427849
0.488622 0.684765 0.460841
0.527279 0.684765 0.460841
0.621286 0.684765 0.460841
0.687414 0.661577 0.461052
0.786838 0.666146 0.468980
0.882790 0.671842 0.476631
0.153832 0.765095 0.408396
0.260453 0.771421 0.416880
0.366880 0.777735 0.425965
0.505988 0.783777 0.468736
0.543538 0.783777 0.468736
0.638943 0.783777 0.468736
0.730801 0.783777 0.468736
0.786838 0.751133 0.468980
0.882790 0.755217 0.476631
0.161728 0.864108 0.406025
0.268348 0.870433 0.414783
0.374775 0.876747 0.424187
0.523353 0.882790 0.476631
0.559729 0.882790 0.476631
0.655892 0.882790 0.476631
0.749333 0.882790 0.476631
0.840007 0.882790 0.476631
0.882790 0.840580 0.476631
0.123771 0.164323 0.513984
0.177575 0.123771 0.513984
0.274934 0.123771 0.513984
0.375572 0.123771 0.513984
0.472516 0.123771 0.513984
0.568167 0.138220 0.569308
0.668732 0.146148 0.580551
0.768156 0.154076 0.589786
0.864108 0.161728 0.537894
0.123771 0.255292 0.513984
0.229598 0.259362 0.521317
0.294568 0.229598 0.521317
0.393609 0.229598 0.521317
0.490085 0.229598 0.521317
0.575596 0.244207 0.567609
0.675020 0.252135 0.577406
0.774443 0.260063 0.525884
0.870395 0.267714 0.532568
0.123771 0.343967 0.513984
0.230231 0.350509 0.521361
0.335425 0.354570 0.528650
0.412144 0.335425 0.528650
0.507654 0.335425 0.528650
0.581884 0.350194 0.564729
0.681307 0.358122 0.513613
0.780731 0.366050 0.520443
0.876683 0.373701 0.510021
0.123771 0.419254 0.513984
0.230231 0.438306 0.521361
0.336498 0.445377 0.528724
0.442660 0.441253 0.535983
0.535121 0.441253 0.535983
0.588171 0.456180 0.501274
0.687595 0.464108 0.503058
0.787019 0.472036 0.509801
0.882971 0.479687 0.516309
0.124034 0.517781 0.514247
0.230494 0.525158 0.521624
0.336761 0.532521 0.528987
0.443028 0.539884 0.536350
0.502269 0.506474 0.503093
0.601598 0.513122 0.509742
0.701179 0.520022 0.516642
0.800759 0.526922 0.523542
0.896863 0.533581 0.530201
0.138042 0.567070 0.528255
0.244663 0.573396 0.535792
0.351090 0.579710 0.543316
0.457517 0.586024 0.485952
0.517239 0.599295 0.508701
0.601598 0.590100 0.509742
0.701179 0.595613 0.516642
0.800759 0.602246 0.523542
0.896863 0.619971 0.530201
0.145937 0.666083 0.536151
0.252558 0.672408 0.527789
0.358985 0.678722 0.475107
0.465412 0.685036 0.482856
0.533702 0.698464 0.515572
0.630162 0.698525 0.516458
0.701179 0.679689 0.516642
0.800759 0.684491 0.523542
0.896863 0.690406 0.530201
0.153832 0.765095 0.516927
0.260453 0.771421 0.464366
0.366880 0.777735 0.471634
0.473307 0.784048 0.479913
0.550166 0.797633 0.522443
0.647618 0.797694 0.523329
0.740254 0.797694 0.523329
0.800759 0.769278 0.523542
0.896863 0.773509 0.530201
0.161728 0.864108 0.453630
0.268348 0.870433 0.460755
0.374775 0.876747 0.468372
0.485384 0.883061 0.481202
0.566629 0.896801 0.529315
0.664563 0.896863 0.530201
0.758737 0.896863 0.530201
0.849845 0.896863 0.530201
0.896863 0.858758 0.530201
0.137682 0.181836 0.562555
0.187758 0.137682 0.562555
0.284717 0.137682 0.562555
0.384689 0.137682 0.562555
0.480820 0.137682 0.562555
0.531204 0.138220 0.569308
0.668732 0.146148 0.616822
0.768156 0.154076 0.625109
0.864108 0.161728 0.632534
0.137682 0.272908 0.562555
0.243669 0.276909 0.568843
0.304943 0.243669 0.568843
0.403303 0.243669 0.568843
0.498787 0.243669 0.568843
0.547854 0.244207 0.575596
0.675020 0.252135 0.612522
0.774443 0.260063 0.620487
0.870395 0.267714 0.627636
0.137682 0.361826 0.562555
0.244303 0.368220 0.568881
0.349655 0.372151 0.575131
0.422548 0.349655 0.575131
0.516790 0.349655 0.575131
0.564506 0.350194 0.581884
0.681307 0.358122 0.608093
0.780731 0.366050 0.615643
0.876683 0.373701 0.622484
0.137682 0.449151 0.562555
0.244303 0.456355 0.568881
0.350730 0.463264 0.575195
0.455642 0.467393 0.581419
0.480227 0.455642 0.581419
0.581162 0.456180 0.588171
0.687595 0.464108 0.603394
0.787019 0.472036 0.610430
0.882971 0.479687 0.616968
0.137682 0.531429 0.562555
0.244303 0.538966 0.568881
0.350730 0.546490 0.575195
0.457157 0.508849 0.581508
0.508387 0.512592 0.594773
0.601850 0.513373 0.595555
0.701430 0.520273 0.612398
0.801011 0.527173 0.619513
0.897114 0.533832 0.616014
0.138042 0.567070 0.562862
0.244663 0.573396 0.569187
0.351090 0.579710 0.575501
0.457517 0.586024 0.581815
0.508701 0.599295 0.595087
0.607968 0.605882 0.601673
0.707549 0.612782 0.608573
0.807129 0.619682 0.615473
0.903232 0.626341 0.622132
0.145937 0.666083 0.569577
0.252558 0.672408 0.575902
0.358985 0.678722 0.570290
0.465412 0.685036 0.576826
0.515572 0.698464 0.590438
0.625085 0.704895 0.608389
0.707549 0.694952 0.608573
0.807129 0.700406 0.615473
0.903232 0.706770 0.622132
0.153832 0.765095 0.552978
0.260453 0.771421 0.559479
0.366880 0.777735 0.566111
0.473307 0.784048 0.573088
0.522443 0.797633 0.587093
0.641560 0.804064 0.615261
0.736885 0.804064 0.615261
0.807129 0.784540 0.615473
0.903232 0.789118 0.622132
0.161728 0.864108 0.548708
0.268348 0.870433 0.555399
0.374775 0.876747 0.562312
0.481202 0.883061 0.569712
0.529315 0.896801 0.584035
0.658027 0.903232 0.622132
0.754436 0.903232 0.622132
0.846911 0.903232 0.622132
0.903232 0.874020 0.622132
0.145511 0.199055 0.660738
0.185949 0.145511 0.660738
0.282125 0.145511 0.660738
0.380772 0.145511 0.660738
0.475239 0.145511 0.660738
0.517438 0.145511 0.660738
0.622350 0.146148 0.668732
0.768156 0.154076 0.724651
0.864108 0.161728 0.732874
0.145511 0.290333 0.660738
0.251498 0.294128 0.667026
0.302972 0.251498 0.667026
0.400045 0.251498 0.667026
0.493581 0.251498 0.667026
0.534292 0.251498 0.667026
0.639000 0.252135 0.675020
0.774443 0.260063 0.720412
0.870395 0.267714 0.728386
0.145511 0.379760 0.660738
0.252132 0.385759 0.667063
0.357484 0.389370 0.673313
0.420186 0.357484 0.673313
0.457588 0.357484 0.673313
0.551280 0.357484 0.673313
0.655651 0.358122 0.681307
0.780731 0.366050 0.716098
0.876683 0.373701 0.723754
0.145511 0.467699 0.660738
0.252132 0.474622 0.667063
0.358559 0.481047 0.673377
0.463471 0.484612 0.679601
0.477227 0.463471 0.679601
0.568595 0.463471 0.679601
0.672304 0.464108 0.687595
0.787019 0.472036 0.711647
0.882971 0.479687 0.718892
0.145511 0.539258 0.660738
0.252132 0.546795 0.667063
0.358559 0.520306 0.673377
0.464986 0.525295 0.679691
0.515201 0.537625 0.693111
0.587351 0.519719 0.693424
0.690541 0.520273 0.701430
0.801011 0.527173 0.721136
0.897114 0.533832 0.728465
0.145511 0.573423 0.660738
0.252132 0.579748 0.667063
0.358559 0.586062 0.673377
0.464986 0.603020 0.679691
0.515201 0.616291 0.693111
0.612540 0.619657 0.699855
0.705966 0.613095 0.707862
0.807443 0.619995 0.717852
0.903546 0.626654 0.724743
0.145937 0.666083 0.661100
0.252558 0.672408 0.667426
0.358985 0.678722 0.673740
0.465412 0.685036 0.680053
0.515572 0.698464 0.693481
0.615153 0.705364 0.700381
0.714362 0.711893 0.706910
0.813943 0.718793 0.713810
0.910046 0.725452 0.720469
0.153832 0.765095 0.667816
0.260453 0.771421 0.674141
0.366880 0.777735 0.680455
0.473307 0.784048 0.674762
0.522443 0.797633 0.688406
0.622024 0.804533 0.695653
0.731595 0.810878 0.713598
0.813943 0.800868 0.713810
0.910046 0.806104 0.720469
0.161728 0.864108 0.674531
0.268348 0.870433 0.657463
0.374775 0.876747 0.663963
0.481202 0.883061 0.670618
0.529315 0.896801 0.684543
0.628895 0.903701 0.692320
0.748074 0.910046 0.720469
0.843341 0.910046 0.720469
0.910046 0.890345 0.720469
0.153340 0.216274 0.758920
0.184216 0.153340 0.758920
0.279848 0.153340 0.758920
0.377565 0.153340 0.758920
0.470835 0.153340 0.758920
0.511218 0.153340 0.758920
0.607315 0.153340 0.758920
0.713496 0.154076 0.768156
0.864108 0.161728 0.832130
0.153340 0.307699 0.758920
0.259327 0.311347 0.765208
0.301151 0.259327 0.765208
0.397404 0.259327 0.765208
0.435105 0.259327 0.765208
0.528503 0.259327 0.765208
0.624102 0.259327 0.765208
0.730146 0.260063 0.774443
0.870395 0.267714 0.827937
0.153340 0.397507 0.758920
0.259961 0.403190 0.765246
0.365313 0.406589 0.771496
0.418188 0.365313 0.771496
0.454032 0.365313 0.771496
0.546114 0.365313 0.771496
0.640959 0.365313 0.771496
0.746796 0.366050 0.780731
0.876683 0.373701 0.823698
0.153340 0.485950 0.758920
0.259961 0.492579 0.765246
0.366388 0.498599 0.771560
0.471300 0.501831 0.777784
0.474433 0.471300 0.777784
0.564372 0.471300 0.777784
0.657956 0.471300 0.777784
0.763448 0.472036 0.787019
0.882971 0.479687 0.819382
0.153340 0.573116 0.758920
0.259961 0.531694 0.765246
0.366388 0.537111 0.771560
0.472815 0.541557 0.777873
0.522015 0.553952 0.791448
0.583663 0.526532 0.791761
0.676445 0.526532 0.791761
0.781718 0.527173 0.801011
0.897114 0.533832 0.829237
0.153340 0.602199 0.758920
0.259961 0.608370 0.765246
0.366388 0.614403 0.771560
0.472815 0.620123 0.777873
0.522015 0.633317 0.791448
0.619354 0.635983 0.798193
0.692671 0.619354 0.798193
0.797135 0.619995 0.807443
0.903546 0.626654 0.826291
0.153340 0.672379 0.758920
0.259961 0.678705 0.765246
0.366388 0.685018 0.771560
0.472815 0.691332 0.777873
0.522015 0.715578 0.791448
0.621596 0.722212 0.798348
0.718523 0.725198 0.805064
0.813619 0.719164 0.814314
0.910417 0.725823 0.822807
0.153832 0.765095 0.759339
0.260453 0.771421 0.765664
0.366880 0.777735 0.771978
0.473307 0.784048 0.778292
0.522443 0.797633 0.791876
0.622024 0.804533 0.798776
0.721605 0.811432 0.805676
0.820757 0.817904 0.812148
0.916860 0.824563 0.818807
0.161728 0.864108 0.766054
0.268348 0.870433 0.772380
0.374775 0.876747 0.778694
0.481202 0.883061 0.785007
0.529315 0.896801 0.798748
0.628895 0.903701 0.793611
0.728476 0.910601 0.800868
0.838103 0.916860 0.818807
0.916860 0.906670 0.818807
0.161169 0.233493 0.857103
0.182529 0.161169 0.857103
0.277762 0.161169 0.857103
0.374794 0.161169 0.857103
0.467170 0.161169 0.857103
0.505915 0.161169 0.857103
0.600789 0.161169 0.857103
0.697231 0.161169 0.857103
0.798058 0.161728 0.864108
0.161169 0.325028 0.857103
0.267156 0.328566 0.863391
0.299410 0.267156 0.863391
0.395099 0.267156 0.863391
0.431321 0.267156 0.863391
0.523665 0.267156 0.863391
0.617897 0.267156 0.863391
0.713978 0.267156 0.863391
0.814707 0.267714 0.870395
0.161169 0.415131 0.857103
0.267790 0.420559 0.863428
0.373142 0.423808 0.869678
0.416353 0.373142 0.869678
0.450812 0.373142 0.869678
0.541871 0.373142 0.869678
0.635197 0.373142 0.869678
0.730766 0.373142 0.869678
0.831357 0.373701 0.876683
0.161169 0.503984 0.857103
0.267790 0.510340 0.863428
0.374217 0.516037 0.869742
0.479129 0.519050 0.875966
0.479129 0.486555 0.875966
0.560877 0.479129 0.875966
0.652837 0.479129 0.875966
0.747626 0.479129 0.875966
0.848007 0.479687 0.882971
0.161169 0.543059 0.857103
0.267790 0.548625 0.863428
0.374217 0.553693 0.869742
0.480644 0.557756 0.876056
0.528829 0.570278 0.889785
0.580494 0.533346 0.890098
0.671694 0.533346 0.890098
0.766043 0.533346 0.890098
0.866308 0.533832 0.897114
0.161169 0.619786 0.857103
0.267790 0.625776 0.863428
0.374217 0.631536 0.869742
0.480644 0.636839 0.876056
0.528829 0.650020 0.889785
0.626168 0.652309 0.896530
0.688888 0.626168 0.896530
0.781835 0.626168 0.896530
0.881719 0.626654 0.903546
0.161169 0.679038 0.857103
0.267790 0.707376 0.863428
0.374217 0.713529 0.869742
0.480644 0.719547 0.876056
0.528829 0.733115 0.889785
0.628409 0.739238 0.896685
0.725337 0.741525 0.903401
0.799133 0.725337 0.903401
0.898187 0.725823 0.910417
0.161169 0.771335 0.857103
0.267790 0.777661 0.863428
0.374217 0.783975 0.869742
0.480644 0.790289 0.876056
0.528829 0.804018 0.889785
0.628409 0.821495 0.896685
0.727990 0.828132 0.903585
0.824505 0.830739 0.910273
0.914663 0.824991 0.917289
0.161728 0.864108 0.857578
0.268348 0.870433 0.863903
0.374775 0.876747 0.870217
0.481202 0.883061 0.876531
0.529315 0.896801 0.890271
0.628895 0.903701 0.897171
0.728476 0.910601 0.904071
0.828057 0.917501 0.910971
0.923674 0.923674 0.917144
