docs/luts/fuji_recipes/Classic_DC_Classic_Chrome_II.cube
TITLE "Fujifilm Recipe: DC Classic Chrome II (Classic)"
# FilmSim=Classic HL=0 SH=0 Col=3 WB=Auto WBR=0 WBB=0
LUT_3D_SIZE 9
DOMAIN_MIN 0.0 0.0 0.0
DOMAIN_MAX 1.0 1.0 1.0
0.000000 0.000000 0.000000
0.124000 0.000000 0.000000
0.248000 0.000000 0.000000
0.372000 0.000000 0.000000
0.496000 0.000000 0.000000
0.622000 0.000000 0.000000
0.744000 0.000000 0.000000
0.866000 0.000000 0.000000
0.988000 0.000000 0.000000
0.000000 0.123254 0.000000
0.124000 0.123254 0.000000
0.248000 0.123254 0.000000
0.372000 0.123254 0.000000
0.496000 0.123254 0.000000
0.622000 0.123254 0.000000
0.744000 0.123254 0.000000
0.866000 0.123254 0.000000
0.988000 0.123254 0.000000
0.000000 0.246736 0.000000
0.124000 0.246736 0.000000
0.248000 0.246736 0.000000
0.372000 0.246736 0.000000
0.496000 0.246736 0.000000
0.622000 0.246736 0.000000
0.744000 0.246736 0.000000
0.866000 0.246736 0.000000
0.988000 0.246736 0.000000
0.000000 0.370217 0.000000
0.124000 0.370217 0.000000
0.248000 0.370217 0.000000
0.372000 0.370217 0.000000
0.496000 0.370217 0.000000
0.622000 0.370217 0.000000
0.744000 0.370217 0.000000
0.866000 0.370217 0.000000
0.988000 0.370217 0.000000
0.000000 0.493699 0.000000
0.124000 0.493699 0.000000
0.248000 0.493699 0.000000
0.372000 0.493699 0.000000
0.496000 0.493699 0.000000
0.622000 0.493699 0.000000
0.744000 0.493699 0.000000
0.866000 0.493699 0.000000
0.988000 0.493699 0.000000
0.000000 0.619227 0.000000
0.124000 0.619227 0.000000
0.248000 0.619227 0.000000
0.372000 0.619227 0.000000
0.496000 0.619227 0.000000
0.622000 0.619227 0.000000
0.744000 0.619227 0.000000
0.866000 0.619227 0.000000
0.988000 0.619227 0.000000
0.000000 0.740717 0.000000
0.124000 0.740717 0.000000
0.248000 0.740717 0.000000
0.372000 0.740717 0.000000
0.496000 0.740717 0.000000
0.622000 0.740717 0.000000
0.744000 0.740717 0.000000
0.866000 0.740717 0.000000
0.988000 0.740717 0.000000
0.000000 0.862207 0.000000
0.124000 0.862207 0.000000
0.248000 0.862207 0.000000
0.372000 0.862207 0.000000
0.496000 0.862207 0.000000
0.622000 0.862207 0.000000
0.744000 0.862207 0.000000
0.866000 0.862207 0.000000
0.988000 0.862207 0.000000
0.000000 0.983697 0.000000
0.124000 0.983697 0.000000
0.248000 0.983697 0.000000
0.372000 0.983697 0.000000
0.496000 0.983697 0.000000
0.622000 0.983697 0.000000
0.744000 0.983697 0.000000
0.866000 0.983697 0.000000
0.988000 0.983697 0.000000
0.000000 0.000000 0.121748
0.124000 0.000000 0.121748
0.248000 0.000000 0.121748
0.372000 0.000000 0.121748
0.496000 0.000000 0.121748
0.622000 0.000000 0.121748
0.744000 0.000000 0.121748
0.866000 0.000000 0.121748
0.988000 0.000000 0.121748
0.000000 0.123254 0.121748
0.124140 0.123301 0.121608
0.255840 0.115601 0.113908
0.387541 0.107900 0.106208
0.519241 0.100200 0.098507
0.653066 0.092375 0.090683
0.782642 0.084799 0.083106
0.912218 0.077223 0.075530
1.000000 0.111296 0.109748
0.000000 0.246736 0.121748
0.116518 0.254497 0.113986
0.255840 0.254419 0.113908
0.387541 0.246718 0.106208
0.519241 0.239018 0.098507
0.653066 0.231193 0.090683
0.782642 0.223617 0.083106
0.912218 0.216041 0.075530
1.000000 0.238198 0.109748
0.000000 0.370217 0.121748
0.108850 0.385647 0.106318
0.248251 0.385647 0.106318
0.387541 0.385537 0.106208
0.519241 0.377836 0.098507
0.653066 0.370012 0.090683
0.782642 0.362436 0.083106
0.912218 0.354859 0.075530
1.000000 0.365101 0.109748
0.000000 0.493699 0.121748
0.101182 0.516797 0.098650
0.240582 0.516797 0.098650
0.379983 0.516797 0.098650
0.519241 0.516655 0.098507
0.653066 0.508830 0.090683
0.782642 0.501254 0.083106
0.912218 0.493678 0.075530
1.000000 0.492004 0.109748
0.000000 0.619227 0.121748
0.093386 0.650120 0.090855
0.232787 0.650120 0.090855
0.372188 0.650120 0.090855
0.511589 0.650120 0.090855
0.653066 0.649948 0.090683
0.782642 0.642372 0.083106
0.912218 0.634795 0.075530
1.000000 0.621009 0.109748
0.000000 0.740717 0.121748
0.085842 0.779155 0.083310
0.225243 0.779155 0.083310
0.364643 0.779155 0.083310
0.504044 0.779155 0.083310
0.645693 0.779155 0.083310
0.782642 0.778951 0.083106
0.912218 0.771375 0.075530
1.000000 0.745866 0.109748
0.000000 0.862207 0.121748
0.078297 0.908189 0.075766
0.217698 0.908189 0.075766
0.357099 0.908189 0.075766
0.496500 0.908189 0.075766
0.638149 0.908189 0.075766
0.775301 0.908189 0.075766
0.912218 0.907954 0.075530
1.000000 0.870722 0.109748
0.000000 0.983697 0.121748
0.107782 1.000000 0.105445
0.236473 1.000000 0.105445
0.365164 1.000000 0.105445
0.493854 1.000000 0.105445
0.624621 1.000000 0.105445
0.751236 1.000000 0.105445
0.877851 1.000000 0.105445
1.000000 0.995578 0.109748
0.000000 0.000000 0.244184
0.124000 0.000000 0.244184
0.248000 0.000000 0.244184
0.372000 0.000000 0.244184
0.496000 0.000000 0.244184
0.622000 0.000000 0.244184
0.744000 0.000000 0.244184
0.866000 0.000000 0.244184
0.988000 0.000000 0.244184
0.000000 0.123254 0.244184
0.116583 0.115744 0.251694
0.255747 0.115507 0.251457
0.387447 0.107807 0.243757
0.519148 0.100106 0.236056
0.652972 0.092282 0.228232
0.782548 0.084705 0.220656
0.912125 0.077129 0.213079
1.000000 0.111254 0.235541
0.000000 0.246736 0.244184
0.116378 0.254358 0.251489
0.248237 0.246816 0.243947
0.379937 0.239115 0.236247
0.511638 0.231415 0.228547
0.645462 0.223590 0.220722
0.775039 0.216014 0.213146
0.904615 0.208438 0.205570
1.000000 0.234818 0.232184
0.000000 0.370217 0.244184
0.108710 0.385508 0.243821
0.240647 0.378044 0.236358
0.379937 0.377933 0.236247
0.511638 0.370233 0.228547
0.645462 0.362408 0.220722
0.775039 0.354832 0.213146
0.904615 0.347256 0.205570
1.000000 0.362284 0.232184
0.000000 0.493699 0.244184
0.101042 0.516658 0.236153
0.232979 0.509194 0.228689
0.372380 0.509194 0.228689
0.511638 0.509051 0.228547
0.645462 0.501227 0.220722
0.775039 0.493650 0.213146
0.904615 0.486074 0.205570
1.000000 0.489750 0.232184
0.000000 0.619227 0.244184
0.093246 0.649980 0.228358
0.225184 0.642517 0.220894
0.364585 0.642517 0.220894
0.503985 0.642517 0.220894
0.645462 0.642344 0.220722
0.775039 0.634768 0.213146
0.904615 0.627192 0.205570
1.000000 0.619328 0.232184
0.000000 0.740717 0.244184
0.085702 0.779015 0.220813
0.217639 0.771551 0.213350
0.357040 0.771551 0.213350
0.496441 0.771551 0.213350
0.638090 0.771551 0.213350
0.775039 0.771348 0.213146
0.904615 0.763771 0.205570
1.000000 0.744738 0.232184
0.000000 0.862207 0.244184
0.078157 0.908050 0.213269
0.210095 0.900586 0.205805
0.349496 0.900586 0.205805
0.488896 0.900586 0.205805
0.630546 0.900586 0.205805
0.767698 0.900586 0.205805
0.904615 0.900351 0.205570
1.000000 0.870148 0.232184
0.000000 0.983697 0.244184
0.107697 1.000000 0.232440
0.231865 1.000000 0.227881
0.361333 1.000000 0.227881
0.490800 1.000000 0.227881
0.622355 1.000000 0.227881
0.749734 1.000000 0.227881
0.877114 1.000000 0.227881
1.000000 0.995558 0.232184
0.000000 0.000000 0.366621
0.124000 0.000000 0.366621
0.248000 0.000000 0.366621
0.372000 0.000000 0.366621
0.496000 0.000000 0.366621
0.622000 0.000000 0.366621
0.744000 0.000000 0.366621
0.866000 0.000000 0.366621
0.988000 0.000000 0.366621
0.000000 0.123254 0.366621
0.108980 0.108141 0.381734
0.248380 0.108141 0.381734
0.387447 0.107807 0.381400
0.519148 0.100106 0.373699
0.652972 0.092282 0.365875
0.782548 0.084705 0.358298
0.912125 0.077129 0.350722
1.000000 0.111254 0.361375
0.000000 0.246736 0.366621
0.108933 0.246913 0.381687
0.240712 0.239291 0.374065
0.379779 0.238957 0.373731
0.511479 0.231256 0.366031
0.645304 0.223432 0.358206
0.774880 0.215856 0.350630
0.904456 0.208279 0.343054
1.000000 0.234736 0.358502
0.000000 0.370217 0.366621
0.108710 0.385508 0.381464
0.240410 0.377807 0.373764
0.372334 0.370330 0.366287
0.504034 0.362630 0.358586
0.637859 0.354805 0.350762
0.767435 0.347229 0.343185
0.897011 0.339653 0.335609
1.000000 0.358356 0.354621
0.000000 0.493699 0.366621
0.101042 0.516658 0.373796
0.232742 0.508957 0.366095
0.364777 0.501591 0.358729
0.504034 0.501448 0.358586
0.637859 0.493623 0.350762
0.767435 0.486047 0.343185
0.897011 0.478471 0.335609
1.000000 0.486608 0.354621
0.000000 0.619227 0.366621
0.093246 0.649980 0.366000
0.224947 0.642280 0.358300
0.356981 0.634913 0.350934
0.496382 0.634913 0.350934
0.637859 0.634741 0.350762
0.767435 0.627165 0.343185
0.897011 0.619589 0.335609
1.000000 0.616983 0.354621
0.000000 0.740717 0.366621
0.085702 0.779015 0.358456
0.217402 0.771314 0.350756
0.349437 0.763948 0.343389
0.488838 0.763948 0.343389
0.630487 0.763948 0.343389
0.767435 0.763744 0.343185
0.897011 0.756168 0.335609
1.000000 0.743166 0.354621
0.000000 0.862207 0.366621
0.078157 0.908050 0.350911
0.209858 0.900349 0.343211
0.341892 0.892983 0.335845
0.481293 0.892983 0.335845
0.622942 0.892983 0.335845
0.760095 0.892983 0.335845
0.897011 0.892747 0.335609
1.000000 0.869348 0.354621
0.000000 0.983697 0.366621
0.107697 1.000000 0.359520
0.231697 1.000000 0.355575
0.355981 1.000000 0.350318
0.486533 1.000000 0.350318
0.619191 1.000000 0.350318
0.747638 1.000000 0.350318
0.876084 1.000000 0.350318
1.000000 0.995531 0.354621
0.000000 0.000000 0.489057
0.124000 0.000000 0.489057
0.248000 0.000000 0.489057
0.372000 0.000000 0.489057
0.496000 0.000000 0.489057
0.622000 0.000000 0.489057
0.744000 0.000000 0.489057
0.866000 0.000000 0.489057
0.988000 0.000000 0.489057
0.000000 0.123254 0.489057
0.101376 0.100537 0.511773
0.240777 0.100537 0.511773
0.380178 0.100537 0.511773
0.519148 0.100106 0.511342
0.652972 0.092282 0.503517
0.782548 0.084705 0.495941
0.912125 0.077129 0.488365
1.000000 0.111254 0.487209
0.000000 0.246736 0.489057
0.101330 0.239309 0.511727
0.233109 0.231687 0.504105
0.372510 0.231687 0.504105
0.511479 0.231256 0.503674
0.645304 0.223432 0.495849
0.774880 0.215856 0.488273
0.904456 0.208279 0.480697
1.000000 0.234736 0.484902
0.000000 0.370217 0.489057
0.101330 0.378128 0.511727
0.233030 0.370427 0.504026
0.364841 0.362838 0.496437
0.503811 0.362406 0.496006
0.637636 0.354582 0.488181
0.767212 0.347006 0.480605
0.896788 0.339429 0.473029
1.000000 0.358217 0.481674
0.000000 0.493699 0.489057
0.101042 0.516658 0.511439
0.232742 0.508957 0.503738
0.364442 0.501257 0.496038
0.496431 0.493845 0.488626
0.630256 0.486020 0.480801
0.759832 0.478444 0.473225
0.889408 0.470868 0.465649
1.000000 0.481923 0.477057
0.000000 0.619227 0.489057
0.093246 0.649980 0.503643
0.224947 0.642280 0.495943
0.356647 0.634579 0.488242
0.488779 0.627310 0.480973
0.630256 0.627138 0.480801
0.759832 0.619562 0.473225
0.889408 0.611985 0.465649
1.000000 0.613488 0.477057
0.000000 0.740717 0.489057
0.085702 0.779015 0.496099
0.217402 0.771314 0.488398
0.349103 0.763614 0.480698
0.481234 0.756345 0.473429
0.622883 0.756345 0.473429
0.759832 0.756141 0.473225
0.889408 0.748565 0.465649
1.000000 0.740822 0.477057
0.000000 0.862207 0.489057
0.078157 0.908050 0.488554
0.209858 0.900349 0.480854
0.341558 0.892649 0.473153
0.473690 0.885380 0.465884
0.615339 0.885380 0.465884
0.752491 0.885380 0.465884
0.889408 0.885144 0.465649
1.000000 0.868156 0.477057
0.000000 0.983697 0.489057
0.107697 1.000000 0.486599
0.231697 1.000000 0.483437
0.355697 1.000000 0.478993
0.480155 1.000000 0.472754
0.614460 1.000000 0.472754
0.744502 1.000000 0.472754
0.874545 1.000000 0.472754
1.000000 0.995490 0.477057
0.000000 0.000000 0.613630
0.124000 0.000000 0.613630
0.248000 0.000000 0.613630
0.372000 0.000000 0.613630
0.496000 0.000000 0.613630
0.622000 0.000000 0.613630
0.744000 0.000000 0.613630
0.866000 0.000000 0.613630
0.988000 0.000000 0.613630
0.000000 0.123254 0.613630
0.093640 0.092801 0.644083
0.233041 0.092801 0.644083
0.372442 0.092801 0.644083
0.511843 0.092801 0.644083
0.652972 0.092282 0.643563
0.782548 0.084705 0.635987
0.912125 0.077129 0.628410
1.000000 0.111254 0.615240
0.000000 0.246736 0.613630
0.093594 0.231573 0.644036
0.225373 0.223951 0.636414
0.364774 0.223951 0.636414
0.504174 0.223951 0.636414
0.645304 0.223432 0.635895
0.774880 0.215856 0.628318
0.904456 0.208279 0.620742
1.000000 0.234736 0.613509
0.000000 0.370217 0.613630
0.093594 0.370392 0.644036
0.225294 0.362691 0.636336
0.357105 0.355102 0.628746
0.496506 0.355102 0.628746
0.637636 0.354582 0.628226
0.767212 0.347006 0.620650
0.896788 0.339429 0.613074
1.000000 0.358217 0.611086
0.000000 0.493699 0.613630
0.093594 0.509210 0.644036
0.225294 0.501509 0.636336
0.356995 0.493809 0.628635
0.488838 0.486252 0.621078
0.629967 0.485732 0.620558
0.759544 0.478156 0.612982
0.889120 0.470579 0.605406
1.000000 0.481699 0.607453
0.000000 0.619227 0.613630
0.093246 0.649980 0.643689
0.224947 0.642280 0.635988
0.356647 0.634579 0.628288
0.488348 0.626879 0.620588
0.622520 0.619402 0.613110
0.752096 0.611826 0.605534
0.881672 0.604249 0.597958
1.000000 0.607585 0.601630
0.000000 0.740717 0.613630
0.085702 0.779015 0.636144
0.217402 0.771314 0.628444
0.349103 0.763614 0.620743
0.480803 0.755914 0.613043
0.615147 0.748609 0.605738
0.752096 0.748405 0.605534
0.881672 0.740829 0.597958
1.000000 0.736864 0.601630
0.000000 0.862207 0.613630
0.078157 0.908050 0.628600
0.209858 0.900349 0.620899
0.341558 0.892649 0.613199
0.473259 0.884948 0.605498
0.607603 0.877644 0.598194
0.744755 0.877644 0.598194
0.881672 0.877408 0.597958
1.000000 0.866143 0.601630
0.000000 0.983697 0.613630
0.107697 1.000000 0.615898
0.231697 1.000000 0.613532
0.355697 1.000000 0.610207
0.479697 1.000000 0.605192
0.606435 1.000000 0.597327
0.739184 1.000000 0.597327
0.871933 1.000000 0.597327
1.000000 0.995421 0.601630
0.000000 0.000000 0.734092
0.124000 0.000000 0.734092
0.248000 0.000000 0.734092
0.372000 0.000000 0.734092
0.496000 0.000000 0.734092
0.622000 0.000000 0.734092
0.744000 0.000000 0.734092
0.866000 0.000000 0.734092
0.988000 0.000000 0.734092
0.000000 0.123254 0.734092
0.086160 0.085321 0.772025
0.225560 0.085321 0.772025
0.364961 0.085321 0.772025
0.504362 0.085321 0.772025
0.646011 0.085321 0.772025
0.782548 0.084705 0.771409
0.912125 0.077129 0.763833
1.000000 0.111254 0.739045
0.000000 0.246736 0.734092
0.086113 0.224093 0.771978
0.217892 0.216471 0.764356
0.357293 0.216471 0.764356
0.496694 0.216471 0.764356
0.638343 0.216471 0.764356
0.774880 0.215856 0.763741
0.904456 0.208279 0.756165
1.000000 0.234736 0.737871
0.000000 0.370217 0.734092
0.086113 0.362911 0.771978
0.217814 0.355211 0.764278
0.349625 0.347621 0.756688
0.489026 0.347621 0.756688
0.630675 0.347621 0.756688
0.767212 0.347006 0.756073
0.896788 0.339429 0.748497
1.000000 0.358217 0.736228
0.000000 0.493699 0.734092
0.086113 0.501729 0.771978
0.217814 0.494029 0.764278
0.349514 0.486328 0.756578
0.481357 0.478771 0.749020
0.623007 0.478771 0.749020
0.759544 0.478156 0.748405
0.889120 0.470579 0.740829
1.000000 0.481699 0.733764
0.000000 0.619227 0.734092
0.086113 0.642847 0.771978
0.217814 0.635147 0.764278
0.349514 0.627446 0.756578
0.481215 0.619746 0.748877
0.615211 0.612093 0.741225
0.751748 0.611478 0.740609
0.881325 0.603902 0.733033
1.000000 0.607227 0.729567
0.000000 0.740717 0.734092
0.085702 0.779015 0.771567
0.217402 0.771314 0.763867
0.349103 0.763614 0.756166
0.480803 0.755914 0.748466
0.614628 0.748089 0.740641
0.744615 0.740924 0.733476
0.874192 0.733348 0.725900
1.000000 0.729343 0.722092
0.000000 0.862207 0.734092
0.078157 0.908050 0.764022
0.209858 0.900349 0.756322
0.341558 0.892649 0.748622
0.473259 0.884948 0.740921
0.607083 0.877124 0.733097
0.737275 0.870163 0.726136
0.874192 0.869927 0.725900
1.000000 0.862317 0.722092
0.000000 0.983697 0.734092
0.107697 1.000000 0.740928
0.231697 1.000000 0.739332
0.355697 1.000000 0.737090
0.479697 1.000000 0.733707
0.605697 1.000000 0.727893
0.729730 0.999198 0.718591
0.866883 0.999198 0.718591
1.000000 0.995290 0.722092
0.000000 0.000000 0.854553
0.124000 0.000000 0.854553
0.248000 0.000000 0.854553
0.372000 0.000000 0.854553
0.496000 0.000000 0.854553
0.622000 0.000000 0.854553
0.744000 0.000000 0.854553
0.866000 0.000000 0.854553
0.988000 0.000000 0.854553
0.000000 0.123254 0.854553
0.078679 0.077840 0.899967
0.218080 0.077840 0.899967
0.357481 0.077840 0.899967
0.496881 0.077840 0.899967
0.638531 0.077840 0.899967
0.775683 0.077840 0.899967
0.912125 0.077129 0.899256
1.000000 0.111254 0.862849
0.000000 0.246736 0.854553
0.078633 0.216612 0.899920
0.210412 0.208990 0.892299
0.349812 0.208990 0.892299
0.489213 0.208990 0.892299
0.630862 0.208990 0.892299
0.768015 0.208990 0.892299
0.904456 0.208279 0.891588
1.000000 0.234736 0.862232
0.000000 0.370217 0.854553
0.078633 0.355430 0.899920
0.210333 0.347730 0.892220
0.342144 0.340140 0.884630
0.481545 0.340140 0.884630
0.623194 0.340140 0.884630
0.760347 0.340140 0.884630
0.896788 0.339429 0.883920
1.000000 0.358217 0.861369
0.000000 0.493699 0.854553
0.078633 0.494249 0.899920
0.210333 0.486548 0.892220
0.342033 0.478848 0.884520
0.473877 0.471290 0.876962
0.615526 0.471290 0.876962
0.752678 0.471290 0.876962
0.889120 0.470579 0.876251
1.000000 0.481699 0.860074
0.000000 0.619227 0.854553
0.078633 0.635366 0.899920
0.210333 0.627666 0.892220
0.342033 0.619966 0.884520
0.473734 0.612265 0.876819
0.607731 0.604613 0.869167
0.744883 0.604613 0.869167
0.881325 0.603902 0.868456
1.000000 0.607227 0.857868
0.000000 0.740717 0.854553
0.078633 0.771946 0.899920
0.210333 0.764245 0.892220
0.342033 0.756545 0.884520
0.473734 0.748844 0.876819
0.607558 0.741020 0.868995
0.737339 0.733647 0.861622
0.873780 0.732937 0.860912
1.000000 0.728717 0.853601
0.000000 0.862207 0.854553
0.078157 0.908050 0.899445
0.209858 0.900349 0.891745
0.341558 0.892649 0.884044
0.473259 0.884948 0.876344
0.607083 0.877124 0.868519
0.736659 0.869548 0.860943
0.866711 0.862447 0.853842
0.996287 0.854870 0.846266
0.000000 0.983697 0.854553
0.107697 1.000000 0.865958
0.231697 1.000000 0.865132
0.355697 1.000000 0.863972
0.479697 1.000000 0.862222
0.605697 1.000000 0.859214
0.729115 0.998582 0.853399
0.859402 0.991717 0.846533
0.996287 0.991450 0.846266
0.000000 0.000000 0.975015
0.124000 0.000000 0.975015
0.248000 0.000000 0.975015
0.372000 0.000000 0.975015
0.496000 0.000000 0.975015
0.622000 0.000000 0.975015
0.744000 0.000000 0.975015
0.866000 0.000000 0.975015
0.988000 0.000000 0.975015
0.000000 0.123254 0.975015
0.099058 0.098268 1.000000
0.230333 0.098268 1.000000
0.361608 0.098268 1.000000
0.492883 0.098268 1.000000
0.626275 0.098268 1.000000
0.755432 0.098268 1.000000
0.884590 0.098268 1.000000
1.000000 0.111254 0.986654
0.000000 0.246736 0.975015
0.099015 0.228957 1.000000
0.223101 0.221750 1.000000
0.355610 0.221750 1.000000
0.488118 0.221750 1.000000
0.622763 0.221750 1.000000
0.753134 0.221750 1.000000
0.883505 0.221750 1.000000
1.000000 0.234736 0.986594
0.000000 0.370217 0.975015
0.099015 0.359690 1.000000
0.223015 0.353633 1.000000
0.347162 0.345232 1.000000
0.481407 0.345232 1.000000
0.617818 0.345232 1.000000
0.749898 0.345232 1.000000
0.881978 0.345232 1.000000
1.000000 0.358217 0.986510
0.000000 0.493699 0.975015
0.099015 0.490422 1.000000
0.223015 0.485602 1.000000
0.347015 0.478799 1.000000
0.471253 0.468714 1.000000
0.610335 0.468714 1.000000
0.745001 0.468714 1.000000
0.879667 0.468714 1.000000
1.000000 0.481699 0.986384
0.000000 0.619227 0.975015
0.099015 0.623320 1.000000
0.223015 0.619757 1.000000
0.347015 0.614728 1.000000
0.471015 0.607096 1.000000
0.600250 0.597132 0.997109
0.737402 0.597132 0.997109
0.874555 0.597132 0.997109
1.000000 0.607227 0.986169
0.000000 0.740717 0.975015
0.099015 0.751944 1.000000
0.223015 0.749598 1.000000
0.347015 0.746286 1.000000
0.471015 0.741260 1.000000
0.600078 0.733539 0.996937
0.729858 0.726167 0.989564
0.867010 0.726167 0.989564
1.000000 0.728717 0.985754
0.000000 0.862207 0.975015
0.099015 0.880568 1.000000
0.223015 0.879439 1.000000
0.347015 0.877844 1.000000
0.471015 0.875424 1.000000
0.600078 0.870118 0.996937
0.729654 0.862542 0.989361
0.859466 0.855202 0.982020
0.995812 0.854395 0.981214
0.000000 0.983697 0.975015
0.107697 1.000000 0.990988
0.231697 1.000000 0.990933
0.355697 1.000000 0.990855
0.479697 1.000000 0.990737
0.605697 1.000000 0.990535
0.729115 0.998582 0.988821
0.858691 0.991006 0.981245
0.988806 0.983969 0.974208
