docs/luts/fuji_recipes/Classic_RR_Agfacolor_Vintage.cube
TITLE "Fujifilm Recipe: RR Agfacolor Vintage (Classic)"
# FilmSim=Classic HL=2 SH=1 Col=-4 WB=Auto WBR=-3 WBB=-4
LUT_3D_SIZE 5
DOMAIN_MIN 0.0 0.0 0.0
DOMAIN_MAX 1.0 1.0 1.0
0.000000 0.000000 0.000000
0.117911 0.077889 0.077889
0.238474 0.157530 0.157530
0.375972 0.246810 0.246810
0.508221 0.332834 0.332834
0.083766 0.126806 0.083766
0.123787 0.126806 0.083766
0.238474 0.200571 0.157530
0.375972 0.289851 0.246810
0.508221 0.375875 0.332834
0.169504 0.256600 0.169504
0.209526 0.256600 0.169504
0.250448 0.256600 0.169504
0.375972 0.333906 0.246810
0.508221 0.419930 0.332834
0.266330 0.405981 0.266330
0.306352 0.405981 0.266330
0.347273 0.405981 0.266330
0.395703 0.405981 0.266330
0.508221 0.473205 0.332834
0.358940 0.548356 0.358940
0.398962 0.548356 0.358940
0.439884 0.548356 0.358940
0.489315 0.548356 0.358940
0.534610 0.548356 0.358940
0.074566 0.074566 0.112879
0.117911 0.077889 0.116203
0.238474 0.157530 0.195844
0.375972 0.246810 0.285124
0.508221 0.332834 0.371148
0.083766 0.126806 0.122079
0.198353 0.201372 0.196645
0.313039 0.275137 0.270410
0.452562 0.365556 0.360828
0.584811 0.451579 0.446852
0.169504 0.256600 0.207818
0.284091 0.331166 0.282384
0.325013 0.331166 0.282384
0.452562 0.409610 0.360828
0.584811 0.495634 0.446852
0.266330 0.405981 0.304644
0.382056 0.482571 0.380348
0.422978 0.482571 0.380348
0.472293 0.482571 0.380348
0.584811 0.549795 0.446852
0.358940 0.548356 0.397254
0.474666 0.624946 0.472958
0.515588 0.624946 0.472958
0.565905 0.624946 0.472958
0.611200 0.624946 0.472958
0.151077 0.151077 0.228704
0.191099 0.151077 0.228704
0.238474 0.157530 0.235158
0.375972 0.246810 0.324438
0.508221 0.332834 0.410462
0.151077 0.194118 0.228704
0.268988 0.272007 0.306594
0.322239 0.284337 0.318923
0.462012 0.374896 0.409482
0.594261 0.460920 0.495506
0.169504 0.256600 0.247132
0.287415 0.334489 0.325021
0.401525 0.407677 0.398209
0.531151 0.487290 0.477822
0.663400 0.573314 0.563846
0.266330 0.405981 0.343958
0.385430 0.485985 0.423036
0.500658 0.561160 0.497342
0.550882 0.561160 0.497342
0.663400 0.628383 0.563846
0.358940 0.548356 0.436568
0.478041 0.628359 0.515646
0.593268 0.703534 0.589952
0.644494 0.703534 0.589952
0.689789 0.703534 0.589952
0.236459 0.236459 0.360059
0.276481 0.236459 0.360059
0.317403 0.236459 0.360059
0.375972 0.246810 0.370522
0.508221 0.332834 0.457477
0.236459 0.279500 0.360059
0.355559 0.358579 0.440063
0.402447 0.364545 0.446099
0.462012 0.374896 0.456562
0.594261 0.460920 0.543516
0.236459 0.323555 0.360059
0.355559 0.402634 0.440063
0.477339 0.483491 0.521866
0.550078 0.505999 0.544628
0.682328 0.592023 0.631583
0.266330 0.405981 0.390253
0.385430 0.485985 0.470257
0.507210 0.567788 0.552060
0.642271 0.652549 0.636821
0.755714 0.720698 0.704970
0.358940 0.548356 0.483865
0.478041 0.628359 0.563869
0.599820 0.710163 0.645673
0.737172 0.796212 0.731722
0.782466 0.796212 0.731722
0.319103 0.319103 0.487111
0.359124 0.319103 0.487111
0.400046 0.319103 0.487111
0.449047 0.319103 0.487111
0.508221 0.332834 0.500991
0.319103 0.362144 0.487111
0.438203 0.441222 0.567115
0.485091 0.447188 0.573151
0.535086 0.447188 0.573151
0.594261 0.460920 0.587031
0.319103 0.406199 0.487111
0.438203 0.485277 0.567115
0.559982 0.566135 0.648918
0.623153 0.578291 0.661217
0.682328 0.592023 0.675097
0.319103 0.459325 0.487111
0.438203 0.539328 0.567115
0.559982 0.621132 0.648918
0.706956 0.717234 0.745020
0.786324 0.751307 0.779094
0.358940 0.548356 0.527380
0.478041 0.628359 0.607384
0.599820 0.710163 0.689187
0.747779 0.806819 0.785843
0.867153 0.880899 0.859923
