docs/luts/fuji_recipes/Classic_ER_Bleach_Bypass.cube
TITLE "Fujifilm Recipe: ER Bleach Bypass (Classic)"
# FilmSim=Classic HL=1 SH=4 Col=-4 WB=Auto WBR=0 WBB=0
LUT_3D_SIZE 5
DOMAIN_MIN 0.0 0.0 0.0
DOMAIN_MAX 1.0 1.0 1.0
0.000000 0.000000 0.000000
0.125450 0.082870 0.082870
0.250901 0.165739 0.165739
0.445927 0.287745 0.287745
0.596369 0.384475 0.384475
0.082447 0.124811 0.082447
0.125450 0.125233 0.082870
0.250901 0.208103 0.165739
0.445927 0.330109 0.287745
0.596369 0.426838 0.384475
0.164971 0.249737 0.164971
0.207551 0.249737 0.164971
0.250901 0.250506 0.165739
0.445927 0.372512 0.287745
0.596369 0.469241 0.384475
0.286444 0.443902 0.286444
0.329024 0.443902 0.286444
0.371605 0.443902 0.286444
0.445927 0.445229 0.287745
0.596369 0.543803 0.384475
0.382769 0.593716 0.382769
0.425350 0.593716 0.382769
0.467930 0.593716 0.382769
0.542762 0.593716 0.382769
0.596369 0.595454 0.384475
0.081595 0.081595 0.123520
0.125450 0.082870 0.124795
0.250901 0.165739 0.207665
0.445927 0.287745 0.329671
0.596369 0.384475 0.426400
0.082447 0.124811 0.124373
0.207045 0.206828 0.206390
0.332495 0.289698 0.289260
0.531741 0.414077 0.413639
0.682183 0.510807 0.510368
0.164971 0.249737 0.206896
0.289146 0.331331 0.288491
0.332495 0.332100 0.289260
0.531741 0.456480 0.413639
0.682183 0.577107 0.510368
0.286444 0.443902 0.328369
0.412993 0.529716 0.412337
0.455573 0.529716 0.412337
0.531741 0.531043 0.413639
0.682183 0.629617 0.510368
0.382769 0.593716 0.424694
0.509318 0.679530 0.508663
0.575858 0.679530 0.508663
0.628577 0.679530 0.508663
0.682183 0.681269 0.510368
0.163419 0.163419 0.247388
0.206000 0.163419 0.247388
0.250901 0.165739 0.249708
0.445927 0.287745 0.371715
0.596369 0.384475 0.468444
0.163419 0.205783 0.247388
0.288447 0.288230 0.329836
0.333348 0.290550 0.332156
0.532637 0.414954 0.456560
0.683080 0.511684 0.577017
0.164971 0.249737 0.248940
0.290421 0.332606 0.331809
0.414320 0.413925 0.413128
0.648287 0.595079 0.594092
0.801101 0.696025 0.695038
0.286444 0.443902 0.370413
0.414305 0.531057 0.455693
0.594210 0.646231 0.592734
0.648287 0.647589 0.594092
0.801101 0.748535 0.695038
0.382769 0.593716 0.466738
0.510630 0.680871 0.575723
0.694734 0.798406 0.693258
0.747453 0.798406 0.693258
0.801101 0.800187 0.695038
0.283817 0.283817 0.439817
0.326398 0.283817 0.439817
0.368979 0.283817 0.439817
0.445927 0.287745 0.443820
0.596369 0.384475 0.542394
0.283817 0.326181 0.439817
0.411244 0.411026 0.526528
0.453824 0.411026 0.526528
0.532637 0.414954 0.530531
0.683080 0.511684 0.629105
0.283817 0.368584 0.439817
0.411678 0.453864 0.526973
0.593390 0.592900 0.644002
0.650208 0.597000 0.648101
0.803022 0.697945 0.749047
0.286444 0.443902 0.442494
0.414305 0.531057 0.529649
0.597082 0.649103 0.647695
0.749661 0.748963 0.747555
0.902475 0.849909 0.848500
0.382769 0.593716 0.540656
0.510630 0.680871 0.627811
0.697606 0.801279 0.748219
0.848826 0.899780 0.846720
0.902475 0.901560 0.848500
0.379327 0.379327 0.588363
0.421908 0.379327 0.588363
0.464488 0.379327 0.588363
0.539255 0.379327 0.588363
0.596369 0.384475 0.593609
0.379327 0.421690 0.588363
0.506753 0.506536 0.675074
0.573247 0.506536 0.675074
0.625965 0.506536 0.675074
0.683080 0.511684 0.680320
0.379327 0.464093 0.588363
0.507188 0.573202 0.675518
0.693062 0.692573 0.794889
0.745781 0.692573 0.794889
0.803022 0.697945 0.800261
0.379327 0.538557 0.588363
0.507188 0.625712 0.675518
0.694014 0.746035 0.795841
0.847975 0.847277 0.897083
0.905216 0.852649 0.902456
0.382769 0.593716 0.591870
0.510630 0.680871 0.679026
0.697606 0.801279 0.799433
0.852926 0.903879 0.902034
0.998502 0.998502 0.997337
