docs/luts/fuji_recipes/Classic_RR_Kodacolor_II_160.cube
TITLE "Fujifilm Recipe: RR Kodacolor II 160 (Classic)"
# FilmSim=Classic HL=-1 SH=3 Col=-4 WB=6300K WBR=6 WBB=3
LUT_3D_SIZE 5
DOMAIN_MIN 0.0 0.0 0.0
DOMAIN_MAX 1.0 1.0 1.0
0.000000 0.000000 0.000000
0.194363 0.121950 0.121950
0.423269 0.261062 0.261062
0.567797 0.350845 0.350845
0.567797 0.350845 0.350845
0.102083 0.162698 0.102083
0.194363 0.182566 0.121950
0.423269 0.321605 0.261062
0.567797 0.411396 0.350845
0.567797 0.411396 0.350845
0.221373 0.359379 0.221373
0.293693 0.359379 0.221373
0.423269 0.399363 0.261062
0.567797 0.489802 0.350845
0.567797 0.489802 0.350845
0.323146 0.523210 0.323146
0.395480 0.523210 0.323146
0.485810 0.523210 0.323146
0.567797 0.551111 0.350845
0.567797 0.551111 0.350845
0.349359 0.565406 0.349359
0.421695 0.565406 0.349359
0.512215 0.565406 0.349359
0.567797 0.566902 0.350845
0.567797 0.566902 0.350845
0.105096 0.105096 0.167501
0.194363 0.121950 0.184355
0.423269 0.261062 0.323392
0.567797 0.350845 0.413183
0.567797 0.350845 0.413183
0.105096 0.165712 0.167501
0.305815 0.294926 0.296577
0.539613 0.444955 0.446606
0.685638 0.518096 0.520001
0.685638 0.518096 0.520001
0.221373 0.359379 0.283698
0.416685 0.478120 0.407447
0.542875 0.520782 0.449847
0.688903 0.605759 0.523246
0.688903 0.605759 0.523246
0.323146 0.523210 0.385483
0.507105 0.643357 0.496507
0.603706 0.643357 0.496507
0.688903 0.671116 0.523246
0.688903 0.671116 0.523246
0.349359 0.565406 0.411698
0.532471 0.686456 0.521817
0.629772 0.686456 0.521817
0.688903 0.687949 0.523246
0.688903 0.687949 0.523246
0.228171 0.228171 0.370323
0.300493 0.228171 0.370323
0.423269 0.261062 0.403458
0.567797 0.350845 0.493897
0.567797 0.350845 0.493897
0.228171 0.288710 0.370323
0.420707 0.409817 0.485951
0.539613 0.444955 0.521304
0.685638 0.518096 0.606858
0.685638 0.518096 0.606858
0.228171 0.366228 0.370323
0.442076 0.503673 0.507457
0.671214 0.649121 0.652906
0.818086 0.735228 0.739579
0.818086 0.735228 0.739579
0.323146 0.523210 0.465997
0.525303 0.661630 0.601000
0.740477 0.779849 0.719619
0.825460 0.807739 0.746974
0.825460 0.807739 0.746974
0.349359 0.565406 0.492401
0.550623 0.704721 0.626933
0.766546 0.823007 0.745514
0.825460 0.824510 0.746974
0.825460 0.824510 0.746974
0.333625 0.333625 0.540079
0.405960 0.333625 0.540079
0.496366 0.333625 0.540079
0.567797 0.350845 0.557424
0.567797 0.350845 0.557424
0.333625 0.394175 0.540079
0.514013 0.501494 0.657302
0.610865 0.501494 0.657302
0.685638 0.518096 0.674580
0.685638 0.518096 0.674580
0.333625 0.472457 0.540079
0.535445 0.607028 0.678837
0.743516 0.718259 0.789694
0.818086 0.735228 0.807066
0.818086 0.735228 0.807066
0.333625 0.533766 0.540079
0.535445 0.672133 0.678837
0.786777 0.826152 0.832798
0.928713 0.913295 0.919128
0.928713 0.913295 0.919128
0.349359 0.565406 0.555928
0.550623 0.704721 0.694622
0.802333 0.858689 0.848647
0.940066 0.939239 0.930481
0.940066 0.939239 0.930481
0.346363 0.346363 0.560582
0.418698 0.346363 0.560582
0.509196 0.346363 0.560582
0.567797 0.350845 0.565097
0.567797 0.350845 0.565097
0.346363 0.406913 0.560582
0.526333 0.513782 0.678255
0.623528 0.513782 0.678255
0.685638 0.518096 0.682759
0.685638 0.518096 0.682759
0.346363 0.485287 0.560582
0.547737 0.619612 0.699786
0.756181 0.730821 0.810685
0.818086 0.735228 0.815217
0.818086 0.735228 0.815217
0.346363 0.546596 0.560582
0.547737 0.684894 0.699786
0.799378 0.838951 0.853749
0.928713 0.913295 0.926218
0.928713 0.913295 0.926218
0.349359 0.565406 0.563601
0.550623 0.704721 0.702797
0.802333 0.858689 0.856777
0.953864 0.953038 0.951369
0.953864 0.953038 0.951369
