docs/luts/fuji_recipes/Classic_RR_Kodachrome_II.cube
TITLE "Fujifilm Recipe: RR Kodachrome II (Classic)"
# FilmSim=Classic HL=1 SH=2 Col=-1 WB=Auto WBR=3 WBB=-4
LUT_3D_SIZE 5
DOMAIN_MIN 0.0 0.0 0.0
DOMAIN_MAX 1.0 1.0 1.0
0.000000 0.000000 0.000000
0.219963 0.055232 0.055232
0.475397 0.113589 0.113589
0.714823 0.169559 0.169559
0.801656 0.189858 0.189858
0.051121 0.203594 0.051121
0.219963 0.207704 0.055232
0.475397 0.266061 0.113589
0.714823 0.322032 0.169559
0.801656 0.342331 0.189858
0.101864 0.405679 0.101864
0.266595 0.405679 0.101864
0.475397 0.417403 0.113589
0.714823 0.508337 0.169559
0.801656 0.530026 0.189858
0.157066 0.661380 0.157066
0.321797 0.661380 0.157066
0.521852 0.661380 0.157066
0.714823 0.674729 0.169559
0.801656 0.696418 0.189858
0.189023 0.798086 0.189023
0.353755 0.798086 0.189023
0.555998 0.798086 0.189023
0.735620 0.798086 0.189023
0.801656 0.798977 0.189858
0.045530 0.045530 0.181327
0.219963 0.055232 0.191028
0.475397 0.113589 0.249385
0.714823 0.169559 0.305356
0.801656 0.189858 0.325655
0.051121 0.203594 0.186918
0.265493 0.253234 0.236558
0.524563 0.311951 0.295275
0.763988 0.367921 0.351245
0.850822 0.388220 0.371544
0.101864 0.405679 0.237660
0.315839 0.488754 0.286904
0.524563 0.497698 0.295275
0.763988 0.557502 0.351245
0.850822 0.579191 0.371544
0.157066 0.661380 0.292862
0.367687 0.710545 0.338752
0.571017 0.710545 0.338752
0.763988 0.723894 0.351245
0.850822 0.745583 0.371544
0.189023 0.798086 0.324820
0.399644 0.847251 0.370710
0.605163 0.847251 0.370710
0.784786 0.847251 0.370710
0.850822 0.848143 0.371544
0.090292 0.090292 0.359594
0.255023 0.090292 0.359594
0.475397 0.113589 0.382890
0.714823 0.169559 0.438861
0.801656 0.189858 0.459160
0.090292 0.242765 0.359594
0.306145 0.293886 0.410715
0.530600 0.317586 0.434415
0.770026 0.373557 0.524525
0.856859 0.393856 0.546214
0.101864 0.405679 0.371166
0.325617 0.499230 0.430187
0.576534 0.549670 0.510655
0.816380 0.609894 0.570879
0.903366 0.631736 0.592721
0.157066 0.661380 0.426367
0.377465 0.721021 0.515614
0.623315 0.762843 0.557436
0.816380 0.776286 0.570879
0.903366 0.798128 0.592721
0.189023 0.798086 0.458325
0.409422 0.857727 0.549760
0.657702 0.899789 0.591823
0.837324 0.899789 0.591823
0.903366 0.900687 0.592721
0.140126 0.140126 0.588919
0.304858 0.140126 0.588919
0.503753 0.140126 0.588919
0.714823 0.169559 0.620367
0.801656 0.189858 0.642056
0.140126 0.292599 0.588919
0.356383 0.344124 0.644122
0.558956 0.344124 0.644122
0.770026 0.373557 0.675570
0.856859 0.393856 0.697259
0.140126 0.476888 0.588919
0.360525 0.536530 0.648560
0.618170 0.591305 0.703336
0.829461 0.622975 0.735005
0.916447 0.644817 0.756847
0.157066 0.661380 0.607018
0.377465 0.721021 0.666659
0.645403 0.784931 0.730570
0.867023 0.826929 0.772567
0.954009 0.848771 0.794409
0.189023 0.798086 0.641164
0.409422 0.857727 0.700805
0.679790 0.921877 0.764956
0.887967 0.950432 0.793511
0.954009 0.951330 0.794409
0.168645 0.168645 0.710912
0.333376 0.168645 0.710912
0.534224 0.168645 0.710912
0.714823 0.169559 0.711889
0.801656 0.189858 0.733578
0.168645 0.321117 0.710912
0.384901 0.372642 0.766115
0.589427 0.372642 0.766115
0.770026 0.373557 0.767092
0.856859 0.393856 0.788781
0.168645 0.507360 0.710912
0.389044 0.567001 0.770553
0.648855 0.621991 0.825544
0.829461 0.622975 0.826527
0.916447 0.644817 0.848369
0.168645 0.673752 0.710912
0.389044 0.733393 0.770553
0.657863 0.797390 0.834551
0.885250 0.845155 0.882316
0.972235 0.866997 0.904157
0.189023 0.798086 0.732686
0.409422 0.857727 0.792328
0.679790 0.921877 0.856478
0.918652 0.981118 0.915718
0.984695 0.982016 0.916617
