docs/luts/fuji_recipes/Classic_RR_Kodacolor_II_160.cube
TITLE "Fujifilm Recipe: RR Kodacolor II 160 (Classic)"
# FilmSim=Classic HL=-1 SH=3 Col=-4 WB=6300K WBR=6 WBB=3
LUT_3D_SIZE 9
DOMAIN_MIN 0.0 0.0 0.0
DOMAIN_MAX 1.0 1.0 1.0
0.000000 0.000000 0.000000
0.101256 0.063532 0.063532
0.194363 0.121950 0.121950
0.289110 0.181398 0.181398
0.423269 0.261062 0.261062
0.520581 0.321514 0.321514
0.567797 0.350845 0.350845
0.567797 0.350845 0.350845
0.567797 0.350845 0.350845
0.052907 0.084323 0.052907
0.101256 0.094948 0.063532
0.194363 0.153366 0.121950
0.289110 0.212814 0.181398
0.423269 0.292440 0.261062
0.520581 0.352895 0.321514
0.567797 0.382227 0.350845
0.567797 0.382227 0.350845
0.567797 0.382227 0.350845
0.102083 0.162698 0.102083
0.139807 0.162698 0.102083
0.194363 0.182566 0.121950
0.289110 0.242014 0.181398
0.423269 0.321605 0.261062
0.520581 0.382062 0.321514
0.567797 0.411396 0.350845
0.567797 0.411396 0.350845
0.567797 0.411396 0.350845
0.151258 0.241074 0.151258
0.188983 0.241074 0.151258
0.223671 0.241074 0.151258
0.289110 0.271214 0.181398
0.423269 0.350770 0.261062
0.520581 0.411230 0.321514
0.567797 0.440564 0.350845
0.567797 0.440564 0.350845
0.567797 0.440564 0.350845
0.221373 0.359379 0.221373
0.259049 0.359379 0.221373
0.293693 0.359379 0.221373
0.328947 0.359379 0.221373
0.423269 0.399363 0.261062
0.520581 0.460257 0.321514
0.567797 0.489802 0.350845
0.567797 0.489802 0.350845
0.567797 0.489802 0.350845
0.272260 0.441294 0.272260
0.309940 0.441294 0.272260
0.344587 0.441294 0.272260
0.398136 0.441294 0.272260
0.434550 0.441294 0.272260
0.520581 0.490911 0.321514
0.567797 0.520456 0.350845
0.567797 0.520456 0.350845
0.567797 0.520456 0.350845
0.323146 0.523210 0.323146
0.360829 0.523210 0.323146
0.395480 0.523210 0.323146
0.449395 0.523210 0.323146
0.485810 0.523210 0.323146
0.522226 0.523210 0.323146
0.567797 0.551111 0.350845
0.567797 0.551111 0.350845
0.567797 0.551111 0.350845
0.349359 0.565406 0.349359
0.387044 0.565406 0.349359
0.421695 0.565406 0.349359
0.475798 0.565406 0.349359
0.512215 0.565406 0.349359
0.548632 0.565406 0.349359
0.567797 0.566902 0.350845
0.567797 0.566902 0.350845
0.567797 0.566902 0.350845
0.349359 0.565406 0.349359
0.387044 0.565406 0.349359
0.421695 0.565406 0.349359
0.475798 0.565406 0.349359
0.512215 0.565406 0.349359
0.548632 0.565406 0.349359
0.567797 0.566902 0.350845
0.567797 0.566902 0.350845
0.567797 0.566902 0.350845
0.054142 0.054142 0.086291
0.101256 0.063532 0.095681
0.194363 0.121950 0.154099
0.289110 0.181398 0.213547
0.423269 0.261062 0.293172
0.520581 0.321514 0.353627
0.567797 0.350845 0.382959
0.567797 0.350845 0.382959
0.567797 0.350845 0.382959
0.054142 0.085558 0.086291
0.159026 0.153203 0.153880
0.253360 0.215518 0.216195
0.347240 0.269778 0.270523
0.482408 0.349680 0.350420
0.582306 0.407545 0.408307
0.632349 0.434050 0.434831
0.632349 0.434050 0.434831
0.632349 0.434050 0.434831
0.102083 0.162698 0.134232
0.201466 0.222595 0.196319
0.254677 0.243788 0.217512
0.386386 0.320226 0.291386
0.483781 0.380520 0.351755
0.584255 0.438815 0.409045
0.633687 0.466482 0.436160
0.633687 0.466482 0.436160
0.633687 0.466482 0.436160
0.151258 0.241074 0.183407
0.253921 0.302003 0.248774
0.285940 0.302003 0.248774
0.386386 0.349808 0.291386
0.483781 0.410026 0.351755
0.584255 0.469351 0.409045
0.633687 0.497585 0.436160
0.633687 0.497585 0.436160
0.633687 0.497585 0.436160
0.221373 0.359379 0.253481
0.317759 0.419842 0.312116
0.352866 0.419842 0.312116
0.407169 0.419842 0.312116
0.483781 0.459596 0.351755
0.584255 0.521101 0.409045
0.633687 0.550519 0.436160
0.633687 0.550519 0.436160
0.633687 0.550519 0.436160
0.272260 0.441294 0.304371
0.368573 0.501819 0.362941
0.403611 0.501819 0.362941
0.458174 0.501819 0.362941
0.494998 0.501819 0.362941
0.584255 0.553193 0.409045
0.633687 0.583207 0.436160
0.633687 0.583207 0.436160
0.633687 0.583207 0.436160
0.323146 0.523210 0.355260
0.415760 0.587684 0.409878
0.452356 0.587684 0.409878
0.509725 0.587684 0.409878
0.548185 0.587684 0.409878
0.586645 0.587684 0.409878
0.633687 0.615895 0.436160
0.633687 0.615895 0.436160
0.633687 0.615895 0.436160
0.349359 0.565406 0.381474
0.440669 0.631240 0.434732
0.477608 0.631240 0.434732
0.535715 0.631240 0.434732
0.574536 0.631240 0.434732
0.613357 0.631240 0.434732
0.633687 0.632733 0.436160
0.633687 0.632733 0.436160
0.633687 0.632733 0.436160
0.349359 0.565406 0.381474
0.440669 0.631240 0.434732
0.477608 0.631240 0.434732
0.535715 0.631240 0.434732
0.574536 0.631240 0.434732
0.613357 0.631240 0.434732
0.633687 0.632733 0.436160
0.633687 0.632733 0.436160
0.633687 0.632733 0.436160
0.105096 0.105096 0.167501
0.142820 0.105096 0.167501
0.194363 0.121950 0.184355
0.289110 0.181398 0.243803
0.423269 0.261062 0.323392
0.520581 0.321514 0.383850
0.567797 0.350845 0.413183
0.567797 0.350845 0.413183
0.567797 0.350845 0.413183
0.105096 0.136512 0.167501
0.203363 0.197539 0.226144
0.253360 0.215518 0.244122
0.347240 0.269778 0.301240
0.482408 0.349680 0.380986
0.582306 0.407545 0.439730
0.632349 0.434050 0.467059
0.632349 0.434050 0.467059
0.632349 0.434050 0.467059
0.105096 0.165712 0.167501
0.214696 0.235825 0.237477
0.305815 0.294926 0.296577
0.440983 0.380373 0.382024
0.539613 0.444955 0.446606
0.637410 0.489777 0.491671
0.685638 0.518096 0.520001
0.685638 0.518096 0.520001
0.685638 0.518096 0.520001
0.151258 0.241074 0.213663
0.263937 0.312019 0.286718
0.340292 0.356355 0.331054
0.444245 0.410567 0.385265
0.542875 0.475149 0.449847
0.640677 0.543245 0.494925
0.688903 0.572069 0.523246
0.688903 0.572069 0.523246
0.688903 0.572069 0.523246
0.221373 0.359379 0.283698
0.327923 0.430258 0.352945
0.416685 0.478120 0.407447
0.466563 0.478120 0.407447
0.542875 0.520782 0.449847
0.640677 0.576741 0.494925
0.688903 0.605759 0.523246
0.688903 0.605759 0.523246
0.688903 0.605759 0.523246
0.272260 0.441294 0.334591
0.378728 0.512254 0.403697
0.457513 0.560063 0.446999
0.514666 0.560063 0.446999
0.552968 0.560063 0.446999
0.640677 0.609230 0.494925
0.688903 0.638438 0.523246
0.688903 0.638438 0.523246
0.688903 0.638438 0.523246
0.323146 0.523210 0.385483
0.425488 0.598297 0.451648
0.507105 0.643357 0.496507
0.565099 0.643357 0.496507
0.603706 0.643357 0.496507
0.642314 0.643357 0.496507
0.688903 0.671116 0.523246
0.688903 0.671116 0.523246
0.688903 0.671116 0.523246
0.349359 0.565406 0.411698
0.450780 0.641415 0.477060
0.532471 0.686456 0.521817
0.590964 0.686456 0.521817
0.629772 0.686456 0.521817
0.668580 0.686456 0.521817
0.688903 0.687949 0.523246
0.688903 0.687949 0.523246
0.688903 0.687949 0.523246
0.349359 0.565406 0.411698
0.450780 0.641415 0.477060
0.532471 0.686456 0.521817
0.590964 0.686456 0.521817
0.629772 0.686456 0.521817
0.668580 0.686456 0.521817
0.688903 0.687949 0.523246
0.688903 0.687949 0.523246
0.688903 0.687949 0.523246
0.156050 0.156050 0.248710
0.193774 0.156050 0.248710
0.228463 0.156050 0.248710
0.289110 0.181398 0.274059
0.423269 0.261062 0.353612
0.520581 0.321514 0.414072
0.567797 0.350845 0.443406
0.567797 0.350845 0.443406
0.567797 0.350845 0.443406
0.156050 0.187465 0.248710
0.250905 0.244488 0.306782
0.286187 0.244488 0.306782
0.347240 0.269778 0.331958
0.482408 0.349680 0.411553
0.582306 0.407545 0.471154
0.632349 0.434050 0.518718
0.632349 0.434050 0.518718
0.632349 0.434050 0.518718
0.156050 0.216665 0.248710
0.269048 0.290177 0.319756
0.342189 0.331299 0.360878
0.440983 0.380373 0.409952
0.539613 0.444955 0.474534
0.637410 0.489777 0.543189
0.685638 0.518096 0.572038
0.685638 0.518096 0.572038
0.685638 0.518096 0.572038
0.156050 0.245865 0.248710
0.269048 0.317130 0.319756
0.363382 0.379445 0.382071
0.494215 0.460218 0.462844
0.592845 0.524800 0.544354
0.712803 0.615697 0.618904
0.761187 0.644580 0.647810
0.761187 0.644580 0.647810
0.761187 0.644580 0.647810
0.221373 0.359379 0.313915
0.327923 0.430258 0.383621
0.434813 0.496365 0.453503
0.521720 0.533277 0.490179
0.619839 0.597746 0.571348
0.718275 0.654568 0.624399
0.766652 0.683679 0.653288
0.766652 0.683679 0.653288
0.766652 0.683679 0.653288
0.272260 0.441294 0.364812
0.378728 0.512254 0.434306
0.489177 0.579389 0.507866
0.598319 0.638203 0.583479
0.631970 0.638203 0.583479
0.718275 0.686941 0.624399
0.766652 0.716290 0.653288
0.766652 0.716290 0.653288
0.766652 0.716290 0.653288
0.323146 0.523210 0.415705
0.425488 0.598297 0.483718
0.525303 0.661630 0.566386
0.642980 0.720962 0.626013
0.681451 0.720962 0.626013
0.719923 0.720962 0.626013
0.766652 0.748901 0.653288
0.766652 0.748901 0.653288
0.766652 0.748901 0.653288
0.349359 0.565406 0.441921
0.450780 0.641415 0.528775
0.550623 0.704721 0.592129
0.668910 0.764196 0.651831
0.707634 0.764196 0.651831
0.746359 0.764196 0.651831
0.766652 0.765700 0.653288
0.766652 0.765700 0.653288
0.766652 0.765700 0.653288
0.349359 0.565406 0.441921
0.450780 0.641415 0.528775
0.550623 0.704721 0.592129
0.668910 0.764196 0.651831
0.707634 0.764196 0.651831
0.746359 0.764196 0.651831
0.766652 0.765700 0.653288
0.766652 0.765700 0.653288
0.766652 0.765700 0.653288
0.228171 0.228171 0.370323
0.265848 0.228171 0.370323
0.300493 0.228171 0.370323
0.335747 0.228171 0.370323
0.423269 0.261062 0.403458
0.520581 0.321514 0.464353
0.567797 0.350845 0.493897
0.567797 0.350845 0.493897
0.567797 0.350845 0.493897
0.228171 0.259547 0.370323
0.323210 0.316828 0.429424
0.358298 0.316828 0.429424
0.412611 0.316828 0.429424
0.482408 0.349680 0.462370
0.582306 0.407545 0.523843
0.632349 0.434050 0.553548
0.632349 0.434050 0.553548
0.632349 0.434050 0.553548
0.228171 0.288710 0.370323
0.334709 0.357910 0.441215
0.420707 0.409817 0.485951
0.470609 0.409817 0.485951
0.539613 0.444955 0.521304
0.637410 0.489777 0.577810
0.685638 0.518096 0.606858
0.685638 0.518096 0.606858
0.685638 0.518096 0.606858
0.228171 0.317873 0.370323
0.334709 0.387505 0.441215
0.442076 0.458139 0.507457
0.523841 0.489662 0.539183
0.592845 0.524800 0.574536
0.712803 0.615697 0.653407
0.761187 0.644580 0.682562
0.761187 0.644580 0.682562
0.761187 0.644580 0.682562
0.228171 0.366228 0.370323
0.334709 0.437059 0.441215
0.442076 0.503673 0.507457
0.579439 0.590997 0.594781
0.671214 0.649121 0.652906
0.769780 0.706267 0.710579
0.818086 0.735228 0.739579
0.818086 0.735228 0.739579
0.818086 0.735228 0.739579
0.272260 0.441294 0.414738
0.378728 0.512254 0.485356
0.489177 0.579389 0.554848
0.627202 0.667085 0.642544
0.690710 0.696944 0.672402
0.777168 0.745946 0.718000
0.825460 0.775181 0.746974
0.825460 0.775181 0.746974
0.825460 0.775181 0.746974
0.323146 0.523210 0.465997
0.425488 0.598297 0.537588
0.525303 0.661630 0.601000
0.672045 0.749910 0.689559
0.740477 0.779849 0.719619
0.778814 0.779849 0.719619
0.825460 0.807739 0.746974
0.825460 0.807739 0.746974
0.825460 0.807739 0.746974
0.349359 0.565406 0.492401
0.450780 0.641415 0.563594
0.550623 0.704721 0.626933
0.697896 0.793112 0.715538
0.766546 0.823007 0.745514
0.805201 0.823007 0.745514
0.825460 0.824510 0.746974
0.825460 0.824510 0.746974
0.825460 0.824510 0.746974
0.349359 0.565406 0.492401
0.450780 0.641415 0.563594
0.550623 0.704721 0.626933
0.697896 0.793112 0.715538
0.766546 0.823007 0.745514
0.805201 0.823007 0.745514
0.825460 0.824510 0.746974
0.825460 0.824510 0.746974
0.825460 0.824510 0.746974
0.280898 0.280898 0.455201
0.318579 0.280898 0.455201
0.353227 0.280898 0.455201
0.406839 0.280898 0.455201
0.443252 0.280898 0.455201
0.520581 0.321514 0.496115
0.567797 0.350845 0.525661
0.567797 0.350845 0.525661
0.567797 0.350845 0.525661
0.280898 0.312278 0.455201
0.375866 0.369497 0.514360
0.410887 0.369497 0.514360
0.465476 0.369497 0.514360
0.502282 0.369497 0.514360
0.582306 0.407545 0.556868
0.632349 0.434050 0.587418
0.632349 0.434050 0.587418
0.632349 0.434050 0.587418
0.280898 0.341444 0.455201
0.387356 0.410507 0.526172
0.462698 0.450287 0.570904
0.519967 0.450287 0.570904
0.558319 0.450287 0.570904
0.637410 0.489777 0.611477
0.685638 0.518096 0.640719
0.685638 0.518096 0.640719
0.685638 0.518096 0.640719
0.280898 0.370610 0.455201
0.387356 0.440039 0.526172
0.484203 0.502495 0.592474
0.602218 0.584572 0.646911
0.635869 0.584572 0.646911
0.712803 0.615697 0.686959
0.761187 0.644580 0.716356
0.761187 0.644580 0.716356
0.761187 0.644580 0.716356
0.280898 0.419345 0.455201
0.387356 0.489867 0.526172
0.484203 0.554741 0.592474
0.636560 0.648118 0.681253
0.692704 0.670611 0.703746
0.769780 0.706267 0.744020
0.818086 0.735228 0.773322
0.818086 0.735228 0.773322
0.818086 0.735228 0.773322
0.280898 0.449997 0.455201
0.387356 0.520903 0.526172
0.484203 0.586998 0.592474
0.636560 0.676444 0.681253
0.735701 0.741934 0.746743
0.825483 0.798065 0.802874
0.873289 0.823139 0.828652
0.873289 0.823139 0.828652
0.873289 0.823139 0.828652
0.323146 0.523210 0.497760
0.425488 0.598297 0.571292
0.525303 0.661630 0.634660
0.672045 0.749910 0.723064
0.781470 0.816029 0.792512
0.836610 0.837519 0.814002
0.882663 0.865001 0.838060
0.882663 0.865001 0.838060
0.882663 0.865001 0.838060
0.349359 0.565406 0.524165
0.450780 0.641415 0.597452
0.550623 0.704721 0.660777
0.697896 0.793112 0.749289
0.802333 0.858689 0.814994
0.862473 0.880216 0.836595
0.882663 0.881716 0.838060
0.882663 0.881716 0.838060
0.882663 0.881716 0.838060
0.349359 0.565406 0.524165
0.450780 0.641415 0.597452
0.550623 0.704721 0.660777
0.697896 0.793112 0.749289
0.802333 0.858689 0.814994
0.862473 0.880216 0.836595
0.882663 0.881716 0.838060
0.882663 0.881716 0.838060
0.882663 0.881716 0.838060
0.333625 0.333625 0.540079
0.371309 0.333625 0.540079
0.405960 0.333625 0.540079
0.459950 0.333625 0.540079
0.496366 0.333625 0.540079
0.532782 0.333625 0.540079
0.567797 0.350845 0.557424
0.567797 0.350845 0.557424
0.567797 0.350845 0.557424
0.333625 0.365007 0.540079
0.424159 0.417459 0.604002
0.460997 0.417459 0.604002
0.518815 0.417459 0.604002
0.557530 0.417459 0.604002
0.596245 0.417459 0.604002
0.632349 0.434050 0.621288
0.632349 0.434050 0.621288
0.632349 0.434050 0.621288
0.333625 0.394175 0.540079
0.435616 0.459922 0.615517
0.514013 0.501494 0.657302
0.572179 0.501494 0.657302
0.610865 0.501494 0.657302
0.649551 0.501494 0.657302
0.685638 0.518096 0.674580
0.685638 0.518096 0.674580
0.685638 0.518096 0.674580
0.333625 0.423343 0.540079
0.435616 0.490926 0.615517
0.535445 0.573468 0.678837
0.647880 0.627652 0.732754
0.686453 0.627652 0.732754
0.725026 0.627652 0.732754
0.761187 0.644580 0.750150
0.761187 0.644580 0.750150
0.761187 0.644580 0.750150
0.333625 0.472457 0.540079
0.435616 0.543638 0.615517
0.535445 0.607028 0.678837
0.682404 0.695633 0.767156
0.743516 0.718259 0.789694
0.781986 0.718259 0.789694
0.818086 0.735228 0.807066
0.818086 0.735228 0.807066
0.818086 0.735228 0.807066
0.333625 0.503112 0.540079
0.435616 0.576222 0.615517
0.535445 0.639581 0.678837
0.682404 0.728056 0.767156
0.786777 0.793878 0.832798
0.838604 0.811187 0.845346
0.873289 0.823139 0.862300
0.873289 0.823139 0.862300
0.873289 0.823139 0.862300
0.333625 0.533766 0.540079
0.435616 0.608807 0.615517
0.535445 0.672133 0.678837
0.682404 0.760479 0.767156
0.786777 0.826152 0.832798
0.891963 0.892872 0.898705
0.928713 0.913295 0.919128
0.928713 0.913295 0.919128
0.928713 0.913295 0.919128
0.349359 0.565406 0.555928
0.450780 0.641415 0.631311
0.550623 0.704721 0.694622
0.697896 0.793112 0.783040
0.802333 0.858689 0.848647
0.909008 0.924509 0.915750
0.940066 0.939239 0.930481
0.940066 0.939239 0.930481
0.940066 0.939239 0.930481
0.349359 0.565406 0.555928
0.450780 0.641415 0.631311
0.550623 0.704721 0.694622
0.697896 0.793112 0.783040
0.802333 0.858689 0.848647
0.909008 0.924509 0.915750
0.940066 0.939239 0.930481
0.940066 0.939239 0.930481
0.940066 0.939239 0.930481
0.346363 0.346363 0.560582
0.384047 0.346363 0.560582
0.418698 0.346363 0.560582
0.472779 0.346363 0.560582
0.509196 0.346363 0.560582
0.545613 0.346363 0.560582
0.567797 0.350845 0.565097
0.567797 0.350845 0.565097
0.567797 0.350845 0.565097
0.346363 0.377745 0.560582
0.436452 0.429738 0.624964
0.473371 0.429738 0.624964
0.531414 0.429738 0.624964
0.570215 0.429738 0.624964
0.609015 0.429738 0.624964
0.632349 0.434050 0.629470
0.632349 0.434050 0.629470
0.632349 0.434050 0.629470
0.346363 0.406913 0.560582
0.447896 0.472257 0.636478
0.526333 0.513782 0.678255
0.584743 0.513782 0.678255
0.623528 0.513782 0.678255
0.662312 0.513782 0.678255
0.685638 0.518096 0.682759
0.685638 0.518096 0.682759
0.685638 0.518096 0.682759
0.346363 0.436082 0.560582
0.447896 0.503332 0.636478
0.547737 0.585960 0.699786
0.660475 0.640182 0.753777
0.699173 0.640182 0.753777
0.737870 0.640182 0.753777
0.761187 0.644580 0.758314
0.761187 0.644580 0.758314
0.761187 0.644580 0.758314
0.346363 0.485287 0.560582
0.447896 0.556260 0.636478
0.547737 0.619612 0.699786
0.694951 0.708229 0.788162
0.756181 0.730821 0.810685
0.794807 0.730821 0.810685
0.818086 0.735228 0.815217
0.818086 0.735228 0.815217
0.818086 0.735228 0.815217
0.346363 0.515942 0.560582
0.447896 0.588919 0.636478
0.547737 0.652253 0.699786
0.694951 0.740772 0.788162
0.799378 0.806516 0.853749
0.850080 0.818717 0.865904
0.873289 0.823139 0.870428
0.873289 0.823139 0.870428
0.873289 0.823139 0.870428
0.346363 0.546596 0.560582
0.447896 0.621578 0.636478
0.547737 0.684894 0.699786
0.694951 0.773315 0.788162
0.799378 0.838951 0.853749
0.905761 0.906670 0.919594
0.928713 0.913295 0.926218
0.928713 0.913295 0.926218
0.928713 0.913295 0.926218
0.349359 0.565406 0.563601
0.450780 0.641415 0.639490
0.550623 0.704721 0.702797
0.697896 0.793112 0.791193
0.802333 0.858689 0.856777
0.909008 0.924509 0.922840
0.953864 0.953038 0.951369
0.953864 0.953038 0.951369
0.953864 0.953038 0.951369
0.349359 0.565406 0.563601
0.450780 0.641415 0.639490
0.550623 0.704721 0.702797
0.697896 0.793112 0.791193
0.802333 0.858689 0.856777
0.909008 0.924509 0.922840
0.953864 0.953038 0.951369
0.953864 0.953038 0.951369
0.953864 0.953038 0.951369
0.346363 0.346363 0.560582
0.384047 0.346363 0.560582
0.418698 0.346363 0.560582
0.472779 0.346363 0.560582
0.509196 0.346363 0.560582
0.545613 0.346363 0.560582
0.567797 0.350845 0.565097
0.567797 0.350845 0.565097
0.567797 0.350845 0.565097
0.346363 0.377745 0.560582
0.436452 0.429738 0.624964
0.473371 0.429738 0.624964
0.531414 0.429738 0.624964
0.570215 0.429738 0.624964
0.609015 0.429738 0.624964
0.632349 0.434050 0.629470
0.632349 0.434050 0.629470
0.632349 0.434050 0.629470
0.346363 0.406913 0.560582
0.447896 0.472257 0.636478
0.526333 0.513782 0.678255
0.584743 0.513782 0.678255
0.623528 0.513782 0.678255
0.662312 0.513782 0.678255
0.685638 0.518096 0.682759
0.685638 0.518096 0.682759
0.685638 0.518096 0.682759
0.346363 0.436082 0.560582
0.447896 0.503332 0.636478
0.547737 0.585960 0.699786
0.660475 0.640182 0.753777
0.699173 0.640182 0.753777
0.737870 0.640182 0.753777
0.761187 0.644580 0.758314
0.761187 0.644580 0.758314
0.761187 0.644580 0.758314
0.346363 0.485287 0.560582
0.447896 0.556260 0.636478
0.547737 0.619612 0.699786
0.694951 0.708229 0.788162
0.756181 0.730821 0.810685
0.794807 0.730821 0.810685
0.818086 0.735228 0.815217
0.818086 0.735228 0.815217
0.818086 0.735228 0.815217
0.346363 0.515942 0.560582
0.447896 0.588919 0.636478
0.547737 0.652253 0.699786
0.694951 0.740772 0.788162
0.799378 0.806516 0.853749
0.850080 0.818717 0.865904
0.873289 0.823139 0.870428
0.873289 0.823139 0.870428
0.873289 0.823139 0.870428
0.346363 0.546596 0.560582
0.447896 0.621578 0.636478
0.547737 0.684894 0.699786
0.694951 0.773315 0.788162
0.799378 0.838951 0.853749
0.905761 0.906670 0.919594
0.928713 0.913295 0.926218
0.928713 0.913295 0.926218
0.928713 0.913295 0.926218
0.349359 0.565406 0.563601
0.450780 0.641415 0.639490
0.550623 0.704721 0.702797
0.697896 0.793112 0.791193
0.802333 0.858689 0.856777
0.909008 0.924509 0.922840
0.953864 0.953038 0.951369
0.953864 0.953038 0.951369
0.953864 0.953038 0.951369
0.349359 0.565406 0.563601
0.450780 0.641415 0.639490
0.550623 0.704721 0.702797
0.697896 0.793112 0.791193
0.802333 0.858689 0.856777
0.909008 0.924509 0.922840
0.953864 0.953038 0.951369
0.953864 0.953038 0.951369
0.953864 0.953038 0.951369
