docs/luts/fuji_recipes/Classic_RR_Kodak_Porta_400.cube
TITLE "Fujifilm Recipe: RR Kodak Porta 400 (Classic)"
# FilmSim=Classic HL=-1 SH=2 Col=-2 WB=Auto WBR=2 WBB=-5
LUT_3D_SIZE 9
DOMAIN_MIN 0.0 0.0 0.0
DOMAIN_MAX 1.0 1.0 1.0
0.000000 0.000000 0.000000
0.130243 0.047297 0.047297
0.247541 0.089892 0.089892
0.367052 0.133292 0.133292
0.517198 0.182826 0.182826
0.635029 0.225267 0.225267
0.705429 0.250624 0.250624
0.705429 0.250624 0.250624
0.705429 0.250624 0.250624
0.044800 0.123369 0.044800
0.130243 0.125866 0.047297
0.247541 0.168461 0.089892
0.367052 0.211860 0.133292
0.517198 0.261395 0.182826
0.635029 0.303836 0.225267
0.705429 0.329192 0.250624
0.705429 0.329192 0.250624
0.705429 0.329192 0.250624
0.085198 0.234614 0.085198
0.168145 0.234614 0.085198
0.247541 0.239308 0.089892
0.367052 0.282708 0.133292
0.517198 0.332242 0.182826
0.635029 0.374683 0.225267
0.705429 0.400040 0.250624
0.705429 0.400040 0.250624
0.705429 0.400040 0.250624
0.126511 0.348379 0.126511
0.209457 0.348379 0.126511
0.284159 0.348379 0.126511
0.367052 0.355160 0.133292
0.517198 0.404694 0.182826
0.635029 0.447135 0.225267
0.705429 0.498223 0.250624
0.705429 0.498223 0.250624
0.705429 0.498223 0.250624
0.173769 0.492053 0.173769
0.256716 0.492053 0.173769
0.331417 0.492053 0.173769
0.407530 0.492053 0.173769
0.517198 0.501173 0.182826
0.635029 0.543909 0.225267
0.705429 0.569442 0.250624
0.705429 0.569442 0.250624
0.705429 0.569442 0.250624
0.214020 0.603804 0.214020
0.296967 0.603804 0.214020
0.371668 0.603804 0.214020
0.473515 0.603804 0.214020
0.548609 0.603804 0.214020
0.635029 0.615129 0.225267
0.705429 0.640662 0.250624
0.705429 0.640662 0.250624
0.705429 0.640662 0.250624
0.249556 0.702464 0.249556
0.332502 0.702464 0.249556
0.407204 0.702464 0.249556
0.509298 0.702464 0.249556
0.584392 0.702464 0.249556
0.659487 0.702464 0.249556
0.705429 0.703539 0.250624
0.705429 0.703539 0.250624
0.705429 0.703539 0.250624
0.249556 0.702464 0.249556
0.332502 0.702464 0.249556
0.407204 0.702464 0.249556
0.509298 0.702464 0.249556
0.584392 0.702464 0.249556
0.659487 0.702464 0.249556
0.705429 0.703539 0.250624
0.705429 0.703539 0.250624
0.705429 0.703539 0.250624
0.249556 0.702464 0.249556
0.332502 0.702464 0.249556
0.407204 0.702464 0.249556
0.509298 0.702464 0.249556
0.584392 0.702464 0.249556
0.659487 0.702464 0.249556
0.705429 0.703539 0.250624
0.705429 0.703539 0.250624
0.705429 0.703539 0.250624
0.038748 0.038748 0.106703
0.130243 0.047297 0.115252
0.247541 0.089892 0.157847
0.367052 0.133292 0.201246
0.517198 0.182826 0.250781
0.635029 0.225267 0.293222
0.705429 0.250624 0.318578
0.705429 0.250624 0.318578
0.705429 0.250624 0.318578
0.044800 0.123369 0.112755
0.168992 0.164614 0.154000
0.286289 0.207209 0.196595
0.405800 0.250609 0.239995
0.556296 0.300220 0.289606
0.674127 0.342661 0.332047
0.744527 0.368017 0.357403
0.744527 0.368017 0.357403
0.744527 0.368017 0.357403
0.085198 0.234614 0.153153
0.206893 0.273362 0.191901
0.286289 0.278056 0.196595
0.405800 0.321456 0.239995
0.556296 0.371067 0.289606
0.674127 0.413508 0.332047
0.744527 0.438865 0.357403
0.744527 0.438865 0.357403
0.744527 0.438865 0.357403
0.126511 0.348379 0.194465
0.248206 0.387127 0.233214
0.322907 0.387127 0.233214
0.405800 0.393908 0.239995
0.556296 0.443519 0.289606
0.674127 0.511787 0.332047
0.744527 0.537321 0.357403
0.744527 0.537321 0.357403
0.744527 0.537321 0.357403
0.173769 0.492053 0.241724
0.295541 0.531151 0.280549
0.370243 0.531151 0.280549
0.472082 0.531151 0.280549
0.556296 0.540271 0.289606
0.674127 0.583007 0.332047
0.744527 0.608541 0.357403
0.744527 0.608541 0.357403
0.744527 0.608541 0.357403
0.214020 0.603804 0.281975
0.335792 0.642902 0.320800
0.410493 0.642902 0.320800
0.512613 0.642902 0.320800
0.587708 0.642902 0.320800
0.674127 0.654227 0.332047
0.744527 0.679761 0.357403
0.744527 0.679761 0.357403
0.744527 0.679761 0.357403
0.249556 0.702464 0.317510
0.371327 0.741562 0.356336
0.446029 0.741562 0.356336
0.548396 0.741562 0.356336
0.623491 0.741562 0.356336
0.698585 0.741562 0.356336
0.744527 0.742637 0.357403
0.744527 0.742637 0.357403
0.744527 0.742637 0.357403
0.249556 0.702464 0.317510
0.371327 0.741562 0.356336
0.446029 0.741562 0.356336
0.548396 0.741562 0.356336
0.623491 0.741562 0.356336
0.698585 0.741562 0.356336
0.744527 0.742637 0.357403
0.744527 0.742637 0.357403
0.744527 0.742637 0.357403
0.249556 0.702464 0.317510
0.371327 0.741562 0.356336
0.446029 0.741562 0.356336
0.548396 0.741562 0.356336
0.623491 0.741562 0.356336
0.698585 0.741562 0.356336
0.744527 0.742637 0.357403
0.744527 0.742637 0.357403
0.744527 0.742637 0.357403
0.073797 0.073797 0.203218
0.156743 0.073797 0.203218
0.247541 0.089892 0.219313
0.367052 0.133292 0.262713
0.517198 0.182826 0.312247
0.635029 0.225267 0.354688
0.705429 0.250624 0.380045
0.705429 0.250624 0.380045
0.705429 0.250624 0.380045
0.073797 0.152366 0.203218
0.201544 0.197166 0.248018
0.292341 0.213261 0.264114
0.411853 0.256661 0.307513
0.562403 0.306284 0.357136
0.680234 0.348725 0.399577
0.750634 0.374082 0.424934
0.750634 0.374082 0.424934
0.750634 0.374082 0.424934
0.085198 0.234614 0.214619
0.215441 0.281911 0.261916
0.321337 0.313105 0.293110
0.473831 0.363744 0.343749
0.591662 0.406185 0.386190
0.709492 0.448626 0.428631
0.779892 0.473983 0.453988
0.779892 0.473983 0.453988
0.779892 0.473983 0.453988
0.126511 0.348379 0.255932
0.256754 0.395676 0.303229
0.357956 0.422176 0.329729
0.473831 0.436197 0.343749
0.591662 0.504416 0.386190
0.709492 0.547153 0.428631
0.779892 0.572686 0.453988
0.779892 0.572686 0.453988
0.779892 0.572686 0.453988
0.173769 0.492053 0.303190
0.304106 0.539777 0.350581
0.405361 0.566516 0.377133
0.507447 0.566516 0.377133
0.591662 0.575636 0.386190
0.709492 0.618372 0.428631
0.779892 0.643906 0.453988
0.779892 0.643906 0.453988
0.779892 0.643906 0.453988
0.214020 0.603804 0.343441
0.344357 0.651528 0.390832
0.445611 0.678267 0.417384
0.547978 0.678267 0.417384
0.623073 0.678267 0.417384
0.709492 0.689592 0.428631
0.779892 0.715126 0.453988
0.779892 0.715126 0.453988
0.779892 0.715126 0.453988
0.249556 0.702464 0.378977
0.379893 0.750188 0.426367
0.481147 0.776927 0.452920
0.583761 0.776927 0.452920
0.658856 0.776927 0.452920
0.733950 0.776927 0.452920
0.779892 0.778002 0.453988
0.779892 0.778002 0.453988
0.779892 0.778002 0.453988
0.249556 0.702464 0.378977
0.379893 0.750188 0.426367
0.481147 0.776927 0.452920
0.583761 0.776927 0.452920
0.658856 0.776927 0.452920
0.733950 0.776927 0.452920
0.779892 0.778002 0.453988
0.779892 0.778002 0.453988
0.779892 0.778002 0.453988
0.249556 0.702464 0.378977
0.379893 0.750188 0.426367
0.481147 0.776927 0.452920
0.583761 0.776927 0.452920
0.658856 0.776927 0.452920
0.733950 0.776927 0.452920
0.779892 0.778002 0.453988
0.779892 0.778002 0.453988
0.779892 0.778002 0.453988
0.108845 0.108845 0.299733
0.191792 0.108845 0.299733
0.266494 0.108845 0.299733
0.367052 0.133292 0.324179
0.517198 0.182826 0.373714
0.635029 0.225267 0.416154
0.705429 0.250624 0.441511
0.705429 0.250624 0.441511
0.705429 0.250624 0.441511
0.108845 0.187414 0.299733
0.236592 0.232214 0.344533
0.311294 0.232214 0.344533
0.411853 0.256661 0.368980
0.562403 0.306284 0.418603
0.680234 0.348725 0.461044
0.750634 0.374082 0.486400
0.750634 0.374082 0.486400
0.750634 0.374082 0.486400
0.108845 0.258261 0.299733
0.239089 0.305558 0.347030
0.351692 0.343459 0.384931
0.485335 0.375168 0.416640
0.603166 0.417609 0.459080
0.720997 0.460050 0.501521
0.791396 0.485406 0.552536
0.791396 0.485406 0.552536
0.791396 0.485406 0.552536
0.126511 0.348379 0.317398
0.256754 0.395676 0.364695
0.374051 0.438271 0.407290
0.509196 0.497045 0.440334
0.627027 0.539781 0.482775
0.752071 0.589731 0.558077
0.822520 0.615314 0.583660
0.822520 0.615314 0.583660
0.822520 0.615314 0.583660
0.173769 0.492053 0.364657
0.304106 0.539777 0.412047
0.421488 0.582757 0.454727
0.542812 0.601881 0.473718
0.627027 0.611001 0.482775
0.752071 0.660951 0.558077
0.822520 0.686534 0.583660
0.822520 0.686534 0.583660
0.822520 0.686534 0.583660
0.214020 0.603804 0.404907
0.344357 0.651528 0.452298
0.461739 0.694508 0.494978
0.583343 0.713632 0.513969
0.658438 0.713632 0.513969
0.752071 0.732171 0.558077
0.822520 0.757754 0.583660
0.822520 0.757754 0.583660
0.822520 0.757754 0.583660
0.249556 0.702464 0.440443
0.379893 0.750188 0.487834
0.497274 0.793168 0.556197
0.626387 0.819553 0.582582
0.701482 0.819553 0.582582
0.776577 0.819553 0.582582
0.822520 0.820631 0.583660
0.822520 0.820631 0.583660
0.822520 0.820631 0.583660
0.249556 0.702464 0.440443
0.379893 0.750188 0.487834
0.497274 0.793168 0.556197
0.626387 0.819553 0.582582
0.701482 0.819553 0.582582
0.776577 0.819553 0.582582
0.822520 0.820631 0.583660
0.822520 0.820631 0.583660
0.822520 0.820631 0.583660
0.249556 0.702464 0.440443
0.379893 0.750188 0.487834
0.497274 0.793168 0.556197
0.626387 0.819553 0.582582
0.701482 0.819553 0.582582
0.776577 0.819553 0.582582
0.822520 0.820631 0.583660
0.822520 0.820631 0.583660
0.822520 0.820631 0.583660
0.151750 0.151750 0.430920
0.234697 0.151750 0.430920
0.309399 0.151750 0.430920
0.385511 0.151750 0.430920
0.517198 0.182826 0.462212
0.635029 0.225267 0.504949
0.705429 0.250624 0.530482
0.705429 0.250624 0.530482
0.705429 0.250624 0.530482
0.151750 0.230319 0.430920
0.279586 0.275208 0.476125
0.354288 0.275208 0.476125
0.456016 0.275208 0.476125
0.562403 0.306284 0.507418
0.680234 0.348725 0.550154
0.750634 0.374082 0.575687
0.750634 0.374082 0.575687
0.750634 0.374082 0.575687
0.151750 0.301166 0.430920
0.282087 0.348557 0.478644
0.394765 0.386533 0.516888
0.496779 0.386533 0.516888
0.603166 0.417609 0.548180
0.720997 0.460050 0.590916
0.791396 0.485406 0.616450
0.791396 0.485406 0.616450
0.791396 0.485406 0.616450
0.151750 0.373619 0.430920
0.282087 0.421009 0.478644
0.399469 0.489365 0.521624
0.545759 0.533608 0.565868
0.652206 0.564961 0.597221
0.770120 0.607781 0.640040
0.840570 0.633364 0.665623
0.840570 0.633364 0.665623
0.840570 0.633364 0.665623
0.173769 0.492053 0.453092
0.304106 0.539777 0.500816
0.421488 0.582757 0.543797
0.574902 0.633972 0.595011
0.670601 0.654576 0.615615
0.788515 0.697395 0.658435
0.858964 0.722978 0.684018
0.858964 0.722978 0.684018
0.858964 0.722978 0.684018
0.214020 0.603804 0.493624
0.344357 0.651528 0.541348
0.461739 0.694508 0.584328
0.615512 0.745801 0.635621
0.702073 0.757268 0.647088
0.788515 0.768615 0.658435
0.858964 0.794198 0.684018
0.858964 0.794198 0.684018
0.858964 0.794198 0.684018
0.249556 0.702464 0.529407
0.379893 0.750188 0.577131
0.497274 0.793168 0.620111
0.651365 0.844531 0.671474
0.737926 0.855997 0.682940
0.813021 0.855997 0.682940
0.858964 0.857075 0.684018
0.858964 0.857075 0.684018
0.858964 0.857075 0.684018
0.249556 0.702464 0.529407
0.379893 0.750188 0.577131
0.497274 0.793168 0.620111
0.651365 0.844531 0.671474
0.737926 0.855997 0.682940
0.813021 0.855997 0.682940
0.858964 0.857075 0.684018
0.858964 0.857075 0.684018
0.858964 0.857075 0.684018
0.249556 0.702464 0.529407
0.379893 0.750188 0.577131
0.497274 0.793168 0.620111
0.651365 0.844531 0.671474
0.737926 0.855997 0.682940
0.813021 0.855997 0.682940
0.858964 0.857075 0.684018
0.858964 0.857075 0.684018
0.858964 0.857075 0.684018
0.186671 0.186671 0.527874
0.269618 0.186671 0.527874
0.344320 0.186671 0.527874
0.420432 0.186671 0.527874
0.521070 0.186671 0.527874
0.635029 0.225267 0.566738
0.705429 0.250624 0.592272
0.705429 0.250624 0.592272
0.705429 0.250624 0.592272
0.186671 0.265240 0.527874
0.314507 0.310129 0.573079
0.389209 0.310129 0.573079
0.491181 0.310129 0.573079
0.566275 0.310129 0.573079
0.680234 0.348725 0.611944
0.750634 0.374082 0.637477
0.750634 0.374082 0.637477
0.750634 0.374082 0.637477
0.186671 0.336087 0.527874
0.317009 0.383478 0.575598
0.429687 0.421454 0.613842
0.531943 0.421454 0.613842
0.607038 0.421454 0.613842
0.720997 0.460050 0.652706
0.791396 0.485406 0.678239
0.791396 0.485406 0.678239
0.791396 0.485406 0.678239
0.186671 0.408540 0.527874
0.317009 0.481549 0.575598
0.434390 0.524529 0.618578
0.580991 0.568841 0.662890
0.656086 0.568841 0.662890
0.770120 0.607781 0.701830
0.840570 0.633364 0.727413
0.840570 0.633364 0.727413
0.840570 0.633364 0.727413
0.186671 0.505045 0.527874
0.317009 0.552769 0.575598
0.434390 0.595749 0.618578
0.587920 0.646989 0.669818
0.696696 0.680671 0.703500
0.810730 0.719610 0.742440
0.881180 0.745193 0.768023
0.881180 0.745193 0.768023
0.881180 0.745193 0.768023
0.214020 0.603804 0.555413
0.344357 0.651528 0.603137
0.461739 0.694508 0.646117
0.615512 0.745801 0.697411
0.733426 0.788621 0.740230
0.823748 0.803848 0.755457
0.894197 0.829431 0.781040
0.894197 0.829431 0.781040
0.894197 0.829431 0.781040
0.249556 0.702464 0.591196
0.379893 0.750188 0.638920
0.497274 0.793168 0.681901
0.651365 0.844531 0.733264
0.769279 0.887350 0.776083
0.848253 0.891230 0.779963
0.894197 0.892308 0.781040
0.894197 0.892308 0.781040
0.894197 0.892308 0.781040
0.249556 0.702464 0.591196
0.379893 0.750188 0.638920
0.497274 0.793168 0.681901
0.651365 0.844531 0.733264
0.769279 0.887350 0.776083
0.848253 0.891230 0.779963
0.894197 0.892308 0.781040
0.894197 0.892308 0.781040
0.894197 0.892308 0.781040
0.249556 0.702464 0.591196
0.379893 0.750188 0.638920
0.497274 0.793168 0.681901
0.651365 0.844531 0.733264
0.769279 0.887350 0.776083
0.848253 0.891230 0.779963
0.894197 0.892308 0.781040
0.894197 0.892308 0.781040
0.894197 0.892308 0.781040
0.217502 0.217502 0.613471
0.300449 0.217502 0.613471
0.375150 0.217502 0.613471
0.477021 0.217502 0.613471
0.552115 0.217502 0.613471
0.635029 0.225267 0.621290
0.705429 0.250624 0.646823
0.705429 0.250624 0.646823
0.705429 0.250624 0.646823
0.217502 0.296071 0.613471
0.345338 0.340960 0.658676
0.420040 0.340960 0.658676
0.522226 0.340960 0.658676
0.597321 0.340960 0.658676
0.680234 0.348725 0.666495
0.750634 0.374082 0.692028
0.750634 0.374082 0.692028
0.750634 0.374082 0.692028
0.217502 0.366918 0.613471
0.347839 0.414308 0.661195
0.460517 0.452285 0.699438
0.562988 0.452285 0.699438
0.638083 0.452285 0.699438
0.720997 0.460050 0.707257
0.791396 0.485406 0.732791
0.791396 0.485406 0.732791
0.791396 0.485406 0.732791
0.217502 0.439370 0.613471
0.347839 0.512594 0.661195
0.465221 0.555574 0.704175
0.612097 0.599946 0.748547
0.687192 0.599946 0.748547
0.770120 0.607781 0.756381
0.840570 0.633364 0.781964
0.840570 0.633364 0.781964
0.840570 0.633364 0.781964
0.217502 0.536090 0.613471
0.347839 0.583814 0.661195
0.465221 0.626794 0.704175
0.619025 0.678095 0.755475
0.727802 0.711776 0.789157
0.810730 0.719610 0.796991
0.881180 0.745193 0.822574
0.881180 0.745193 0.822574
0.881180 0.745193 0.822574
0.217502 0.607310 0.613471
0.347839 0.655034 0.661195
0.465221 0.698014 0.704175
0.619025 0.749314 0.755475
0.736939 0.792134 0.798295
0.851340 0.831440 0.837601
0.921790 0.857023 0.863184
0.921790 0.857023 0.863184
0.921790 0.857023 0.863184
0.249556 0.702464 0.645748
0.379893 0.750188 0.693472
0.497274 0.793168 0.736452
0.651365 0.844531 0.787815
0.769279 0.887350 0.830634
0.879359 0.922336 0.865620
0.925303 0.923413 0.866697
0.925303 0.923413 0.866697
0.925303 0.923413 0.866697
0.249556 0.702464 0.645748
0.379893 0.750188 0.693472
0.497274 0.793168 0.736452
0.651365 0.844531 0.787815
0.769279 0.887350 0.830634
0.879359 0.922336 0.865620
0.925303 0.923413 0.866697
0.925303 0.923413 0.866697
0.925303 0.923413 0.866697
0.249556 0.702464 0.645748
0.379893 0.750188 0.693472
0.497274 0.793168 0.736452
0.651365 0.844531 0.787815
0.769279 0.887350 0.830634
0.879359 0.922336 0.865620
0.925303 0.923413 0.866697
0.925303 0.923413 0.866697
0.925303 0.923413 0.866697
0.217502 0.217502 0.613471
0.300449 0.217502 0.613471
0.375150 0.217502 0.613471
0.477021 0.217502 0.613471
0.552115 0.217502 0.613471
0.635029 0.225267 0.621290
0.705429 0.250624 0.646823
0.705429 0.250624 0.646823
0.705429 0.250624 0.646823
0.217502 0.296071 0.613471
0.345338 0.340960 0.658676
0.420040 0.340960 0.658676
0.522226 0.340960 0.658676
0.597321 0.340960 0.658676
0.680234 0.348725 0.666495
0.750634 0.374082 0.692028
0.750634 0.374082 0.692028
0.750634 0.374082 0.692028
0.217502 0.366918 0.613471
0.347839 0.414308 0.661195
0.460517 0.452285 0.699438
0.562988 0.452285 0.699438
0.638083 0.452285 0.699438
0.720997 0.460050 0.707257
0.791396 0.485406 0.732791
0.791396 0.485406 0.732791
0.791396 0.485406 0.732791
0.217502 0.439370 0.613471
0.347839 0.512594 0.661195
0.465221 0.555574 0.704175
0.612097 0.599946 0.748547
0.687192 0.599946 0.748547
0.770120 0.607781 0.756381
0.840570 0.633364 0.781964
0.840570 0.633364 0.781964
0.840570 0.633364 0.781964
0.217502 0.536090 0.613471
0.347839 0.583814 0.661195
0.465221 0.626794 0.704175
0.619025 0.678095 0.755475
0.727802 0.711776 0.789157
0.810730 0.719610 0.796991
0.881180 0.745193 0.822574
0.881180 0.745193 0.822574
0.881180 0.745193 0.822574
0.217502 0.607310 0.613471
0.347839 0.655034 0.661195
0.465221 0.698014 0.704175
0.619025 0.749314 0.755475
0.736939 0.792134 0.798295
0.851340 0.831440 0.837601
0.921790 0.857023 0.863184
0.921790 0.857023 0.863184
0.921790 0.857023 0.863184
0.249556 0.702464 0.645748
0.379893 0.750188 0.693472
0.497274 0.793168 0.736452
0.651365 0.844531 0.787815
0.769279 0.887350 0.830634
0.879359 0.922336 0.865620
0.925303 0.923413 0.866697
0.925303 0.923413 0.866697
0.925303 0.923413 0.866697
0.249556 0.702464 0.645748
0.379893 0.750188 0.693472
0.497274 0.793168 0.736452
0.651365 0.844531 0.787815
0.769279 0.887350 0.830634
0.879359 0.922336 0.865620
0.925303 0.923413 0.866697
0.925303 0.923413 0.866697
0.925303 0.923413 0.866697
0.249556 0.702464 0.645748
0.379893 0.750188 0.693472
0.497274 0.793168 0.736452
0.651365 0.844531 0.787815
0.769279 0.887350 0.830634
0.879359 0.922336 0.865620
0.925303 0.923413 0.866697
0.925303 0.923413 0.866697
0.925303 0.923413 0.866697
0.217502 0.217502 0.613471
0.300449 0.217502 0.613471
0.375150 0.217502 0.613471
0.477021 0.217502 0.613471
0.552115 0.217502 0.613471
0.635029 0.225267 0.621290
0.705429 0.250624 0.646823
0.705429 0.250624 0.646823
0.705429 0.250624 0.646823
0.217502 0.296071 0.613471
0.345338 0.340960 0.658676
0.420040 0.340960 0.658676
0.522226 0.340960 0.658676
0.597321 0.340960 0.658676
0.680234 0.348725 0.666495
0.750634 0.374082 0.692028
0.750634 0.374082 0.692028
0.750634 0.374082 0.692028
0.217502 0.366918 0.613471
0.347839 0.414308 0.661195
0.460517 0.452285 0.699438
0.562988 0.452285 0.699438
0.638083 0.452285 0.699438
0.720997 0.460050 0.707257
0.791396 0.485406 0.732791
0.791396 0.485406 0.732791
0.791396 0.485406 0.732791
0.217502 0.439370 0.613471
0.347839 0.512594 0.661195
0.465221 0.555574 0.704175
0.612097 0.599946 0.748547
0.687192 0.599946 0.748547
0.770120 0.607781 0.756381
0.840570 0.633364 0.781964
0.840570 0.633364 0.781964
0.840570 0.633364 0.781964
0.217502 0.536090 0.613471
0.347839 0.583814 0.661195
0.465221 0.626794 0.704175
0.619025 0.678095 0.755475
0.727802 0.711776 0.789157
0.810730 0.719610 0.796991
0.881180 0.745193 0.822574
0.881180 0.745193 0.822574
0.881180 0.745193 0.822574
0.217502 0.607310 0.613471
0.347839 0.655034 0.661195
0.465221 0.698014 0.704175
0.619025 0.749314 0.755475
0.736939 0.792134 0.798295
0.851340 0.831440 0.837601
0.921790 0.857023 0.863184
0.921790 0.857023 0.863184
0.921790 0.857023 0.863184
0.249556 0.702464 0.645748
0.379893 0.750188 0.693472
0.497274 0.793168 0.736452
0.651365 0.844531 0.787815
0.769279 0.887350 0.830634
0.879359 0.922336 0.865620
0.925303 0.923413 0.866697
0.925303 0.923413 0.866697
0.925303 0.923413 0.866697
0.249556 0.702464 0.645748
0.379893 0.750188 0.693472
0.497274 0.793168 0.736452
0.651365 0.844531 0.787815
0.769279 0.887350 0.830634
0.879359 0.922336 0.865620
0.925303 0.923413 0.866697
0.925303 0.923413 0.866697
0.925303 0.923413 0.866697
0.249556 0.702464 0.645748
0.379893 0.750188 0.693472
0.497274 0.793168 0.736452
0.651365 0.844531 0.787815
0.769279 0.887350 0.830634
0.879359 0.922336 0.865620
0.925303 0.923413 0.866697
0.925303 0.923413 0.866697
0.925303 0.923413 0.866697
