docs/luts/fuji_recipes/Classic_RR_Kodachrome_Vintage.cube
TITLE "Fujifilm Recipe: RR Kodachrome Vintage (Classic)"
# FilmSim=Classic HL=4 SH=-2 Col=4 WB=Auto WBR=2 WBB=-4
LUT_3D_SIZE 5
DOMAIN_MIN 0.0 0.0 0.0
DOMAIN_MAX 1.0 1.0 1.0
0.080000 0.080000 0.080000
0.320220 0.052779 0.052779
0.565843 0.024945 0.024945
0.793737 0.001904 0.001904
1.000000 0.058269 0.058269
0.054210 0.307588 0.054210
0.320220 0.306157 0.052779
0.565843 0.278323 0.024945
0.793737 0.255281 0.001904
1.000000 0.266839 0.058269
0.027813 0.540537 0.027813
0.295254 0.540537 0.027813
0.565843 0.537670 0.024945
0.793737 0.514628 0.001904
1.000000 0.480323 0.058269
0.008830 0.746202 0.008830
0.276270 0.746202 0.008830
0.549727 0.746202 0.008830
0.793737 0.741283 0.001904
1.000000 0.677580 0.058269
0.004109 1.000000 0.004109
0.252699 1.000000 0.004109
0.506881 1.000000 0.004109
0.749706 1.000000 0.004109
1.000000 0.942414 0.058269
0.057043 0.057043 0.282592
0.320220 0.052779 0.278328
0.565843 0.024945 0.250495
0.793737 0.001904 0.227453
1.000000 0.058269 0.243932
0.054210 0.307588 0.279759
0.297262 0.283199 0.255371
0.542885 0.255366 0.227537
0.779383 0.230047 0.202218
1.000000 0.266860 0.244230
0.027813 0.540537 0.253362
0.272296 0.517580 0.230405
0.542885 0.514712 0.227537
0.779383 0.489393 0.202218
1.000000 0.477761 0.244230
0.008830 0.746202 0.234379
0.251036 0.731848 0.209144
0.524492 0.731848 0.209144
0.779383 0.726929 0.202218
1.000000 0.681481 0.244230
0.004109 1.000000 0.213760
0.229672 1.000000 0.190070
0.488188 1.000000 0.190070
0.745439 1.000000 0.190070
1.000000 0.943110 0.244230
0.033486 0.033486 0.490471
0.300927 0.033486 0.490471
0.565843 0.024945 0.481930
0.793737 0.001904 0.458888
1.000000 0.058269 0.434440
0.033486 0.286864 0.490471
0.275137 0.261074 0.464681
0.540053 0.252533 0.456140
0.777612 0.226933 0.430540
1.000000 0.267174 0.432431
0.027813 0.540537 0.484798
0.268032 0.513316 0.457576
0.519329 0.491156 0.435416
0.764655 0.463500 0.407760
1.000000 0.428440 0.437451
0.008830 0.746202 0.465814
0.246349 0.729182 0.435893
0.498599 0.717120 0.414686
0.764655 0.712201 0.407760
1.000000 0.687938 0.435044
0.004109 1.000000 0.428883
0.224609 1.000000 0.404528
0.401785 1.000000 0.380884
0.738068 1.000000 0.380884
1.000000 0.944264 0.435044
0.022531 0.022531 0.652162
0.289972 0.022531 0.652162
0.563429 0.022531 0.652162
0.793737 0.001904 0.637511
1.000000 0.058269 0.592160
0.022531 0.275909 0.652162
0.261624 0.247561 0.636037
0.535080 0.247561 0.636037
0.777612 0.226933 0.621387
1.000000 0.267174 0.597865
0.022531 0.535256 0.652162
0.260050 0.505334 0.635142
0.506064 0.477891 0.619533
0.761108 0.457264 0.604883
1.000000 0.443553 0.617336
0.008830 0.746202 0.642430
0.246349 0.729182 0.625411
0.489211 0.711780 0.608009
0.754403 0.701949 0.598178
1.000000 0.701768 0.622756
0.004109 1.000000 0.604492
0.224609 1.000000 0.596107
0.416128 1.000000 0.596027
0.726995 0.996270 0.570770
1.000000 0.946734 0.622756
0.000000 0.000000 0.896964
0.258575 0.000000 0.896964
0.522966 0.000000 0.896964
0.770425 0.000000 0.896964
1.000000 0.058269 0.828492
0.000000 0.244978 0.896964
0.223715 0.209652 0.896217
0.497172 0.209652 0.896217
0.765339 0.209652 0.896217
1.000000 0.267174 0.830891
0.000000 0.495727 0.896964
0.222142 0.467426 0.895322
0.410839 0.447697 0.887427
0.748835 0.439983 0.879713
1.000000 0.443553 0.839079
0.000000 0.719710 0.896964
0.222142 0.711990 0.895322
0.414658 0.707915 0.891247
0.730520 0.678066 0.861398
1.000000 0.705403 0.843292
0.004109 1.000000 0.871359
0.224609 1.000000 0.868632
0.416128 1.000000 0.868605
0.711094 0.980368 0.841972
1.000000 0.950110 0.851415
