docs/luts/fuji_recipes/Classic_RR_Kodachrome_II.cube
TITLE "Fujifilm Recipe: RR Kodachrome II (Classic)"
# FilmSim=Classic HL=1 SH=2 Col=-1 WB=Auto WBR=3 WBB=-4
LUT_3D_SIZE 9
DOMAIN_MIN 0.0 0.0 0.0
DOMAIN_MAX 1.0 1.0 1.0
0.000000 0.000000 0.000000
0.112138 0.028157 0.028157
0.219963 0.055232 0.055232
0.327788 0.082306 0.082306
0.475397 0.113589 0.113589
0.595110 0.141574 0.141574
0.714823 0.169559 0.169559
0.801656 0.189858 0.189858
0.801656 0.189858 0.189858
0.026041 0.103711 0.026041
0.112138 0.105827 0.028157
0.219963 0.132901 0.055232
0.327788 0.159975 0.082306
0.475397 0.191258 0.113589
0.595110 0.219243 0.141574
0.714823 0.247229 0.169559
0.801656 0.267528 0.189858
0.801656 0.267528 0.189858
0.051121 0.203594 0.051121
0.135102 0.203594 0.051121
0.219963 0.207704 0.055232
0.327788 0.234778 0.082306
0.475397 0.266061 0.113589
0.595110 0.294046 0.141574
0.714823 0.322032 0.169559
0.801656 0.342331 0.189858
0.801656 0.342331 0.189858
0.076201 0.303477 0.076201
0.160182 0.303477 0.076201
0.240933 0.303477 0.076201
0.327788 0.309581 0.082306
0.475397 0.340864 0.113589
0.595110 0.368849 0.141574
0.714823 0.396835 0.169559
0.801656 0.417134 0.189858
0.801656 0.417134 0.189858
0.101864 0.405679 0.101864
0.185844 0.405679 0.101864
0.266595 0.405679 0.101864
0.347346 0.405679 0.101864
0.475397 0.417403 0.113589
0.595110 0.478435 0.141574
0.714823 0.508337 0.169559
0.801656 0.530026 0.189858
0.801656 0.530026 0.189858
0.131142 0.550484 0.131142
0.215122 0.550484 0.131142
0.295873 0.550484 0.131142
0.376624 0.550484 0.131142
0.494153 0.550484 0.131142
0.595110 0.561631 0.141574
0.714823 0.591533 0.169559
0.801656 0.613222 0.189858
0.801656 0.613222 0.189858
0.157066 0.661380 0.157066
0.241046 0.661380 0.157066
0.321797 0.661380 0.157066
0.402548 0.661380 0.157066
0.521852 0.661380 0.157066
0.611663 0.661380 0.157066
0.714823 0.674729 0.169559
0.801656 0.696418 0.189858
0.801656 0.696418 0.189858
0.182990 0.772275 0.182990
0.266970 0.772275 0.182990
0.347721 0.772275 0.182990
0.428472 0.772275 0.182990
0.549551 0.772275 0.182990
0.639362 0.772275 0.182990
0.729173 0.772275 0.182990
0.801656 0.779614 0.189858
0.801656 0.779614 0.189858
0.189023 0.798086 0.189023
0.273004 0.798086 0.189023
0.353755 0.798086 0.189023
0.434506 0.798086 0.189023
0.555998 0.798086 0.189023
0.645809 0.798086 0.189023
0.735620 0.798086 0.189023
0.801656 0.798977 0.189858
0.801656 0.798977 0.189858
0.023149 0.023149 0.092193
0.112138 0.028157 0.097201
0.219963 0.055232 0.124275
0.327788 0.082306 0.151350
0.475397 0.113589 0.182632
0.595110 0.141574 0.210618
0.714823 0.169559 0.238603
0.801656 0.189858 0.258902
0.801656 0.189858 0.258902
0.026041 0.103711 0.095085
0.135287 0.128976 0.120350
0.243112 0.156050 0.147424
0.350937 0.183124 0.174499
0.500395 0.214590 0.205964
0.620108 0.242575 0.233950
0.739820 0.270561 0.261935
0.826654 0.290860 0.282234
0.826654 0.290860 0.282234
0.051121 0.203594 0.120165
0.158251 0.226743 0.143314
0.243112 0.230853 0.147424
0.350937 0.257927 0.174499
0.500395 0.289393 0.205964
0.620108 0.317378 0.233950
0.739820 0.345364 0.261935
0.826654 0.365663 0.282234
0.826654 0.365663 0.282234
0.076201 0.303477 0.145245
0.183331 0.326626 0.168394
0.264082 0.326626 0.168394
0.350937 0.332731 0.174499
0.500395 0.364196 0.205964
0.620108 0.392181 0.233950
0.739820 0.420167 0.261935
0.826654 0.440466 0.282234
0.826654 0.440466 0.282234
0.101864 0.405679 0.170908
0.208994 0.428828 0.194057
0.289744 0.428828 0.194057
0.370495 0.428828 0.194057
0.500395 0.440735 0.205964
0.620108 0.503432 0.233950
0.739820 0.533334 0.261935
0.826654 0.555023 0.282234
0.826654 0.555023 0.282234
0.131142 0.550484 0.200185
0.238454 0.575482 0.223517
0.319205 0.575482 0.223517
0.399956 0.575482 0.223517
0.519150 0.575482 0.223517
0.620108 0.586628 0.233950
0.739820 0.616530 0.261935
0.826654 0.638219 0.282234
0.826654 0.638219 0.282234
0.157066 0.661380 0.226109
0.264378 0.686377 0.249441
0.345129 0.686377 0.249441
0.425880 0.686377 0.249441
0.546849 0.686377 0.249441
0.636660 0.686377 0.249441
0.739820 0.699726 0.261935
0.826654 0.721415 0.282234
0.826654 0.721415 0.282234
0.182990 0.772275 0.252034
0.290302 0.797273 0.275365
0.371053 0.797273 0.275365
0.451804 0.797273 0.275365
0.574549 0.797273 0.275365
0.664360 0.797273 0.275365
0.754171 0.797273 0.275365
0.826654 0.804611 0.282234
0.826654 0.804611 0.282234
0.189023 0.798086 0.258067
0.296336 0.823083 0.281399
0.377087 0.823083 0.281399
0.457837 0.823083 0.281399
0.580996 0.823083 0.281399
0.670807 0.823083 0.281399
0.760618 0.823083 0.281399
0.826654 0.823975 0.282234
0.826654 0.823975 0.282234
0.045530 0.045530 0.181327
0.129511 0.045530 0.181327
0.219963 0.055232 0.191028
0.327788 0.082306 0.218102
0.475397 0.113589 0.249385
0.595110 0.141574 0.277370
0.714823 0.169559 0.305356
0.801656 0.189858 0.325655
0.801656 0.189858 0.325655
0.045530 0.123200 0.181327
0.155552 0.149241 0.207368
0.246004 0.158942 0.217069
0.353829 0.186017 0.244143
0.503518 0.217505 0.275632
0.623231 0.245490 0.303617
0.742943 0.273476 0.331602
0.829777 0.293775 0.351901
0.829777 0.293775 0.351901
0.051121 0.203594 0.186918
0.163259 0.231751 0.215075
0.265493 0.253234 0.236558
0.373318 0.280308 0.263632
0.524563 0.311951 0.295275
0.644276 0.339936 0.323260
0.763988 0.367921 0.351245
0.850822 0.388220 0.371544
0.850822 0.388220 0.371544
0.076201 0.303477 0.211998
0.188339 0.331634 0.240155
0.286463 0.349007 0.257528
0.373318 0.355112 0.263632
0.524563 0.386754 0.295275
0.644276 0.414739 0.323260
0.763988 0.442724 0.351245
0.850822 0.463023 0.371544
0.850822 0.463023 0.371544
0.101864 0.405679 0.237660
0.214002 0.433836 0.265817
0.315839 0.488754 0.286904
0.396589 0.488754 0.286904
0.524563 0.497698 0.295275
0.644276 0.527600 0.323260
0.763988 0.557502 0.351245
0.850822 0.579191 0.371544
0.850822 0.579191 0.371544
0.131142 0.550484 0.266938
0.243502 0.580890 0.295318
0.341763 0.599650 0.312828
0.422513 0.599650 0.312828
0.543318 0.599650 0.312828
0.644276 0.610796 0.323260
0.763988 0.640698 0.351245
0.850822 0.662387 0.371544
0.850822 0.662387 0.371544
0.157066 0.661380 0.292862
0.269426 0.691785 0.321242
0.367687 0.710545 0.338752
0.448437 0.710545 0.338752
0.571017 0.710545 0.338752
0.660828 0.710545 0.338752
0.763988 0.723894 0.351245
0.850822 0.745583 0.371544
0.850822 0.745583 0.371544
0.182990 0.772275 0.318786
0.295350 0.802680 0.347166
0.393611 0.821440 0.364676
0.474361 0.821440 0.364676
0.598717 0.821440 0.364676
0.688528 0.821440 0.364676
0.778339 0.821440 0.364676
0.850822 0.828779 0.371544
0.850822 0.828779 0.371544
0.189023 0.798086 0.324820
0.301384 0.828491 0.353199
0.399644 0.847251 0.370710
0.480395 0.847251 0.370710
0.605163 0.847251 0.370710
0.694975 0.847251 0.370710
0.784786 0.847251 0.370710
0.850822 0.848143 0.371544
0.850822 0.848143 0.371544
0.067911 0.067911 0.270460
0.151892 0.067911 0.270460
0.232642 0.067911 0.270460
0.327788 0.082306 0.284855
0.475397 0.113589 0.316138
0.595110 0.141574 0.344123
0.714823 0.169559 0.372108
0.801656 0.189858 0.392407
0.801656 0.189858 0.392407
0.067911 0.145581 0.270460
0.177933 0.171622 0.296501
0.258684 0.171622 0.296501
0.353829 0.186017 0.310896
0.503518 0.217505 0.342384
0.623231 0.245490 0.370370
0.742943 0.273476 0.398355
0.829777 0.293775 0.418654
0.829777 0.293775 0.418654
0.067911 0.220384 0.270460
0.180049 0.248541 0.298617
0.283764 0.271505 0.321582
0.378909 0.285900 0.335976
0.530600 0.317586 0.367663
0.650313 0.345571 0.395648
0.770026 0.373557 0.423633
0.856859 0.393856 0.443932
0.856859 0.393856 0.443932
0.076201 0.303477 0.278751
0.188339 0.331634 0.306908
0.296164 0.358709 0.333982
0.395699 0.377492 0.352766
0.548731 0.409311 0.384585
0.668443 0.437297 0.412570
0.788156 0.465282 0.440556
0.874989 0.485581 0.460855
0.874989 0.485581 0.460855
0.101864 0.405679 0.304413
0.214002 0.433836 0.332570
0.325617 0.499230 0.363434
0.419147 0.512922 0.376214
0.548731 0.521866 0.384585
0.668443 0.551768 0.412570
0.788156 0.581670 0.440556
0.874989 0.603359 0.460855
0.874989 0.603359 0.460855
0.131142 0.550484 0.333691
0.243502 0.580890 0.362070
0.351541 0.610126 0.389358
0.445071 0.623818 0.402138
0.567486 0.623818 0.402138
0.668443 0.634964 0.412570
0.788156 0.664866 0.440556
0.874989 0.686555 0.460855
0.874989 0.686555 0.460855
0.157066 0.661380 0.359615
0.269426 0.691785 0.387994
0.377465 0.721021 0.415282
0.470995 0.734713 0.428062
0.595185 0.734713 0.428062
0.684996 0.734713 0.428062
0.788156 0.748062 0.440556
0.874989 0.769751 0.460855
0.874989 0.769751 0.460855
0.182990 0.772275 0.385539
0.295350 0.802680 0.413918
0.403389 0.831916 0.441206
0.530079 0.845608 0.453986
0.622884 0.845608 0.453986
0.712695 0.845608 0.453986
0.802507 0.845608 0.453986
0.874989 0.852947 0.460855
0.874989 0.852947 0.460855
0.189023 0.798086 0.391573
0.301384 0.828491 0.419952
0.409422 0.857727 0.447240
0.536526 0.871419 0.460020
0.629331 0.871419 0.460020
0.719142 0.871419 0.460020
0.808953 0.871419 0.460020
0.874989 0.872311 0.460855
0.874989 0.872311 0.460855
0.090292 0.090292 0.359594
0.174273 0.090292 0.359594
0.255023 0.090292 0.359594
0.335774 0.090292 0.359594
0.475397 0.113589 0.382890
0.595110 0.141574 0.410876
0.714823 0.169559 0.438861
0.801656 0.189858 0.459160
0.801656 0.189858 0.459160
0.090292 0.167962 0.359594
0.200314 0.194003 0.385635
0.281065 0.194003 0.385635
0.361815 0.194003 0.385635
0.503518 0.217505 0.409137
0.623231 0.245490 0.437122
0.742943 0.273476 0.465108
0.829777 0.293775 0.519131
0.829777 0.293775 0.519131
0.090292 0.242765 0.359594
0.202430 0.270922 0.387751
0.306145 0.293886 0.410715
0.386896 0.293886 0.410715
0.530600 0.317586 0.434415
0.650313 0.345571 0.462401
0.770026 0.373557 0.524525
0.856859 0.393856 0.546214
0.856859 0.393856 0.546214
0.090292 0.317568 0.359594
0.202430 0.345725 0.387751
0.310255 0.372799 0.414825
0.411976 0.393769 0.435795
0.557683 0.417667 0.459693
0.677396 0.445653 0.521705
0.797109 0.473638 0.551607
0.883942 0.493937 0.573296
0.883942 0.493937 0.573296
0.101864 0.405679 0.371166
0.214002 0.433836 0.399323
0.325617 0.499230 0.430187
0.433655 0.528466 0.457475
0.576534 0.549670 0.510655
0.696457 0.579782 0.540767
0.816380 0.609894 0.570879
0.903366 0.631736 0.592721
0.903366 0.631736 0.592721
0.131142 0.550484 0.400443
0.243502 0.580890 0.428823
0.351541 0.610126 0.456111
0.459579 0.639361 0.517151
0.595421 0.651753 0.529542
0.696457 0.662978 0.540767
0.816380 0.693090 0.570879
0.903366 0.714932 0.592721
0.903366 0.714932 0.592721
0.157066 0.661380 0.426367
0.269426 0.691785 0.454747
0.377465 0.721021 0.515614
0.485503 0.750257 0.544850
0.623315 0.762843 0.557436
0.713126 0.762843 0.557436
0.816380 0.776286 0.570879
0.903366 0.798128 0.592721
0.903366 0.798128 0.592721
0.182990 0.772275 0.452291
0.295350 0.802680 0.514077
0.403389 0.831916 0.543313
0.549376 0.864905 0.576302
0.651209 0.873933 0.585330
0.741021 0.873933 0.585330
0.830832 0.873933 0.585330
0.903366 0.881324 0.592721
0.903366 0.881324 0.592721
0.189023 0.798086 0.458325
0.301384 0.828491 0.520524
0.409422 0.857727 0.549760
0.555868 0.890761 0.582795
0.657702 0.899789 0.591823
0.747513 0.899789 0.591823
0.837324 0.899789 0.591823
0.903366 0.900687 0.592721
0.903366 0.900687 0.592721
0.116992 0.116992 0.489958
0.200973 0.116992 0.489958
0.281724 0.116992 0.489958
0.362474 0.116992 0.489958
0.479034 0.116992 0.489958
0.595110 0.141574 0.516223
0.714823 0.169559 0.546125
0.801656 0.189858 0.567814
0.801656 0.189858 0.567814
0.116992 0.194662 0.489958
0.227220 0.220909 0.518078
0.307971 0.220909 0.518078
0.388721 0.220909 0.518078
0.507155 0.220909 0.518078
0.623231 0.245490 0.544343
0.742943 0.273476 0.574245
0.829777 0.293775 0.595934
0.829777 0.293775 0.595934
0.116992 0.269465 0.489958
0.229353 0.297844 0.520363
0.333249 0.320990 0.545161
0.413999 0.320990 0.545161
0.534237 0.320990 0.545161
0.650313 0.345571 0.571426
0.770026 0.373557 0.601327
0.856859 0.393856 0.623017
0.856859 0.393856 0.623017
0.116992 0.344268 0.489958
0.229353 0.372647 0.520363
0.337391 0.399936 0.549599
0.439278 0.421071 0.572243
0.561320 0.421071 0.572243
0.677396 0.445653 0.598508
0.797109 0.473638 0.628410
0.883942 0.493937 0.650099
0.883942 0.493937 0.650099
0.116992 0.420807 0.489958
0.229353 0.482575 0.520363
0.337391 0.511811 0.549599
0.445430 0.541047 0.578835
0.593278 0.566413 0.604201
0.709538 0.592863 0.630651
0.829461 0.622975 0.660763
0.916447 0.644817 0.682605
0.916447 0.644817 0.682605
0.131142 0.550484 0.505076
0.243502 0.580890 0.535482
0.351541 0.610126 0.564717
0.459579 0.639361 0.593953
0.617509 0.673841 0.628433
0.722208 0.688729 0.643320
0.842131 0.718841 0.673433
0.929117 0.740682 0.695274
0.929117 0.740682 0.695274
0.157066 0.661380 0.532776
0.269426 0.691785 0.563181
0.377465 0.721021 0.592417
0.485503 0.750257 0.621653
0.645403 0.784931 0.656327
0.738877 0.788594 0.659990
0.842131 0.802037 0.673433
0.929117 0.823878 0.695274
0.929117 0.823878 0.695274
0.182990 0.772275 0.560475
0.295350 0.802680 0.590880
0.403389 0.831916 0.620116
0.549376 0.864905 0.653105
0.673298 0.896022 0.684221
0.766771 0.899684 0.687884
0.856582 0.899684 0.687884
0.929117 0.907074 0.695274
0.929117 0.907074 0.695274
0.189023 0.798086 0.566922
0.301384 0.828491 0.597327
0.409422 0.857727 0.626563
0.555868 0.890761 0.659597
0.679790 0.921877 0.690714
0.773263 0.925540 0.694376
0.863075 0.925540 0.694376
0.929117 0.926438 0.695274
0.929117 0.926438 0.695274
0.140126 0.140126 0.588919
0.224107 0.140126 0.588919
0.304858 0.140126 0.588919
0.385608 0.140126 0.588919
0.503753 0.140126 0.588919
0.595110 0.141574 0.590465
0.714823 0.169559 0.620367
0.801656 0.189858 0.642056
0.801656 0.189858 0.642056
0.140126 0.217796 0.588919
0.250354 0.244043 0.617039
0.331105 0.244043 0.617039
0.411855 0.244043 0.617039
0.531873 0.244043 0.617039
0.623231 0.245490 0.618586
0.742943 0.273476 0.648487
0.829777 0.293775 0.670176
0.829777 0.293775 0.670176
0.140126 0.292599 0.588919
0.252487 0.320979 0.619324
0.356383 0.344124 0.644122
0.437134 0.344124 0.644122
0.558956 0.344124 0.644122
0.650313 0.345571 0.645668
0.770026 0.373557 0.675570
0.856859 0.393856 0.697259
0.856859 0.393856 0.697259
0.140126 0.367402 0.588919
0.252487 0.395782 0.619324
0.360525 0.423070 0.648560
0.462412 0.444205 0.671204
0.586038 0.444205 0.671204
0.677396 0.445653 0.672751
0.797109 0.473638 0.702652
0.883942 0.493937 0.724342
0.883942 0.493937 0.724342
0.140126 0.476888 0.588919
0.252487 0.507294 0.619324
0.360525 0.536530 0.648560
0.468564 0.565765 0.677796
0.618170 0.591305 0.703336
0.709538 0.592863 0.704893
0.829461 0.622975 0.735005
0.916447 0.644817 0.756847
0.916447 0.644817 0.756847
0.140126 0.560084 0.588919
0.252487 0.590490 0.619324
0.360525 0.619726 0.648560
0.468564 0.648962 0.677796
0.627177 0.683509 0.712343
0.737432 0.703953 0.732787
0.857356 0.734065 0.762899
0.944341 0.755907 0.784741
0.944341 0.755907 0.784741
0.157066 0.661380 0.607018
0.269426 0.691785 0.637423
0.377465 0.721021 0.666659
0.485503 0.750257 0.695895
0.645403 0.784931 0.730570
0.763769 0.813486 0.759124
0.867023 0.826929 0.772567
0.954009 0.848771 0.794409
0.954009 0.848771 0.794409
0.182990 0.772275 0.634717
0.295350 0.802680 0.665123
0.403389 0.831916 0.694359
0.549376 0.864905 0.727348
0.673298 0.896022 0.758464
0.791663 0.924576 0.787018
0.881474 0.924576 0.787018
0.954009 0.931967 0.794409
0.954009 0.931967 0.794409
0.189023 0.798086 0.641164
0.301384 0.828491 0.671570
0.409422 0.857727 0.700805
0.555868 0.890761 0.733840
0.679790 0.921877 0.764956
0.798156 0.950432 0.793511
0.887967 0.950432 0.793511
0.954009 0.951330 0.794409
0.954009 0.951330 0.794409
0.163261 0.163261 0.687880
0.247241 0.163261 0.687880
0.327992 0.163261 0.687880
0.408743 0.163261 0.687880
0.528471 0.163261 0.687880
0.618282 0.163261 0.687880
0.714823 0.169559 0.694609
0.801656 0.189858 0.716299
0.801656 0.189858 0.716299
0.163261 0.240930 0.687880
0.273488 0.267177 0.716000
0.354239 0.267177 0.716000
0.434989 0.267177 0.716000
0.556591 0.267177 0.716000
0.646402 0.267177 0.716000
0.742943 0.273476 0.722730
0.829777 0.293775 0.744419
0.829777 0.293775 0.744419
0.163261 0.315733 0.687880
0.275621 0.344113 0.718285
0.379517 0.367258 0.743082
0.460268 0.367258 0.743082
0.583674 0.367258 0.743082
0.673485 0.367258 0.743082
0.770026 0.373557 0.749812
0.856859 0.393856 0.771501
0.856859 0.393856 0.771501
0.163261 0.390536 0.687880
0.275621 0.418916 0.718285
0.383660 0.446204 0.747521
0.485546 0.467339 0.770165
0.610756 0.467339 0.770165
0.700568 0.467339 0.770165
0.797109 0.473638 0.776895
0.883942 0.493937 0.798584
0.883942 0.493937 0.798584
0.163261 0.501607 0.687880
0.275621 0.532012 0.718285
0.383660 0.561248 0.747521
0.528147 0.594089 0.780361
0.643062 0.616198 0.802470
0.732873 0.616198 0.802470
0.829461 0.622975 0.809248
0.916447 0.644817 0.831089
0.916447 0.644817 0.831089
0.163261 0.584803 0.687880
0.275621 0.615208 0.718285
0.383660 0.644444 0.747521
0.528147 0.677285 0.780361
0.652069 0.708401 0.811478
0.760767 0.727288 0.830365
0.857356 0.734065 0.837142
0.944341 0.755907 0.858984
0.944341 0.755907 0.858984
0.163261 0.667999 0.687880
0.275621 0.698404 0.718285
0.383660 0.727640 0.747521
0.528147 0.760481 0.780361
0.652069 0.791597 0.811478
0.771992 0.821709 0.841590
0.885250 0.845155 0.865036
0.972235 0.866997 0.886878
0.972235 0.866997 0.886878
0.182990 0.772275 0.708960
0.295350 0.802680 0.739365
0.403389 0.831916 0.768601
0.549376 0.864905 0.801590
0.673298 0.896022 0.832706
0.793221 0.926134 0.862818
0.906367 0.949468 0.886153
0.978901 0.956859 0.893543
0.978901 0.956859 0.893543
0.189023 0.798086 0.715407
0.301384 0.828491 0.745812
0.409422 0.857727 0.775048
0.555868 0.890761 0.808082
0.679790 0.921877 0.839198
0.799713 0.951989 0.869310
0.912859 0.975324 0.892645
0.978901 0.976222 0.893543
0.978901 0.976222 0.893543
0.168645 0.168645 0.710912
0.252626 0.168645 0.710912
0.333376 0.168645 0.710912
0.414127 0.168645 0.710912
0.534224 0.168645 0.710912
0.624035 0.168645 0.710912
0.714823 0.169559 0.711889
0.801656 0.189858 0.733578
0.801656 0.189858 0.733578
0.168645 0.246314 0.710912
0.278872 0.272561 0.739033
0.359623 0.272561 0.739033
0.440374 0.272561 0.739033
0.562344 0.272561 0.739033
0.652156 0.272561 0.739033
0.742943 0.273476 0.740009
0.829777 0.293775 0.761699
0.829777 0.293775 0.761699
0.168645 0.321117 0.710912
0.281005 0.349497 0.741318
0.384901 0.372642 0.766115
0.465652 0.372642 0.766115
0.589427 0.372642 0.766115
0.679238 0.372642 0.766115
0.770026 0.373557 0.767092
0.856859 0.393856 0.788781
0.856859 0.393856 0.788781
0.168645 0.395920 0.710912
0.281005 0.424300 0.741318
0.389044 0.451588 0.770553
0.490930 0.472724 0.793198
0.616509 0.472724 0.793198
0.706321 0.472724 0.793198
0.797109 0.473638 0.794175
0.883942 0.493937 0.815864
0.883942 0.493937 0.815864
0.168645 0.507360 0.710912
0.281005 0.537765 0.741318
0.389044 0.567001 0.770553
0.533941 0.599882 0.803435
0.648855 0.621991 0.825544
0.738667 0.621991 0.825544
0.829461 0.622975 0.826527
0.916447 0.644817 0.848369
0.916447 0.644817 0.848369
0.168645 0.590556 0.710912
0.281005 0.620961 0.741318
0.389044 0.650197 0.770553
0.533941 0.683078 0.803435
0.657863 0.714194 0.834551
0.766561 0.733081 0.853438
0.857356 0.734065 0.854422
0.944341 0.755907 0.876263
0.944341 0.755907 0.876263
0.168645 0.673752 0.710912
0.281005 0.704157 0.741318
0.389044 0.733393 0.770553
0.533941 0.766274 0.803435
0.657863 0.797390 0.834551
0.777786 0.827503 0.864663
0.885250 0.845155 0.882316
0.972235 0.866997 0.904157
0.972235 0.866997 0.904157
0.182990 0.772275 0.726239
0.295350 0.802680 0.756645
0.403389 0.831916 0.785881
0.549376 0.864905 0.818870
0.673298 0.896022 0.849986
0.793221 0.926134 0.880098
0.912160 0.955262 0.909226
0.984695 0.962652 0.916617
0.984695 0.962652 0.916617
0.189023 0.798086 0.732686
0.301384 0.828491 0.763092
0.409422 0.857727 0.792328
0.555868 0.890761 0.825362
0.679790 0.921877 0.856478
0.799713 0.951989 0.886590
0.918652 0.981118 0.915718
0.984695 0.982016 0.916617
0.984695 0.982016 0.916617
