docs/luts/fuji_recipes/Classic_RR_Elite_Chrome_200_Color_Fade.cube
TITLE "Fujifilm Recipe: RR Elite Chrome 200 Color Fade (Classic)"
# FilmSim=Classic HL=0 SH=2 Col=-2 WB=8300K WBR=4 WBB=8
LUT_3D_SIZE 33
DOMAIN_MIN 0.0 0.0 0.0
DOMAIN_MAX 1.0 1.0 1.0
0.000000 0.000000 0.000000
0.027158 0.008500 0.008500
0.051656 0.016167 0.016167
0.075743 0.023705 0.023705
0.099830 0.031244 0.031244
0.123917 0.038782 0.038782
0.148003 0.046321 0.046321
0.172090 0.053859 0.053859
0.196177 0.061397 0.061397
0.220264 0.068936 0.068936
0.244350 0.076474 0.076474
0.268437 0.084013 0.084013
0.292524 0.091551 0.091551
0.316610 0.099090 0.099090
0.342982 0.107343 0.107343
0.366680 0.114760 0.114760
0.422587 0.127369 0.127369
0.448241 0.135101 0.135101
0.473894 0.142833 0.142833
0.499548 0.150565 0.150565
0.525201 0.158297 0.158297
0.550855 0.166029 0.166029
0.576508 0.173761 0.173761
0.602162 0.181493 0.181493
0.627815 0.189225 0.189225
0.653469 0.196957 0.196957
0.679122 0.204689 0.204689
0.693392 0.208990 0.208990
0.693392 0.208990 0.208990
0.693392 0.208990 0.208990
0.693392 0.208990 0.208990
0.693392 0.208990 0.208990
0.693392 0.208990 0.208990
0.006227 0.019897 0.006227
0.027158 0.022170 0.008500
0.051656 0.029837 0.016167
0.075743 0.037375 0.023705
0.099830 0.044914 0.031244
0.123917 0.052452 0.038782
0.148003 0.059990 0.046321
0.172090 0.067529 0.053859
0.196177 0.075067 0.061397
0.220264 0.082606 0.068936
0.244350 0.090144 0.076474
0.268437 0.097683 0.084013
0.292524 0.105221 0.091551
0.316610 0.112759 0.099090
0.342982 0.121013 0.107343
0.366680 0.128430 0.114760
0.422587 0.141010 0.127369
0.448241 0.148742 0.135101
0.473894 0.156474 0.142833
0.499548 0.164206 0.150565
0.525201 0.171939 0.158297
0.550855 0.179671 0.166029
0.576508 0.187403 0.173761
0.602162 0.195135 0.181493
0.627815 0.202867 0.189225
0.653469 0.210599 0.196957
0.679122 0.218331 0.204689
0.693392 0.222632 0.208990
0.693392 0.222632 0.208990
0.693392 0.222632 0.208990
0.693392 0.222632 0.208990
0.693392 0.222632 0.208990
0.693392 0.222632 0.208990
0.012481 0.039880 0.012481
0.031140 0.039880 0.012481
0.051656 0.043566 0.016167
0.075743 0.051104 0.023705
0.099830 0.058643 0.031244
0.123917 0.066181 0.038782
0.148003 0.073720 0.046321
0.172090 0.081258 0.053859
0.196177 0.088796 0.061397
0.220264 0.096335 0.068936
0.244350 0.103873 0.076474
0.268437 0.111412 0.084013
0.292524 0.118950 0.091551
0.316610 0.126488 0.099090
0.342982 0.134742 0.107343
0.366680 0.142159 0.114760
0.422587 0.154711 0.127369
0.448241 0.162443 0.135101
0.473894 0.170175 0.142833
0.499548 0.177907 0.150565
0.525201 0.185639 0.158297
0.550855 0.193371 0.166029
0.576508 0.201103 0.173761
0.602162 0.208835 0.181493
0.627815 0.216567 0.189225
0.653469 0.224299 0.196957
0.679122 0.232031 0.204689
0.693392 0.236332 0.208990
0.693392 0.236332 0.208990
0.693392 0.236332 0.208990
0.693392 0.236332 0.208990
0.693392 0.236332 0.208990
0.693392 0.236332 0.208990
0.018745 0.059894 0.018745
0.037404 0.059894 0.018745
0.054235 0.059894 0.018745
0.075743 0.064854 0.023705
0.099830 0.072393 0.031244
0.123917 0.079931 0.038782
0.148003 0.087470 0.046321
0.172090 0.095008 0.053859
0.196177 0.102547 0.061397
0.220264 0.110085 0.068936
0.244350 0.117623 0.076474
0.268437 0.125162 0.084013
0.292524 0.132700 0.091551
0.316610 0.140239 0.099090
0.342982 0.148492 0.107343
0.366680 0.155909 0.114760
0.422587 0.168432 0.127369
0.448241 0.176164 0.135101
0.473894 0.183896 0.142833
0.499548 0.191628 0.150565
0.525201 0.199360 0.158297
0.550855 0.207092 0.166029
0.576508 0.214824 0.173761
0.602162 0.222556 0.181493
0.627815 0.230289 0.189225
0.653469 0.238021 0.196957
0.679122 0.245753 0.204689
0.693392 0.250053 0.208990
0.693392 0.250053 0.208990
0.693392 0.250053 0.208990
0.693392 0.250053 0.208990
0.693392 0.250053 0.208990
0.693392 0.250053 0.208990
0.025009 0.079908 0.025009
0.043667 0.079908 0.025009
0.060498 0.079908 0.025009
0.077047 0.079908 0.025009
0.099830 0.086143 0.031244
0.123917 0.093682 0.038782
0.148003 0.101220 0.046321
0.172090 0.108758 0.053859
0.196177 0.116297 0.061397
0.220264 0.123835 0.068936
0.244350 0.131374 0.076474
0.268437 0.138912 0.084013
0.292524 0.146451 0.091551
0.316610 0.153989 0.099090
0.342982 0.162242 0.107343
0.366680 0.169659 0.114760
0.422587 0.182154 0.127369
0.448241 0.189886 0.135101
0.473894 0.197618 0.142833
0.499548 0.205350 0.150565
0.525201 0.213082 0.158297
0.550855 0.220814 0.166029
0.576508 0.228546 0.173761
0.602162 0.236278 0.181493
0.627815 0.244010 0.189225
0.653469 0.251742 0.196957
0.679122 0.259474 0.204689
0.693392 0.263775 0.208990
0.693392 0.263775 0.208990
0.693392 0.263775 0.208990
0.693392 0.263775 0.208990
0.693392 0.263775 0.208990
0.693392 0.263775 0.208990
0.031273 0.099922 0.031273
0.049931 0.099922 0.031273
0.066762 0.099922 0.031273
0.083310 0.099922 0.031273
0.099859 0.099922 0.031273
0.123917 0.107432 0.038782
0.148003 0.114970 0.046321
0.172090 0.122509 0.053859
0.196177 0.130047 0.061397
0.220264 0.137585 0.068936
0.244350 0.145124 0.076474
0.268437 0.152662 0.084013
0.292524 0.160201 0.091551
0.316610 0.167739 0.099090
0.342982 0.175993 0.107343
0.366680 0.183409 0.114760
0.422587 0.195875 0.127369
0.448241 0.203607 0.135101
0.473894 0.211339 0.142833
0.499548 0.219071 0.150565
0.525201 0.226803 0.158297
0.550855 0.234535 0.166029
0.576508 0.242267 0.173761
0.602162 0.249999 0.181493
0.627815 0.257731 0.189225
0.653469 0.265464 0.196957
0.679122 0.273196 0.204689
0.693392 0.277496 0.208990
0.693392 0.277496 0.208990
0.693392 0.277496 0.208990
0.693392 0.277496 0.208990
0.693392 0.277496 0.208990
0.693392 0.277496 0.208990
0.037536 0.119936 0.037536
0.056195 0.119936 0.037536
0.073026 0.119936 0.037536
0.089574 0.119936 0.037536
0.106123 0.119936 0.037536
0.123917 0.121182 0.038782
0.148003 0.128720 0.046321
0.172090 0.136259 0.053859
0.196177 0.143797 0.061397
0.220264 0.151336 0.068936
0.244350 0.158874 0.076474
0.268437 0.166413 0.084013
0.292524 0.173951 0.091551
0.316610 0.181489 0.099090
0.342982 0.189743 0.107343
0.366680 0.197160 0.114760
0.422587 0.209597 0.127369
0.448241 0.217329 0.135101
0.473894 0.225061 0.142833
0.499548 0.232793 0.150565
0.525201 0.240525 0.158297
0.550855 0.248257 0.166029
0.576508 0.255989 0.173761
0.602162 0.263721 0.181493
0.627815 0.271453 0.189225
0.653469 0.279185 0.196957
0.679122 0.286917 0.204689
0.693392 0.291218 0.208990
0.693392 0.291218 0.208990
0.693392 0.291218 0.208990
0.693392 0.291218 0.208990
0.693392 0.291218 0.208990
0.693392 0.291218 0.208990
0.043800 0.139950 0.043800
0.062459 0.139950 0.043800
0.079290 0.139950 0.043800
0.095838 0.139950 0.043800
0.112386 0.139950 0.043800
0.128935 0.139950 0.043800
0.148003 0.142471 0.046321
0.172090 0.150009 0.053859
0.196177 0.157547 0.061397
0.220264 0.165086 0.068936
0.244350 0.172624 0.076474
0.268437 0.180163 0.084013
0.292524 0.187701 0.091551
0.316610 0.195240 0.099090
0.342982 0.203493 0.107343
0.366680 0.210910 0.114760
0.422587 0.223318 0.127369
0.448241 0.231050 0.135101
0.473894 0.238782 0.142833
0.499548 0.246514 0.150565
0.525201 0.254246 0.158297
0.550855 0.261978 0.166029
0.576508 0.269710 0.173761
0.602162 0.277442 0.181493
0.627815 0.285174 0.189225
0.653469 0.292906 0.196957
0.679122 0.300639 0.204689
0.693392 0.304939 0.208990
0.693392 0.304939 0.208990
0.693392 0.304939 0.208990
0.693392 0.304939 0.208990
0.693392 0.304939 0.208990
0.693392 0.304939 0.208990
0.050064 0.159964 0.050064
0.068723 0.159964 0.050064
0.085554 0.159964 0.050064
0.102102 0.159964 0.050064
0.118650 0.159964 0.050064
0.135198 0.159964 0.050064
0.151747 0.159964 0.050064
0.172090 0.163759 0.053859
0.196177 0.171298 0.061397
0.220264 0.178836 0.068936
0.244350 0.186375 0.076474
0.268437 0.193913 0.084013
0.292524 0.201451 0.091551
0.316610 0.208990 0.099090
0.342982 0.217243 0.107343
0.366680 0.224660 0.114760
0.422587 0.237040 0.127369
0.448241 0.244772 0.135101
0.473894 0.252504 0.142833
0.499548 0.260236 0.150565
0.525201 0.267968 0.158297
0.550855 0.275700 0.166029
0.576508 0.283432 0.173761
0.602162 0.291164 0.181493
0.627815 0.298896 0.189225
0.653469 0.306628 0.196957
0.679122 0.314360 0.204689
0.693392 0.318661 0.208990
0.693392 0.318661 0.208990
0.693392 0.318661 0.208990
0.693392 0.318661 0.208990
0.693392 0.318661 0.208990
0.693392 0.318661 0.208990
0.056328 0.179978 0.056328
0.074986 0.179978 0.056328
0.091817 0.179978 0.056328
0.108366 0.179978 0.056328
0.124914 0.179978 0.056328
0.141462 0.179978 0.056328
0.158011 0.179978 0.056328
0.174559 0.179978 0.056328
0.196177 0.185048 0.061397
0.220264 0.192586 0.068936
0.244350 0.200125 0.076474
0.268437 0.207663 0.084013
0.292524 0.215202 0.091551
0.316610 0.222740 0.099090
0.342982 0.230994 0.107343
0.366680 0.238410 0.114760
0.422587 0.250761 0.127369
0.448241 0.258493 0.135101
0.473894 0.266225 0.142833
0.499548 0.273957 0.150565
0.525201 0.281689 0.158297
0.550855 0.289421 0.166029
0.576508 0.297153 0.173761
0.602162 0.304885 0.181493
0.627815 0.312617 0.189225
0.653469 0.320349 0.196957
0.679122 0.328081 0.204689
0.693392 0.332382 0.208990
0.693392 0.332382 0.208990
0.693392 0.332382 0.208990
0.693392 0.332382 0.208990
0.693392 0.332382 0.208990
0.693392 0.332382 0.208990
0.062592 0.199992 0.062592
0.081250 0.199992 0.062592
0.098081 0.199992 0.062592
0.114629 0.199992 0.062592
0.131178 0.199992 0.062592
0.147726 0.199992 0.062592
0.164274 0.199992 0.062592
0.180823 0.199992 0.062592
0.197371 0.199992 0.062592
0.220264 0.206337 0.068936
0.244350 0.213875 0.076474
0.268437 0.221413 0.084013
0.292524 0.228952 0.091551
0.316610 0.236490 0.099090
0.342982 0.244744 0.107343
0.366680 0.252161 0.114760
0.422587 0.264483 0.127369
0.448241 0.272215 0.135101
0.473894 0.279947 0.142833
0.499548 0.287679 0.150565
0.525201 0.295411 0.158297
0.550855 0.303143 0.166029
0.576508 0.310875 0.173761
0.602162 0.318607 0.181493
0.627815 0.326339 0.189225
0.653469 0.334071 0.196957
0.679122 0.341803 0.204689
0.693392 0.346104 0.208990
0.693392 0.346104 0.208990
0.693392 0.346104 0.208990
0.693392 0.346104 0.208990
0.693392 0.346104 0.208990
0.693392 0.346104 0.208990
0.068855 0.220006 0.068855
0.087514 0.220006 0.068855
0.104345 0.220006 0.068855
0.120893 0.220006 0.068855
0.137441 0.220006 0.068855
0.153990 0.220006 0.068855
0.170538 0.220006 0.068855
0.187086 0.220006 0.068855
0.203635 0.220006 0.068855
0.220264 0.220087 0.068936
0.244350 0.227625 0.076474
0.268437 0.235164 0.084013
0.292524 0.242702 0.091551
0.316610 0.250241 0.099090
0.342982 0.258494 0.107343
0.366680 0.265911 0.114760
0.422587 0.278204 0.127369
0.448241 0.285936 0.135101
0.473894 0.293668 0.142833
0.499548 0.301400 0.150565
0.525201 0.309132 0.158297
0.550855 0.316864 0.166029
0.576508 0.324596 0.173761
0.602162 0.332328 0.181493
0.627815 0.340060 0.189225
0.653469 0.347792 0.196957
0.679122 0.355524 0.204689
0.693392 0.359825 0.208990
0.693392 0.359825 0.208990
0.693392 0.359825 0.208990
0.693392 0.359825 0.208990
0.693392 0.359825 0.208990
0.693392 0.359825 0.208990
0.075119 0.240020 0.075119
0.093778 0.240020 0.075119
0.110609 0.240020 0.075119
0.127157 0.240020 0.075119
0.143705 0.240020 0.075119
0.160254 0.240020 0.075119
0.176802 0.240020 0.075119
0.193350 0.240020 0.075119
0.209899 0.240020 0.075119
0.226447 0.240020 0.075119
0.244350 0.241375 0.076474
0.268437 0.248914 0.084013
0.292524 0.256452 0.091551
0.316610 0.263991 0.099090
0.342982 0.272244 0.107343
0.366680 0.279661 0.114760
0.422587 0.291926 0.127369
0.448241 0.299658 0.135101
0.473894 0.307390 0.142833
0.499548 0.315122 0.150565
0.525201 0.322854 0.158297
0.550855 0.330586 0.166029
0.576508 0.338318 0.173761
0.602162 0.346050 0.181493
0.627815 0.353782 0.189225
0.653469 0.361514 0.196957
0.679122 0.369246 0.204689
0.693392 0.373547 0.208990
0.693392 0.373547 0.208990
0.693392 0.373547 0.208990
0.693392 0.373547 0.208990
0.693392 0.373547 0.208990
0.693392 0.373547 0.208990
0.081383 0.260034 0.081383
0.100042 0.260034 0.081383
0.116872 0.260034 0.081383
0.133421 0.260034 0.081383
0.149969 0.260034 0.081383
0.166517 0.260034 0.081383
0.183066 0.260034 0.081383
0.199614 0.260034 0.081383
0.216162 0.260034 0.081383
0.232711 0.260034 0.081383
0.249259 0.260034 0.081383
0.268437 0.262664 0.084013
0.292524 0.270203 0.091551
0.316610 0.277741 0.099090
0.342982 0.285994 0.107343
0.366680 0.293411 0.114760
0.422587 0.305647 0.127369
0.448241 0.313379 0.135101
0.473894 0.321111 0.142833
0.499548 0.328843 0.150565
0.525201 0.336575 0.158297
0.550855 0.344307 0.166029
0.576508 0.352039 0.173761
0.602162 0.359771 0.181493
0.627815 0.367503 0.189225
0.653469 0.375235 0.196957
0.679122 0.382967 0.204689
0.693392 0.387268 0.208990
0.693392 0.387268 0.208990
0.693392 0.387268 0.208990
0.693392 0.387268 0.208990
0.693392 0.387268 0.208990
0.693392 0.387268 0.208990
0.087647 0.280048 0.087647
0.106305 0.280048 0.087647
0.123136 0.280048 0.087647
0.139685 0.280048 0.087647
0.156233 0.280048 0.087647
0.172781 0.280048 0.087647
0.189329 0.280048 0.087647
0.205878 0.280048 0.087647
0.222426 0.280048 0.087647
0.238974 0.280048 0.087647
0.255523 0.280048 0.087647
0.272071 0.280048 0.087647
0.292524 0.283953 0.091551
0.316610 0.291491 0.099090
0.342982 0.299745 0.107343
0.366680 0.307162 0.114760
0.422587 0.319368 0.127369
0.448241 0.327101 0.135101
0.473894 0.334833 0.142833
0.499548 0.342565 0.150565
0.525201 0.350297 0.158297
0.550855 0.358029 0.166029
0.576508 0.365761 0.173761
0.602162 0.373493 0.181493
0.627815 0.381225 0.189225
0.653469 0.388957 0.196957
0.679122 0.396689 0.204689
0.693392 0.400990 0.208990
0.693392 0.400990 0.208990
0.693392 0.400990 0.208990
0.693392 0.400990 0.208990
0.693392 0.400990 0.208990
0.693392 0.400990 0.208990
0.093911 0.300062 0.093911
0.112569 0.300062 0.093911
0.129400 0.300062 0.093911
0.145948 0.300062 0.093911
0.162497 0.300062 0.093911
0.179045 0.300062 0.093911
0.195593 0.300062 0.093911
0.212142 0.300062 0.093911
0.228690 0.300062 0.093911
0.245238 0.300062 0.093911
0.261786 0.300062 0.093911
0.278335 0.300062 0.093911
0.294883 0.300062 0.093911
0.316610 0.305241 0.099090
0.342982 0.313495 0.107343
0.366680 0.320912 0.114760
0.422587 0.333090 0.127369
0.448241 0.340822 0.135101
0.473894 0.348554 0.142833
0.499548 0.356286 0.150565
0.525201 0.364018 0.158297
0.550855 0.371750 0.166029
0.576508 0.379482 0.173761
0.602162 0.387214 0.181493
0.627815 0.394946 0.189225
0.653469 0.402678 0.196957
0.679122 0.410410 0.204689
0.693392 0.414711 0.208990
0.693392 0.414711 0.208990
0.693392 0.414711 0.208990
0.693392 0.414711 0.208990
0.693392 0.414711 0.208990
0.693392 0.414711 0.208990
0.100174 0.320076 0.100174
0.118833 0.320076 0.100174
0.135664 0.320076 0.100174
0.152212 0.320076 0.100174
0.168760 0.320076 0.100174
0.185309 0.320076 0.100174
0.201857 0.320076 0.100174
0.218405 0.320076 0.100174
0.234954 0.320076 0.100174
0.251502 0.320076 0.100174
0.268050 0.320076 0.100174
0.284599 0.320076 0.100174
0.301147 0.320076 0.100174
0.317695 0.320076 0.100174
0.342982 0.327245 0.107343
0.366680 0.334662 0.114760
0.422587 0.346811 0.127369
0.448241 0.354543 0.135101
0.473894 0.362276 0.142833
0.499548 0.370008 0.150565
0.525201 0.377740 0.158297
0.550855 0.385472 0.166029
0.576508 0.393204 0.173761
0.602162 0.400936 0.181493
0.627815 0.408668 0.189225
0.653469 0.416400 0.196957
0.679122 0.424132 0.204689
0.693392 0.428433 0.208990
0.693392 0.428433 0.208990
0.693392 0.428433 0.208990
0.693392 0.428433 0.208990
0.693392 0.428433 0.208990
0.693392 0.428433 0.208990
0.107156 0.342385 0.107156
0.125815 0.342385 0.107156
0.142646 0.342385 0.107156
0.159194 0.342385 0.107156
0.175742 0.342385 0.107156
0.192291 0.342385 0.107156
0.208839 0.342385 0.107156
0.225387 0.342385 0.107156
0.241936 0.342385 0.107156
0.258484 0.342385 0.107156
0.275032 0.342385 0.107156
0.291580 0.342385 0.107156
0.308129 0.342385 0.107156
0.324677 0.342385 0.107156
0.342982 0.342572 0.107343
0.366680 0.349989 0.114760
0.422587 0.362106 0.127369
0.448241 0.369838 0.135101
0.473894 0.377570 0.142833
0.499548 0.385302 0.150565
0.525201 0.393034 0.158297
0.550855 0.400766 0.166029
0.576508 0.408498 0.173761
0.602162 0.442775 0.181493
0.627815 0.450768 0.189225
0.653469 0.458762 0.196957
0.679122 0.466755 0.204689
0.693392 0.471201 0.208990
0.693392 0.471201 0.208990
0.693392 0.471201 0.208990
0.693392 0.471201 0.208990
0.693392 0.471201 0.208990
0.693392 0.471201 0.208990
0.113319 0.362076 0.113319
0.131978 0.362076 0.113319
0.148808 0.362076 0.113319
0.165357 0.362076 0.113319
0.181905 0.362076 0.113319
0.198453 0.362076 0.113319
0.215002 0.362076 0.113319
0.231550 0.362076 0.113319
0.248098 0.362076 0.113319
0.264647 0.362076 0.113319
0.281195 0.362076 0.113319
0.297743 0.362076 0.113319
0.314292 0.362076 0.113319
0.330840 0.362076 0.113319
0.348958 0.362076 0.113319
0.366680 0.363517 0.114760
0.422587 0.375606 0.127369
0.448241 0.383338 0.135101
0.473894 0.391070 0.142833
0.499548 0.425476 0.150565
0.525201 0.433469 0.158297
0.550855 0.441463 0.166029
0.576508 0.449456 0.173761
0.602162 0.457449 0.181493
0.627815 0.465443 0.189225
0.653469 0.473436 0.196957
0.679122 0.481429 0.204689
0.693392 0.485875 0.208990
0.693392 0.485875 0.208990
0.693392 0.485875 0.208990
0.693392 0.485875 0.208990
0.693392 0.485875 0.208990
0.693392 0.485875 0.208990
0.124560 0.413266 0.124560
0.143179 0.413266 0.124560
0.159975 0.413266 0.124560
0.176489 0.413266 0.124560
0.193002 0.413266 0.124560
0.209516 0.413266 0.124560
0.226030 0.413266 0.124560
0.242543 0.413266 0.124560
0.259057 0.413266 0.124560
0.275571 0.413266 0.124560
0.292085 0.413266 0.124560
0.308598 0.413266 0.124560
0.325112 0.413266 0.124560
0.341626 0.413266 0.124560
0.359706 0.413266 0.124560
0.375953 0.413266 0.124560
0.422587 0.416170 0.127369
0.448241 0.424163 0.135101
0.473894 0.432157 0.142833
0.499548 0.440150 0.150565
0.525201 0.448143 0.158297
0.550855 0.456137 0.166029
0.576508 0.464130 0.173761
0.602162 0.472123 0.181493
0.627815 0.480117 0.189225
0.653469 0.488110 0.196957
0.679122 0.496103 0.204689
0.693392 0.500549 0.208990
0.693392 0.500549 0.208990
0.693392 0.500549 0.208990
0.693392 0.500549 0.208990
0.693392 0.500549 0.208990
0.693392 0.500549 0.208990
0.130984 0.434581 0.130984
0.149604 0.434581 0.130984
0.166399 0.434581 0.130984
0.182913 0.434581 0.130984
0.199427 0.434581 0.130984
0.215941 0.434581 0.130984
0.232454 0.434581 0.130984
0.248968 0.434581 0.130984
0.265482 0.434581 0.130984
0.281995 0.434581 0.130984
0.298509 0.434581 0.130984
0.315023 0.434581 0.130984
0.331537 0.434581 0.130984
0.348050 0.434581 0.130984
0.366130 0.434581 0.130984
0.382378 0.434581 0.130984
0.426324 0.434581 0.130984
0.448241 0.438838 0.135101
0.473894 0.446831 0.142833
0.499548 0.454824 0.150565
0.525201 0.462817 0.158297
0.550855 0.470811 0.166029
0.576508 0.478804 0.173761
0.602162 0.486797 0.181493
0.627815 0.494791 0.189225
0.653469 0.502784 0.196957
0.679122 0.510777 0.204689
0.693392 0.515224 0.208990
0.693392 0.515224 0.208990
0.693392 0.515224 0.208990
0.693392 0.515224 0.208990
0.693392 0.515224 0.208990
0.693392 0.515224 0.208990
0.137409 0.455897 0.137409
0.156028 0.455897 0.137409
0.172824 0.455897 0.137409
0.189338 0.455897 0.137409
0.205852 0.455897 0.137409
0.222365 0.455897 0.137409
0.238879 0.455897 0.137409
0.255393 0.455897 0.137409
0.271906 0.455897 0.137409
0.288420 0.455897 0.137409
0.304934 0.455897 0.137409
0.321448 0.455897 0.137409
0.337961 0.455897 0.137409
0.354475 0.455897 0.137409
0.372555 0.455897 0.137409
0.415306 0.455897 0.137409
0.432966 0.455897 0.137409
0.450626 0.455897 0.137409
0.473894 0.461505 0.142833
0.499548 0.469498 0.150565
0.525201 0.477492 0.158297
0.550855 0.485485 0.166029
0.576508 0.493478 0.173761
0.602162 0.501472 0.181493
0.627815 0.509465 0.189225
0.653469 0.517458 0.196957
0.679122 0.525451 0.204689
0.693392 0.529898 0.208990
0.693392 0.529898 0.208990
0.693392 0.529898 0.208990
0.693392 0.529898 0.208990
0.693392 0.529898 0.208990
0.693392 0.529898 0.208990
0.143834 0.477213 0.143834
0.162453 0.477213 0.143834
0.179249 0.477213 0.143834
0.195763 0.477213 0.143834
0.212276 0.477213 0.143834
0.228790 0.477213 0.143834
0.245304 0.477213 0.143834
0.261817 0.477213 0.143834
0.278331 0.477213 0.143834
0.294845 0.477213 0.143834
0.311359 0.477213 0.143834
0.327872 0.477213 0.143834
0.344386 0.477213 0.143834
0.360900 0.477213 0.143834
0.378980 0.477213 0.143834
0.421948 0.477213 0.143834
0.439608 0.477213 0.143834
0.457268 0.477213 0.143834
0.474928 0.477213 0.143834
0.499548 0.484172 0.150565
0.525201 0.492166 0.158297
0.550855 0.500159 0.166029
0.576508 0.508152 0.173761
0.602162 0.516146 0.181493
0.627815 0.524139 0.189225
0.653469 0.532132 0.196957
0.679122 0.540126 0.204689
0.693392 0.544572 0.208990
0.693392 0.544572 0.208990
0.693392 0.544572 0.208990
0.693392 0.544572 0.208990
0.693392 0.544572 0.208990
0.693392 0.544572 0.208990
0.150258 0.498529 0.150258
0.168878 0.498529 0.150258
0.185673 0.498529 0.150258
0.202187 0.498529 0.150258
0.218701 0.498529 0.150258
0.235215 0.498529 0.150258
0.251728 0.498529 0.150258
0.268242 0.498529 0.150258
0.284756 0.498529 0.150258
0.301269 0.498529 0.150258
0.317783 0.498529 0.150258
0.334297 0.498529 0.150258
0.350811 0.498529 0.150258
0.367324 0.498529 0.150258
0.385404 0.498529 0.150258
0.428590 0.498529 0.150258
0.446250 0.498529 0.150258
0.463910 0.498529 0.150258
0.481570 0.498529 0.150258
0.499548 0.498846 0.150565
0.525201 0.506840 0.158297
0.550855 0.514833 0.166029
0.576508 0.522826 0.173761
0.602162 0.530820 0.181493
0.627815 0.538813 0.189225
0.653469 0.546806 0.196957
0.679122 0.554800 0.204689
0.693392 0.559246 0.208990
0.693392 0.559246 0.208990
0.693392 0.559246 0.208990
0.693392 0.559246 0.208990
0.693392 0.559246 0.208990
0.693392 0.559246 0.208990
0.156683 0.519845 0.156683
0.175302 0.519845 0.156683
0.192098 0.519845 0.156683
0.208612 0.519845 0.156683
0.225126 0.519845 0.156683
0.241639 0.519845 0.156683
0.258153 0.519845 0.156683
0.274667 0.519845 0.156683
0.291180 0.519845 0.156683
0.307694 0.519845 0.156683
0.324208 0.519845 0.156683
0.340722 0.519845 0.156683
0.357235 0.519845 0.156683
0.373749 0.519845 0.156683
0.391829 0.519845 0.156683
0.435231 0.519845 0.156683
0.452891 0.519845 0.156683
0.470552 0.519845 0.156683
0.488212 0.519845 0.156683
0.505872 0.519845 0.156683
0.525201 0.521514 0.158297
0.550855 0.529507 0.166029
0.576508 0.537500 0.173761
0.602162 0.545494 0.181493
0.627815 0.553487 0.189225
0.653469 0.561480 0.196957
0.679122 0.569474 0.204689
0.693392 0.573920 0.208990
0.693392 0.573920 0.208990
0.693392 0.573920 0.208990
0.693392 0.573920 0.208990
0.693392 0.573920 0.208990
0.693392 0.573920 0.208990
0.163108 0.541161 0.163108
0.181727 0.541161 0.163108
0.198523 0.541161 0.163108
0.215037 0.541161 0.163108
0.231550 0.541161 0.163108
0.248064 0.541161 0.163108
0.264578 0.541161 0.163108
0.281091 0.541161 0.163108
0.297605 0.541161 0.163108
0.314119 0.541161 0.163108
0.330633 0.541161 0.163108
0.347146 0.541161 0.163108
0.363660 0.541161 0.163108
0.380174 0.541161 0.163108
0.398254 0.541161 0.163108
0.441873 0.541161 0.163108
0.459533 0.541161 0.163108
0.477193 0.541161 0.163108
0.494854 0.541161 0.163108
0.512514 0.541161 0.163108
0.530174 0.541161 0.163108
0.550855 0.544181 0.166029
0.576508 0.552175 0.173761
0.602162 0.560168 0.181493
0.627815 0.568161 0.189225
0.653469 0.576155 0.196957
0.679122 0.584148 0.204689
0.693392 0.588594 0.208990
0.693392 0.588594 0.208990
0.693392 0.588594 0.208990
0.693392 0.588594 0.208990
0.693392 0.588594 0.208990
0.693392 0.588594 0.208990
0.169532 0.562477 0.169532
0.188152 0.562477 0.169532
0.204947 0.562477 0.169532
0.221461 0.562477 0.169532
0.237975 0.562477 0.169532
0.254489 0.562477 0.169532
0.271002 0.562477 0.169532
0.287516 0.562477 0.169532
0.304030 0.562477 0.169532
0.320543 0.562477 0.169532
0.337057 0.562477 0.169532
0.353571 0.562477 0.169532
0.370085 0.562477 0.169532
0.386598 0.562477 0.169532
0.404678 0.562477 0.169532
0.448515 0.562477 0.169532
0.466175 0.562477 0.169532
0.483835 0.562477 0.169532
0.501495 0.562477 0.169532
0.519156 0.562477 0.169532
0.536816 0.562477 0.169532
0.554476 0.562477 0.169532
0.576508 0.566849 0.173761
0.602162 0.574842 0.181493
