docs/luts/fuji_recipes/Classic_RR_Urban_Vintage_Chrome.cube
TITLE "Fujifilm Recipe: RR Urban Vintage Chrome (Classic)"
# FilmSim=Classic HL=0 SH=2 Col=-4 WB=4300K WBR=-1 WBB=-3
LUT_3D_SIZE 9
DOMAIN_MIN 0.0 0.0 0.0
DOMAIN_MAX 1.0 1.0 1.0
0.000000 0.000000 0.000000
0.071323 0.047115 0.047115
0.141320 0.093353 0.093353
0.211316 0.139591 0.139591
0.283424 0.187224 0.187224
0.380453 0.248557 0.248557
0.454826 0.297146 0.297146
0.529199 0.345735 0.345735
0.546509 0.357044 0.357044
0.051615 0.078137 0.051615
0.075824 0.078137 0.051615
0.141320 0.119874 0.093353
0.211316 0.166112 0.139591
0.283424 0.213745 0.187224
0.380453 0.275078 0.248557
0.454826 0.323667 0.297146
0.529199 0.372256 0.345735
0.546509 0.383565 0.357044
0.101326 0.153390 0.101326
0.125534 0.153390 0.101326
0.149293 0.153390 0.101326
0.211316 0.191655 0.139591
0.283424 0.239287 0.187224
0.380453 0.300621 0.248557
0.454826 0.349210 0.297146
0.529199 0.397799 0.345735
0.546509 0.409108 0.357044
0.151036 0.228642 0.151036
0.175245 0.228642 0.151036
0.199003 0.228642 0.151036
0.222762 0.228642 0.151036
0.283424 0.264830 0.187224
0.380453 0.326163 0.248557
0.454826 0.374752 0.297146
0.529199 0.423341 0.345735
0.546509 0.434650 0.357044
0.201900 0.305642 0.201900
0.226109 0.305642 0.201900
0.249867 0.305642 0.201900
0.273626 0.305642 0.201900
0.298101 0.305642 0.201900
0.380453 0.352299 0.248557
0.454826 0.412208 0.297146
0.529199 0.461173 0.345735
0.546509 0.472569 0.357044
0.267882 0.410032 0.267882
0.292090 0.410032 0.267882
0.315849 0.410032 0.267882
0.339607 0.410032 0.267882
0.364082 0.410032 0.267882
0.399927 0.410032 0.267882
0.454826 0.439523 0.297146
0.529199 0.488488 0.345735
0.546509 0.499885 0.357044
0.320119 0.489990 0.320119
0.344328 0.489990 0.320119
0.368086 0.489990 0.320119
0.391845 0.489990 0.320119
0.416320 0.489990 0.320119
0.452569 0.489990 0.320119
0.477977 0.489990 0.320119
0.529199 0.515804 0.345735
0.546509 0.527201 0.357044
0.372357 0.569948 0.372357
0.396566 0.569948 0.372357
0.420324 0.569948 0.372357
0.444083 0.569948 0.372357
0.479803 0.569948 0.372357
0.505211 0.569948 0.372357
0.530619 0.569948 0.372357
0.556027 0.569948 0.372357
0.561941 0.569948 0.372357
0.384515 0.588558 0.384515
0.408724 0.588558 0.384515
0.432482 0.588558 0.384515
0.456241 0.588558 0.384515
0.492056 0.588558 0.384515
0.517464 0.588558 0.384515
0.542871 0.588558 0.384515
0.568279 0.588558 0.384515
0.574193 0.588558 0.384515
0.050619 0.050619 0.076628
0.074828 0.050619 0.076628
0.141320 0.093353 0.119362
0.211316 0.139591 0.165600
0.283424 0.187224 0.213233
0.380453 0.248557 0.274566
0.454826 0.297146 0.323155
0.529199 0.345735 0.371745
0.546509 0.357044 0.383053
0.051615 0.078137 0.077625
0.122939 0.125251 0.124739
0.191939 0.170493 0.169981
0.261935 0.216731 0.216219
0.334043 0.264364 0.263852
0.432028 0.326235 0.325723
0.506401 0.374824 0.374312
0.580774 0.423413 0.422901
0.598084 0.434722 0.434210
0.101326 0.153390 0.127335
0.172649 0.200504 0.174450
0.199912 0.204009 0.177954
0.261935 0.242274 0.216219
0.334043 0.289906 0.263852
0.432028 0.351778 0.325723
0.506401 0.400367 0.374312
0.580774 0.448956 0.422901
0.598084 0.460265 0.434210
0.151036 0.228642 0.177045
0.222359 0.275757 0.224160
0.249622 0.279261 0.227664
0.273381 0.279261 0.227664
0.334043 0.315449 0.263852
0.432028 0.377320 0.325723
0.506401 0.425909 0.374312
0.580774 0.474498 0.422901
0.598084 0.485807 0.434210
0.201900 0.305642 0.227910
0.273224 0.352757 0.275024
0.300486 0.356261 0.278529
0.324245 0.356261 0.278529
0.348720 0.356261 0.278529
0.432028 0.414818 0.325723
0.506401 0.463783 0.374312
0.580774 0.512748 0.422901
0.598084 0.524144 0.434210
0.267882 0.410032 0.293891
0.339705 0.458037 0.341506
0.367005 0.461607 0.345048
0.390764 0.461607 0.345048
0.415239 0.461607 0.345048
0.451502 0.461607 0.345048
0.506401 0.491098 0.374312
0.580774 0.540063 0.422901
0.598084 0.551460 0.434210
0.320119 0.489990 0.346129
0.391943 0.537995 0.393744
0.419243 0.541565 0.397286
0.443002 0.541565 0.397286
0.478737 0.541565 0.397286
0.504144 0.541565 0.397286
0.529552 0.541565 0.397286
0.580774 0.567379 0.422901
0.598084 0.578776 0.434210
0.372357 0.569948 0.398367
0.444181 0.617952 0.445982
0.471481 0.621523 0.449523
0.495239 0.621523 0.449523
0.531378 0.621523 0.449523
0.556786 0.621523 0.449523
0.582194 0.621523 0.449523
0.607602 0.621523 0.449523
0.613516 0.621523 0.449523
0.384515 0.588558 0.410525
0.456339 0.636562 0.458140
0.483639 0.640133 0.461681
0.507398 0.640133 0.461681
0.543631 0.640133 0.461681
0.569039 0.640133 0.461681
0.594446 0.640133 0.461681
0.619854 0.640133 0.461681
0.625768 0.640133 0.461681
0.098611 0.098611 0.149279
0.122819 0.098611 0.149279
0.146578 0.098611 0.149279
0.211316 0.139591 0.190260
0.283424 0.187224 0.237892
0.380453 0.248557 0.299226
0.454826 0.297146 0.347815
0.529199 0.345735 0.396404
0.546509 0.357044 0.407713
0.098611 0.125132 0.149279
0.169934 0.172246 0.196394
0.198193 0.176747 0.200895
0.262932 0.217728 0.241875
0.335039 0.265360 0.289508
0.433043 0.327242 0.351389
0.507416 0.375831 0.399978
0.581789 0.424420 0.448568
0.599099 0.435729 0.459876
0.101326 0.153390 0.151994
0.172649 0.200504 0.199109
0.242646 0.246742 0.245347
0.309927 0.290265 0.288870
0.382035 0.337898 0.336503
0.480926 0.400279 0.398884
0.555299 0.448868 0.447473
0.629672 0.497457 0.496062
0.646982 0.508766 0.507371
0.151036 0.228642 0.201705
0.222359 0.275757 0.248819
0.292356 0.321995 0.295058
0.321372 0.327253 0.300315
0.382035 0.363441 0.336503
0.480926 0.425822 0.398884
0.555299 0.474411 0.447473
0.629672 0.523000 0.496062
0.646982 0.534309 0.507371
0.201900 0.305642 0.252569
0.273224 0.352757 0.299684
0.357955 0.425191 0.360657
0.387027 0.430548 0.365971
0.411502 0.430548 0.365971
0.480926 0.463716 0.398884
0.555299 0.512681 0.447473
0.629672 0.561646 0.496062
0.646982 0.573042 0.507371
0.267882 0.410032 0.318550
0.339705 0.458037 0.366165
0.410193 0.505148 0.412895
0.439265 0.510505 0.418209
0.474993 0.510505 0.418209
0.500400 0.510505 0.418209
0.555299 0.539996 0.447473
0.629672 0.588961 0.496062
0.646982 0.600358 0.507371
0.320119 0.489990 0.370788
0.391943 0.537995 0.418403
0.462431 0.585106 0.465133
0.491503 0.590463 0.470446
0.527635 0.590463 0.470446
0.553042 0.590463 0.470446
0.578450 0.590463 0.470446
0.629672 0.616277 0.496062
0.646982 0.627674 0.507371
0.372357 0.569948 0.423026
0.444181 0.617952 0.470641
0.514669 0.665064 0.517370
0.543741 0.670421 0.522684
0.580277 0.670421 0.522684
0.605684 0.670421 0.522684
0.631092 0.670421 0.522684
0.656500 0.670421 0.522684
0.662414 0.670421 0.522684
0.384515 0.588558 0.435184
0.456339 0.636562 0.482799
0.526827 0.683674 0.529529
0.555899 0.689031 0.534842
0.592529 0.689031 0.534842
0.617937 0.689031 0.534842
0.643344 0.689031 0.534842
0.668752 0.689031 0.534842
0.674666 0.689031 0.534842
0.146602 0.146602 0.221930
0.170811 0.146602 0.221930
0.194569 0.146602 0.221930
0.218328 0.146602 0.221930
0.283424 0.187224 0.262552
0.380453 0.248557 0.323885
0.454826 0.297146 0.372474
0.529199 0.345735 0.421063
0.546509 0.357044 0.432372
0.146602 0.173124 0.221930
0.217925 0.220238 0.269045
0.246185 0.224739 0.273546
0.269943 0.224739 0.273546
0.335039 0.265360 0.314167
0.433043 0.327242 0.376049
0.507416 0.375831 0.424638
0.581789 0.424420 0.473227
0.599099 0.435729 0.484536
0.146602 0.198666 0.221930
0.217925 0.245781 0.269045
0.287922 0.292019 0.315283
0.319653 0.299992 0.323256
0.384750 0.340613 0.363877
0.483693 0.403023 0.426287
0.558066 0.451612 0.474876
0.632438 0.500201 0.523465
0.649748 0.511510 0.534774
0.151036 0.228642 0.226364
0.222359 0.275757 0.273479
0.292356 0.321995 0.319717
0.362353 0.368233 0.365955
0.430026 0.411432 0.409154
0.529824 0.474323 0.472045
0.604197 0.522912 0.520634
0.678570 0.571501 0.569223
0.695880 0.582810 0.580532
0.201900 0.305642 0.277228
0.273224 0.352757 0.324343
0.357955 0.425191 0.385316
0.428443 0.472302 0.432046
0.471249 0.479446 0.439131
0.529824 0.512614 0.472045
0.604197 0.561579 0.520634
0.678570 0.610544 0.569223
0.695880 0.621940 0.580532
0.267882 0.410032 0.343210
0.339705 0.458037 0.390825
0.410193 0.505148 0.437554
0.480681 0.552260 0.484284
0.523891 0.559403 0.491369
0.549298 0.559403 0.491369
0.604197 0.588894 0.520634
0.678570 0.637859 0.569223
0.695880 0.649256 0.580532
0.320119 0.489990 0.395447
0.391943 0.537995 0.443063
0.462431 0.585106 0.489792
0.532919 0.632218 0.536521
0.576533 0.639361 0.543607
0.601940 0.639361 0.543607
0.627348 0.639361 0.543607
0.678570 0.665175 0.569223
0.695880 0.676572 0.580532
0.372357 0.569948 0.447685
0.444181 0.617952 0.495300
0.514669 0.665064 0.542030
0.585157 0.712175 0.588759
0.629175 0.719319 0.595845
0.654582 0.719319 0.595845
0.679990 0.719319 0.595845
0.705398 0.719319 0.595845
0.711312 0.719319 0.595845
0.384515 0.588558 0.459843
0.456339 0.636562 0.507459
0.526827 0.683674 0.554188
0.597315 0.730785 0.600917
0.641427 0.737929 0.608003
0.666835 0.737929 0.608003
0.692242 0.737929 0.608003
0.717650 0.737929 0.608003
0.723564 0.737929 0.608003
0.195847 0.195847 0.296478
0.220056 0.195847 0.296478
0.243814 0.195847 0.296478
0.267572 0.195847 0.296478
0.292047 0.195847 0.296478
0.380453 0.248557 0.349188
0.454826 0.297146 0.397777
0.529199 0.345735 0.457792
0.546509 0.357044 0.469188
0.195847 0.222368 0.296478
0.267170 0.269483 0.343593
0.295429 0.273984 0.348094
0.319188 0.273984 0.348094
0.343663 0.273984 0.348094
0.433043 0.327242 0.401352
0.507416 0.375831 0.461417
0.581789 0.424420 0.510382
0.599099 0.435729 0.521778
0.195847 0.247911 0.296478
0.267170 0.295025 0.343593
0.337167 0.341264 0.389831
0.383306 0.363644 0.423418
0.407781 0.363644 0.423418
0.483693 0.403023 0.463101
0.558066 0.451612 0.512066
0.632438 0.500201 0.561031
0.649748 0.511510 0.572428
0.195847 0.273453 0.296478
0.267170 0.320568 0.343593
0.337167 0.366806 0.389831
0.421978 0.427858 0.462406
0.469251 0.439425 0.474067
0.534342 0.478804 0.513750
0.608715 0.527393 0.562715
0.683088 0.575982 0.611680
0.700398 0.587291 0.623077
0.201900 0.305642 0.302532
0.273224 0.352757 0.349646
0.357955 0.425191 0.410620
0.428443 0.472302 0.468921
0.527526 0.535724 0.532343
0.595803 0.578592 0.575211
0.670659 0.628040 0.624659
0.745515 0.677489 0.674108
0.762937 0.688998 0.685617
0.267882 0.410032 0.368513
0.339705 0.458037 0.427340
0.410193 0.505148 0.474452
0.480681 0.552260 0.521563
0.580688 0.616201 0.585504
0.615469 0.625574 0.594877
0.670659 0.655356 0.624659
0.745515 0.704804 0.674108
0.762937 0.716313 0.685617
0.320119 0.489990 0.431978
0.391943 0.537995 0.479982
0.462431 0.585106 0.527094
0.532919 0.632218 0.574205
0.633850 0.696678 0.638666
0.668631 0.706051 0.648039
0.694038 0.706051 0.648039
0.745515 0.732120 0.674108
0.762937 0.743629 0.685617
0.372357 0.569948 0.484620
0.444181 0.617952 0.532624
0.514669 0.665064 0.579736
0.585157 0.712175 0.626847
0.687011 0.777156 0.691827
0.721792 0.786529 0.701201
0.747200 0.786529 0.701201
0.772608 0.786529 0.701201
0.778521 0.786529 0.701201
0.384515 0.588558 0.496872
0.456339 0.636562 0.544876
0.526827 0.683674 0.591988
0.597315 0.730785 0.639099
0.699384 0.795886 0.704200
0.734165 0.805260 0.713574
0.759573 0.805260 0.713574
0.784981 0.805260 0.713574
0.790894 0.805260 0.713574
0.259610 0.259610 0.397372
0.283819 0.259610 0.397372
0.307577 0.259610 0.397372
0.331335 0.259610 0.397372
0.355810 0.259610 0.397372
0.391592 0.259610 0.397372
0.454826 0.297146 0.435198
0.529199 0.345735 0.484163
0.546509 0.357044 0.495559
0.259610 0.286131 0.397372
0.331434 0.333746 0.445376
0.359741 0.338295 0.449962
0.383499 0.338295 0.449962
0.407974 0.338295 0.449962
0.444182 0.338295 0.449962
0.507416 0.375831 0.487788
0.581789 0.424420 0.536753
0.599099 0.435729 0.548150
0.259610 0.311674 0.397372
0.331434 0.359289 0.445376
0.401922 0.406018 0.492487
0.433738 0.414076 0.500611
0.469423 0.414076 0.500611
0.494831 0.414076 0.500611
0.558066 0.451612 0.538437
0.632438 0.500201 0.587402
0.649748 0.511510 0.598799
0.259610 0.337216 0.397372
0.331434 0.384831 0.445376
0.401922 0.431561 0.492487
0.472409 0.478290 0.539599
0.520073 0.489857 0.551260
0.545480 0.489857 0.551260
0.608715 0.527393 0.589087
0.683088 0.575982 0.638052
0.700398 0.587291 0.649448
0.259610 0.363352 0.397372
0.331434 0.422385 0.445376
0.401922 0.469497 0.492487
0.472409 0.516608 0.539599
0.572270 0.580467 0.603458
0.613631 0.596420 0.619411
0.677239 0.634620 0.657611
0.752095 0.684068 0.707059
0.769517 0.695577 0.718568
0.267882 0.410032 0.405707
0.339705 0.458037 0.453711
0.410193 0.505148 0.500823
0.480681 0.552260 0.547934
0.580688 0.616201 0.611876
0.655544 0.665649 0.661324
0.721982 0.706680 0.702354
0.796838 0.756128 0.751803
0.814261 0.767637 0.763311
0.320119 0.489990 0.458349
0.391943 0.537995 0.506353
0.462431 0.585106 0.553465
0.532919 0.632218 0.600576
0.633850 0.696678 0.665037
0.708706 0.746126 0.714485
0.745362 0.757375 0.725734
0.796838 0.783444 0.751803
0.814261 0.794953 0.763311
0.372357 0.569948 0.510991
0.444181 0.617952 0.558995
0.514669 0.665064 0.606107
0.585157 0.712175 0.653218
0.687011 0.777156 0.718199
0.761867 0.826604 0.767647
0.798523 0.837852 0.778895
0.823931 0.837852 0.778895
0.829845 0.837852 0.778895
0.384515 0.588558 0.523243
0.456339 0.636562 0.571248
0.526827 0.683674 0.618359
0.597315 0.730785 0.665471
0.699384 0.795886 0.730572
0.774240 0.845335 0.780020
0.810897 0.856583 0.791268
0.836304 0.856583 0.791268
0.842218 0.856583 0.791268
0.310042 0.310042 0.474565
0.334250 0.310042 0.474565
0.358009 0.310042 0.474565
0.381767 0.310042 0.474565
0.406242 0.310042 0.474565
0.442414 0.310042 0.474565
0.467821 0.310042 0.474565
0.529199 0.345735 0.510534
0.546509 0.357044 0.521931
0.310042 0.336563 0.474565
0.381865 0.384178 0.522569
0.410172 0.388727 0.527155
0.433931 0.388727 0.527155
0.458406 0.388727 0.527155
0.495004 0.388727 0.527155
0.520412 0.388727 0.527155
0.581789 0.424420 0.563125
0.599099 0.435729 0.574521
0.310042 0.362105 0.474565
0.381865 0.409721 0.522569
0.452353 0.456450 0.569681
0.484169 0.464508 0.577804
0.520245 0.464508 0.577804
0.545653 0.464508 0.577804
0.571061 0.464508 0.577804
0.632438 0.500201 0.613774
0.649748 0.511510 0.625170
0.310042 0.387648 0.474565
0.381865 0.435263 0.522569
0.452353 0.481992 0.569681
0.522841 0.528722 0.616792
0.570894 0.540289 0.628453
0.596302 0.540289 0.628453
0.621710 0.540289 0.628453
0.683088 0.575982 0.664423
0.700398 0.587291 0.675819
0.310042 0.425203 0.474565
0.381865 0.473207 0.522569
0.452353 0.520319 0.569681
0.522841 0.567430 0.616792
0.623594 0.631791 0.681152
0.664954 0.647744 0.697105
0.690362 0.647744 0.697105
0.752095 0.684068 0.733430
0.769517 0.695577 0.744939
0.310042 0.452519 0.474565
0.381865 0.500523 0.522569
0.452353 0.547635 0.569681
0.522841 0.594746 0.616792
0.623594 0.659106 0.681152
0.698450 0.708555 0.730601
0.743524 0.728221 0.750267
0.805256 0.764546 0.786592
0.822679 0.776055 0.798101
0.320119 0.489990 0.484720
0.391943 0.537995 0.532725
0.462431 0.585106 0.579836
0.532919 0.632218 0.626948
0.633850 0.696678 0.691408
0.708706 0.746126 0.740857
0.783562 0.795575 0.790305
0.848162 0.834767 0.829497
0.865584 0.846276 0.841006
0.372357 0.569948 0.537362
0.444181 0.617952 0.585367
0.514669 0.665064 0.632478
0.585157 0.712175 0.679590
0.687011 0.777156 0.744570
0.761867 0.826604 0.794018
0.836723 0.876052 0.843467
0.875255 0.889176 0.856590
0.881168 0.889176 0.856590
0.384515 0.588558 0.549615
0.456339 0.636562 0.597619
0.526827 0.683674 0.644730
0.597315 0.730785 0.691842
0.699384 0.795886 0.756943
0.774240 0.845335 0.806391
0.849096 0.894783 0.855840
0.887628 0.907906 0.868963
0.893541 0.907906 0.868963
0.352869 0.352869 0.540119
0.377078 0.352869 0.540119
0.400836 0.352869 0.540119
0.424595 0.352869 0.540119
0.449070 0.352869 0.540119
0.485573 0.352869 0.540119
0.510980 0.352869 0.540119
0.536388 0.352869 0.540119
0.546509 0.357044 0.544326
0.352869 0.379391 0.540119
0.424693 0.427006 0.588123
0.453000 0.431554 0.592709
0.476758 0.431554 0.592709
0.512755 0.431554 0.592709
0.538163 0.431554 0.592709
0.563571 0.431554 0.592709
0.588978 0.431554 0.592709
0.599099 0.435729 0.596916
0.352869 0.404933 0.540119
0.424693 0.452548 0.588123
0.495181 0.499278 0.635235
0.526997 0.507335 0.643358
0.563404 0.507335 0.643358
0.588812 0.507335 0.643358
0.614220 0.507335 0.643358
0.639628 0.507335 0.643358
0.649748 0.511510 0.647565
0.352869 0.430476 0.540119
0.424693 0.478091 0.588123
0.495181 0.524820 0.635235
0.565669 0.571550 0.682346
0.614053 0.583116 0.694007
0.639461 0.583116 0.694007
0.664869 0.583116 0.694007
0.690277 0.583116 0.694007
0.700398 0.587291 0.698215
0.352869 0.468362 0.540119
0.424693 0.516366 0.588123
0.495181 0.563478 0.635235
0.565669 0.610589 0.682346
0.667179 0.675376 0.747133
0.708539 0.691329 0.763086
0.733947 0.691329 0.763086
0.759355 0.691329 0.763086
0.769517 0.695577 0.767334
0.352869 0.495678 0.540119
0.424693 0.543682 0.588123
0.495181 0.590794 0.635235
0.565669 0.637905 0.682346
0.667179 0.702691 0.747133
0.742035 0.752140 0.796581
0.787109 0.771806 0.816247
0.812517 0.771806 0.816247
0.822679 0.776055 0.820496
0.352869 0.522993 0.540119
0.424693 0.570998 0.588123
0.495181 0.618109 0.635235
0.565669 0.665221 0.682346
0.667179 0.730007 0.747133
0.742035 0.779456 0.796581
0.816891 0.828904 0.846029
0.865678 0.852283 0.869409
0.875840 0.856532 0.873657
0.372357 0.569948 0.559757
0.444181 0.617952 0.607762
0.514669 0.665064 0.654873
0.585157 0.712175 0.701985
0.687011 0.777156 0.766965
0.761867 0.826604 0.816413
0.836723 0.876052 0.865862
0.911579 0.925500 0.915310
0.924753 0.932761 0.922570
0.384515 0.588558 0.572010
0.456339 0.636562 0.620014
0.526827 0.683674 0.667126
0.597315 0.730785 0.714237
0.699384 0.795886 0.779338
0.774240 0.845335 0.828786
0.849096 0.894783 0.878235
0.923953 0.944231 0.927683
0.937126 0.951491 0.934943
0.352869 0.352869 0.540119
0.377078 0.352869 0.540119
0.400836 0.352869 0.540119
0.424595 0.352869 0.540119
0.449070 0.352869 0.540119
0.485573 0.352869 0.540119
0.510980 0.352869 0.540119
0.536388 0.352869 0.540119
0.546509 0.357044 0.544326
0.352869 0.379391 0.540119
0.424693 0.427006 0.588123
0.453000 0.431554 0.592709
0.476758 0.431554 0.592709
0.512755 0.431554 0.592709
0.538163 0.431554 0.592709
0.563571 0.431554 0.592709
0.588978 0.431554 0.592709
0.599099 0.435729 0.596916
0.352869 0.404933 0.540119
0.424693 0.452548 0.588123
0.495181 0.499278 0.635235
0.526997 0.507335 0.643358
0.563404 0.507335 0.643358
0.588812 0.507335 0.643358
0.614220 0.507335 0.643358
0.639628 0.507335 0.643358
0.649748 0.511510 0.647565
0.352869 0.430476 0.540119
0.424693 0.478091 0.588123
0.495181 0.524820 0.635235
0.565669 0.571550 0.682346
0.614053 0.583116 0.694007
0.639461 0.583116 0.694007
0.664869 0.583116 0.694007
0.690277 0.583116 0.694007
0.700398 0.587291 0.698215
0.352869 0.468362 0.540119
0.424693 0.516366 0.588123
0.495181 0.563478 0.635235
0.565669 0.610589 0.682346
0.667179 0.675376 0.747133
0.708539 0.691329 0.763086
0.733947 0.691329 0.763086
0.759355 0.691329 0.763086
0.769517 0.695577 0.767334
0.352869 0.495678 0.540119
0.424693 0.543682 0.588123
0.495181 0.590794 0.635235
0.565669 0.637905 0.682346
0.667179 0.702691 0.747133
0.742035 0.752140 0.796581
0.787109 0.771806 0.816247
0.812517 0.771806 0.816247
0.822679 0.776055 0.820496
0.352869 0.522993 0.540119
0.424693 0.570998 0.588123
0.495181 0.618109 0.635235
0.565669 0.665221 0.682346
0.667179 0.730007 0.747133
0.742035 0.779456 0.796581
0.816891 0.828904 0.846029
0.865678 0.852283 0.869409
0.875840 0.856532 0.873657
0.372357 0.569948 0.559757
0.444181 0.617952 0.607762
0.514669 0.665064 0.654873
0.585157 0.712175 0.701985
0.687011 0.777156 0.766965
0.761867 0.826604 0.816413
0.836723 0.876052 0.865862
0.911579 0.925500 0.915310
0.924753 0.932761 0.922570
0.384515 0.588558 0.572010
0.456339 0.636562 0.620014
0.526827 0.683674 0.667126
0.597315 0.730785 0.714237
0.699384 0.795886 0.779338
0.774240 0.845335 0.828786
0.849096 0.894783 0.878235
0.923953 0.944231 0.927683
0.937126 0.951491 0.934943
