docs/luts/fuji_recipes/Classic_LC_Color.cube
TITLE "Fujifilm Recipe: LC Color (Classic)"
# FilmSim=Classic HL=1 SH=0 Col=3 WB=Auto WBR=4 WBB=-4
LUT_3D_SIZE 5
DOMAIN_MIN 0.0 0.0 0.0
DOMAIN_MAX 1.0 1.0 1.0
0.000000 0.000000 0.000000
0.242545 0.000000 0.000000
0.490545 0.000000 0.000000
0.744191 0.000000 0.000000
0.996634 0.000000 0.000000
0.011398 0.219346 0.000000
0.242545 0.207534 0.000000
0.490545 0.206062 0.000000
0.744191 0.205214 0.000000
0.996634 0.218212 0.000000
0.023064 0.443859 0.000000
0.269145 0.443859 0.000000
0.490545 0.419960 0.000000
0.744191 0.416588 0.000000
0.996634 0.414805 0.000000
0.034958 0.672759 0.000000
0.282055 0.672759 0.000000
0.528914 0.672759 0.000000
0.744191 0.636357 0.000000
0.996634 0.633915 0.000000
0.046833 0.901294 0.000000
0.293962 0.901294 0.000000
0.542404 0.901294 0.000000
0.795033 0.901294 0.000000
0.996634 0.852755 0.000000
0.000000 0.010146 0.195255
0.242545 0.000000 0.206121
0.490545 0.000000 0.207171
0.744191 0.000000 0.194717
0.996634 0.000000 0.194246
0.000000 0.219346 0.195255
0.245481 0.217779 0.192318
0.508883 0.204000 0.176917
0.780774 0.186809 0.159726
1.000000 0.217006 0.192943
0.000000 0.443859 0.180515
0.248874 0.459297 0.179817
0.508883 0.441026 0.176917
0.780774 0.422289 0.159726
1.000000 0.425923 0.192943
0.000000 0.672759 0.167585
0.247386 0.704410 0.164659
0.528774 0.704410 0.164659
0.780774 0.670608 0.159726
1.000000 0.646473 0.192943
0.000000 0.901294 0.154805
0.245170 0.948726 0.148878
0.528934 0.948726 0.148878
0.817159 0.948726 0.148878
1.000000 0.865661 0.192943
0.000000 0.020556 0.395606
0.218975 0.000000 0.395606
0.490545 0.000000 0.417611
0.744191 0.000000 0.418051
0.996634 0.000000 0.417590
0.000000 0.230023 0.395606
0.223465 0.208400 0.406551
0.507387 0.202504 0.412167
0.779443 0.185278 0.395628
1.000000 0.217164 0.393142
0.000000 0.443859 0.395606
0.230043 0.456360 0.402114
0.496441 0.440706 0.389710
0.769706 0.426473 0.372227
1.000000 0.442900 0.394376
0.000000 0.672759 0.378000
0.214816 0.701798 0.368579
0.502706 0.693342 0.377159
0.769706 0.671312 0.372227
1.000000 0.659289 0.394376
0.000000 0.901294 0.363791
0.199035 0.946113 0.338764
0.502818 0.937658 0.361378
0.794001 0.937658 0.361378
1.000000 0.876652 0.394376
0.000000 0.031127 0.599047
0.206676 0.000000 0.599047
0.456371 0.000000 0.599047
0.744191 0.000000 0.632014
0.996634 0.000000 0.634239
0.000000 0.241399 0.599047
0.198317 0.195300 0.624277
0.475069 0.195300 0.624277
0.779443 0.185278 0.639932
1.000000 0.217164 0.624046
0.000000 0.443666 0.599047
0.219906 0.456944 0.622995
0.475455 0.433428 0.611874
0.767040 0.423406 0.613748
1.000000 0.443553 0.603105
0.000000 0.672759 0.598791
0.214816 0.701798 0.618498
0.478604 0.687939 0.599555
0.757240 0.671527 0.593217
1.000000 0.677596 0.604218
0.000000 0.901294 0.580195
0.199035 0.946113 0.583903
0.464338 0.931932 0.570944
0.767922 0.924970 0.583410
1.000000 0.888123 0.604218
0.000000 0.041724 0.802986
0.194570 0.000000 0.802986
0.440985 0.000000 0.802986
0.700638 0.000000 0.802986
0.996634 0.000000 0.847658
0.000000 0.251854 0.802986
0.181218 0.190278 0.842299
0.446468 0.181218 0.842299
0.739611 0.181218 0.842299
1.000000 0.217164 0.838926
0.000000 0.464161 0.802986
0.205824 0.455929 0.841017
0.450573 0.419346 0.829896
0.740348 0.419346 0.829896
1.000000 0.443553 0.827771
0.000000 0.672532 0.802986
0.205824 0.693852 0.841017
0.470474 0.688771 0.826975
0.740150 0.668246 0.815411
1.000000 0.678315 0.815551
0.000000 0.901294 0.802910
0.199035 0.946113 0.835019
0.464338 0.931932 0.820838
0.738372 0.915910 0.798324
1.000000 0.900270 0.809222
