docs/luts/fuji_recipes/Classic_JC_Chrome_Urban.cube
TITLE "Fujifilm Recipe: JC Chrome Urban (Classic)"
# FilmSim=Classic HL=0 SH=2 Col=3 WB=Auto WBR=1 WBB=0
LUT_3D_SIZE 33
DOMAIN_MIN 0.0 0.0 0.0
DOMAIN_MAX 1.0 1.0 1.0
0.000000 0.000000 0.000000
0.029233 0.000000 0.000000
0.058466 0.000000 0.000000
0.087699 0.000000 0.000000
0.116932 0.000000 0.000000
0.146165 0.000000 0.000000
0.175398 0.000000 0.000000
0.204631 0.000000 0.000000
0.233864 0.000000 0.000000
0.263097 0.000000 0.000000
0.292330 0.000000 0.000000
0.321563 0.000000 0.000000
0.350796 0.000000 0.000000
0.380029 0.000000 0.000000
0.409262 0.000000 0.000000
0.438495 0.000000 0.000000
0.471224 0.000000 0.000000
0.499985 0.000000 0.000000
0.528747 0.000000 0.000000
0.599443 0.000000 0.000000
0.630368 0.000000 0.000000
0.661293 0.000000 0.000000
0.692217 0.000000 0.000000
0.723142 0.000000 0.000000
0.754067 0.000000 0.000000
0.784992 0.000000 0.000000
0.815917 0.000000 0.000000
0.846842 0.000000 0.000000
0.877767 0.000000 0.000000
0.908691 0.000000 0.000000
0.939616 0.000000 0.000000
0.970541 0.000000 0.000000
0.977330 0.000000 0.000000
0.000000 0.028235 0.000000
0.029233 0.028235 0.000000
0.058466 0.028235 0.000000
0.087699 0.028235 0.000000
0.116932 0.028235 0.000000
0.146165 0.028235 0.000000
0.175398 0.028235 0.000000
0.204631 0.028235 0.000000
0.233864 0.028235 0.000000
0.263097 0.028235 0.000000
0.292330 0.028235 0.000000
0.321563 0.028235 0.000000
0.350796 0.028235 0.000000
0.380029 0.028235 0.000000
0.409262 0.028235 0.000000
0.438495 0.028235 0.000000
0.471224 0.028235 0.000000
0.499985 0.028235 0.000000
0.528747 0.028235 0.000000
0.599443 0.027523 0.000000
0.630368 0.027523 0.000000
0.661293 0.027523 0.000000
0.692217 0.027523 0.000000
0.723142 0.027523 0.000000
0.754067 0.027523 0.000000
0.784992 0.027523 0.000000
0.815917 0.027523 0.000000
0.846842 0.027523 0.000000
0.877767 0.027523 0.000000
0.908691 0.027523 0.000000
0.939616 0.027523 0.000000
0.970541 0.027523 0.000000
0.977330 0.027523 0.000000
0.000000 0.056592 0.000000
0.029233 0.056592 0.000000
0.058466 0.056592 0.000000
0.087699 0.056592 0.000000
0.116932 0.056592 0.000000
0.146165 0.056592 0.000000
0.175398 0.056592 0.000000
0.204631 0.056592 0.000000
0.233864 0.056592 0.000000
0.263097 0.056592 0.000000
0.292330 0.056592 0.000000
0.321563 0.056592 0.000000
0.350796 0.056592 0.000000
0.380029 0.056592 0.000000
0.409262 0.056592 0.000000
0.438495 0.056592 0.000000
0.471224 0.056592 0.000000
0.499985 0.056592 0.000000
0.528747 0.056592 0.000000
0.599443 0.055165 0.000000
0.630368 0.055165 0.000000
0.661293 0.055165 0.000000
0.692217 0.055165 0.000000
0.723142 0.055165 0.000000
0.754067 0.055165 0.000000
0.784992 0.055165 0.000000
0.815917 0.055165 0.000000
0.846842 0.055165 0.000000
0.877767 0.055165 0.000000
0.908691 0.055165 0.000000
0.939616 0.055165 0.000000
0.970541 0.055165 0.000000
0.977330 0.055165 0.000000
0.000000 0.084993 0.000000
0.029233 0.084993 0.000000
0.058466 0.084993 0.000000
0.087699 0.084993 0.000000
0.116932 0.084993 0.000000
0.146165 0.084993 0.000000
0.175398 0.084993 0.000000
0.204631 0.084993 0.000000
0.233864 0.084993 0.000000
0.263097 0.084993 0.000000
0.292330 0.084993 0.000000
0.321563 0.084993 0.000000
0.350796 0.084993 0.000000
0.380029 0.084993 0.000000
0.409262 0.084993 0.000000
0.438495 0.084993 0.000000
0.471224 0.084993 0.000000
0.499985 0.084993 0.000000
0.528747 0.084993 0.000000
0.599443 0.082849 0.000000
0.630368 0.082849 0.000000
0.661293 0.082849 0.000000
0.692217 0.082849 0.000000
0.723142 0.082849 0.000000
0.754067 0.082849 0.000000
0.784992 0.082849 0.000000
0.815917 0.082849 0.000000
0.846842 0.082849 0.000000
0.877767 0.082849 0.000000
0.908691 0.082849 0.000000
0.939616 0.082849 0.000000
0.970541 0.082849 0.000000
0.977330 0.082849 0.000000
0.000000 0.113394 0.000000
0.029233 0.113394 0.000000
0.058466 0.113394 0.000000
0.087699 0.113394 0.000000
0.116932 0.113394 0.000000
0.146165 0.113394 0.000000
0.175398 0.113394 0.000000
0.204631 0.113394 0.000000
0.233864 0.113394 0.000000
0.263097 0.113394 0.000000
0.292330 0.113394 0.000000
0.321563 0.113394 0.000000
0.350796 0.113394 0.000000
0.380029 0.113394 0.000000
0.409262 0.113394 0.000000
0.438495 0.113394 0.000000
0.471224 0.113394 0.000000
0.499985 0.113394 0.000000
0.528747 0.113394 0.000000
0.599443 0.110534 0.000000
0.630368 0.110534 0.000000
0.661293 0.110534 0.000000
0.692217 0.110534 0.000000
0.723142 0.110534 0.000000
0.754067 0.110534 0.000000
0.784992 0.110534 0.000000
0.815917 0.110534 0.000000
0.846842 0.110534 0.000000
0.877767 0.110534 0.000000
0.908691 0.110534 0.000000
0.939616 0.110534 0.000000
0.970541 0.110534 0.000000
0.977330 0.110534 0.000000
0.000000 0.141794 0.000000
0.029233 0.141794 0.000000
0.058466 0.141794 0.000000
0.087699 0.141794 0.000000
0.116932 0.141794 0.000000
0.146165 0.141794 0.000000
0.175398 0.141794 0.000000
0.204631 0.141794 0.000000
0.233864 0.141794 0.000000
0.263097 0.141794 0.000000
0.292330 0.141794 0.000000
0.321563 0.141794 0.000000
0.350796 0.141794 0.000000
0.380029 0.141794 0.000000
0.409262 0.141794 0.000000
0.438495 0.141794 0.000000
0.471224 0.141794 0.000000
0.499985 0.141794 0.000000
0.528747 0.141794 0.000000
0.599443 0.138218 0.000000
0.630368 0.138218 0.000000
0.661293 0.138218 0.000000
0.692217 0.138218 0.000000
0.723142 0.138218 0.000000
0.754067 0.138218 0.000000
0.784992 0.138218 0.000000
0.815917 0.138218 0.000000
0.846842 0.138218 0.000000
0.877767 0.138218 0.000000
0.908691 0.138218 0.000000
0.939616 0.138218 0.000000
0.970541 0.138218 0.000000
0.977330 0.138218 0.000000
0.000000 0.170195 0.000000
0.029233 0.170195 0.000000
0.058466 0.170195 0.000000
0.087699 0.170195 0.000000
0.116932 0.170195 0.000000
0.146165 0.170195 0.000000
0.175398 0.170195 0.000000
0.204631 0.170195 0.000000
0.233864 0.170195 0.000000
0.263097 0.170195 0.000000
0.292330 0.170195 0.000000
0.321563 0.170195 0.000000
0.350796 0.170195 0.000000
0.380029 0.170195 0.000000
0.409262 0.170195 0.000000
0.438495 0.170195 0.000000
0.471224 0.170195 0.000000
0.499985 0.170195 0.000000
0.528747 0.170195 0.000000
0.599443 0.165903 0.000000
0.630368 0.165903 0.000000
0.661293 0.165903 0.000000
0.692217 0.165903 0.000000
0.723142 0.165903 0.000000
0.754067 0.165903 0.000000
0.784992 0.165903 0.000000
0.815917 0.165903 0.000000
0.846842 0.165903 0.000000
0.877767 0.165903 0.000000
0.908691 0.165903 0.000000
0.939616 0.165903 0.000000
0.970541 0.165903 0.000000
0.977330 0.165903 0.000000
0.000000 0.198596 0.000000
0.029233 0.198596 0.000000
0.058466 0.198596 0.000000
0.087699 0.198596 0.000000
0.116932 0.198596 0.000000
0.146165 0.198596 0.000000
0.175398 0.198596 0.000000
0.204631 0.198596 0.000000
0.233864 0.198596 0.000000
0.263097 0.198596 0.000000
0.292330 0.198596 0.000000
0.321563 0.198596 0.000000
0.350796 0.198596 0.000000
0.380029 0.198596 0.000000
0.409262 0.198596 0.000000
0.438495 0.198596 0.000000
0.471224 0.198596 0.000000
0.499985 0.198596 0.000000
0.528747 0.198596 0.000000
0.599443 0.193587 0.000000
0.630368 0.193587 0.000000
0.661293 0.193587 0.000000
0.692217 0.193587 0.000000
0.723142 0.193587 0.000000
0.754067 0.193587 0.000000
0.784992 0.193587 0.000000
0.815917 0.193587 0.000000
0.846842 0.193587 0.000000
0.877767 0.193587 0.000000
0.908691 0.193587 0.000000
0.939616 0.193587 0.000000
0.970541 0.193587 0.000000
0.977330 0.193587 0.000000
0.000000 0.226997 0.000000
0.029233 0.226997 0.000000
0.058466 0.226997 0.000000
0.087699 0.226997 0.000000
0.116932 0.226997 0.000000
0.146165 0.226997 0.000000
0.175398 0.226997 0.000000
0.204631 0.226997 0.000000
0.233864 0.226997 0.000000
0.263097 0.226997 0.000000
0.292330 0.226997 0.000000
0.321563 0.226997 0.000000
0.350796 0.226997 0.000000
0.380029 0.226997 0.000000
0.409262 0.226997 0.000000
0.438495 0.226997 0.000000
0.471224 0.226997 0.000000
0.499985 0.226997 0.000000
0.528747 0.226997 0.000000
0.599443 0.221272 0.000000
0.630368 0.221272 0.000000
0.661293 0.221272 0.000000
0.692217 0.221272 0.000000
0.723142 0.221272 0.000000
0.754067 0.221272 0.000000
0.784992 0.221272 0.000000
0.815917 0.221272 0.000000
0.846842 0.221272 0.000000
0.877767 0.221272 0.000000
0.908691 0.221272 0.000000
0.939616 0.221272 0.000000
0.970541 0.221272 0.000000
0.977330 0.221272 0.000000
0.000000 0.255398 0.000000
0.029233 0.255398 0.000000
0.058466 0.255398 0.000000
0.087699 0.255398 0.000000
0.116932 0.255398 0.000000
0.146165 0.255398 0.000000
0.175398 0.255398 0.000000
0.204631 0.255398 0.000000
0.233864 0.255398 0.000000
0.263097 0.255398 0.000000
0.292330 0.255398 0.000000
0.321563 0.255398 0.000000
0.350796 0.255398 0.000000
0.380029 0.255398 0.000000
0.409262 0.255398 0.000000
0.438495 0.255398 0.000000
0.471224 0.255398 0.000000
0.499985 0.255398 0.000000
0.528747 0.255398 0.000000
0.599443 0.248956 0.000000
0.630368 0.248956 0.000000
0.661293 0.248956 0.000000
0.692217 0.248956 0.000000
0.723142 0.248956 0.000000
0.754067 0.248956 0.000000
0.784992 0.248956 0.000000
0.815917 0.248956 0.000000
0.846842 0.248956 0.000000
0.877767 0.248956 0.000000
0.908691 0.248956 0.000000
0.939616 0.248956 0.000000
0.970541 0.248956 0.000000
0.977330 0.248956 0.000000
0.000000 0.283798 0.000000
0.029233 0.283798 0.000000
0.058466 0.283798 0.000000
0.087699 0.283798 0.000000
0.116932 0.283798 0.000000
0.146165 0.283798 0.000000
0.175398 0.283798 0.000000
0.204631 0.283798 0.000000
0.233864 0.283798 0.000000
0.263097 0.283798 0.000000
0.292330 0.283798 0.000000
0.321563 0.283798 0.000000
0.350796 0.283798 0.000000
0.380029 0.283798 0.000000
0.409262 0.283798 0.000000
0.438495 0.283798 0.000000
0.471224 0.283798 0.000000
0.499985 0.283798 0.000000
0.528747 0.283798 0.000000
0.599443 0.276641 0.000000
0.630368 0.276641 0.000000
0.661293 0.276641 0.000000
0.692217 0.276641 0.000000
0.723142 0.276641 0.000000
0.754067 0.276641 0.000000
0.784992 0.276641 0.000000
0.815917 0.276641 0.000000
0.846842 0.276641 0.000000
0.877767 0.276641 0.000000
0.908691 0.276641 0.000000
0.939616 0.276641 0.000000
0.970541 0.276641 0.000000
0.977330 0.276641 0.000000
0.000000 0.312199 0.000000
0.029233 0.312199 0.000000
0.058466 0.312199 0.000000
0.087699 0.312199 0.000000
0.116932 0.312199 0.000000
0.146165 0.312199 0.000000
0.175398 0.312199 0.000000
0.204631 0.312199 0.000000
0.233864 0.312199 0.000000
0.263097 0.312199 0.000000
0.292330 0.312199 0.000000
0.321563 0.312199 0.000000
0.350796 0.312199 0.000000
0.380029 0.312199 0.000000
0.409262 0.312199 0.000000
0.438495 0.312199 0.000000
0.471224 0.312199 0.000000
0.499985 0.312199 0.000000
0.528747 0.312199 0.000000
0.599443 0.304325 0.000000
0.630368 0.304325 0.000000
0.661293 0.304325 0.000000
0.692217 0.304325 0.000000
0.723142 0.304325 0.000000
0.754067 0.304325 0.000000
0.784992 0.304325 0.000000
0.815917 0.304325 0.000000
0.846842 0.304325 0.000000
0.877767 0.304325 0.000000
0.908691 0.304325 0.000000
0.939616 0.304325 0.000000
0.970541 0.304325 0.000000
0.977330 0.304325 0.000000
0.000000 0.340600 0.000000
0.029233 0.340600 0.000000
0.058466 0.340600 0.000000
0.087699 0.340600 0.000000
0.116932 0.340600 0.000000
0.146165 0.340600 0.000000
0.175398 0.340600 0.000000
0.204631 0.340600 0.000000
0.233864 0.340600 0.000000
0.263097 0.340600 0.000000
0.292330 0.340600 0.000000
0.321563 0.340600 0.000000
0.350796 0.340600 0.000000
0.380029 0.340600 0.000000
0.409262 0.340600 0.000000
0.438495 0.340600 0.000000
0.471224 0.340600 0.000000
0.499985 0.340600 0.000000
0.528747 0.340600 0.000000
0.599443 0.332010 0.000000
0.630368 0.332010 0.000000
0.661293 0.332010 0.000000
0.692217 0.332010 0.000000
0.723142 0.332010 0.000000
0.754067 0.332010 0.000000
0.784992 0.332010 0.000000
0.815917 0.332010 0.000000
0.846842 0.332010 0.000000
0.877767 0.332010 0.000000
0.908691 0.332010 0.000000
0.939616 0.332010 0.000000
0.970541 0.332010 0.000000
0.977330 0.332010 0.000000
0.000000 0.369001 0.000000
0.029233 0.369001 0.000000
0.058466 0.369001 0.000000
0.087699 0.369001 0.000000
0.116932 0.369001 0.000000
0.146165 0.369001 0.000000
0.175398 0.369001 0.000000
0.204631 0.369001 0.000000
0.233864 0.369001 0.000000
0.263097 0.369001 0.000000
0.292330 0.369001 0.000000
0.321563 0.369001 0.000000
0.350796 0.369001 0.000000
0.380029 0.369001 0.000000
0.409262 0.369001 0.000000
0.438495 0.369001 0.000000
0.471224 0.369001 0.000000
0.499985 0.369001 0.000000
0.528747 0.369001 0.000000
0.599443 0.359694 0.000000
0.630368 0.359694 0.000000
0.661293 0.359694 0.000000
0.692217 0.359694 0.000000
0.723142 0.359694 0.000000
0.754067 0.359694 0.000000
0.784992 0.359694 0.000000
0.815917 0.359694 0.000000
0.846842 0.359694 0.000000
0.877767 0.359694 0.000000
0.908691 0.359694 0.000000
0.939616 0.359694 0.000000
0.970541 0.359694 0.000000
0.977330 0.359694 0.000000
0.000000 0.397402 0.000000
0.029233 0.397402 0.000000
0.058466 0.397402 0.000000
0.087699 0.397402 0.000000
0.116932 0.397402 0.000000
0.146165 0.397402 0.000000
0.175398 0.397402 0.000000
0.204631 0.397402 0.000000
0.233864 0.397402 0.000000
0.263097 0.397402 0.000000
0.292330 0.397402 0.000000
0.321563 0.397402 0.000000
0.350796 0.397402 0.000000
0.380029 0.397402 0.000000
0.409262 0.397402 0.000000
0.438495 0.397402 0.000000
0.471224 0.397402 0.000000
0.499985 0.397402 0.000000
0.528747 0.397402 0.000000
0.599443 0.387379 0.000000
0.630368 0.387379 0.000000
0.661293 0.387379 0.000000
0.692217 0.387379 0.000000
0.723142 0.387379 0.000000
0.754067 0.387379 0.000000
0.784992 0.387379 0.000000
0.815917 0.387379 0.000000
0.846842 0.387379 0.000000
0.877767 0.387379 0.000000
0.908691 0.387379 0.000000
0.939616 0.387379 0.000000
0.970541 0.387379 0.000000
0.977330 0.387379 0.000000
0.000000 0.425803 0.000000
0.029233 0.425803 0.000000
0.058466 0.425803 0.000000
0.087699 0.425803 0.000000
0.116932 0.425803 0.000000
0.146165 0.425803 0.000000
0.175398 0.425803 0.000000
0.204631 0.425803 0.000000
0.233864 0.425803 0.000000
0.263097 0.425803 0.000000
0.292330 0.425803 0.000000
0.321563 0.425803 0.000000
0.350796 0.425803 0.000000
0.380029 0.425803 0.000000
0.409262 0.425803 0.000000
0.438495 0.425803 0.000000
0.471224 0.425803 0.000000
0.499985 0.425803 0.000000
0.528747 0.425803 0.000000
0.599443 0.415063 0.000000
0.630368 0.415063 0.000000
0.661293 0.415063 0.000000
0.692217 0.415063 0.000000
0.723142 0.415063 0.000000
0.754067 0.415063 0.000000
0.784992 0.415063 0.000000
0.815917 0.415063 0.000000
0.846842 0.415063 0.000000
0.877767 0.415063 0.000000
0.908691 0.415063 0.000000
0.939616 0.415063 0.000000
0.970541 0.415063 0.000000
0.977330 0.415063 0.000000
0.000000 0.454203 0.000000
0.029233 0.454203 0.000000
0.058466 0.454203 0.000000
0.087699 0.454203 0.000000
0.116932 0.454203 0.000000
0.146165 0.454203 0.000000
0.175398 0.454203 0.000000
0.204631 0.454203 0.000000
0.233864 0.454203 0.000000
0.263097 0.454203 0.000000
0.292330 0.454203 0.000000
0.321563 0.454203 0.000000
0.350796 0.454203 0.000000
0.380029 0.454203 0.000000
0.409262 0.454203 0.000000
0.438495 0.454203 0.000000
0.471224 0.454203 0.000000
0.499985 0.454203 0.000000
0.528747 0.454203 0.000000
0.599443 0.442748 0.000000
0.630368 0.442748 0.000000
0.661293 0.442748 0.000000
0.692217 0.442748 0.000000
0.723142 0.442748 0.000000
0.754067 0.442748 0.000000
0.784992 0.442748 0.000000
0.815917 0.442748 0.000000
0.846842 0.442748 0.000000
0.877767 0.442748 0.000000
0.908691 0.442748 0.000000
0.939616 0.442748 0.000000
0.970541 0.442748 0.000000
0.977330 0.442748 0.000000
0.000000 0.485860 0.000000
0.029233 0.485860 0.000000
0.058466 0.485860 0.000000
0.087699 0.485860 0.000000
0.116932 0.485860 0.000000
0.146165 0.485860 0.000000
0.175398 0.485860 0.000000
0.204631 0.485860 0.000000
0.233864 0.485860 0.000000
0.263097 0.485860 0.000000
0.292330 0.485860 0.000000
0.321563 0.485860 0.000000
0.350796 0.485860 0.000000
0.380029 0.485860 0.000000
0.409262 0.485860 0.000000
0.438495 0.485860 0.000000
0.471224 0.485860 0.000000
0.499985 0.485860 0.000000
0.528747 0.485860 0.000000
0.599443 0.473606 0.000000
0.630368 0.473606 0.000000
0.661293 0.473606 0.000000
0.692217 0.473606 0.000000
0.723142 0.473606 0.000000
0.754067 0.473606 0.000000
0.784992 0.473606 0.000000
0.815917 0.473606 0.000000
0.846842 0.527135 0.000000
0.877767 0.527586 0.000000
0.908691 0.528037 0.000000
0.939616 0.528488 0.000000
0.970541 0.528939 0.000000
0.977330 0.529038 0.000000
0.000000 0.513803 0.000000
0.029233 0.513803 0.000000
0.058466 0.513803 0.000000
0.087699 0.513803 0.000000
0.116932 0.513803 0.000000
0.146165 0.513803 0.000000
0.175398 0.513803 0.000000
0.204631 0.513803 0.000000
0.233864 0.513803 0.000000
0.263097 0.513803 0.000000
0.292330 0.513803 0.000000
0.321563 0.513803 0.000000
0.350796 0.513803 0.000000
0.380029 0.513803 0.000000
0.409262 0.513803 0.000000
0.438495 0.513803 0.000000
0.471224 0.513803 0.000000
0.499985 0.513803 0.000000
0.528747 0.513803 0.000000
0.599443 0.500844 0.000000
0.630368 0.500844 0.000000
0.661293 0.500844 0.000000
0.692217 0.554488 0.000000
0.723142 0.554938 0.000000
0.754067 0.555389 0.000000
0.784992 0.555840 0.000000
0.815917 0.556291 0.000000
0.846842 0.556742 0.000000
0.877767 0.557193 0.000000
0.908691 0.557643 0.000000
0.939616 0.558094 0.000000
0.970541 0.558545 0.000000
0.977330 0.558644 0.000000
0.000000 0.582494 0.000000
0.028496 0.582494 0.000000
0.056991 0.582494 0.000000
0.085487 0.582494 0.000000
0.113983 0.582494 0.000000
0.142479 0.582494 0.000000
0.170974 0.582494 0.000000
0.199470 0.582494 0.000000
0.227966 0.582494 0.000000
0.256461 0.582494 0.000000
0.284957 0.582494 0.000000
0.313453 0.582494 0.000000
0.341948 0.582494 0.000000
0.370444 0.582494 0.000000
0.398940 0.582494 0.000000
0.427436 0.582494 0.000000
0.459339 0.582494 0.000000
0.487375 0.582494 0.000000
0.515411 0.582494 0.000000
0.599443 0.582741 0.000000
0.630368 0.583192 0.000000
0.661293 0.583643 0.000000
0.692217 0.584094 0.000000
0.723142 0.584545 0.000000
0.754067 0.584996 0.000000
0.784992 0.585447 0.000000
0.815917 0.585897 0.000000
0.846842 0.586348 0.000000
0.877767 0.586799 0.000000
0.908691 0.587250 0.000000
0.939616 0.587701 0.000000
0.970541 0.588152 0.000000
0.977330 0.588251 0.000000
0.000000 0.612539 0.000000
0.028496 0.612539 0.000000
0.056991 0.612539 0.000000
0.085487 0.612539 0.000000
0.113983 0.612539 0.000000
0.142479 0.612539 0.000000
0.170974 0.612539 0.000000
0.199470 0.612539 0.000000
0.227966 0.612539 0.000000
0.256461 0.612539 0.000000
0.284957 0.612539 0.000000
0.313453 0.612539 0.000000
0.341948 0.612539 0.000000
0.370444 0.612539 0.000000
0.398940 0.612539 0.000000
0.427436 0.612539 0.000000
0.459339 0.612539 0.000000
0.487375 0.612539 0.000000
0.569160 0.612539 0.000000
0.599634 0.612539 0.000000
0.630368 0.612799 0.000000
0.661293 0.613250 0.000000
0.692217 0.613701 0.000000
0.723142 0.614151 0.000000
0.754067 0.614602 0.000000
0.784992 0.615053 0.000000
0.815917 0.615504 0.000000
0.846842 0.615955 0.000000
0.877767 0.616406 0.000000
0.908691 0.616856 0.000000
0.939616 0.617307 0.000000
0.970541 0.617758 0.000000
0.977330 0.617857 0.000000
0.000000 0.642583 0.000000
0.028496 0.642583 0.000000
0.056991 0.642583 0.000000
0.085487 0.642583 0.000000
0.113983 0.642583 0.000000
0.142479 0.642583 0.000000
0.170974 0.642583 0.000000
0.199470 0.642583 0.000000
0.227966 0.642583 0.000000
0.256461 0.642583 0.000000
0.284957 0.642583 0.000000
0.313453 0.642583 0.000000
0.341948 0.642583 0.000000
0.370444 0.642583 0.000000
0.398940 0.642583 0.000000
0.427436 0.642583 0.000000
0.459339 0.642583 0.000000
0.487375 0.642583 0.000000
0.569598 0.642583 0.000000
0.600072 0.642583 0.000000
0.630546 0.642583 0.000000
0.661293 0.642856 0.000000
0.692217 0.643307 0.000000
0.723142 0.643758 0.000000
0.754067 0.644209 0.000000
0.784992 0.644660 0.000000
0.815917 0.645110 0.000000
0.846842 0.645561 0.000000
0.877767 0.646012 0.000000
0.908691 0.646463 0.000000
0.939616 0.646914 0.000000
0.970541 0.647365 0.000000
0.977330 0.647464 0.000000
0.000000 0.672628 0.000000
0.028496 0.672628 0.000000
0.056991 0.672628 0.000000
0.085487 0.672628 0.000000
0.113983 0.672628 0.000000
0.142479 0.672628 0.000000
0.170974 0.672628 0.000000
0.199470 0.672628 0.000000
0.227966 0.672628 0.000000
0.256461 0.672628 0.000000
0.284957 0.672628 0.000000
0.313453 0.672628 0.000000
0.341948 0.672628 0.000000
0.370444 0.672628 0.000000
0.398940 0.672628 0.000000
0.427436 0.672628 0.000000
0.459339 0.672628 0.000000
0.487375 0.672628 0.000000
0.570036 0.672628 0.000000
0.600510 0.672628 0.000000
0.630984 0.672628 0.000000
0.661458 0.672628 0.000000
0.692217 0.672914 0.000000
0.723142 0.673364 0.000000
0.754067 0.673815 0.000000
0.784992 0.674266 0.000000
0.815917 0.674717 0.000000
0.846842 0.675168 0.000000
0.877767 0.675619 0.000000
0.908691 0.676069 0.000000
0.939616 0.676520 0.000000
0.970541 0.676971 0.000000
0.977330 0.677070 0.000000
0.000000 0.702672 0.000000
0.028496 0.702672 0.000000
0.056991 0.702672 0.000000
0.085487 0.702672 0.000000
0.113983 0.702672 0.000000
0.142479 0.702672 0.000000
0.170974 0.702672 0.000000
0.199470 0.702672 0.000000
0.227966 0.702672 0.000000
0.256461 0.702672 0.000000
0.284957 0.702672 0.000000
0.313453 0.702672 0.000000
0.341948 0.702672 0.000000
0.370444 0.702672 0.000000
0.398940 0.702672 0.000000
0.427436 0.702672 0.000000
0.459339 0.702672 0.000000
0.487375 0.702672 0.000000
0.570474 0.702672 0.000000
0.600948 0.702672 0.000000
0.631422 0.702672 0.000000
0.661896 0.702672 0.000000
0.692370 0.702672 0.000000
0.723142 0.702971 0.000000
0.754067 0.703422 0.000000
0.784992 0.703873 0.000000
0.815917 0.704323 0.000000
0.846842 0.704774 0.000000
0.877767 0.705225 0.000000
0.908691 0.705676 0.000000
0.939616 0.706127 0.000000
0.970541 0.706578 0.000000
0.977330 0.706677 0.000000
0.000000 0.732717 0.000000
0.028496 0.732717 0.000000
0.056991 0.732717 0.000000
0.085487 0.732717 0.000000
0.113983 0.732717 0.000000
0.142479 0.732717 0.000000
0.170974 0.732717 0.000000
0.199470 0.732717 0.000000
0.227966 0.732717 0.000000
0.256461 0.732717 0.000000
0.284957 0.732717 0.000000
0.313453 0.732717 0.000000
0.341948 0.732717 0.000000
0.370444 0.732717 0.000000
0.398940 0.732717 0.000000
0.427436 0.732717 0.000000
0.459339 0.732717 0.000000
0.487375 0.732717 0.000000
0.570912 0.732717 0.000000
0.601386 0.732717 0.000000
0.631860 0.732717 0.000000
0.662334 0.732717 0.000000
0.692808 0.732717 0.000000
0.723282 0.732717 0.000000
0.754067 0.733028 0.000000
0.784992 0.733479 0.000000
0.815917 0.733930 0.000000
0.846842 0.734381 0.000000
0.877767 0.734832 0.000000
0.908691 0.735282 0.000000
0.939616 0.735733 0.000000
0.970541 0.736184 0.000000
0.977330 0.736283 0.000000
0.000000 0.762762 0.000000
0.028496 0.762762 0.000000
0.056991 0.762762 0.000000
0.085487 0.762762 0.000000
0.113983 0.762762 0.000000
0.142479 0.762762 0.000000
0.170974 0.762762 0.000000
0.199470 0.762762 0.000000
0.227966 0.762762 0.000000
0.256461 0.762762 0.000000
0.284957 0.762762 0.000000
0.313453 0.762762 0.000000
0.341948 0.762762 0.000000
0.370444 0.762762 0.000000
0.398940 0.762762 0.000000
0.427436 0.762762 0.000000
0.459339 0.762762 0.000000
0.540876 0.762762 0.000000
0.571350 0.762762 0.000000
0.601824 0.762762 0.000000
0.632298 0.762762 0.000000
0.662772 0.762762 0.000000
0.693246 0.762762 0.000000
0.723720 0.762762 0.000000
0.754194 0.762762 0.000000
0.784992 0.763086 0.000000
0.815917 0.763536 0.000000
0.846842 0.763987 0.000000
0.877767 0.764438 0.000000
0.908691 0.764889 0.000000
0.939616 0.765340 0.000000
0.970541 0.765791 0.000000
0.977330 0.765890 0.000000
0.000000 0.792806 0.000000
0.028496 0.792806 0.000000
0.056991 0.792806 0.000000
0.085487 0.792806 0.000000
0.113983 0.792806 0.000000
0.142479 0.792806 0.000000
0.170974 0.792806 0.000000
0.199470 0.792806 0.000000
0.227966 0.792806 0.000000
0.256461 0.792806 0.000000
0.284957 0.792806 0.000000
0.313453 0.792806 0.000000
0.341948 0.792806 0.000000
0.370444 0.792806 0.000000
0.398940 0.792806 0.000000
0.427436 0.792806 0.000000
0.459339 0.792806 0.000000
0.541314 0.792806 0.000000
0.571788 0.792806 0.000000
0.602262 0.792806 0.000000
0.632736 0.792806 0.000000
0.663210 0.792806 0.000000
0.693684 0.792806 0.000000
0.724158 0.792806 0.000000
