docs/luts/fuji_recipes/Classic_JC_Chrome_Urban.cube
TITLE "Fujifilm Recipe: JC Chrome Urban (Classic)"
# FilmSim=Classic HL=0 SH=2 Col=3 WB=Auto WBR=1 WBB=0
LUT_3D_SIZE 9
DOMAIN_MIN 0.0 0.0 0.0
DOMAIN_MAX 1.0 1.0 1.0
0.000000 0.000000 0.000000
0.116932 0.000000 0.000000
0.233864 0.000000 0.000000
0.350796 0.000000 0.000000
0.471224 0.000000 0.000000
0.630368 0.000000 0.000000
0.754067 0.000000 0.000000
0.877767 0.000000 0.000000
0.977330 0.000000 0.000000
0.000000 0.113394 0.000000
0.116932 0.113394 0.000000
0.233864 0.113394 0.000000
0.350796 0.113394 0.000000
0.471224 0.113394 0.000000
0.630368 0.110534 0.000000
0.754067 0.110534 0.000000
0.877767 0.110534 0.000000
0.977330 0.110534 0.000000
0.000000 0.226997 0.000000
0.116932 0.226997 0.000000
0.233864 0.226997 0.000000
0.350796 0.226997 0.000000
0.471224 0.226997 0.000000
0.630368 0.221272 0.000000
0.754067 0.221272 0.000000
0.877767 0.221272 0.000000
0.977330 0.221272 0.000000
0.000000 0.340600 0.000000
0.116932 0.340600 0.000000
0.233864 0.340600 0.000000
0.350796 0.340600 0.000000
0.471224 0.340600 0.000000
0.630368 0.332010 0.000000
0.754067 0.332010 0.000000
0.877767 0.332010 0.000000
0.977330 0.332010 0.000000
0.000000 0.454203 0.000000
0.116932 0.454203 0.000000
0.233864 0.454203 0.000000
0.350796 0.454203 0.000000
0.471224 0.454203 0.000000
0.630368 0.442748 0.000000
0.754067 0.442748 0.000000
0.877767 0.442748 0.000000
0.977330 0.442748 0.000000
0.000000 0.612539 0.000000
0.113983 0.612539 0.000000
0.227966 0.612539 0.000000
0.341948 0.612539 0.000000
0.459339 0.612539 0.000000
0.630368 0.612799 0.000000
0.754067 0.614602 0.000000
0.877767 0.616406 0.000000
0.977330 0.617857 0.000000
0.000000 0.732717 0.000000
0.113983 0.732717 0.000000
0.227966 0.732717 0.000000
0.341948 0.732717 0.000000
0.459339 0.732717 0.000000
0.631860 0.732717 0.000000
0.754067 0.733028 0.000000
0.877767 0.734832 0.000000
0.977330 0.736283 0.000000
0.000000 0.852895 0.000000
0.113983 0.852895 0.000000
0.227966 0.852895 0.000000
0.341948 0.852895 0.000000
0.459339 0.852895 0.000000
0.633612 0.852895 0.000000
0.755508 0.852895 0.000000
0.877767 0.853258 0.000000
0.977330 0.854709 0.000000
0.000000 0.973073 0.000000
0.113983 0.973073 0.000000
0.227966 0.973073 0.000000
0.341948 0.973073 0.000000
0.513468 0.973073 0.000000
0.635364 0.973073 0.000000
0.757260 0.973073 0.000000
0.879156 0.973073 0.000000
0.977330 0.973135 0.000000
0.000000 0.000000 0.112008
0.116932 0.000000 0.112008
0.233864 0.000000 0.112008
0.350796 0.000000 0.112008
0.471224 0.000000 0.112008
0.630368 0.000000 0.109183
0.754067 0.000000 0.109183
0.877767 0.000000 0.109183
0.977330 0.000000 0.109183
0.000000 0.113394 0.112008
0.117238 0.113260 0.111703
0.241431 0.105998 0.104441
0.365625 0.098737 0.097180
0.493531 0.091258 0.089701
0.673396 0.071853 0.070295
0.806576 0.062372 0.060814
0.939756 0.052891 0.051334
1.000000 0.092064 0.090653
0.000000 0.226997 0.112008
0.110403 0.234138 0.104868
0.241431 0.233711 0.104441
0.365625 0.226450 0.097180
0.493531 0.218971 0.089701
0.673396 0.199565 0.070295
0.806576 0.190085 0.060814
0.939756 0.180604 0.051334
1.000000 0.207824 0.090653
0.000000 0.340600 0.112008
0.103348 0.354796 0.097813
0.234803 0.354796 0.097813
0.365625 0.354162 0.097180
0.493531 0.346684 0.089701
0.673396 0.327278 0.070295
0.806576 0.317797 0.060814
0.939756 0.308317 0.051334
1.000000 0.323583 0.090653
0.000000 0.454203 0.112008
0.096293 0.475454 0.090758
0.227748 0.475454 0.090758
0.359203 0.475454 0.090758
0.493531 0.474397 0.089701
0.673396 0.454991 0.070295
0.806576 0.445510 0.060814
0.939756 0.436029 0.051334
1.000000 0.496318 0.090653
0.000000 0.612539 0.109183
0.077197 0.654200 0.071662
0.208652 0.654200 0.071662
0.340107 0.654200 0.071662
0.475492 0.654200 0.071662
0.673396 0.653134 0.070295
0.806576 0.645733 0.060814
0.939756 0.638332 0.051334
1.000000 0.624227 0.090653
0.000000 0.732717 0.109183
0.067986 0.783589 0.062451
0.199441 0.783589 0.062451
0.330896 0.783589 0.062451
0.466281 0.783589 0.062451
0.667272 0.783589 0.062451
0.806576 0.782312 0.060814
0.939756 0.774911 0.051334
1.000000 0.748023 0.090653
0.000000 0.852895 0.109183
0.058775 0.912978 0.053240
0.190230 0.912978 0.053240
0.321685 0.912978 0.053240
0.519501 0.912978 0.053240
0.660082 0.912978 0.053240
0.800663 0.912978 0.053240
0.939756 0.911490 0.051334
1.000000 0.871819 0.090653
0.000000 0.973073 0.109183
0.091462 1.000000 0.086396
0.211759 1.000000 0.086396
0.332057 1.000000 0.086396
0.514932 1.000000 0.086396
0.643581 1.000000 0.086396
0.772230 1.000000 0.086396
0.900880 1.000000 0.086396
1.000000 0.995615 0.090653
0.000000 0.000000 0.224650
0.116932 0.000000 0.224650
0.233864 0.000000 0.224650
0.350796 0.000000 0.224650
0.471224 0.000000 0.224650
0.630368 0.000000 0.218984
0.754067 0.000000 0.218984
0.877767 0.000000 0.218984
0.977330 0.000000 0.218984
0.000000 0.113394 0.224650
0.110462 0.106485 0.231559
0.241345 0.105912 0.230986
0.365539 0.098651 0.223725
0.493445 0.091172 0.216246
0.673330 0.071762 0.196836
0.806511 0.062281 0.187355
0.939691 0.052801 0.177875
1.000000 0.092054 0.205420
0.000000 0.226997 0.224650
0.110097 0.233832 0.231193
0.234436 0.226716 0.224077
0.358630 0.219455 0.216816
0.486536 0.211976 0.209337
0.668080 0.192213 0.189575
0.801260 0.182732 0.180094
0.934440 0.173252 0.170613
1.000000 0.207005 0.204616
0.000000 0.340600 0.224650
0.103042 0.354490 0.224138
0.227808 0.347801 0.217449
0.358630 0.347167 0.216816
0.486536 0.339689 0.209337
0.668080 0.319926 0.189575
0.801260 0.310445 0.180094
0.934440 0.300964 0.170613
1.000000 0.322615 0.204616
0.000000 0.454203 0.224650
0.095987 0.475148 0.217084
0.220753 0.468459 0.210394
0.352208 0.468459 0.210394
0.486536 0.467402 0.209337
0.668080 0.447639 0.189575
0.801260 0.438158 0.180094
0.934440 0.491898 0.170613
1.000000 0.496969 0.204616
0.000000 0.612539 0.218984
0.076876 0.653968 0.197972
0.201300 0.648885 0.190941
0.332755 0.648885 0.190941
0.468140 0.648885 0.190941
0.668080 0.647818 0.189575
0.801260 0.640417 0.180094
0.934440 0.633016 0.170613
1.000000 0.624714 0.204616
0.000000 0.732717 0.218984
0.067665 0.783357 0.188761
0.192089 0.778274 0.181730
0.323544 0.778274 0.181730
0.521375 0.778274 0.181730
0.661956 0.778274 0.181730
0.801260 0.776996 0.180094
0.934440 0.769595 0.170613
1.000000 0.748349 0.204616
0.000000 0.852895 0.218984
0.058454 0.912746 0.179550
0.182878 0.907663 0.172519
0.314333 0.907663 0.172519
0.514185 0.907663 0.172519
0.654766 0.907663 0.172519
0.795347 0.907663 0.172519
0.934440 0.906175 0.170613
1.000000 0.871985 0.204616
0.000000 0.973073 0.218984
0.091378 1.000000 0.202196
0.209840 1.000000 0.200360
0.330146 1.000000 0.200360
0.514898 1.000000 0.200360
0.643556 1.000000 0.200360
0.772214 1.000000 0.200360
0.900873 1.000000 0.200360
1.000000 0.995621 0.204616
0.000000 0.000000 0.337291
0.116932 0.000000 0.337291
0.233864 0.000000 0.337291
0.350796 0.000000 0.337291
0.471224 0.000000 0.337291
0.630368 0.000000 0.328784
0.754067 0.000000 0.328784
0.877767 0.000000 0.328784
0.977330 0.000000 0.328784
0.000000 0.113394 0.337291
0.103467 0.099489 0.351195
0.234922 0.099489 0.351195
0.365539 0.098651 0.350356
0.493445 0.091172 0.342878
0.673330 0.071762 0.323468
0.806511 0.062281 0.313987
0.939691 0.052801 0.304506
1.000000 0.092054 0.320198
0.000000 0.226997 0.337291
0.103248 0.226983 0.350975
0.227868 0.220148 0.344140
0.358484 0.219309 0.343302
0.486391 0.211830 0.335823
0.667969 0.192060 0.316053
0.801149 0.182579 0.306572
0.934330 0.173098 0.297091
1.000000 0.206991 0.319230
0.000000 0.340600 0.337291
0.103042 0.354490 0.350770
0.227236 0.347228 0.343508
0.351635 0.340172 0.336452
0.479541 0.332694 0.328974
0.662764 0.312574 0.308854
0.795944 0.303093 0.299373
0.929125 0.293612 0.289892
1.000000 0.321942 0.318580
0.000000 0.454203 0.337291
0.095987 0.475148 0.343715
0.220181 0.467886 0.336453
0.345213 0.461464 0.330031
0.479541 0.460407 0.328974
0.662764 0.440287 0.308854
0.795944 0.493984 0.299373
0.929125 0.486583 0.289892
1.000000 0.497836 0.318580
0.000000 0.612539 0.328784
0.076876 0.653968 0.324603
0.200698 0.648450 0.316971
0.325403 0.643569 0.310220
0.523250 0.643569 0.310220
0.662764 0.642502 0.308854
0.795944 0.635101 0.299373
0.929125 0.627700 0.289892
1.000000 0.625360 0.318580
0.000000 0.732717 0.328784
0.067665 0.783357 0.315392
0.191488 0.777839 0.307760
0.316192 0.772958 0.301009
0.516059 0.772958 0.301009
0.656641 0.772958 0.301009
0.795944 0.771681 0.299373
0.929125 0.764280 0.289892
1.000000 0.748783 0.318580
0.000000 0.852895 0.328784
0.058454 0.912746 0.306181
0.182277 0.907228 0.298549
0.306981 0.902347 0.291799
0.508869 0.902347 0.291799
0.649450 0.902347 0.291799
0.790032 0.902347 0.291799
0.929125 0.900859 0.289892
1.000000 0.872206 0.318580
0.000000 0.973073 0.328784
0.091378 1.000000 0.318080
0.209683 1.000000 0.316095
0.328220 1.000000 0.314324
0.514852 1.000000 0.314324
0.643523 1.000000 0.314324
0.772193 1.000000 0.314324
0.900863 1.000000 0.314324
1.000000 0.995629 0.318580
0.000000 0.000000 0.449932
0.116932 0.000000 0.449932
0.233864 0.000000 0.449932
0.350796 0.000000 0.449932
0.471224 0.000000 0.449932
0.630368 0.000000 0.438584
0.754067 0.000000 0.438584
0.877767 0.000000 0.438584
0.977330 0.000000 0.438584
0.000000 0.113394 0.449932
0.096472 0.092494 0.470831
0.227927 0.092494 0.470831
0.359382 0.092494 0.470831
0.493445 0.091172 0.469509
0.673330 0.071762 0.450099
0.806511 0.062281 0.440618
0.939691 0.052801 0.431137
1.000000 0.092054 0.491594
0.000000 0.226997 0.449932
0.096253 0.219988 0.470612
0.220873 0.213152 0.463777
0.352328 0.213152 0.463777
0.486391 0.211830 0.462454
0.667969 0.192060 0.442684
0.801149 0.182579 0.433203
0.934330 0.173098 0.486568
1.000000 0.206991 0.492261
0.000000 0.340600 0.449932
0.096253 0.347700 0.470612
0.220446 0.340439 0.463350
0.345273 0.333811 0.456722
0.479336 0.332488 0.455400
0.662608 0.312358 0.435269
0.795788 0.302877 0.488608
0.928969 0.293396 0.481207
1.000000 0.321928 0.493150
0.000000 0.454203 0.449932
0.095987 0.475148 0.470346
0.220181 0.467886 0.463085
0.344374 0.460625 0.455823
0.524268 0.442416 0.437614
0.646453 0.485073 0.479854
0.779268 0.477307 0.472088
0.912084 0.469542 0.464323
1.000000 0.481923 0.477057
0.000000 0.612539 0.438584
0.076876 0.653968 0.451234
0.200698 0.648450 0.443602
0.324521 0.642932 0.435970
0.506991 0.627310 0.480973
0.646453 0.626191 0.479854
0.779268 0.618425 0.472088
0.912084 0.610660 0.464323
1.000000 0.613488 0.477057
0.000000 0.732717 0.438584
0.067665 0.783357 0.442024
0.191488 0.777839 0.434391
0.315310 0.772321 0.489405
0.499446 0.756345 0.473429
0.640028 0.756345 0.473429
0.779268 0.755004 0.472088
0.912084 0.747239 0.464323
1.000000 0.740822 0.477057
0.000000 0.852895 0.438584
0.058454 0.912746 0.432813
0.182277 0.907228 0.487732
0.306099 0.901710 0.482214
0.491902 0.885380 0.465884
0.632483 0.885380 0.465884
0.773064 0.885380 0.465884
0.912084 0.883818 0.464323
1.000000 0.868156 0.477057
0.000000 0.973073 0.438584
0.091378 1.000000 0.491121
0.209683 1.000000 0.491083
0.327987 1.000000 0.491032
0.497423 1.000000 0.472754
0.630716 1.000000 0.472754
0.764009 1.000000 0.472754
0.897302 1.000000 0.472754
1.000000 0.995490 0.477057
0.000000 0.000000 0.607003
0.113983 0.000000 0.607003
0.227966 0.000000 0.607003
0.341948 0.000000 0.607003
0.459339 0.000000 0.607003
0.630368 0.000000 0.607344
0.754067 0.000000 0.609147
0.877767 0.000000 0.610950
0.977330 0.000000 0.612402
0.000000 0.110534 0.607003
0.077531 0.073553 0.648175
0.208986 0.073553 0.648175
0.340441 0.073553 0.648175
0.475826 0.073553 0.648175
0.673330 0.071762 0.646777
0.806511 0.062281 0.639376
0.939691 0.052801 0.631975
1.000000 0.092054 0.618530
0.000000 0.221272 0.607003
0.077300 0.201035 0.648008
0.201571 0.193851 0.642814
0.333026 0.193851 0.642814
0.468411 0.193851 0.642814
0.667969 0.192060 0.641416
0.801149 0.182579 0.634015
0.934330 0.173098 0.626614
1.000000 0.206991 0.619030
0.000000 0.332010 0.607003
0.077300 0.328747 0.648008
0.201123 0.321115 0.642490
0.325611 0.314149 0.637453
0.523425 0.314149 0.637453
0.662608 0.312358 0.636055
0.795788 0.302877 0.628654
0.928969 0.293396 0.621253
1.000000 0.321928 0.619698
0.000000 0.442748 0.607003
0.077300 0.456460 0.648008
0.201123 0.448828 0.642490
0.324946 0.441196 0.636972
0.507050 0.486252 0.621078
0.646165 0.484785 0.619611
0.778980 0.477019 0.611846
0.911796 0.469254 0.604080
1.000000 0.481699 0.607453
0.000000 0.612539 0.607084
0.076876 0.653968 0.647677
0.200698 0.648450 0.642158
0.324521 0.642932 0.636640
0.505554 0.625873 0.619582
0.638717 0.618455 0.612163
0.771532 0.610689 0.604398
0.904348 0.602924 0.596632
1.000000 0.607585 0.601630
0.000000 0.732717 0.608836
0.067665 0.783357 0.640486
0.191488 0.777839 0.634968
0.315310 0.772321 0.629450
0.498009 0.754908 0.612037
0.632292 0.748609 0.605738
0.771532 0.747268 0.604398
0.904348 0.739503 0.596632
1.000000 0.736864 0.601630
0.000000 0.852895 0.610588
0.058454 0.912746 0.633296
0.182277 0.907228 0.627778
0.306099 0.901710 0.622260
0.490465 0.883942 0.604492
0.624747 0.877644 0.598194
0.765328 0.877644 0.598194
0.904348 0.876082 0.596632
1.000000 0.866143 0.601630
0.000000 0.973073 0.612340
0.091378 1.000000 0.619281
0.209683 1.000000 0.619252
0.327987 1.000000 0.619214
0.495897 1.000000 0.604342
0.623028 1.000000 0.597327
0.759096 1.000000 0.597327
0.895164 1.000000 0.597327
1.000000 0.995421 0.601630
0.000000 0.000000 0.726163
0.113983 0.000000 0.726163
0.227966 0.000000 0.726163
0.341948 0.000000 0.726163
0.459339 0.000000 0.726163
0.631764 0.000000 0.726163
0.754067 0.000000 0.726570
0.877767 0.000000 0.728374
0.977330 0.000000 0.729825
0.000000 0.110534 0.726163
0.068398 0.064420 0.776468
0.199853 0.064420 0.776468
0.331308 0.064420 0.776468
0.466693 0.064420 0.776468
0.667599 0.064420 0.776468
0.806511 0.062281 0.774799
0.939691 0.052801 0.767398
1.000000 0.092054 0.741276
0.000000 0.221272 0.726163
0.068167 0.191902 0.776301
0.192438 0.184718 0.771107
0.323893 0.184718 0.771107
0.521656 0.184718 0.771107
0.662238 0.184718 0.771107
0.801149 0.182579 0.769438
0.934330 0.173098 0.762037
1.000000 0.206991 0.741615
0.000000 0.332010 0.726163
0.068167 0.319615 0.776301
0.191990 0.311982 0.770783
0.316478 0.305016 0.765746
0.516295 0.305016 0.765746
0.656877 0.305016 0.765746
0.795788 0.302877 0.764077
0.928969 0.293396 0.756676
1.000000 0.321928 0.742068
0.000000 0.442748 0.726163
0.068167 0.447327 0.776301
0.191990 0.439695 0.770783
0.315813 0.495016 0.765265
0.499569 0.478771 0.749020
0.640151 0.478771 0.749020
0.778980 0.477019 0.747268
0.911796 0.469254 0.739503
1.000000 0.481699 0.733764
0.000000 0.614195 0.726163
0.068167 0.647170 0.776301
0.191990 0.641652 0.770783
0.315813 0.636133 0.765265
0.498421 0.618740 0.747871
0.632355 0.612093 0.741225
0.771185 0.610342 0.739473
0.904000 0.602576 0.731707
1.000000 0.607227 0.729567
0.000000 0.732717 0.726259
0.067665 0.783357 0.775909
0.191488 0.777839 0.770391
0.315310 0.772321 0.764873
0.498009 0.754908 0.747460
0.630825 0.747142 0.739694
0.764052 0.739788 0.732340
0.896867 0.732022 0.724574
1.000000 0.729343 0.722092
0.000000 0.852895 0.728011
0.058454 0.912746 0.768719
0.182277 0.907228 0.763201
0.306099 0.901710 0.757682
0.490465 0.883942 0.739915
0.623280 0.876177 0.732150
0.757848 0.870163 0.726136
0.896867 0.868601 0.724574
1.000000 0.862317 0.722092
0.000000 0.973073 0.729763
0.091378 1.000000 0.743210
0.209683 1.000000 0.743190
0.327987 1.000000 0.743165
0.495897 1.000000 0.733133
0.620947 1.000000 0.726903
0.750303 0.999198 0.718591
0.890884 0.999198 0.718591
1.000000 0.995290 0.722092
0.000000 0.000000 0.845324
0.113983 0.000000 0.845324
0.227966 0.000000 0.845324
0.341948 0.000000 0.845324
0.459339 0.000000 0.845324
0.633502 0.000000 0.845324
0.755398 0.000000 0.845324
0.877767 0.000000 0.845797
0.977330 0.000000 0.847248
0.000000 0.110534 0.845324
0.059265 0.055287 0.904762
0.190720 0.055287 0.904762
0.322175 0.055287 0.904762
0.519888 0.055287 0.904762
0.660469 0.055287 0.904762
0.801051 0.055287 0.904762
0.939691 0.052801 0.902821
1.000000 0.092054 0.864022
0.000000 0.221272 0.845324
0.059034 0.182769 0.904595
0.183305 0.175585 0.899400
0.314760 0.175585 0.899400
0.514527 0.175585 0.899400
0.655108 0.175585 0.899400
0.795690 0.175585 0.899400
0.934330 0.173098 0.897459
1.000000 0.206991 0.864200
0.000000 0.332010 0.845324
0.059034 0.310482 0.904595
0.182857 0.302850 0.899076
0.307345 0.295883 0.894039
0.509166 0.295883 0.894039
0.649747 0.295883 0.894039
0.790328 0.295883 0.894039
0.928969 0.293396 0.892098
1.000000 0.321928 0.864438
0.000000 0.442748 0.845324
0.059034 0.438194 0.904595
0.182857 0.493405 0.899076
0.306680 0.487886 0.893558
0.492089 0.471290 0.876962
0.632670 0.471290 0.876962
0.773251 0.471290 0.876962
0.911796 0.469254 0.874925
1.000000 0.481699 0.860074
0.000000 0.615933 0.845324
0.059034 0.640040 0.904595
0.182857 0.634522 0.899076
0.306680 0.629004 0.893558
0.490940 0.611259 0.875813
0.624875 0.604613 0.869167
0.765456 0.604613 0.869167
0.904000 0.602576 0.867130
1.000000 0.607227 0.857868
0.000000 0.734359 0.845324
0.059034 0.776620 0.904595
0.182857 0.771102 0.899076
0.306680 0.765583 0.893558
0.490940 0.747838 0.875813
0.623755 0.740073 0.868048
0.757911 0.733647 0.861622
0.896456 0.731611 0.859586
1.000000 0.728717 0.853601
0.000000 0.852895 0.845434
0.058454 0.912746 0.904142
0.182277 0.907228 0.898623
0.306099 0.901710 0.893105
0.490465 0.883942 0.875338
0.623280 0.876177 0.867572
0.756096 0.868411 0.859807
0.889387 0.861121 0.852516
0.996287 0.854870 0.846266
0.000000 0.973073 0.847186
0.091378 1.000000 0.867139
0.209683 1.000000 0.867129
0.327987 1.000000 0.867115
0.495897 1.000000 0.861925
0.620947 1.000000 0.858702
0.748551 0.997446 0.852262
0.883404 0.991717 0.846533
0.996287 0.991450 0.846266
0.000000 0.000000 0.964484
0.113983 0.000000 0.964484
0.227966 0.000000 0.964484
0.341948 0.000000 0.964484
0.513343 0.000000 0.964484
0.635239 0.000000 0.964484
0.757135 0.000000 0.964484
0.879031 0.000000 0.964484
0.977330 0.000000 0.964672
0.000000 0.110534 0.964484
0.082921 0.079209 1.000000
0.205570 0.079209 1.000000
0.328219 0.079209 1.000000
0.514557 0.079209 1.000000
0.645721 0.079209 1.000000
0.776885 0.079209 1.000000
0.908049 0.079209 1.000000
1.000000 0.092054 0.986768
0.000000 0.221272 0.964484
0.082789 0.198244 1.000000
0.201370 0.194146 1.000000
0.324370 0.194146 1.000000
0.513165 0.194146 1.000000
0.644705 0.194146 1.000000
0.776245 0.194146 1.000000
0.907786 0.194146 1.000000
1.000000 0.206991 0.986786
0.000000 0.332010 0.964484
0.082789 0.317411 1.000000
0.201094 0.313392 1.000000
0.319849 0.309083 1.000000
0.511297 0.309083 1.000000
0.643342 0.309083 1.000000
0.775387 0.309083 1.000000
0.907432 0.309083 1.000000
1.000000 0.321928 0.986809
0.000000 0.442748 0.964484
0.082789 0.495112 1.000000
0.201094 0.493603 1.000000
0.319398 0.491554 1.000000
0.489135 0.468714 1.000000
0.627168 0.468714 1.000000
0.765201 0.468714 1.000000
0.903234 0.468714 1.000000
1.000000 0.481699 0.986384
0.000000 0.617670 0.964484
0.082789 0.626787 1.000000
0.201094 0.625671 1.000000
0.319398 0.624157 1.000000
0.487215 0.605797 1.000000
0.617394 0.597132 0.997109
0.757975 0.597132 0.997109
0.898556 0.597132 0.997109
1.000000 0.607227 0.986169
0.000000 0.736096 0.964484
0.082789 0.754227 1.000000
0.201094 0.753493 1.000000
0.319398 0.752495 1.000000
0.487215 0.740405 1.000000
0.616275 0.732592 0.995990
0.750431 0.726167 0.989564
0.891012 0.726167 0.989564
1.000000 0.728717 0.985754
0.000000 0.854522 0.964484
0.082789 0.881668 1.000000
0.201094 0.881314 1.000000
0.319398 0.880834 1.000000
0.487215 0.875012 1.000000
0.616275 0.869171 0.995990
0.749090 0.861406 0.988224
0.883467 0.855202 0.982020
0.995812 0.854395 0.981214
0.000000 0.973073 0.964610
0.091378 1.000000 0.991068
0.209683 1.000000 0.991067
0.327987 1.000000 0.991066
0.495897 1.000000 0.990717
0.620947 1.000000 0.990500
0.748551 0.997446 0.987685
0.881367 0.989680 0.979919
0.988806 0.983969 0.974208
