docs/luts/fuji_recipes/ClassicNEGA_GB_Classy_Neg.cube
TITLE "Fujifilm Recipe: GB Classy Neg (ClassicNEGA)"
# FilmSim=ClassicNEGA HL=-2 SH=-2 Col=2 WB=Auto WBR=0 WBB=0
LUT_3D_SIZE 5
DOMAIN_MIN 0.0 0.0 0.0
DOMAIN_MAX 1.0 1.0 1.0
0.094720 0.094720 0.094720
0.307447 0.109460 0.109460
0.513058 0.123707 0.123707
0.668732 0.146148 0.146148
0.864108 0.161728 0.161728
0.129857 0.306374 0.109386
0.307447 0.285936 0.109460
0.513058 0.297083 0.123707
0.668732 0.319021 0.146148
0.864108 0.358716 0.161728
0.164953 0.517781 0.124034
0.369271 0.517781 0.124034
0.517781 0.480984 0.124034
0.668732 0.495392 0.146148
0.864108 0.460006 0.161728
0.199992 0.666083 0.145937
0.405855 0.666083 0.145937
0.595604 0.666083 0.145937
0.668732 0.612110 0.146148
0.864108 0.620719 0.161728
0.234721 0.864108 0.161728
0.441811 0.864108 0.161728
0.580882 0.864108 0.161728
0.763605 0.864108 0.161728
0.864108 0.791114 0.161728
0.109236 0.129498 0.304210
0.290077 0.109460 0.307447
0.513058 0.123707 0.342075
0.668732 0.146148 0.365005
0.864108 0.161728 0.356702
0.109386 0.306374 0.304360
0.321963 0.320964 0.318950
0.527574 0.335211 0.333197
0.681179 0.357968 0.355954
0.876555 0.373548 0.371533
0.124034 0.517781 0.295177
0.357381 0.532297 0.333524
0.532297 0.515765 0.333524
0.681179 0.482560 0.355954
0.876555 0.513273 0.371533
0.145937 0.666083 0.302906
0.392488 0.678530 0.355743
0.534278 0.678530 0.355743
0.681179 0.645067 0.355954
0.876555 0.654592 0.371533
0.161728 0.864108 0.298850
0.427218 0.876555 0.371533
0.567957 0.876555 0.371533
0.754388 0.876555 0.371533
0.876555 0.824071 0.371533
0.123771 0.164323 0.513984
0.274934 0.123771 0.513984
0.472516 0.123771 0.513984
0.668732 0.146148 0.580551
0.864108 0.161728 0.537894
0.123771 0.343967 0.513984
0.335425 0.354570 0.528650
0.507654 0.335425 0.528650
0.681307 0.358122 0.513613
0.876683 0.373701 0.510021
0.124034 0.517781 0.514247
0.336761 0.532521 0.528987
0.502269 0.506474 0.503093
0.701179 0.520022 0.516642
0.896863 0.533581 0.530201
0.145937 0.666083 0.536151
0.358985 0.678722 0.475107
0.533702 0.698464 0.515572
0.701179 0.679689 0.516642
0.896863 0.690406 0.530201
0.161728 0.864108 0.453630
0.374775 0.876747 0.468372
0.566629 0.896801 0.529315
0.758737 0.896863 0.530201
0.896863 0.858758 0.530201
0.145511 0.199055 0.660738
0.282125 0.145511 0.660738
0.475239 0.145511 0.660738
0.622350 0.146148 0.668732
0.864108 0.161728 0.732874
0.145511 0.379760 0.660738
0.357484 0.389370 0.673313
0.457588 0.357484 0.673313
0.655651 0.358122 0.681307
0.876683 0.373701 0.723754
0.145511 0.539258 0.660738
0.358559 0.520306 0.673377
0.515201 0.537625 0.693111
0.690541 0.520273 0.701430
0.897114 0.533832 0.728465
0.145937 0.666083 0.661100
0.358985 0.678722 0.673740
0.515572 0.698464 0.693481
0.714362 0.711893 0.706910
0.910046 0.725452 0.720469
0.161728 0.864108 0.674531
0.374775 0.876747 0.663963
0.529315 0.896801 0.684543
0.748074 0.910046 0.720469
0.910046 0.890345 0.720469
0.161169 0.233493 0.857103
0.277762 0.161169 0.857103
0.467170 0.161169 0.857103
0.600789 0.161169 0.857103
0.798058 0.161728 0.864108
0.161169 0.415131 0.857103
0.373142 0.423808 0.869678
0.450812 0.373142 0.869678
0.635197 0.373142 0.869678
0.831357 0.373701 0.876683
0.161169 0.543059 0.857103
0.374217 0.553693 0.869742
0.528829 0.570278 0.889785
0.671694 0.533346 0.890098
0.866308 0.533832 0.897114
0.161169 0.679038 0.857103
0.374217 0.713529 0.869742
0.528829 0.733115 0.889785
0.725337 0.741525 0.903401
0.898187 0.725823 0.910417
0.161728 0.864108 0.857578
0.374775 0.876747 0.870217
0.529315 0.896801 0.890271
0.728476 0.910601 0.904071
0.923674 0.923674 0.917144
