docs/luts/fuji_recipes/Classic_RR_Faded_Color.cube
TITLE "Fujifilm Recipe: RR Faded Color (Classic)"
# FilmSim=Classic HL=3 SH=4 Col=4 WB=Auto WBR=0 WBB=0
LUT_3D_SIZE 33
DOMAIN_MIN 0.0 0.0 0.0
DOMAIN_MAX 1.0 1.0 1.0
0.000000 0.000000 0.000000
0.027495 0.000000 0.000000
0.051971 0.000000 0.000000
0.076032 0.000000 0.000000
0.100093 0.000000 0.000000
0.124154 0.000000 0.000000
0.148215 0.000000 0.000000
0.172276 0.000000 0.000000
0.196337 0.000000 0.000000
0.220398 0.000000 0.000000
0.244459 0.000000 0.000000
0.268520 0.000000 0.000000
0.292580 0.000000 0.000000
0.316641 0.000000 0.000000
0.340702 0.000000 0.000000
0.367347 0.000000 0.000000
0.391020 0.000000 0.000000
0.483862 0.000000 0.000000
0.514361 0.000000 0.000000
0.544859 0.000000 0.000000
0.575358 0.000000 0.000000
0.605856 0.000000 0.000000
0.636355 0.000000 0.000000
0.666853 0.000000 0.000000
0.697352 0.000000 0.000000
0.727850 0.000000 0.000000
0.758349 0.000000 0.000000
0.788847 0.000000 0.000000
0.819346 0.000000 0.000000
0.850688 0.000000 0.000000
0.850688 0.000000 0.000000
0.850688 0.000000 0.000000
0.850688 0.000000 0.000000
0.000000 0.027220 0.000000
0.027495 0.027220 0.000000
0.051971 0.027220 0.000000
0.076032 0.027220 0.000000
0.100093 0.027220 0.000000
0.124154 0.027220 0.000000
0.148215 0.027220 0.000000
0.172276 0.027220 0.000000
0.196337 0.027220 0.000000
0.220398 0.027220 0.000000
0.244459 0.027220 0.000000
0.268520 0.027220 0.000000
0.292580 0.027220 0.000000
0.316641 0.027220 0.000000
0.340702 0.027220 0.000000
0.367347 0.027220 0.000000
0.391020 0.027220 0.000000
0.483862 0.025853 0.000000
0.514361 0.025810 0.000000
0.544859 0.025772 0.000000
0.575358 0.025737 0.000000
0.605856 0.025706 0.000000
0.636355 0.025679 0.000000
0.666853 0.025654 0.000000
0.697352 0.025631 0.000000
0.727850 0.025610 0.000000
0.758349 0.025590 0.000000
0.788847 0.025573 0.000000
0.819346 0.025556 0.000000
0.850688 0.025631 0.000000
0.850688 0.025631 0.000000
0.850688 0.025631 0.000000
0.850688 0.025631 0.000000
0.000000 0.051593 0.000000
0.027495 0.051593 0.000000
0.051971 0.051593 0.000000
0.076032 0.051593 0.000000
0.100093 0.051593 0.000000
0.124154 0.051593 0.000000
0.148215 0.051593 0.000000
0.172276 0.051593 0.000000
0.196337 0.051593 0.000000
0.220398 0.051593 0.000000
0.244459 0.051593 0.000000
0.268520 0.051593 0.000000
0.292580 0.051593 0.000000
0.316641 0.051593 0.000000
0.340702 0.051593 0.000000
0.367347 0.051593 0.000000
0.391020 0.051593 0.000000
0.483862 0.049002 0.000000
0.514361 0.048920 0.000000
0.544859 0.048847 0.000000
0.575358 0.048782 0.000000
0.605856 0.048724 0.000000
0.636355 0.048671 0.000000
0.666853 0.048624 0.000000
0.697352 0.048580 0.000000
0.727850 0.048540 0.000000
0.758349 0.048504 0.000000
0.788847 0.048470 0.000000
0.819346 0.048439 0.000000
0.850688 0.048581 0.000000
0.850688 0.048581 0.000000
0.850688 0.048581 0.000000
0.850688 0.048581 0.000000
0.000000 0.075554 0.000000
0.027495 0.075554 0.000000
0.051971 0.075554 0.000000
0.076032 0.075554 0.000000
0.100093 0.075554 0.000000
0.124154 0.075554 0.000000
0.148215 0.075554 0.000000
0.172276 0.075554 0.000000
0.196337 0.075554 0.000000
0.220398 0.075554 0.000000
0.244459 0.075554 0.000000
0.268520 0.075554 0.000000
0.292580 0.075554 0.000000
0.316641 0.075554 0.000000
0.340702 0.075554 0.000000
0.367347 0.075554 0.000000
0.391020 0.075554 0.000000
0.483862 0.071760 0.000000
0.514361 0.071639 0.000000
0.544859 0.071532 0.000000
0.575358 0.071437 0.000000
0.605856 0.071352 0.000000
0.636355 0.071274 0.000000
0.666853 0.071205 0.000000
0.697352 0.071141 0.000000
0.727850 0.071083 0.000000
0.758349 0.071029 0.000000
0.788847 0.070980 0.000000
0.819346 0.070935 0.000000
0.850688 0.071142 0.000000
0.850688 0.071142 0.000000
0.850688 0.071142 0.000000
0.850688 0.071142 0.000000
0.000000 0.099514 0.000000
0.027495 0.099514 0.000000
0.051971 0.099514 0.000000
0.076032 0.099514 0.000000
0.100093 0.099514 0.000000
0.124154 0.099514 0.000000
0.148215 0.099514 0.000000
0.172276 0.099514 0.000000
0.196337 0.099514 0.000000
0.220398 0.099514 0.000000
0.244459 0.099514 0.000000
0.268520 0.099514 0.000000
0.292580 0.099514 0.000000
0.316641 0.099514 0.000000
0.340702 0.099514 0.000000
0.367347 0.099514 0.000000
0.391020 0.099514 0.000000
0.483862 0.094517 0.000000
0.514361 0.094358 0.000000
0.544859 0.094217 0.000000
0.575358 0.094092 0.000000
0.605856 0.093979 0.000000
0.636355 0.093878 0.000000
0.666853 0.093786 0.000000
0.697352 0.093702 0.000000
0.727850 0.093625 0.000000
0.758349 0.093555 0.000000
0.788847 0.093490 0.000000
0.819346 0.093430 0.000000
0.850688 0.093703 0.000000
0.850688 0.093703 0.000000
0.850688 0.093703 0.000000
0.850688 0.093703 0.000000
0.000000 0.123474 0.000000
0.027495 0.123474 0.000000
0.051971 0.123474 0.000000
0.076032 0.123474 0.000000
0.100093 0.123474 0.000000
0.124154 0.123474 0.000000
0.148215 0.123474 0.000000
0.172276 0.123474 0.000000
0.196337 0.123474 0.000000
0.220398 0.123474 0.000000
0.244459 0.123474 0.000000
0.268520 0.123474 0.000000
0.292580 0.123474 0.000000
0.316641 0.123474 0.000000
0.340702 0.123474 0.000000
0.367347 0.123474 0.000000
0.391020 0.123474 0.000000
0.483862 0.117274 0.000000
0.514361 0.117077 0.000000
0.544859 0.116902 0.000000
0.575358 0.116747 0.000000
0.605856 0.116607 0.000000
0.636355 0.116481 0.000000
0.666853 0.116367 0.000000
0.697352 0.116263 0.000000
0.727850 0.116168 0.000000
0.758349 0.116081 0.000000
0.788847 0.116000 0.000000
0.819346 0.115926 0.000000
0.850688 0.116264 0.000000
0.850688 0.116264 0.000000
0.850688 0.116264 0.000000
0.850688 0.116264 0.000000
0.000000 0.147435 0.000000
0.027495 0.147435 0.000000
0.051971 0.147435 0.000000
0.076032 0.147435 0.000000
0.100093 0.147435 0.000000
0.124154 0.147435 0.000000
0.148215 0.147435 0.000000
0.172276 0.147435 0.000000
0.196337 0.147435 0.000000
0.220398 0.147435 0.000000
0.244459 0.147435 0.000000
0.268520 0.147435 0.000000
0.292580 0.147435 0.000000
0.316641 0.147435 0.000000
0.340702 0.147435 0.000000
0.367347 0.147435 0.000000
0.391020 0.147435 0.000000
0.483862 0.140031 0.000000
0.514361 0.139796 0.000000
0.544859 0.139587 0.000000
0.575358 0.139401 0.000000
0.605856 0.139235 0.000000
0.636355 0.139084 0.000000
0.666853 0.138948 0.000000
0.697352 0.138824 0.000000
0.727850 0.138710 0.000000
0.758349 0.138606 0.000000
0.788847 0.138510 0.000000
0.819346 0.138421 0.000000
0.850688 0.138826 0.000000
0.850688 0.138826 0.000000
0.850688 0.138826 0.000000
0.850688 0.138826 0.000000
0.000000 0.171395 0.000000
0.027495 0.171395 0.000000
0.051971 0.171395 0.000000
0.076032 0.171395 0.000000
0.100093 0.171395 0.000000
0.124154 0.171395 0.000000
0.148215 0.171395 0.000000
0.172276 0.171395 0.000000
0.196337 0.171395 0.000000
0.220398 0.171395 0.000000
0.244459 0.171395 0.000000
0.268520 0.171395 0.000000
0.292580 0.171395 0.000000
0.316641 0.171395 0.000000
0.340702 0.171395 0.000000
0.367347 0.171395 0.000000
0.391020 0.171395 0.000000
0.483862 0.162788 0.000000
0.514361 0.162514 0.000000
0.544859 0.162272 0.000000
0.575358 0.162056 0.000000
0.605856 0.161862 0.000000
0.636355 0.161688 0.000000
0.666853 0.161529 0.000000
0.697352 0.161385 0.000000
0.727850 0.161253 0.000000
0.758349 0.161132 0.000000
0.788847 0.161020 0.000000
0.819346 0.160917 0.000000
0.850688 0.161387 0.000000
0.850688 0.161387 0.000000
0.850688 0.161387 0.000000
0.850688 0.161387 0.000000
0.000000 0.195356 0.000000
0.027495 0.195356 0.000000
0.051971 0.195356 0.000000
0.076032 0.195356 0.000000
0.100093 0.195356 0.000000
0.124154 0.195356 0.000000
0.148215 0.195356 0.000000
0.172276 0.195356 0.000000
0.196337 0.195356 0.000000
0.220398 0.195356 0.000000
0.244459 0.195356 0.000000
0.268520 0.195356 0.000000
0.292580 0.195356 0.000000
0.316641 0.195356 0.000000
0.340702 0.195356 0.000000
0.367347 0.195356 0.000000
0.391020 0.195356 0.000000
0.483862 0.185545 0.000000
0.514361 0.185233 0.000000
0.544859 0.184957 0.000000
0.575358 0.184711 0.000000
0.605856 0.184490 0.000000
0.636355 0.184291 0.000000
0.666853 0.184110 0.000000
0.697352 0.183946 0.000000
0.727850 0.183795 0.000000
0.758349 0.183657 0.000000
0.788847 0.183530 0.000000
0.819346 0.183412 0.000000
0.850688 0.183948 0.000000
0.850688 0.183948 0.000000
0.850688 0.183948 0.000000
0.850688 0.183948 0.000000
0.000000 0.219316 0.000000
0.027495 0.219316 0.000000
0.051971 0.219316 0.000000
0.076032 0.219316 0.000000
0.100093 0.219316 0.000000
0.124154 0.219316 0.000000
0.148215 0.219316 0.000000
0.172276 0.219316 0.000000
0.196337 0.219316 0.000000
0.220398 0.219316 0.000000
0.244459 0.219316 0.000000
0.268520 0.219316 0.000000
0.292580 0.219316 0.000000
0.316641 0.219316 0.000000
0.340702 0.219316 0.000000
0.367347 0.219316 0.000000
0.391020 0.219316 0.000000
0.483862 0.208302 0.000000
0.514361 0.207952 0.000000
0.544859 0.207642 0.000000
0.575358 0.207366 0.000000
0.605856 0.207118 0.000000
0.636355 0.206894 0.000000
0.666853 0.206691 0.000000
0.697352 0.206507 0.000000
0.727850 0.206338 0.000000
0.758349 0.206183 0.000000
0.788847 0.206040 0.000000
0.819346 0.205908 0.000000
0.850688 0.206509 0.000000
0.850688 0.206509 0.000000
0.850688 0.206509 0.000000
0.850688 0.206509 0.000000
0.000000 0.243276 0.000000
0.027495 0.243276 0.000000
0.051971 0.243276 0.000000
0.076032 0.243276 0.000000
0.100093 0.243276 0.000000
0.124154 0.243276 0.000000
0.148215 0.243276 0.000000
0.172276 0.243276 0.000000
0.196337 0.243276 0.000000
0.220398 0.243276 0.000000
0.244459 0.243276 0.000000
0.268520 0.243276 0.000000
0.292580 0.243276 0.000000
0.316641 0.243276 0.000000
0.340702 0.243276 0.000000
0.367347 0.243276 0.000000
0.391020 0.243276 0.000000
0.483862 0.231059 0.000000
0.514361 0.230671 0.000000
0.544859 0.230327 0.000000
0.575358 0.230020 0.000000
0.605856 0.229745 0.000000
0.636355 0.229497 0.000000
0.666853 0.229273 0.000000
0.697352 0.229068 0.000000
0.727850 0.228880 0.000000
0.758349 0.228708 0.000000
0.788847 0.228550 0.000000
0.819346 0.228403 0.000000
0.850688 0.229070 0.000000
0.850688 0.229070 0.000000
0.850688 0.229070 0.000000
0.850688 0.229070 0.000000
0.000000 0.267237 0.000000
0.027495 0.267237 0.000000
0.051971 0.267237 0.000000
0.076032 0.267237 0.000000
0.100093 0.267237 0.000000
0.124154 0.267237 0.000000
0.148215 0.267237 0.000000
0.172276 0.267237 0.000000
0.196337 0.267237 0.000000
0.220398 0.267237 0.000000
0.244459 0.267237 0.000000
0.268520 0.267237 0.000000
0.292580 0.267237 0.000000
0.316641 0.267237 0.000000
0.340702 0.267237 0.000000
0.367347 0.267237 0.000000
0.391020 0.267237 0.000000
0.483862 0.253816 0.000000
0.514361 0.253390 0.000000
0.544859 0.253012 0.000000
0.575358 0.252675 0.000000
0.605856 0.252373 0.000000
0.636355 0.252101 0.000000
0.666853 0.251854 0.000000
0.697352 0.251629 0.000000
0.727850 0.251423 0.000000
0.758349 0.251234 0.000000
0.788847 0.251060 0.000000
0.819346 0.250899 0.000000
0.850688 0.251632 0.000000
0.850688 0.251632 0.000000
0.850688 0.251632 0.000000
0.850688 0.251632 0.000000
0.000000 0.291197 0.000000
0.027495 0.291197 0.000000
0.051971 0.291197 0.000000
0.076032 0.291197 0.000000
0.100093 0.291197 0.000000
0.124154 0.291197 0.000000
0.148215 0.291197 0.000000
0.172276 0.291197 0.000000
0.196337 0.291197 0.000000
0.220398 0.291197 0.000000
0.244459 0.291197 0.000000
0.268520 0.291197 0.000000
0.292580 0.291197 0.000000
0.316641 0.291197 0.000000
0.340702 0.291197 0.000000
0.367347 0.291197 0.000000
0.391020 0.291197 0.000000
0.483862 0.276574 0.000000
0.514361 0.276109 0.000000
0.544859 0.275697 0.000000
0.575358 0.275330 0.000000
0.605856 0.275001 0.000000
0.636355 0.274704 0.000000
0.666853 0.274435 0.000000
0.697352 0.274190 0.000000
0.727850 0.273965 0.000000
0.758349 0.273759 0.000000
0.788847 0.273570 0.000000
0.819346 0.273394 0.000000
0.850688 0.274193 0.000000
0.850688 0.274193 0.000000
0.850688 0.274193 0.000000
0.850688 0.274193 0.000000
0.000000 0.315157 0.000000
0.027495 0.315157 0.000000
0.051971 0.315157 0.000000
0.076032 0.315157 0.000000
0.100093 0.315157 0.000000
0.124154 0.315157 0.000000
0.148215 0.315157 0.000000
0.172276 0.315157 0.000000
0.196337 0.315157 0.000000
0.220398 0.315157 0.000000
0.244459 0.315157 0.000000
0.268520 0.315157 0.000000
0.292580 0.315157 0.000000
0.316641 0.315157 0.000000
0.340702 0.315157 0.000000
0.367347 0.315157 0.000000
0.391020 0.315157 0.000000
0.483862 0.299331 0.000000
0.514361 0.298827 0.000000
0.544859 0.298382 0.000000
0.575358 0.297985 0.000000
0.605856 0.297629 0.000000
0.636355 0.297307 0.000000
0.666853 0.297016 0.000000
0.697352 0.296750 0.000000
0.727850 0.296508 0.000000
0.758349 0.296285 0.000000
0.788847 0.296080 0.000000
0.819346 0.295890 0.000000
0.850688 0.296754 0.000000
0.850688 0.296754 0.000000
0.850688 0.296754 0.000000
0.850688 0.296754 0.000000
0.000000 0.339118 0.000000
0.027495 0.339118 0.000000
0.051971 0.339118 0.000000
0.076032 0.339118 0.000000
0.100093 0.339118 0.000000
0.124154 0.339118 0.000000
0.148215 0.339118 0.000000
0.172276 0.339118 0.000000
0.196337 0.339118 0.000000
0.220398 0.339118 0.000000
0.244459 0.339118 0.000000
0.268520 0.339118 0.000000
0.292580 0.339118 0.000000
0.316641 0.339118 0.000000
0.340702 0.339118 0.000000
0.367347 0.339118 0.000000
0.391020 0.339118 0.000000
0.483862 0.322088 0.000000
0.514361 0.321546 0.000000
0.544859 0.321067 0.000000
0.575358 0.320640 0.000000
0.605856 0.320256 0.000000
0.636355 0.319911 0.000000
0.666853 0.319597 0.000000
0.697352 0.319311 0.000000
0.727850 0.319050 0.000000
0.758349 0.318810 0.000000
0.788847 0.318590 0.000000
0.819346 0.318385 0.000000
0.850688 0.319315 0.000000
0.850688 0.319315 0.000000
0.850688 0.319315 0.000000
0.850688 0.319315 0.000000
0.000000 0.365689 0.000000
0.027495 0.365689 0.000000
0.051971 0.365689 0.000000
0.076032 0.365689 0.000000
0.100093 0.365689 0.000000
0.124154 0.365689 0.000000
0.148215 0.365689 0.000000
0.172276 0.365689 0.000000
0.196337 0.365689 0.000000
0.220398 0.365689 0.000000
0.244459 0.365689 0.000000
0.268520 0.365689 0.000000
0.292580 0.365689 0.000000
0.316641 0.365689 0.000000
0.340702 0.365689 0.000000
0.367347 0.365689 0.000000
0.391020 0.365689 0.000000
0.483862 0.347325 0.000000
0.514361 0.346741 0.000000
0.544859 0.346224 0.000000
0.575358 0.345763 0.000000
0.605856 0.345350 0.000000
0.636355 0.344977 0.000000
0.666853 0.344639 0.000000
0.697352 0.344331 0.000000
0.727850 0.344049 0.000000
0.758349 0.343791 0.000000
0.788847 0.430933 0.000000
0.819346 0.432027 0.000000
0.850688 0.434569 0.000000
0.850688 0.434569 0.000000
0.850688 0.434569 0.000000
0.850688 0.434569 0.000000
0.000000 0.389263 0.000000
0.027495 0.389263 0.000000
0.051971 0.389263 0.000000
0.076032 0.389263 0.000000
0.100093 0.389263 0.000000
0.124154 0.389263 0.000000
0.148215 0.389263 0.000000
0.172276 0.389263 0.000000
0.196337 0.389263 0.000000
0.220398 0.389263 0.000000
0.244459 0.389263 0.000000
0.268520 0.389263 0.000000
0.292580 0.389263 0.000000
0.316641 0.389263 0.000000
0.340702 0.389263 0.000000
0.367347 0.389263 0.000000
0.391020 0.389263 0.000000
0.483862 0.369715 0.000000
0.514361 0.369093 0.000000
0.544859 0.368543 0.000000
0.575358 0.368053 0.000000
0.605856 0.454603 0.000000
0.636355 0.455489 0.000000
0.666853 0.456418 0.000000
0.697352 0.457384 0.000000
0.727850 0.458383 0.000000
0.758349 0.459410 0.000000
0.788847 0.460463 0.000000
0.819346 0.461538 0.000000
0.850688 0.464165 0.000000
0.850688 0.464165 0.000000
0.850688 0.464165 0.000000
0.850688 0.464165 0.000000
0.000000 0.481472 0.000000
0.026118 0.481472 0.000000
0.049369 0.481472 0.000000
0.072224 0.481472 0.000000
0.095080 0.481472 0.000000
0.117936 0.481472 0.000000
0.140792 0.481472 0.000000
0.163648 0.481472 0.000000
0.186504 0.481472 0.000000
0.209359 0.481472 0.000000
0.232215 0.481472 0.000000
0.255071 0.481472 0.000000
0.277927 0.481472 0.000000
0.300783 0.481472 0.000000
0.323639 0.481472 0.000000
0.348949 0.481472 0.000000
0.371436 0.481472 0.000000
0.483862 0.481512 0.000000
0.514361 0.482086 0.000000
0.544859 0.482749 0.000000
0.575358 0.483487 0.000000
0.605856 0.484287 0.000000
0.636355 0.485140 0.000000
0.666853 0.486040 0.000000
0.697352 0.486980 0.000000
0.727850 0.487955 0.000000
0.758349 0.488960 0.000000
0.788847 0.489992 0.000000
0.819346 0.491048 0.000000
0.850688 0.493761 0.000000
0.850688 0.493761 0.000000
0.850688 0.493761 0.000000
0.850688 0.493761 0.000000
0.000000 0.511843 0.000000
0.026074 0.511843 0.000000
0.049285 0.511843 0.000000
0.072102 0.511843 0.000000
0.094919 0.511843 0.000000
0.117737 0.511843 0.000000
0.140554 0.511843 0.000000
0.163371 0.511843 0.000000
0.186188 0.511843 0.000000
0.209005 0.511843 0.000000
0.231823 0.511843 0.000000
0.254640 0.511843 0.000000
0.277457 0.511843 0.000000
0.300274 0.511843 0.000000
0.323091 0.511843 0.000000
0.348359 0.511843 0.000000
0.370808 0.511843 0.000000
0.484382 0.511843 0.000000
0.514361 0.511890 0.000000
0.544859 0.512508 0.000000
0.575358 0.513206 0.000000
0.605856 0.513970 0.000000
0.636355 0.514792 0.000000
0.666853 0.515663 0.000000
0.697352 0.516576 0.000000
0.727850 0.517526 0.000000
0.758349 0.518509 0.000000
0.788847 0.519521 0.000000
0.819346 0.520558 0.000000
0.850688 0.523358 0.000000
0.850688 0.523358 0.000000
0.850688 0.523358 0.000000
0.850688 0.523358 0.000000
0.000000 0.542214 0.000000
0.026035 0.542214 0.000000
0.049211 0.542214 0.000000
0.071994 0.542214 0.000000
0.094777 0.542214 0.000000
0.117560 0.542214 0.000000
0.140343 0.542214 0.000000
0.163126 0.542214 0.000000
0.185909 0.542214 0.000000
0.208692 0.542214 0.000000
0.231475 0.542214 0.000000
0.254258 0.542214 0.000000
0.277041 0.542214 0.000000
0.299824 0.542214 0.000000
0.322607 0.542214 0.000000
0.347837 0.542214 0.000000
0.370252 0.542214 0.000000
0.485032 0.542214 0.000000
0.514919 0.542214 0.000000
0.544859 0.542267 0.000000
0.575358 0.542925 0.000000
0.605856 0.543654 0.000000
0.636355 0.544444 0.000000
0.666853 0.545285 0.000000
0.697352 0.546172 0.000000
0.727850 0.547098 0.000000
0.758349 0.548059 0.000000
0.788847 0.549050 0.000000
0.819346 0.550068 0.000000
0.850688 0.552954 0.000000
0.850688 0.552954 0.000000
0.850688 0.552954 0.000000
0.850688 0.552954 0.000000
0.000000 0.572585 0.000000
0.026000 0.572585 0.000000
0.049145 0.572585 0.000000
0.071898 0.572585 0.000000
0.094650 0.572585 0.000000
0.117403 0.572585 0.000000
0.140155 0.572585 0.000000
0.162908 0.572585 0.000000
0.185660 0.572585 0.000000
0.208413 0.572585 0.000000
0.231165 0.572585 0.000000
0.253918 0.572585 0.000000
0.276670 0.572585 0.000000
0.299423 0.572585 0.000000
0.322175 0.572585 0.000000
0.347371 0.572585 0.000000
0.369756 0.572585 0.000000
0.485757 0.572585 0.000000
0.515604 0.572585 0.000000
0.545451 0.572585 0.000000
0.575358 0.572644 0.000000
0.605856 0.573338 0.000000
0.636355 0.574095 0.000000
0.666853 0.574908 0.000000
0.697352 0.575768 0.000000
0.727850 0.576670 0.000000
0.758349 0.577609 0.000000
0.788847 0.578579 0.000000
0.819346 0.579579 0.000000
0.850688 0.582551 0.000000
0.850688 0.582551 0.000000
0.850688 0.582551 0.000000
0.850688 0.582551 0.000000
0.000000 0.602956 0.000000
0.025969 0.602956 0.000000
0.049086 0.602956 0.000000
0.071811 0.602956 0.000000
0.094536 0.602956 0.000000
0.117262 0.602956 0.000000
0.139987 0.602956 0.000000
0.162712 0.602956 0.000000
0.185437 0.602956 0.000000
0.208162 0.602956 0.000000
0.230887 0.602956 0.000000
0.253612 0.602956 0.000000
0.276337 0.602956 0.000000
0.299063 0.602956 0.000000
0.321788 0.602956 0.000000
0.346953 0.602956 0.000000
0.456734 0.602956 0.000000
0.486545 0.602956 0.000000
0.516357 0.602956 0.000000
0.546168 0.602956 0.000000
0.575980 0.602956 0.000000
0.605856 0.603021 0.000000
0.636355 0.603747 0.000000
0.666853 0.604530 0.000000
0.697352 0.605364 0.000000
0.727850 0.606242 0.000000
0.758349 0.607158 0.000000
0.788847 0.608108 0.000000
0.819346 0.609089 0.000000
0.850688 0.612147 0.000000
0.850688 0.612147 0.000000
0.850688 0.612147 0.000000
0.850688 0.612147 0.000000
0.000000 0.633327 0.000000
0.025941 0.633327 0.000000
0.049033 0.633327 0.000000
0.071733 0.633327 0.000000
0.094434 0.633327 0.000000
0.117134 0.633327 0.000000
0.139835 0.633327 0.000000
0.162535 0.633327 0.000000
0.185236 0.633327 0.000000
0.207936 0.633327 0.000000
0.230637 0.633327 0.000000
0.253337 0.633327 0.000000
0.276037 0.633327 0.000000
0.298738 0.633327 0.000000
0.321438 0.633327 0.000000
0.346577 0.633327 0.000000
0.457609 0.633327 0.000000
0.487388 0.633327 0.000000
0.517167 0.633327 0.000000
0.546946 0.633327 0.000000
0.576725 0.633327 0.000000
0.606504 0.633327 0.000000
0.636355 0.633398 0.000000
0.666853 0.634153 0.000000
0.697352 0.634960 0.000000
0.727850 0.635814 0.000000
0.758349 0.636708 0.000000
0.788847 0.637638 0.000000
0.819346 0.638599 0.000000
0.850688 0.641744 0.000000
0.850688 0.641744 0.000000
0.850688 0.641744 0.000000
0.850688 0.641744 0.000000
0.000000 0.663698 0.000000
0.025915 0.663698 0.000000
0.048985 0.663698 0.000000
0.071663 0.663698 0.000000
0.094341 0.663698 0.000000
0.117019 0.663698 0.000000
0.139697 0.663698 0.000000
0.162375 0.663698 0.000000
0.185053 0.663698 0.000000
0.207731 0.663698 0.000000
0.230409 0.663698 0.000000
0.253087 0.663698 0.000000
0.275765 0.663698 0.000000
0.298444 0.663698 0.000000
0.321122 0.663698 0.000000
0.346235 0.663698 0.000000
0.458528 0.663698 0.000000
0.488277 0.663698 0.000000
0.518027 0.663698 0.000000
0.547777 0.663698 0.000000
0.577527 0.663698 0.000000
0.607276 0.663698 0.000000
0.637026 0.663698 0.000000
0.666853 0.663776 0.000000
0.697352 0.664556 0.000000
0.727850 0.665386 0.000000
0.758349 0.666258 0.000000
0.788847 0.667167 0.000000
0.819346 0.668109 0.000000
0.850688 0.671340 0.000000
0.850688 0.671340 0.000000
0.850688 0.671340 0.000000
0.850688 0.671340 0.000000
0.000000 0.694069 0.000000
0.025892 0.694069 0.000000
0.048941 0.694069 0.000000
0.071598 0.694069 0.000000
0.094256 0.694069 0.000000
0.116914 0.694069 0.000000
0.139571 0.694069 0.000000
0.162229 0.694069 0.000000
0.184887 0.694069 0.000000
0.207545 0.694069 0.000000
0.230202 0.694069 0.000000
0.252860 0.694069 0.000000
0.275518 0.694069 0.000000
0.298175 0.694069 0.000000
0.320833 0.694069 0.000000
0.345924 0.694069 0.000000
0.459484 0.694069 0.000000
0.489207 0.694069 0.000000
0.518930 0.694069 0.000000
0.548653 0.694069 0.000000
0.578376 0.694069 0.000000
0.608099 0.694069 0.000000
0.637822 0.694069 0.000000
0.667545 0.694069 0.000000
0.697352 0.694153 0.000000
0.727850 0.694958 0.000000
0.758349 0.695807 0.000000
0.788847 0.696696 0.000000
0.819346 0.697619 0.000000
0.850688 0.700936 0.000000
0.850688 0.700936 0.000000
0.850688 0.700936 0.000000
0.850688 0.700936 0.000000
0.000000 0.724440 0.000000
0.025871 0.724440 0.000000
0.048900 0.724440 0.000000
0.071539 0.724440 0.000000
0.094178 0.724440 0.000000
0.116818 0.724440 0.000000
0.139457 0.724440 0.000000
0.162096 0.724440 0.000000
0.184735 0.724440 0.000000
0.207374 0.724440 0.000000
0.230013 0.724440 0.000000
0.252652 0.724440 0.000000
0.275291 0.724440 0.000000
0.297930 0.724440 0.000000
0.320569 0.724440 0.000000
0.345640 0.724440 0.000000
0.460474 0.724440 0.000000
0.490172 0.724440 0.000000
0.519871 0.724440 0.000000
0.549569 0.724440 0.000000
0.579268 0.724440 0.000000
0.608967 0.724440 0.000000
0.638665 0.724440 0.000000
0.668364 0.724440 0.000000
0.698062 0.724440 0.000000
0.727850 0.724530 0.000000
0.758349 0.725357 0.000000
0.788847 0.726225 0.000000
0.819346 0.727130 0.000000
0.850688 0.730533 0.000000
0.850688 0.730533 0.000000
0.850688 0.730533 0.000000
0.850688 0.730533 0.000000
0.000000 0.754811 0.000000
0.025851 0.754811 0.000000
0.048863 0.754811 0.000000
0.071485 0.754811 0.000000
0.094107 0.754811 0.000000
0.116729 0.754811 0.000000
0.139351 0.754811 0.000000
0.161973 0.754811 0.000000
0.184595 0.754811 0.000000
0.207217 0.754811 0.000000
0.229839 0.754811 0.000000
0.252461 0.754811 0.000000
0.275083 0.754811 0.000000
0.297705 0.754811 0.000000
0.320327 0.754811 0.000000
0.345378 0.754811 0.000000
0.461492 0.754811 0.000000
0.491168 0.754811 0.000000
0.520844 0.754811 0.000000
0.550520 0.754811 0.000000
0.580197 0.754811 0.000000
0.609873 0.754811 0.000000
0.639549 0.754811 0.000000
0.669225 0.754811 0.000000
