docs/luts/fuji_recipes/Classic_GB_Chrome.cube
TITLE "Fujifilm Recipe: GB Chrome (Classic)"
# FilmSim=Classic HL=-1 SH=2 Col=-1 WB=Auto WBR=0 WBB=0
LUT_3D_SIZE 5
DOMAIN_MIN 0.0 0.0 0.0
DOMAIN_MAX 1.0 1.0 1.0
0.000000 0.000000 0.000000
0.182368 0.045792 0.045792
0.364737 0.091583 0.091583
0.586118 0.141234 0.141234
0.769386 0.186667 0.186667
0.045558 0.181439 0.045558
0.182368 0.181672 0.045792
0.364737 0.227464 0.091583
0.586118 0.277114 0.141234
0.769386 0.322547 0.186667
0.091159 0.363045 0.091159
0.227735 0.363045 0.091159
0.364737 0.363470 0.091583
0.586118 0.413120 0.141234
0.769386 0.458553 0.186667
0.140622 0.583652 0.140622
0.277199 0.583652 0.140622
0.413775 0.583652 0.140622
0.586118 0.584270 0.141234
0.769386 0.630243 0.186667
0.185865 0.766154 0.185865
0.322442 0.766154 0.185865
0.459019 0.766154 0.185865
0.631280 0.766154 0.185865
0.769386 0.766965 0.186667
0.045087 0.045087 0.179562
0.182368 0.045792 0.180267
0.364737 0.091583 0.226059
0.586118 0.141234 0.275709
0.769386 0.186667 0.321142
0.045558 0.181439 0.180034
0.227455 0.226759 0.225354
0.409824 0.272551 0.271146
0.631805 0.322260 0.320855
0.815073 0.367693 0.366288
0.091159 0.363045 0.225634
0.272822 0.408132 0.270721
0.409824 0.408557 0.271146
0.631805 0.458266 0.320855
0.815073 0.536938 0.366288
0.140622 0.583652 0.275097
0.322345 0.629339 0.320244
0.458922 0.629339 0.320244
0.631805 0.629957 0.320855
0.815073 0.675931 0.366288
0.185865 0.766154 0.320341
0.367588 0.811841 0.365487
0.537422 0.811841 0.365487
0.676967 0.811841 0.365487
0.815073 0.812652 0.366288
0.090301 0.090301 0.359631
0.226878 0.090301 0.359631
0.364737 0.091583 0.360913
0.586118 0.141234 0.410563
0.769386 0.186667 0.455996
0.090301 0.226182 0.359631
0.272436 0.271740 0.405189
0.410295 0.273022 0.406471
0.632282 0.322732 0.456181
0.815550 0.368165 0.534803
0.091159 0.363045 0.360488
0.273527 0.408836 0.406280
0.455038 0.453771 0.451214
0.681263 0.540423 0.537810
0.864590 0.586455 0.583843
0.140622 0.583652 0.409952
0.323051 0.630053 0.455804
0.541098 0.678796 0.537191
0.681263 0.679415 0.537810
0.864590 0.725448 0.583843
0.185865 0.766154 0.455195
0.368294 0.812555 0.534229
0.586938 0.861357 0.583031
0.726484 0.861357 0.583031
0.864590 0.862169 0.583843
0.139389 0.139389 0.578676
0.275965 0.139389 0.578676
0.412542 0.139389 0.578676
0.586118 0.141234 0.580542
0.769386 0.186667 0.626516
0.139389 0.275269 0.578676
0.321583 0.320887 0.624840
0.458160 0.320887 0.624840
0.632282 0.322732 0.626707
0.815550 0.368165 0.672680
0.139389 0.411275 0.578676
0.321817 0.457127 0.625077
0.540724 0.539429 0.674694
0.682139 0.541299 0.676564
0.865466 0.587331 0.722596
0.140622 0.583652 0.579924
0.323051 0.630053 0.626325
0.542408 0.680106 0.676378
0.727491 0.725643 0.721915
0.910818 0.771676 0.767948
0.185865 0.766154 0.625705
0.368294 0.812555 0.672106
0.588248 0.862667 0.722218
0.772711 0.907585 0.767136
0.910818 0.908397 0.767948
0.184249 0.184249 0.759632
0.320825 0.184249 0.759632
0.457402 0.184249 0.759632
0.629644 0.184249 0.759632
0.769386 0.186667 0.762079
0.184249 0.320129 0.759632
0.366443 0.365747 0.805797
0.536263 0.365747 0.805797
0.675809 0.365747 0.805797
0.815550 0.368165 0.808244
0.184249 0.456135 0.759632
0.366677 0.535205 0.806034
0.586176 0.584881 0.855710
0.725722 0.584881 0.855710
0.865466 0.587331 0.858160
0.184249 0.627797 0.759632
0.366677 0.674198 0.806034
0.586610 0.724308 0.856144
0.772323 0.770476 0.902312
0.912068 0.772926 0.904761
0.185865 0.766154 0.761268
0.368294 0.812555 0.807669
0.588248 0.862667 0.857782
0.774581 0.909454 0.904569
0.956270 0.953849 0.948963
