docs/luts/fuji_recipes/Classic_RR_Dramatic_Classic_Chrome.cube
TITLE "Fujifilm Recipe: RR Dramatic Classic Chrome (Classic)"
# FilmSim=Classic HL=3 SH=3 Col=0 WB=Auto WBR=-1 WBB=1
LUT_3D_SIZE 5
DOMAIN_MIN 0.0 0.0 0.0
DOMAIN_MAX 1.0 1.0 1.0
0.000000 0.000000 0.000000
0.206513 0.032230 0.032230
0.411514 0.064225 0.064225
0.717270 0.095313 0.095313
0.873536 0.114476 0.114476
0.032891 0.210749 0.032891
0.207174 0.210749 0.032891
0.411514 0.242082 0.064225
0.717270 0.273171 0.095313
0.873536 0.292333 0.114476
0.065539 0.419936 0.065539
0.239822 0.419936 0.065539
0.412829 0.419936 0.065539
0.717270 0.512359 0.095313
0.873536 0.536747 0.114476
0.097292 0.733403 0.097292
0.271574 0.733403 0.097292
0.505831 0.733403 0.097292
0.719788 0.733403 0.097292
0.873536 0.755273 0.114476
0.116863 0.893006 0.116863
0.291146 0.893006 0.116863
0.530740 0.893006 0.116863
0.744697 0.893006 0.116863
0.876574 0.893006 0.116863
0.033374 0.033374 0.213841
0.207656 0.033374 0.213841
0.411514 0.064225 0.244692
0.717270 0.095313 0.275781
0.873536 0.114476 0.294943
0.033374 0.211232 0.213841
0.239887 0.243462 0.246072
0.505607 0.274974 0.277584
0.759132 0.306063 0.308672
0.915398 0.325225 0.327834
0.065539 0.419936 0.246006
0.272052 0.515485 0.278237
0.507894 0.516940 0.279381
0.759746 0.554835 0.309155
0.916012 0.579223 0.328317
0.097292 0.733403 0.277759
0.303804 0.774423 0.309989
0.548307 0.775879 0.311133
0.762264 0.775879 0.311133
0.916012 0.797749 0.328317
0.116863 0.893006 0.297331
0.323376 0.934026 0.329561
0.573216 0.935482 0.330705
0.787173 0.935482 0.330705
0.919050 0.935482 0.330705
0.066532 0.066532 0.426299
0.240815 0.066532 0.426299
0.413822 0.066532 0.426299
0.717270 0.095313 0.519193
0.873536 0.114476 0.543581
0.066532 0.244390 0.426299
0.273045 0.276620 0.523583
0.508544 0.277281 0.524424
0.759132 0.306063 0.561055
0.915398 0.325225 0.585443
0.066532 0.420929 0.426299
0.273045 0.516749 0.523583
0.548423 0.557469 0.564303
0.800683 0.595772 0.602607
0.956949 0.620161 0.626995
0.097292 0.733403 0.521711
0.303804 0.774423 0.562731
0.587571 0.815144 0.603451
0.804465 0.818080 0.606388
0.958213 0.839951 0.628259
0.116863 0.893006 0.546620
0.323376 0.934026 0.587640
0.612480 0.974746 0.628361
0.829374 0.977683 0.631297
0.961252 0.977683 0.631297
0.098803 0.098803 0.745727
0.273085 0.098803 0.745727
0.507754 0.098803 0.745727
0.721711 0.098803 0.745727
0.873536 0.114476 0.765674
0.098803 0.276661 0.745727
0.305316 0.308891 0.786747
0.549616 0.309552 0.787589
0.763573 0.309552 0.787589
0.915398 0.325225 0.807536
0.098803 0.516800 0.745727
0.305316 0.557820 0.786747
0.589495 0.598541 0.827468
0.805125 0.600214 0.829141
0.956949 0.620161 0.849088
0.098803 0.735326 0.745727
0.305316 0.776347 0.786747
0.589495 0.817067 0.827468
0.843019 0.856634 0.867035
0.997362 0.879099 0.889500
0.116863 0.893006 0.768713
0.323376 0.934026 0.809733
0.612480 0.974746 0.850453
0.866005 1.000000 0.890021
1.000000 1.000000 0.894462
0.115832 0.115832 0.884594
0.290114 0.115832 0.884594
0.529427 0.115832 0.884594
0.743384 0.115832 0.884594
0.875262 0.115832 0.884594
0.115832 0.293689 0.884594
0.322344 0.325920 0.925614
0.571289 0.326581 0.926456
0.785246 0.326581 0.926456
0.917123 0.326581 0.926456
0.115832 0.538473 0.884594
0.322344 0.579493 0.925614
0.611167 0.620214 0.966335
0.826798 0.621886 0.968008
0.958675 0.621886 0.968008
0.115832 0.756999 0.884594
0.322344 0.798020 0.925614
0.611167 0.838740 0.966335
0.864692 0.878307 1.000000
0.999087 0.880825 1.000000
0.116863 0.893006 0.885907
0.323376 0.934026 0.926927
0.612480 0.974746 0.967647
0.866005 1.000000 1.000000
1.000000 1.000000 1.000000
