docs/luts/fuji_recipes/Classic_GB_Classy_Chrome.cube
TITLE "Fujifilm Recipe: GB Classy Chrome (Classic)"
# FilmSim=Classic HL=-1 SH=-1 Col=0 WB=Daylight WBR=0 WBB=0
LUT_3D_SIZE 33
DOMAIN_MIN 0.0 0.0 0.0
DOMAIN_MAX 1.0 1.0 1.0
0.040000 0.040000 0.040000
0.065343 0.042679 0.042679
0.090477 0.045567 0.045567
0.115512 0.048555 0.048555
0.140492 0.051596 0.051596
0.165439 0.054671 0.054671
0.190365 0.057767 0.057767
0.215275 0.060879 0.060879
0.240175 0.064001 0.064001
0.265066 0.067132 0.067132
0.289952 0.070268 0.070268
0.314833 0.073410 0.073410
0.339709 0.076555 0.076555
0.364583 0.079703 0.079703
0.389455 0.082854 0.082854
0.414324 0.086006 0.086006
0.439191 0.089161 0.089161
0.466864 0.092674 0.092674
0.491328 0.095780 0.095780
0.496503 0.099561 0.099561
0.520464 0.102684 0.102684
0.544424 0.105809 0.105809
0.568384 0.108934 0.108934
0.592342 0.112060 0.112060
0.616300 0.115187 0.115187
0.640258 0.118314 0.118314
0.664215 0.121441 0.121441
0.688171 0.124569 0.124569
0.712128 0.127698 0.127698
0.736083 0.130827 0.130827
0.760039 0.133956 0.133956
0.783994 0.137085 0.137085
0.808877 0.139287 0.139287
0.046213 0.065485 0.043977
0.065742 0.063281 0.044018
0.091485 0.066959 0.048035
0.117227 0.070911 0.052053
0.140492 0.073598 0.051596
0.165439 0.076603 0.054671
0.190365 0.079646 0.057767
0.215275 0.082715 0.060879
0.240175 0.085803 0.064001
0.265066 0.088905 0.067132
0.289952 0.092017 0.070268
0.314833 0.095138 0.073410
0.339709 0.098265 0.076555
0.364583 0.101398 0.079703
0.389455 0.104535 0.082854
0.414324 0.107675 0.086006
0.439191 0.110819 0.089161
0.466864 0.114321 0.092674
0.491328 0.117419 0.095780
0.496503 0.121213 0.099561
0.520464 0.124329 0.102684
0.544424 0.127446 0.105809
0.568384 0.130565 0.108934
0.592342 0.133685 0.112060
0.616300 0.136806 0.115187
0.640258 0.139928 0.118314
0.664215 0.143051 0.121441
0.688171 0.146174 0.124569
0.712128 0.149298 0.127698
0.736083 0.152423 0.130827
0.760039 0.155549 0.133956
0.783994 0.158675 0.137085
0.808877 0.160934 0.139287
0.052452 0.091080 0.047972
0.074870 0.091080 0.047972
0.091485 0.086650 0.048035
0.117227 0.090167 0.052053
0.142970 0.094002 0.056070
0.168712 0.097934 0.060088
0.194454 0.101904 0.064106
0.215275 0.104646 0.060879
0.240175 0.107699 0.064001
0.265066 0.110772 0.067132
0.289952 0.113860 0.070268
0.314833 0.116960 0.073410
0.339709 0.120069 0.076555
0.364583 0.123186 0.079703
0.389455 0.126310 0.082854
0.414324 0.129438 0.086006
0.439191 0.132571 0.089161
0.466864 0.136062 0.092674
0.491328 0.139151 0.095780
0.496503 0.142959 0.099561
0.520464 0.146067 0.102684
0.544424 0.149177 0.105809
0.568384 0.152289 0.108934
0.592342 0.155403 0.112060
0.616300 0.158519 0.115187
0.640258 0.161635 0.118314
0.664215 0.164753 0.121441
0.688171 0.167873 0.124569
0.712128 0.170993 0.127698
0.736083 0.174114 0.130827
0.760039 0.177235 0.133956
0.783994 0.180358 0.137085
0.808877 0.182674 0.139287
0.058701 0.116715 0.051973
0.081352 0.116715 0.051973
0.103067 0.116715 0.051973
0.117227 0.110049 0.052053
0.142970 0.113478 0.056070
0.168712 0.117213 0.060088
0.194454 0.121074 0.064106
0.220197 0.124997 0.068123
0.245939 0.128952 0.072141
0.271682 0.132927 0.076158
0.297424 0.136914 0.080176
0.314833 0.138816 0.073410
0.339709 0.141907 0.076555
0.364583 0.145009 0.079703
0.389455 0.148118 0.082854
0.414324 0.151235 0.086006
0.439191 0.154357 0.089161
0.466864 0.157837 0.092674
0.491328 0.160917 0.095780
0.496503 0.164739 0.099561
0.520464 0.167839 0.102684
0.544424 0.170942 0.105809
0.568384 0.174047 0.108934
0.592342 0.177155 0.112060
0.616300 0.180265 0.115187
0.640258 0.183377 0.118314
0.664215 0.186490 0.121441
0.688171 0.189604 0.124569
0.712128 0.192720 0.127698
0.736083 0.195837 0.130827
0.760039 0.198955 0.133956
0.783994 0.202074 0.137085
0.808877 0.204447 0.139287
0.064950 0.142350 0.055974
0.087715 0.142350 0.055974
0.109788 0.142350 0.055974
0.131147 0.142350 0.055974
0.142970 0.133449 0.056070
0.168712 0.136822 0.060088
0.194454 0.140478 0.064106
0.220197 0.144274 0.068123
0.245939 0.148146 0.072141
0.271682 0.152063 0.076158
0.297424 0.156009 0.080176
0.323166 0.159973 0.084194
0.348909 0.163950 0.088211
0.374651 0.167935 0.092229
0.389455 0.169927 0.082854
0.414324 0.173031 0.086006
0.439191 0.176142 0.089161
0.466864 0.179611 0.092674
0.491328 0.182683 0.095780
0.496503 0.186518 0.099561
0.520464 0.189611 0.102684
0.544424 0.192707 0.105809
0.568384 0.195806 0.108934
0.592342 0.198907 0.112060
0.616300 0.202012 0.115187
0.640258 0.205118 0.118314
0.664215 0.208226 0.121441
0.688171 0.211336 0.124569
0.712128 0.214448 0.127698
0.736083 0.217561 0.130827
0.760039 0.220675 0.133956
0.783994 0.223791 0.137085
0.808877 0.226221 0.139287
0.071199 0.167985 0.059975
0.094031 0.167985 0.059975
0.116318 0.167985 0.059975
0.138034 0.167985 0.059975
0.159181 0.167985 0.059975
0.168712 0.156849 0.060088
0.194454 0.160183 0.064106
0.220197 0.163778 0.068123
0.245939 0.167516 0.072141
0.271682 0.171340 0.076158
0.297424 0.175218 0.080176
0.323166 0.179132 0.084194
0.348909 0.183070 0.088211
0.374651 0.187026 0.092229
0.400394 0.190994 0.096246
0.426136 0.194972 0.100264
0.451878 0.198957 0.104282
0.466864 0.201386 0.092674
0.491328 0.204450 0.095780
0.496503 0.208298 0.099561
0.520464 0.211382 0.102684
0.544424 0.214471 0.105809
0.568384 0.217564 0.108934
0.592342 0.220659 0.112060
0.616300 0.223758 0.115187
0.640258 0.226859 0.118314
0.664215 0.229963 0.121441
0.688171 0.233068 0.124569
0.712128 0.236176 0.127698
0.736083 0.239285 0.130827
0.760039 0.242395 0.133956
0.783994 0.245507 0.137085
0.808877 0.247994 0.139287
0.077448 0.193620 0.063975
0.100324 0.193620 0.063975
0.122751 0.193620 0.063975
0.144707 0.193620 0.063975
0.166185 0.193620 0.063975
0.187193 0.193620 0.063975
0.194454 0.180248 0.064106
0.220197 0.183555 0.068123
0.245939 0.187101 0.072141
0.271682 0.190789 0.076158
0.297424 0.194569 0.080176
0.323166 0.198409 0.084194
0.348909 0.202290 0.088211
0.374651 0.206202 0.092229
0.400394 0.210135 0.096246
0.426136 0.214084 0.100264
0.451878 0.218045 0.104282
0.480527 0.222465 0.108753
0.505854 0.226380 0.112706
0.510949 0.230331 0.116658
0.535748 0.234253 0.120611
0.560548 0.238179 0.124564
0.568384 0.239322 0.108934
0.592342 0.242411 0.112060
0.616300 0.245504 0.115187
0.640258 0.248600 0.118314
0.664215 0.251699 0.121441
0.688171 0.254800 0.124569
0.712128 0.257903 0.127698
0.736083 0.261008 0.130827
0.760039 0.264115 0.133956
0.783994 0.267224 0.137085
0.808877 0.269768 0.139287
0.083697 0.219254 0.067976
0.106605 0.219254 0.067976
0.129130 0.219254 0.067976
0.151256 0.219254 0.067976
0.172974 0.219254 0.067976
0.194282 0.219254 0.067976
0.215192 0.219254 0.067976
0.220197 0.203648 0.068123
0.245939 0.206934 0.072141
0.271682 0.210439 0.076158
0.297424 0.214085 0.080176
0.323166 0.217824 0.084194
0.348909 0.221628 0.088211
0.374651 0.225478 0.092229
0.400394 0.229363 0.096246
0.426136 0.233272 0.100264
0.451878 0.237201 0.104282
0.480527 0.241591 0.108753
0.505854 0.245484 0.112706
0.510949 0.249434 0.116658
0.535748 0.253337 0.120611
0.560548 0.257248 0.124564
0.585347 0.261164 0.128517
0.610147 0.265084 0.132470
0.634946 0.269009 0.136422
0.659746 0.272937 0.140375
0.664215 0.273435 0.121441
0.688171 0.276532 0.124569
0.712128 0.279631 0.127698
0.736083 0.282732 0.130827
0.760039 0.285835 0.133956
0.783994 0.288940 0.137085
0.808877 0.291541 0.139287
0.089947 0.244889 0.071977
0.112877 0.244889 0.071977
0.135476 0.244889 0.071977
0.157729 0.244889 0.071977
0.179626 0.244889 0.071977
0.201164 0.244889 0.071977
0.222346 0.244889 0.071977
0.243183 0.244889 0.071977
0.245939 0.227047 0.072141
0.271682 0.230317 0.076158
0.297424 0.233789 0.080176
0.323166 0.237397 0.084194
0.348909 0.241100 0.088211
0.374651 0.244871 0.092229
0.400394 0.248691 0.096246
0.426136 0.252549 0.100264
0.451878 0.256435 0.104282
0.480527 0.260785 0.108753
0.505854 0.264649 0.112706
0.510949 0.268598 0.116658
0.535748 0.272477 0.120611
0.560548 0.276367 0.124564
0.585347 0.280265 0.128517
0.610147 0.284170 0.132470
0.634946 0.288081 0.136422
0.659746 0.291996 0.140375
0.684546 0.295916 0.144328
0.709345 0.299840 0.148281
0.734145 0.303766 0.152234
0.736083 0.304456 0.130827
0.760039 0.307555 0.133956
0.783994 0.310657 0.137085
0.808877 0.313315 0.139287
0.096196 0.270524 0.075978
0.119144 0.270524 0.075978
0.141800 0.270524 0.075978
0.164150 0.270524 0.075978
0.186186 0.270524 0.075978
0.207904 0.270524 0.075978
0.229303 0.270524 0.075978
0.250389 0.270524 0.075978
0.270524 0.269879 0.075978
0.271682 0.250447 0.076158
0.297424 0.253704 0.080176
0.323166 0.257148 0.084194
0.348909 0.260724 0.088211
0.374651 0.264393 0.092229
0.400394 0.268133 0.096246
0.426136 0.271925 0.100264
0.451878 0.275756 0.104282
0.480527 0.280057 0.108753
0.505854 0.283884 0.112706
0.510949 0.287831 0.116658
0.535748 0.291680 0.120611
0.560548 0.295543 0.124564
0.585347 0.299418 0.128517
0.610147 0.303303 0.132470
0.634946 0.307196 0.136422
0.659746 0.311096 0.140375
0.684546 0.315002 0.144328
0.709345 0.318913 0.148281
0.734145 0.322829 0.152234
0.758944 0.326748 0.156186
0.783744 0.330671 0.160139
0.808543 0.334596 0.164092
0.833343 0.338524 0.168045
0.102445 0.296159 0.079979
0.125408 0.296159 0.079979
0.148108 0.296159 0.079979
0.170536 0.296159 0.079979
0.192683 0.296159 0.079979
0.214544 0.296159 0.079979
0.236118 0.296159 0.079979
0.257407 0.296159 0.079979
0.278416 0.296159 0.079979
0.296159 0.293167 0.079979
0.297424 0.273847 0.080176
0.323166 0.277093 0.084194
0.348909 0.280513 0.088211
0.374651 0.284060 0.092229
0.400394 0.287701 0.096246
0.426136 0.291411 0.100264
0.451878 0.295176 0.104282
0.480527 0.299415 0.108753
0.505854 0.303196 0.112706
0.510949 0.307141 0.116658
0.535748 0.310952 0.120611
0.560548 0.314783 0.124564
0.585347 0.318629 0.128517
0.610147 0.322490 0.132470
0.634946 0.326361 0.136422
0.659746 0.330242 0.140375
0.684546 0.334130 0.144328
0.709345 0.338026 0.148281
0.734145 0.341928 0.152234
0.758944 0.345835 0.156186
0.783744 0.349746 0.160139
0.808543 0.353662 0.164092
0.833343 0.357580 0.168045
0.108694 0.321794 0.083979
0.131668 0.321794 0.083979
0.154406 0.321794 0.083979
0.176896 0.321794 0.083979
0.199133 0.321794 0.083979
0.221112 0.321794 0.083979
0.242830 0.321794 0.083979
0.264287 0.321794 0.083979
0.285486 0.321794 0.083979
0.306432 0.321794 0.083979
0.321794 0.316457 0.083979
0.323166 0.297246 0.084194
0.348909 0.300483 0.088211
0.374651 0.303884 0.092229
0.400394 0.307405 0.096246
0.426136 0.311019 0.100264
0.451878 0.314703 0.104282
0.480527 0.318868 0.108753
0.505854 0.322594 0.112706
0.510949 0.326536 0.116658
0.535748 0.330301 0.120611
0.560548 0.334093 0.124564
0.585347 0.337905 0.128517
0.610147 0.341735 0.132470
0.634946 0.345580 0.136422
0.659746 0.349437 0.140375
0.684546 0.353305 0.144328
0.709345 0.357182 0.148281
0.734145 0.361067 0.152234
0.758944 0.364959 0.156186
0.783744 0.368857 0.160139
0.808543 0.372760 0.164092
0.833343 0.376668 0.168045
0.114943 0.347429 0.087980
0.137927 0.347429 0.087980
0.160695 0.347429 0.087980
0.183238 0.347429 0.087980
0.205549 0.347429 0.087980
0.227625 0.347429 0.087980
0.249463 0.347429 0.087980
0.271061 0.347429 0.087980
0.292421 0.347429 0.087980
0.313546 0.347429 0.087980
0.334439 0.347429 0.087980
0.347429 0.339748 0.087980
0.348909 0.320646 0.088211
0.374651 0.323875 0.092229
0.400394 0.327258 0.096246
0.426136 0.330757 0.100264
0.451878 0.334347 0.104282
0.480527 0.338424 0.108753
0.505854 0.342085 0.112706
0.510949 0.346023 0.116658
0.535748 0.349734 0.120611
0.560548 0.353479 0.124564
0.585347 0.357250 0.128517
0.610147 0.361044 0.132470
0.634946 0.364858 0.136422
0.659746 0.368687 0.140375
0.684546 0.372530 0.144328
0.709345 0.376385 0.148281
0.734145 0.380250 0.152234
0.758944 0.384124 0.156186
0.783744 0.388006 0.160139
0.808543 0.391894 0.164092
0.833343 0.395789 0.168045
0.121192 0.373063 0.091981
0.144185 0.373063 0.091981
0.166978 0.373063 0.091981
0.189564 0.373063 0.091981
0.211939 0.373063 0.091981
0.234097 0.373063 0.091981
0.256035 0.373063 0.091981
0.277753 0.373063 0.091981
0.299251 0.373063 0.091981
0.320529 0.373063 0.091981
0.341591 0.373063 0.091981
0.362441 0.373063 0.091981
0.373063 0.363042 0.091981
0.374651 0.344046 0.092229
0.400394 0.347268 0.096246
0.426136 0.350635 0.100264
0.451878 0.354115 0.104282
0.480527 0.358090 0.108753
0.505854 0.361675 0.112706
0.510949 0.365610 0.116658
0.535748 0.369258 0.120611
0.560548 0.372947 0.124564
0.585347 0.376671 0.128517
0.610147 0.380423 0.132470
0.634946 0.384200 0.136422
0.659746 0.387996 0.140375
0.684546 0.391811 0.144328
0.709345 0.395639 0.148281
0.734145 0.399481 0.152234
0.758944 0.403334 0.156186
0.783744 0.407197 0.160139
0.808543 0.411068 0.164092
0.833343 0.414946 0.168045
0.127441 0.398698 0.095982
0.150441 0.398698 0.095982
0.173256 0.398698 0.095982
0.195880 0.398698 0.095982
0.218308 0.398698 0.095982
0.240536 0.398698 0.095982
0.262561 0.398698 0.095982
0.284381 0.398698 0.095982
0.305997 0.398698 0.095982
0.327408 0.398698 0.095982
0.348616 0.398698 0.095982
0.369625 0.398698 0.095982
0.390438 0.398698 0.095982
0.398698 0.386336 0.095982
0.400394 0.367445 0.096246
0.426136 0.370662 0.100264
0.451878 0.374016 0.104282
0.480527 0.377874 0.108753
0.505854 0.381372 0.112706
0.510949 0.385302 0.116658
0.535748 0.388878 0.120611
0.560548 0.392504 0.124564
0.585347 0.396173 0.128517
0.610147 0.399877 0.132470
0.634946 0.403611 0.136422
0.659746 0.407369 0.140375
0.684546 0.411150 0.144328
0.709345 0.414949 0.148281
0.734145 0.418763 0.152234
0.758944 0.422592 0.156186
0.783744 0.426432 0.160139
0.808543 0.430284 0.164092
0.833343 0.434144 0.168045
0.133690 0.424333 0.099983
0.156696 0.424333 0.099983
0.179530 0.424333 0.099983
0.202186 0.424333 0.099983
0.224660 0.424333 0.099983
0.246948 0.424333 0.099983
0.269048 0.424333 0.099983
0.290958 0.424333 0.099983
0.312676 0.424333 0.099983
0.334202 0.424333 0.099983
0.355539 0.424333 0.099983
0.376687 0.424333 0.099983
0.397650 0.424333 0.099983
0.418431 0.424333 0.099983
0.424333 0.409632 0.099983
0.426136 0.390845 0.100264
0.451878 0.394057 0.104282
0.480527 0.397782 0.108753
0.505854 0.401181 0.112706
0.510949 0.405107 0.116658
0.535748 0.408600 0.120611
0.560548 0.412155 0.124564
0.585347 0.415761 0.128517
0.610147 0.419410 0.132470
0.634946 0.423095 0.136422
0.659746 0.426810 0.140375
0.684546 0.430552 0.144328
0.709345 0.434317 0.148281
0.734145 0.438100 0.152234
0.758944 0.441901 0.156186
0.783744 0.445716 0.160139
0.808543 0.449544 0.164092
0.833343 0.453384 0.168045
0.139939 0.449968 0.103983
0.162950 0.449968 0.103983
0.185800 0.449968 0.103983
0.208485 0.449968 0.103983
0.230999 0.449968 0.103983
0.253340 0.449968 0.103983
0.275505 0.449968 0.103983
0.297492 0.449968 0.103983
0.319300 0.449968 0.103983
0.340928 0.449968 0.103983
0.362378 0.449968 0.103983
0.383649 0.449968 0.103983
0.404745 0.449968 0.103983
0.425667 0.449968 0.103983
0.446420 0.449968 0.103983
0.449968 0.432928 0.103983
0.451878 0.414244 0.104282
0.480527 0.417822 0.108753
0.505854 0.421110 0.112706
0.510949 0.425031 0.116658
0.535748 0.428431 0.120611
0.560548 0.431905 0.124564
0.585347 0.435440 0.128517
0.610147 0.439027 0.132470
0.634946 0.442657 0.136422
0.659746 0.446324 0.140375
0.684546 0.450022 0.144328
0.709345 0.453747 0.148281
0.734145 0.457496 0.152234
0.758944 0.461264 0.156186
0.783744 0.465051 0.160139
0.808543 0.468853 0.164092
0.833343 0.472669 0.168045
0.146905 0.478542 0.108443
0.169921 0.478542 0.108443
0.192787 0.478542 0.108443
0.215499 0.478542 0.108443
0.238052 0.478542 0.108443
0.260444 0.478542 0.108443
0.282673 0.478542 0.108443
0.304735 0.478542 0.108443
0.326631 0.478542 0.108443
0.348358 0.478542 0.108443
0.369919 0.478542 0.108443
0.391312 0.478542 0.108443
0.412539 0.478542 0.108443
0.433602 0.478542 0.108443
0.454504 0.478542 0.108443
0.475248 0.478542 0.108443
0.478542 0.461247 0.108443
0.480527 0.440321 0.108753
0.505854 0.443471 0.112706
0.510949 0.447385 0.116658
0.535748 0.450670 0.120611
0.560548 0.454043 0.124564
0.585347 0.457489 0.128517
0.610147 0.460998 0.132470
0.634946 0.464558 0.136422
0.659746 0.468164 0.140375
0.684546 0.471807 0.144328
0.709345 0.475483 0.148281
0.734145 0.461147 0.152234
0.758944 0.464836 0.156186
0.783744 0.468543 0.160139
0.808543 0.472267 0.164092
0.833343 0.476004 0.168045
0.153053 0.503763 0.112379
0.176073 0.503763 0.112379
0.198952 0.503763 0.112379
0.221685 0.503763 0.112379
0.244269 0.503763 0.112379
0.266701 0.503763 0.112379
0.288978 0.503763 0.112379
0.311099 0.503763 0.112379
0.333063 0.503763 0.112379
0.354868 0.503763 0.112379
0.376515 0.503763 0.112379
0.398003 0.503763 0.112379
0.419334 0.503763 0.112379
0.440509 0.503763 0.112379
0.461529 0.503763 0.112379
0.482397 0.503763 0.112379
0.503116 0.503763 0.112379
0.503763 0.481523 0.112379
0.505854 0.463344 0.112706
0.510949 0.467250 0.116658
0.535748 0.470422 0.120611
0.560548 0.473696 0.124564
0.585347 0.477055 0.128517
0.610147 0.462098 0.132470
0.634946 0.465580 0.136422
0.659746 0.469108 0.140375
0.684546 0.472674 0.144328
0.709345 0.476274 0.148281
0.734145 0.479902 0.152234
0.758944 0.483555 0.156186
0.783744 0.487231 0.160139
0.808543 0.490925 0.164092
0.833343 0.494637 0.168045
0.157103 0.508797 0.116315
0.180124 0.508797 0.116315
0.203003 0.508797 0.116315
0.225737 0.508797 0.116315
0.248322 0.508797 0.116315
0.270756 0.508797 0.116315
0.293036 0.508797 0.116315
0.315160 0.508797 0.116315
0.337127 0.508797 0.116315
0.358936 0.508797 0.116315
0.380587 0.508797 0.116315
0.402080 0.508797 0.116315
0.423416 0.508797 0.116315
0.444596 0.508797 0.116315
0.465622 0.508797 0.116315
0.486496 0.508797 0.116315
0.507221 0.508797 0.116315
0.508797 0.487478 0.116315
0.509464 0.467982 0.116315
0.510949 0.468272 0.116658
0.535748 0.471360 0.120611
0.560548 0.474553 0.124564
0.585347 0.477833 0.128517
0.610147 0.481186 0.132470
0.634946 0.484601 0.136422
0.659746 0.488068 0.140375
0.684546 0.491581 0.144328
0.709345 0.495132 0.148281
0.734145 0.498718 0.152234
0.758944 0.502332 0.156186
0.783744 0.505972 0.160139
0.808543 0.509634 0.164092
0.833343 0.513316 0.168045
0.163197 0.533493 0.120252
0.186221 0.533493 0.120252
0.209111 0.533493 0.120252
0.231864 0.533493 0.120252
0.254475 0.533493 0.120252
0.276943 0.533493 0.120252
0.299266 0.533493 0.120252
0.321441 0.533493 0.120252
0.343468 0.533493 0.120252
0.365344 0.533493 0.120252
0.387071 0.533493 0.120252
0.408647 0.533493 0.120252
0.430073 0.533493 0.120252
0.451351 0.533493 0.120252
0.472481 0.533493 0.120252
0.493466 0.533493 0.120252
0.514307 0.533493 0.120252
0.533493 0.529651 0.120252
0.533493 0.509434 0.120252
0.533493 0.508429 0.120252
0.535748 0.490823 0.120611
0.560548 0.493909 0.124564
0.585347 0.497094 0.128517
0.610147 0.500364 0.132470
0.634946 0.503705 0.136422
0.659746 0.507107 0.140375
0.684546 0.510561 0.144328
0.709345 0.514059 0.148281
0.734145 0.517597 0.152234
0.758944 0.521168 0.156186
0.783744 0.524769 0.160139
0.808543 0.528396 0.164092
0.833343 0.532046 0.168045
0.169291 0.558189 0.124188
0.192318 0.558189 0.124188
0.215218 0.558189 0.124188
0.237987 0.558189 0.124188
0.260622 0.558189 0.124188
0.283122 0.558189 0.124188
0.305483 0.558189 0.124188
0.327704 0.558189 0.124188
0.349784 0.558189 0.124188
0.371721 0.558189 0.124188
0.393516 0.558189 0.124188
0.415168 0.558189 0.124188
0.436677 0.558189 0.124188
0.458043 0.558189 0.124188
0.479268 0.558189 0.124188
0.500353 0.558189 0.124188
0.521301 0.558189 0.124188
0.544453 0.558189 0.124188
0.558189 0.551595 0.124188
0.558189 0.550661 0.124188
0.558189 0.530882 0.124188
0.560548 0.513374 0.124564
0.585347 0.516457 0.128517
0.610147 0.519636 0.132470
0.634946 0.522897 0.136422
0.659746 0.526227 0.140375
0.684546 0.529616 0.144328
0.709345 0.533057 0.148281
0.734145 0.536542 0.152234
0.758944 0.540067 0.156186
0.783744 0.543625 0.160139
0.808543 0.547213 0.164092
0.833343 0.550827 0.168045
0.175384 0.582885 0.128124
0.198415 0.582885 0.128124
0.221323 0.582885 0.128124
0.244107 0.582885 0.128124
0.266764 0.582885 0.128124
0.289292 0.582885 0.128124
0.311688 0.582885 0.128124
0.333951 0.582885 0.128124
0.356079 0.582885 0.128124
0.378072 0.582885 0.128124
0.399929 0.582885 0.128124
0.421649 0.582885 0.128124
0.443233 0.582885 0.128124
0.464680 0.582885 0.128124
0.485992 0.582885 0.128124
0.507170 0.582885 0.128124
0.528215 0.582885 0.128124
0.551481 0.582885 0.128124
0.552773 0.582885 0.128124
0.572777 0.582885 0.128124
0.582885 0.573107 0.128124
0.582885 0.553336 0.128124
0.585347 0.535925 0.128517
0.610147 0.539006 0.132470
0.634946 0.542179 0.136422
0.659746 0.545431 0.140375
0.684546 0.548750 0.144328
0.709345 0.552128 0.148281
0.734145 0.555557 0.152234
0.758944 0.559030 0.156186
0.783744 0.562541 0.160139
0.808543 0.566087 0.164092
0.833343 0.569662 0.168045
0.181478 0.607581 0.132061
0.204511 0.607581 0.132061
0.227428 0.607581 0.132061
0.250225 0.607581 0.132061
0.272902 0.607581 0.132061
0.295455 0.607581 0.132061
0.317883 0.607581 0.132061
0.340184 0.607581 0.132061
0.362356 0.607581 0.132061
0.384400 0.607581 0.132061
0.406313 0.607581 0.132061
0.428096 0.607581 0.132061
0.449748 0.607581 0.132061
0.471270 0.607581 0.132061
0.492661 0.607581 0.132061
0.513924 0.607581 0.132061
0.535059 0.607581 0.132061
0.558430 0.607581 0.132061
0.559650 0.607581 0.132061
0.579749 0.607581 0.132061
0.599735 0.607581 0.132061
0.607581 0.595554 0.132061
0.607581 0.575790 0.132061
0.610147 0.558476 0.132470
0.634946 0.561555 0.136422
0.659746 0.564723 0.140375
0.684546 0.567966 0.144328
0.709345 0.571276 0.148281
0.734145 0.574643 0.152234
0.758944 0.578060 0.156186
0.783744 0.581521 0.160139
0.808543 0.585021 0.164092
0.833343 0.588554 0.168045
0.187572 0.632277 0.135997
0.210607 0.632277 0.135997
0.233531 0.632277 0.135997
0.256341 0.632277 0.135997
0.279036 0.632277 0.135997
0.301612 0.632277 0.135997
0.324069 0.632277 0.135997
0.346405 0.632277 0.135997
0.368618 0.632277 0.135997
0.390707 0.632277 0.135997
0.412672 0.632277 0.135997
0.434512 0.632277 0.135997
0.456227 0.632277 0.135997
0.477817 0.632277 0.135997
0.499282 0.632277 0.135997
0.520623 0.632277 0.135997
0.541841 0.632277 0.135997
0.565310 0.632277 0.135997
0.566455 0.632277 0.135997
0.586644 0.632277 0.135997
0.606722 0.632277 0.135997
0.626690 0.632277 0.135997
0.632277 0.618002 0.135997
0.632277 0.598245 0.135997
0.634946 0.581027 0.136422
0.659746 0.584104 0.140375
0.684546 0.587267 0.144328
0.709345 0.590503 0.148281
0.734145 0.593804 0.152234
0.758944 0.597161 0.156186
0.783744 0.600567 0.160139
0.808543 0.604016 0.164092
0.833343 0.607504 0.168045
0.193665 0.656973 0.139933
0.216703 0.656973 0.139933
0.239634 0.656973 0.139933
0.262456 0.656973 0.139933
0.285166 0.656973 0.139933
0.307764 0.656973 0.139933
0.330248 0.656973 0.139933
0.352615 0.656973 0.139933
0.374865 0.656973 0.139933
0.396997 0.656973 0.139933
0.419009 0.656973 0.139933
0.440902 0.656973 0.139933
0.462675 0.656973 0.139933
0.484328 0.656973 0.139933
0.505860 0.656973 0.139933
0.527274 0.656973 0.139933
0.548568 0.656973 0.139933
0.572127 0.656973 0.139933
0.573197 0.656973 0.139933
0.593469 0.656973 0.139933
0.613633 0.656973 0.139933
0.633691 0.656973 0.139933
0.653644 0.656973 0.139933
0.656973 0.640450 0.139933
0.656973 0.620699 0.139933
0.659746 0.603579 0.140375
0.684546 0.606654 0.144328
0.709345 0.609811 0.148281
0.734145 0.613041 0.152234
0.758944 0.616333 0.156186
0.783744 0.619680 0.160139
0.808543 0.623076 0.164092
0.833343 0.626515 0.168045
0.199759 0.681669 0.143869
0.222799 0.681669 0.143869
0.245736 0.681669 0.143869
0.268568 0.681669 0.143869
0.291294 0.681669 0.143869
0.313912 0.681669 0.143869
0.336420 0.681669 0.143869
0.358816 0.681669 0.143869
0.381100 0.681669 0.143869
0.403271 0.681669 0.143869
0.425327 0.681669 0.143869
0.447269 0.681669 0.143869
0.469095 0.681669 0.143869
0.490805 0.681669 0.143869
0.512401 0.681669 0.143869
0.533881 0.681669 0.143869
0.555246 0.681669 0.143869
0.578889 0.681669 0.143869
0.579883 0.681669 0.143869
0.600232 0.681669 0.143869
0.620476 0.681669 0.143869
0.640618 0.681669 0.143869
0.660657 0.681669 0.143869
0.680597 0.681669 0.143869
