docs/luts/fuji_recipes/Classic_GB_Chrome_Colour.cube
TITLE "Fujifilm Recipe: GB Chrome Colour (Classic)"
# FilmSim=Classic HL=-2 SH=2 Col=0 WB=Auto WBR=0 WBB=0
LUT_3D_SIZE 33
DOMAIN_MIN 0.0 0.0 0.0
DOMAIN_MAX 1.0 1.0 1.0
0.000000 0.000000 0.000000
0.022892 0.002297 0.002297
0.045783 0.004594 0.004594
0.068675 0.006892 0.006892
0.091567 0.009189 0.009189
0.114458 0.011486 0.011486
0.137350 0.013783 0.013783
0.160241 0.016081 0.016081
0.183133 0.018378 0.018378
0.206025 0.020675 0.020675
0.228916 0.022972 0.022972
0.251808 0.025269 0.025269
0.274700 0.027567 0.027567
0.297591 0.029864 0.029864
0.320483 0.032161 0.032161
0.343375 0.034458 0.034458
0.366266 0.036756 0.036756
0.391742 0.039312 0.039312
0.414265 0.041572 0.041572
0.472229 0.041599 0.041599
0.493807 0.043918 0.043918
0.515384 0.046237 0.046237
0.536961 0.048556 0.048556
0.558538 0.050875 0.050875
0.580115 0.053194 0.053194
0.601692 0.055513 0.055513
0.623269 0.057832 0.057832
0.644846 0.060152 0.060152
0.666423 0.062471 0.062471
0.687999 0.064791 0.064791
0.709576 0.067110 0.067110
0.731152 0.069430 0.069430
0.752729 0.071750 0.071750
0.002274 0.022663 0.002274
0.022892 0.022686 0.002297
0.045783 0.024983 0.004594
0.068675 0.027280 0.006892
0.091567 0.029577 0.009189
0.114458 0.031875 0.011486
0.137350 0.034172 0.013783
0.160241 0.036469 0.016081
0.183133 0.038766 0.018378
0.206025 0.041063 0.020675
0.228916 0.043361 0.022972
0.251808 0.045658 0.025269
0.274700 0.047955 0.027567
0.297591 0.050252 0.029864
0.320483 0.052550 0.032161
0.343375 0.054847 0.034458
0.366266 0.057144 0.036756
0.391742 0.059701 0.039312
0.414265 0.061961 0.041572
0.472229 0.061920 0.041599
0.493807 0.064244 0.043918
0.515384 0.066567 0.046237
0.536961 0.068889 0.048556
0.558538 0.071212 0.050875
0.580115 0.073535 0.053194
0.601692 0.075857 0.055513
0.623269 0.078179 0.057832
0.644846 0.080501 0.060152
0.666423 0.082823 0.062471
0.687999 0.085145 0.064791
0.709576 0.087467 0.067110
0.731152 0.089789 0.069430
0.752729 0.092111 0.071750
0.004558 0.045424 0.004558
0.025153 0.045424 0.004558
0.045783 0.045460 0.004594
0.068675 0.047757 0.006892
0.091567 0.050054 0.009189
0.114458 0.052351 0.011486
0.137350 0.054649 0.013783
0.160241 0.056946 0.016081
0.183133 0.059243 0.018378
0.206025 0.061540 0.020675
0.228916 0.063837 0.022972
0.251808 0.066135 0.025269
0.274700 0.068432 0.027567
0.297591 0.070729 0.029864
0.320483 0.073026 0.032161
0.343375 0.075324 0.034458
0.366266 0.077621 0.036756
0.391742 0.080177 0.039312
0.414265 0.082438 0.041572
0.472229 0.082329 0.041599
0.493807 0.084657 0.043918
0.515384 0.086985 0.046237
0.536961 0.089311 0.048556
0.558538 0.091638 0.050875
0.580115 0.093964 0.053194
0.601692 0.096289 0.055513
0.623269 0.098614 0.057832
0.644846 0.100939 0.060152
0.666423 0.103264 0.062471
0.687999 0.105588 0.064791
0.709576 0.107912 0.067110
0.731152 0.110236 0.069430
0.752729 0.112560 0.071750
0.006846 0.068220 0.006846
0.027440 0.068220 0.006846
0.048035 0.068220 0.006846
0.068675 0.068265 0.006892
0.091567 0.070562 0.009189
0.114458 0.072860 0.011486
0.137350 0.075157 0.013783
0.160241 0.077454 0.016081
0.183133 0.079751 0.018378
0.206025 0.082049 0.020675
0.228916 0.084346 0.022972
0.251808 0.086643 0.025269
0.274700 0.088940 0.027567
0.297591 0.091238 0.029864
0.320483 0.093535 0.032161
0.343375 0.095832 0.034458
0.366266 0.098129 0.036756
0.391742 0.100686 0.039312
0.414265 0.102946 0.041572
0.472229 0.102770 0.041599
0.493807 0.105102 0.043918
0.515384 0.107434 0.046237
0.536961 0.109765 0.048556
0.558538 0.112095 0.050875
0.580115 0.114424 0.053194
0.601692 0.116753 0.055513
0.623269 0.119081 0.057832
0.644846 0.121409 0.060152
0.666423 0.123736 0.062471
0.687999 0.126062 0.064791
0.709576 0.128389 0.067110
0.731152 0.130715 0.069430
0.752729 0.133040 0.071750
0.009134 0.091016 0.009134
0.029728 0.091016 0.009134
0.050322 0.091016 0.009134
0.070917 0.091016 0.009134
0.091567 0.091071 0.009189
0.114458 0.093368 0.011486
0.137350 0.095665 0.013783
0.160241 0.097963 0.016081
0.183133 0.100260 0.018378
0.206025 0.102557 0.020675
0.228916 0.104854 0.022972
0.251808 0.107151 0.025269
0.274700 0.109449 0.027567
0.297591 0.111746 0.029864
0.320483 0.114043 0.032161
0.343375 0.116340 0.034458
0.366266 0.118638 0.036756
0.391742 0.121194 0.039312
0.414265 0.123454 0.041572
0.472229 0.123210 0.041599
0.493807 0.125547 0.043918
0.515384 0.127884 0.046237
0.536961 0.130218 0.048556
0.558538 0.132552 0.050875
0.580115 0.134885 0.053194
0.601692 0.137217 0.055513
0.623269 0.139548 0.057832
0.644846 0.141878 0.060152
0.666423 0.144208 0.062471
0.687999 0.146537 0.064791
0.709576 0.148865 0.067110
0.731152 0.151193 0.069430
0.752729 0.153521 0.071750
0.011421 0.113812 0.011421
0.032016 0.113812 0.011421
0.052610 0.113812 0.011421
0.073204 0.113812 0.011421
0.093799 0.113812 0.011421
0.114458 0.113876 0.011486
0.137350 0.116174 0.013783
0.160241 0.118471 0.016081
0.183133 0.120768 0.018378
0.206025 0.123065 0.020675
0.228916 0.125363 0.022972
0.251808 0.127660 0.025269
0.274700 0.129957 0.027567
0.297591 0.132254 0.029864
0.320483 0.134551 0.032161
0.343375 0.136849 0.034458
0.366266 0.139146 0.036756
0.391742 0.141702 0.039312
0.414265 0.143963 0.041572
0.472229 0.143650 0.041599
0.493807 0.145993 0.043918
0.515384 0.148333 0.046237
0.536961 0.150672 0.048556
0.558538 0.153009 0.050875
0.580115 0.155345 0.053194
0.601692 0.157680 0.055513
0.623269 0.160014 0.057832
0.644846 0.162347 0.060152
0.666423 0.164680 0.062471
0.687999 0.167011 0.064791
0.709576 0.169342 0.067110
0.731152 0.171672 0.069430
0.752729 0.174002 0.071750
0.013709 0.136608 0.013709
0.034303 0.136608 0.013709
0.054898 0.136608 0.013709
0.075492 0.136608 0.013709
0.096087 0.136608 0.013709
0.116681 0.136608 0.013709
0.137350 0.136682 0.013783
0.160241 0.138979 0.016081
0.183133 0.141276 0.018378
0.206025 0.143574 0.020675
0.228916 0.145871 0.022972
0.251808 0.148168 0.025269
0.274700 0.150465 0.027567
0.297591 0.152763 0.029864
0.320483 0.155060 0.032161
0.343375 0.157357 0.034458
0.366266 0.159654 0.036756
0.391742 0.162211 0.039312
0.414265 0.164471 0.041572
0.472229 0.164091 0.041599
0.493807 0.166438 0.043918
0.515384 0.168783 0.046237
0.536961 0.171125 0.048556
0.558538 0.173466 0.050875
0.580115 0.175806 0.053194
0.601692 0.178144 0.055513
0.623269 0.180481 0.057832
0.644846 0.182817 0.060152
0.666423 0.185151 0.062471
0.687999 0.187485 0.064791
0.709576 0.189818 0.067110
0.731152 0.192151 0.069430
0.752729 0.194482 0.071750
0.015996 0.159403 0.015996
0.036591 0.159403 0.015996
0.057185 0.159403 0.015996
0.077780 0.159403 0.015996
0.098374 0.159403 0.015996
0.118969 0.159403 0.015996
0.139563 0.159403 0.015996
0.160241 0.159488 0.016081
0.183133 0.161785 0.018378
0.206025 0.164082 0.020675
0.228916 0.166379 0.022972
0.251808 0.168676 0.025269
0.274700 0.170974 0.027567
0.297591 0.173271 0.029864
0.320483 0.175568 0.032161
0.343375 0.177865 0.034458
0.366266 0.180163 0.036756
0.391742 0.182719 0.039312
0.414265 0.184979 0.041572
0.472229 0.184531 0.041599
0.493807 0.186883 0.043918
0.515384 0.189232 0.046237
0.536961 0.191579 0.048556
0.558538 0.193923 0.050875
0.580115 0.196266 0.053194
0.601692 0.198608 0.055513
0.623269 0.200947 0.057832
0.644846 0.203286 0.060152
0.666423 0.205623 0.062471
0.687999 0.207960 0.064791
0.709576 0.210295 0.067110
0.731152 0.212629 0.069430
0.752729 0.214963 0.071750
0.018284 0.182199 0.018284
0.038879 0.182199 0.018284
0.059473 0.182199 0.018284
0.080067 0.182199 0.018284
0.100662 0.182199 0.018284
0.121256 0.182199 0.018284
0.141851 0.182199 0.018284
0.162445 0.182199 0.018284
0.183133 0.182293 0.018378
0.206025 0.184590 0.020675
0.228916 0.186888 0.022972
0.251808 0.189185 0.025269
0.274700 0.191482 0.027567
0.297591 0.193779 0.029864
0.320483 0.196077 0.032161
0.343375 0.198374 0.034458
0.366266 0.200671 0.036756
0.391742 0.203228 0.039312
0.414265 0.205488 0.041572
0.472229 0.204972 0.041599
0.493807 0.207328 0.043918
0.515384 0.209681 0.046237
0.536961 0.212032 0.048556
0.558538 0.214381 0.050875
0.580115 0.216727 0.053194
0.601692 0.219071 0.055513
0.623269 0.221414 0.057832
0.644846 0.223755 0.060152
0.666423 0.226095 0.062471
0.687999 0.228434 0.064791
0.709576 0.230771 0.067110
0.731152 0.233108 0.069430
0.752729 0.235444 0.071750
0.020572 0.204995 0.020572
0.041166 0.204995 0.020572
0.061761 0.204995 0.020572
0.082355 0.204995 0.020572
0.102949 0.204995 0.020572
0.123544 0.204995 0.020572
0.144138 0.204995 0.020572
0.164733 0.204995 0.020572
0.185327 0.204995 0.020572
0.206025 0.205099 0.020675
0.228916 0.207396 0.022972
0.251808 0.209693 0.025269
0.274700 0.211990 0.027567
0.297591 0.214288 0.029864
0.320483 0.216585 0.032161
0.343375 0.218882 0.034458
0.366266 0.221179 0.036756
0.391742 0.223736 0.039312
0.414265 0.225996 0.041572
0.472229 0.225412 0.041599
0.493807 0.227773 0.043918
0.515384 0.230131 0.046237
0.536961 0.232486 0.048556
0.558538 0.234838 0.050875
0.580115 0.237187 0.053194
0.601692 0.239535 0.055513
0.623269 0.241881 0.057832
0.644846 0.244225 0.060152
0.666423 0.246567 0.062471
0.687999 0.248908 0.064791
0.709576 0.251248 0.067110
0.731152 0.253587 0.069430
0.752729 0.255924 0.071750
0.022859 0.227791 0.022859
0.043454 0.227791 0.022859
0.064048 0.227791 0.022859
0.084643 0.227791 0.022859
0.105237 0.227791 0.022859
0.125831 0.227791 0.022859
0.146426 0.227791 0.022859
0.167020 0.227791 0.022859
0.187615 0.227791 0.022859
0.208209 0.227791 0.022859
0.228916 0.227904 0.022972
0.251808 0.230202 0.025269
0.274700 0.232499 0.027567
0.297591 0.234796 0.029864
0.320483 0.237093 0.032161
0.343375 0.239390 0.034458
0.366266 0.241688 0.036756
0.391742 0.244244 0.039312
0.414265 0.246504 0.041572
0.472229 0.245852 0.041599
0.493807 0.248218 0.043918
0.515384 0.250580 0.046237
0.536961 0.252939 0.048556
0.558538 0.255295 0.050875
0.580115 0.257648 0.053194
0.601692 0.259999 0.055513
0.623269 0.262347 0.057832
0.644846 0.264694 0.060152
0.666423 0.267039 0.062471
0.687999 0.269383 0.064791
0.709576 0.271725 0.067110
0.731152 0.274065 0.069430
0.752729 0.276405 0.071750
0.025147 0.250587 0.025147
0.045741 0.250587 0.025147
0.066336 0.250587 0.025147
0.086930 0.250587 0.025147
0.107525 0.250587 0.025147
0.128119 0.250587 0.025147
0.148713 0.250587 0.025147
0.169308 0.250587 0.025147
0.189902 0.250587 0.025147
0.210497 0.250587 0.025147
0.231091 0.250587 0.025147
0.251808 0.250710 0.025269
0.274700 0.253007 0.027567
0.297591 0.255304 0.029864
0.320483 0.257602 0.032161
0.343375 0.259899 0.034458
0.366266 0.262196 0.036756
0.391742 0.264753 0.039312
0.414265 0.267013 0.041572
0.472229 0.266293 0.041599
0.493807 0.268664 0.043918
0.515384 0.271030 0.046237
0.536961 0.273393 0.048556
0.558538 0.275752 0.050875
0.580115 0.278109 0.053194
0.601692 0.280462 0.055513
0.623269 0.282814 0.057832
0.644846 0.285163 0.060152
0.666423 0.287511 0.062471
0.687999 0.289857 0.064791
0.709576 0.292201 0.067110
0.731152 0.294544 0.069430
0.752729 0.296886 0.071750
0.027435 0.273383 0.027435
0.048029 0.273383 0.027435
0.068623 0.273383 0.027435
0.089218 0.273383 0.027435
0.109812 0.273383 0.027435
0.130407 0.273383 0.027435
0.151001 0.273383 0.027435
0.171596 0.273383 0.027435
0.192190 0.273383 0.027435
0.212784 0.273383 0.027435
0.233379 0.273383 0.027435
0.253973 0.273383 0.027435
0.274700 0.273515 0.027567
0.297591 0.275813 0.029864
0.320483 0.278110 0.032161
0.343375 0.280407 0.034458
0.366266 0.282704 0.036756
0.391742 0.285261 0.039312
0.414265 0.287521 0.041572
0.472229 0.286733 0.041599
0.493807 0.289109 0.043918
0.515384 0.291479 0.046237
0.536961 0.293846 0.048556
0.558538 0.296209 0.050875
0.580115 0.298569 0.053194
0.601692 0.300926 0.055513
0.623269 0.303281 0.057832
0.644846 0.305633 0.060152
0.666423 0.307983 0.062471
0.687999 0.310331 0.064791
0.709576 0.312678 0.067110
0.731152 0.315023 0.069430
0.752729 0.317366 0.071750
0.029722 0.296179 0.029722
0.050317 0.296179 0.029722
0.070911 0.296179 0.029722
0.091505 0.296179 0.029722
0.112100 0.296179 0.029722
0.132694 0.296179 0.029722
0.153289 0.296179 0.029722
0.173883 0.296179 0.029722
0.194478 0.296179 0.029722
0.215072 0.296179 0.029722
0.235666 0.296179 0.029722
0.256261 0.296179 0.029722
0.276855 0.296179 0.029722
0.297591 0.296321 0.029864
0.320483 0.298618 0.032161
0.343375 0.300915 0.034458
0.366266 0.303213 0.036756
0.391742 0.305769 0.039312
0.414265 0.308029 0.041572
0.472229 0.307174 0.041599
0.493807 0.309554 0.043918
0.515384 0.311929 0.046237
0.536961 0.314300 0.048556
0.558538 0.316666 0.050875
0.580115 0.319030 0.053194
0.601692 0.321390 0.055513
0.623269 0.323747 0.057832
0.644846 0.326102 0.060152
0.666423 0.328455 0.062471
0.687999 0.330805 0.064791
0.709576 0.333154 0.067110
0.731152 0.335501 0.069430
0.752729 0.337847 0.071750
0.032010 0.318975 0.032010
0.052604 0.318975 0.032010
0.073199 0.318975 0.032010
0.093793 0.318975 0.032010
0.114388 0.318975 0.032010
0.134982 0.318975 0.032010
0.155576 0.318975 0.032010
0.176171 0.318975 0.032010
0.196765 0.318975 0.032010
0.217360 0.318975 0.032010
0.237954 0.318975 0.032010
0.258548 0.318975 0.032010
0.279143 0.318975 0.032010
0.299737 0.318975 0.032010
0.320483 0.319127 0.032161
0.343375 0.321424 0.034458
0.366266 0.323721 0.036756
0.391742 0.326278 0.039312
0.414265 0.328538 0.041572
0.472229 0.327614 0.041599
0.493807 0.329999 0.043918
0.515384 0.332378 0.046237
0.536961 0.334753 0.048556
0.558538 0.337123 0.050875
0.580115 0.339490 0.053194
0.601692 0.341853 0.055513
0.623269 0.344214 0.057832
0.644846 0.346571 0.060152
0.666423 0.348927 0.062471
0.687999 0.351280 0.064791
0.709576 0.353631 0.067110
0.731152 0.355980 0.069430
0.752729 0.358328 0.071750
0.034297 0.341771 0.034297
0.054892 0.341771 0.034297
0.075486 0.341771 0.034297
0.096081 0.341771 0.034297
0.116675 0.341771 0.034297
0.137270 0.341771 0.034297
0.157864 0.341771 0.034297
0.178458 0.341771 0.034297
0.199053 0.341771 0.034297
0.219647 0.341771 0.034297
0.240242 0.341771 0.034297
0.260836 0.341771 0.034297
0.281430 0.341771 0.034297
0.302025 0.341771 0.034297
0.322619 0.341771 0.034297
0.343375 0.341932 0.034458
0.366266 0.344229 0.036756
0.391742 0.346786 0.039312
0.414265 0.349046 0.041572
0.472229 0.348054 0.041599
0.493807 0.350444 0.043918
0.515384 0.352828 0.046237
0.536961 0.355207 0.048556
0.558538 0.357581 0.050875
0.580115 0.359951 0.053194
0.601692 0.362317 0.055513
0.623269 0.364680 0.057832
0.644846 0.367041 0.060152
0.666423 0.369399 0.062471
0.687999 0.371754 0.064791
0.709576 0.374107 0.067110
0.731152 0.376459 0.069430
0.752729 0.378808 0.071750
0.036585 0.364567 0.036585
0.057180 0.364567 0.036585
0.077774 0.364567 0.036585
0.098368 0.364567 0.036585
0.118963 0.364567 0.036585
0.139557 0.364567 0.036585
0.160152 0.364567 0.036585
0.180746 0.364567 0.036585
0.201340 0.364567 0.036585
0.221935 0.364567 0.036585
0.242529 0.364567 0.036585
0.263124 0.364567 0.036585
0.283718 0.364567 0.036585
0.304312 0.364567 0.036585
0.324907 0.364567 0.036585
0.345501 0.364567 0.036585
0.366266 0.364738 0.036756
0.391742 0.367294 0.039312
0.414265 0.369555 0.041572
0.472229 0.368495 0.041599
0.493807 0.370889 0.043918
0.515384 0.373277 0.046237
0.536961 0.375660 0.048556
0.558538 0.378038 0.050875
0.580115 0.380411 0.053194
0.601692 0.382781 0.055513
0.623269 0.385147 0.057832
0.644846 0.387510 0.060152
0.666423 0.389871 0.062471
0.687999 0.392228 0.064791
0.709576 0.394584 0.067110
0.731152 0.396937 0.069430
0.752729 0.399289 0.071750
0.039135 0.389977 0.039135
0.059729 0.389977 0.039135
0.080324 0.389977 0.039135
0.100918 0.389977 0.039135
0.121513 0.389977 0.039135
0.142107 0.389977 0.039135
0.162701 0.389977 0.039135
0.183296 0.389977 0.039135
0.203890 0.389977 0.039135
0.224485 0.389977 0.039135
0.245079 0.389977 0.039135
0.265674 0.389977 0.039135
0.286268 0.389977 0.039135
0.306862 0.389977 0.039135
0.327457 0.389977 0.039135
0.348051 0.389977 0.039135
0.368646 0.389977 0.039135
0.391742 0.390154 0.039312
0.414265 0.392414 0.041572
0.472229 0.391279 0.041599
0.493807 0.393678 0.043918
0.515384 0.396071 0.046237
0.536961 0.398458 0.048556
0.558538 0.400840 0.050875
0.580115 0.403218 0.053194
0.601692 0.405591 0.055513
0.623269 0.407960 0.057832
0.644846 0.410326 0.060152
0.666423 0.452091 0.062471
0.687999 0.454293 0.064791
0.709576 0.456493 0.067110
0.731152 0.458690 0.069430
0.752729 0.460885 0.071750
0.041386 0.412405 0.041386
0.061980 0.412405 0.041386
0.082575 0.412405 0.041386
0.103169 0.412405 0.041386
0.123763 0.412405 0.041386
0.144358 0.412405 0.041386
0.164952 0.412405 0.041386
0.185547 0.412405 0.041386
0.206141 0.412405 0.041386
0.226735 0.412405 0.041386
0.247330 0.412405 0.041386
0.267924 0.412405 0.041386
0.288519 0.412405 0.041386
0.309113 0.412405 0.041386
0.329708 0.412405 0.041386
0.350302 0.412405 0.041386
0.370896 0.412405 0.041386
0.393816 0.412405 0.041386
0.414265 0.412592 0.041572
0.472229 0.411389 0.041599
0.493807 0.413794 0.043918
0.515384 0.416191 0.046237
0.536961 0.418582 0.048556
0.558538 0.460278 0.050875
0.580115 0.462502 0.053194
0.601692 0.464722 0.055513
0.623269 0.466937 0.057832
0.644846 0.469149 0.060152
0.666423 0.471357 0.062471
0.687999 0.473561 0.064791
0.709576 0.475763 0.067110
0.731152 0.477962 0.069430
0.752729 0.480159 0.071750
0.041398 0.470357 0.041398
0.061924 0.470357 0.041398
0.082450 0.470357 0.041398
0.102975 0.470357 0.041398
0.123501 0.470357 0.041398
0.144027 0.470357 0.041398
0.164553 0.470357 0.041398
0.185078 0.470357 0.041398
0.205604 0.470357 0.041398
0.226130 0.470357 0.041398
0.246656 0.470357 0.041398
0.267181 0.470357 0.041398
0.287707 0.470357 0.041398
0.308233 0.470357 0.041398
0.328759 0.470357 0.041398
0.349284 0.470357 0.041398
0.369810 0.470357 0.041398
0.392653 0.470357 0.041398
0.412848 0.470357 0.041398
0.472229 0.470553 0.041599
0.493807 0.472809 0.043918
0.515384 0.475056 0.046237
0.536961 0.477296 0.048556
0.558538 0.479530 0.050875
0.580115 0.481757 0.053194
0.601692 0.483980 0.055513
0.623269 0.486198 0.057832
0.644846 0.488412 0.060152
0.666423 0.490623 0.062471
0.687999 0.492829 0.064791
0.709576 0.495033 0.067110
0.731152 0.497235 0.069430
0.752729 0.499433 0.071750
0.043707 0.491845 0.043707
0.064238 0.491845 0.043707
0.084768 0.491845 0.043707
0.105299 0.491845 0.043707
0.125829 0.491845 0.043707
0.146360 0.491845 0.043707
0.166890 0.491845 0.043707
0.187421 0.491845 0.043707
0.207951 0.491845 0.043707
0.228482 0.491845 0.043707
0.249012 0.491845 0.043707
0.269543 0.491845 0.043707
0.290073 0.491845 0.043707
0.310604 0.491845 0.043707
0.331134 0.491845 0.043707
0.351665 0.491845 0.043707
0.372196 0.491845 0.043707
0.395044 0.491845 0.043707
0.415243 0.491845 0.043707
0.474280 0.491845 0.043707
0.493807 0.492050 0.043918
0.515384 0.494301 0.046237
0.536961 0.496545 0.048556
0.558538 0.498782 0.050875
0.580115 0.501013 0.053194
0.601692 0.503238 0.055513
0.623269 0.505459 0.057832
0.644846 0.507676 0.060152
0.666423 0.509889 0.062471
0.687999 0.512098 0.064791
0.709576 0.514304 0.067110
0.731152 0.516507 0.069430
0.752729 0.518707 0.071750
0.046016 0.513332 0.046016
0.066551 0.513332 0.046016
0.087086 0.513332 0.046016
0.107621 0.513332 0.046016
0.128156 0.513332 0.046016
0.148691 0.513332 0.046016
0.169225 0.513332 0.046016
0.189760 0.513332 0.046016
0.210295 0.513332 0.046016
0.230830 0.513332 0.046016
0.251365 0.513332 0.046016
0.271900 0.513332 0.046016
0.292435 0.513332 0.046016
0.312970 0.513332 0.046016
0.333505 0.513332 0.046016
0.354040 0.513332 0.046016
0.374575 0.513332 0.046016
0.397428 0.513332 0.046016
0.417632 0.513332 0.046016
0.476519 0.513332 0.046016
0.495845 0.513332 0.046016
0.515384 0.513546 0.046237
0.536961 0.515793 0.048556
0.558538 0.518034 0.050875
0.580115 0.520268 0.053194
0.601692 0.522497 0.055513
0.623269 0.524720 0.057832
0.644846 0.526939 0.060152
0.666423 0.529155 0.062471
0.687999 0.531366 0.064791
0.709576 0.533574 0.067110
0.731152 0.535779 0.069430
0.752729 0.537982 0.071750
0.048325 0.534819 0.048325
0.068864 0.534819 0.048325
0.089403 0.534819 0.048325
0.109942 0.534819 0.048325
0.130481 0.534819 0.048325
0.151020 0.534819 0.048325
0.171559 0.534819 0.048325
0.192098 0.534819 0.048325
0.212637 0.534819 0.048325
0.233176 0.534819 0.048325
0.253714 0.534819 0.048325
0.274253 0.534819 0.048325
0.294792 0.534819 0.048325
0.315331 0.534819 0.048325
0.335870 0.534819 0.048325
0.356409 0.534819 0.048325
0.376948 0.534819 0.048325
0.399806 0.534819 0.048325
0.459422 0.534819 0.048325
0.478751 0.534819 0.048325
0.498080 0.534819 0.048325
0.517409 0.534819 0.048325
0.536961 0.535042 0.048556
0.558538 0.537286 0.050875
0.580115 0.539523 0.053194
0.601692 0.541755 0.055513
0.623269 0.543981 0.057832
0.644846 0.546203 0.060152
0.666423 0.548421 0.062471
0.687999 0.550634 0.064791
0.709576 0.552844 0.067110
0.731152 0.555052 0.069430
0.752729 0.557256 0.071750
0.050635 0.556306 0.050635
0.071177 0.556306 0.050635
0.091720 0.556306 0.050635
0.112262 0.556306 0.050635
0.132805 0.556306 0.050635
0.153348 0.556306 0.050635
0.173890 0.556306 0.050635
0.194433 0.556306 0.050635
0.214976 0.556306 0.050635
0.235518 0.556306 0.050635
0.256061 0.556306 0.050635
0.276603 0.556306 0.050635
0.297146 0.556306 0.050635
0.317689 0.556306 0.050635
0.338231 0.556306 0.050635
0.358774 0.556306 0.050635
0.379317 0.556306 0.050635
0.402179 0.556306 0.050635
0.461643 0.556306 0.050635
0.480976 0.556306 0.050635
0.500309 0.556306 0.050635
0.519641 0.556306 0.050635
0.538974 0.556306 0.050635
0.558538 0.556538 0.050875
0.580115 0.558779 0.053194
0.601692 0.561013 0.055513
0.623269 0.563242 0.057832
0.644846 0.565467 0.060152
0.666423 0.567687 0.062471
0.687999 0.569902 0.064791
0.709576 0.572115 0.067110
0.731152 0.574324 0.069430
0.752729 0.576530 0.071750
0.052944 0.577793 0.052944
0.073490 0.577793 0.052944
0.094036 0.577793 0.052944
0.114582 0.577793 0.052944
0.135128 0.577793 0.052944
0.155674 0.577793 0.052944
0.176220 0.577793 0.052944
0.196766 0.577793 0.052944
0.217312 0.577793 0.052944
0.237858 0.577793 0.052944
0.258405 0.577793 0.052944
0.278951 0.577793 0.052944
0.299497 0.577793 0.052944
0.320043 0.577793 0.052944
0.340589 0.577793 0.052944
0.361135 0.577793 0.052944
0.381681 0.577793 0.052944
0.404547 0.577793 0.052944
0.463860 0.577793 0.052944
0.483195 0.577793 0.052944
0.502531 0.577793 0.052944
0.521867 0.577793 0.052944
0.541203 0.577793 0.052944
0.560538 0.577793 0.052944
0.580115 0.578034 0.053194
0.601692 0.580271 0.055513
0.623269 0.582503 0.057832
0.644846 0.584730 0.060152
0.666423 0.586952 0.062471
0.687999 0.589171 0.064791
0.709576 0.591385 0.067110
0.731152 0.593596 0.069430
0.752729 0.595804 0.071750
0.055254 0.599279 0.055254
0.075803 0.599279 0.055254
0.096352 0.599279 0.055254
0.116901 0.599279 0.055254
0.137450 0.599279 0.055254
0.158000 0.599279 0.055254
0.178549 0.599279 0.055254
0.199098 0.599279 0.055254
0.219647 0.599279 0.055254
0.240197 0.599279 0.055254
0.260746 0.599279 0.055254
0.281295 0.599279 0.055254
0.301844 0.599279 0.055254
0.322393 0.599279 0.055254
0.342943 0.599279 0.055254
0.363492 0.599279 0.055254
0.384041 0.599279 0.055254
0.406910 0.599279 0.055254
0.466071 0.599279 0.055254
0.485410 0.599279 0.055254
0.504748 0.599279 0.055254
0.524087 0.599279 0.055254
0.543426 0.599279 0.055254
0.562765 0.599279 0.055254
0.582103 0.599279 0.055254
0.601692 0.599530 0.055513
0.623269 0.601764 0.057832
0.644846 0.603994 0.060152
0.666423 0.606218 0.062471
0.687999 0.608439 0.064791
0.709576 0.610656 0.067110
0.731152 0.612869 0.069430
0.752729 0.615078 0.071750
0.057563 0.620766 0.057563
0.078115 0.620766 0.057563
0.098668 0.620766 0.057563
0.119220 0.620766 0.057563
0.139772 0.620766 0.057563
0.160324 0.620766 0.057563
0.180876 0.620766 0.057563
0.201428 0.620766 0.057563
0.221981 0.620766 0.057563
0.242533 0.620766 0.057563
0.263085 0.620766 0.057563
0.283637 0.620766 0.057563
0.304189 0.620766 0.057563
0.324742 0.620766 0.057563
0.345294 0.620766 0.057563
0.365846 0.620766 0.057563
0.386398 0.620766 0.057563
0.409271 0.620766 0.057563
0.468278 0.620766 0.057563
0.487619 0.620766 0.057563
0.506961 0.620766 0.057563
0.526302 0.620766 0.057563
0.545644 0.620766 0.057563
0.564985 0.620766 0.057563
