docs/luts/fuji_recipes/Classic_MT_Classic_Chrome.cube
TITLE "Fujifilm Recipe: MT Classic Chrome (Classic)"
# FilmSim=Classic HL=0 SH=0 Col=-1 WB=Auto WBR=0 WBB=0
LUT_3D_SIZE 5
DOMAIN_MIN 0.0 0.0 0.0
DOMAIN_MAX 1.0 1.0 1.0
0.000000 0.000000 0.000000
0.187295 0.036952 0.036952
0.374590 0.073905 0.073905
0.561885 0.110857 0.110857
0.746160 0.147214 0.147214
0.036764 0.186340 0.036764
0.187295 0.186529 0.036952
0.374590 0.223481 0.073905
0.561885 0.260433 0.110857
0.746160 0.296790 0.147214
0.073562 0.372853 0.073562
0.223905 0.372853 0.073562
0.374590 0.373196 0.073905
0.561885 0.410148 0.110857
0.746160 0.446504 0.147214
0.110368 0.559406 0.110368
0.260711 0.559406 0.110368
0.411053 0.559406 0.110368
0.561885 0.559895 0.110857
0.746160 0.596251 0.147214
0.146572 0.742910 0.146572
0.296915 0.742910 0.146572
0.447258 0.742910 0.146572
0.597601 0.742910 0.146572
0.746160 0.743551 0.147214
0.036384 0.036384 0.184413
0.187295 0.036952 0.184982
0.374590 0.073905 0.221934
0.561885 0.110857 0.258887
0.746160 0.147214 0.295243
0.036764 0.186340 0.184794
0.247234 0.246477 0.244950
0.439695 0.278026 0.276371
0.629587 0.312355 0.310727
0.852945 0.309868 0.307999
0.073562 0.372853 0.221592
0.278536 0.437926 0.276061
0.439695 0.438203 0.276371
0.629587 0.469906 0.310727
0.852945 0.490803 0.307999
0.110368 0.559406 0.258398
0.312698 0.627081 0.310264
0.470937 0.627081 0.310264
0.629587 0.627492 0.310727
0.852945 0.671777 0.307999
0.146572 0.742910 0.294602
0.310683 0.849163 0.307891
0.492202 0.849163 0.307891
0.673721 0.849163 0.307891
0.852945 0.849793 0.307999
0.072870 0.072870 0.369347
0.223213 0.072870 0.369347
0.374590 0.073905 0.370381
0.561885 0.110857 0.407334
0.746160 0.147214 0.443690
0.072870 0.222447 0.369347
0.278445 0.277624 0.434960
0.440303 0.278559 0.435797
0.630233 0.312877 0.467527
0.853406 0.310334 0.487866
0.073562 0.372853 0.370038
0.279334 0.438833 0.435819
0.494607 0.493229 0.490450
0.692502 0.519349 0.516138
0.897172 0.535494 0.532098
0.110368 0.559406 0.406844
0.313480 0.628046 0.467378
0.520636 0.689836 0.515835
0.692502 0.690230 0.516138
0.897172 0.716236 0.532098
0.146572 0.742910 0.443049
0.311382 0.849853 0.487816
0.537053 0.893400 0.531980
0.718260 0.893400 0.531980
0.897172 0.894024 0.532098
0.109381 0.109381 0.554402
0.259724 0.109381 0.554402
0.410066 0.109381 0.554402
0.561885 0.110857 0.555879
0.746160 0.147214 0.592235
0.109381 0.258957 0.554402
0.312288 0.311480 0.622670
0.470642 0.311480 0.622670
0.630233 0.312877 0.623909
0.853406 0.310334 0.667385
0.109381 0.408672 0.554402
0.312547 0.469462 0.622989
0.520986 0.519398 0.685370
0.693407 0.520320 0.686555
0.898011 0.536346 0.712234
0.110368 0.559406 0.555390
0.313480 0.628046 0.623817
0.522087 0.691191 0.686613
0.742011 0.740046 0.736080
0.941449 0.761155 0.756325
0.146572 0.742910 0.591594
0.311382 0.849853 0.667162
0.538333 0.894654 0.712288
0.763387 0.937701 0.756182
0.941449 0.938311 0.756325
0.145279 0.145279 0.736353
0.295622 0.145279 0.736353
0.445964 0.145279 0.736353
0.596307 0.145279 0.736353
0.746160 0.147214 0.738288
0.145279 0.294855 0.736353
0.310912 0.309988 0.842011
0.492081 0.309988 0.842011
0.673250 0.309988 0.842011
0.853406 0.310334 0.843893
0.145279 0.444569 0.736353
0.311145 0.490632 0.842239
0.537640 0.535964 0.886652
0.718334 0.535964 0.886652
0.898011 0.536346 0.888510
0.145279 0.594317 0.736353
0.311145 0.671081 0.842239
0.538069 0.716364 0.887068
0.764280 0.761905 0.931386
0.942647 0.762386 0.933181
0.146572 0.742910 0.737647
0.311382 0.849853 0.843498
0.538333 0.894654 0.888311
0.765245 0.939494 0.933183
0.985385 0.982403 0.976386
