docs/luts/fuji_recipes/Classic_RS_Kodak_Portra_400.cube
TITLE "Fujifilm Recipe: RS Kodak Portra 400 (Classic)"
# FilmSim=Classic HL=-1 SH=-1 Col=2 WB=Daylight WBR=4 WBB=-5
LUT_3D_SIZE 5
DOMAIN_MIN 0.0 0.0 0.0
DOMAIN_MAX 1.0 1.0 1.0
0.040000 0.040000 0.040000
0.338891 0.018773 0.018773
0.600855 0.008053 0.008053
0.856619 0.000000 0.000000
0.856619 0.000000 0.000000
0.020369 0.310814 0.020369
0.338891 0.308361 0.018773
0.600855 0.293917 0.008053
0.856619 0.280679 0.000000
0.856619 0.280679 0.000000
0.010748 0.548051 0.010748
0.327379 0.548051 0.010748
0.600855 0.544064 0.008053
0.856619 0.525205 0.000000
0.856619 0.525205 0.000000
0.000000 0.792905 0.000000
0.312997 0.792905 0.000000
0.586353 0.792905 0.000000
0.856619 0.785718 0.000000
0.856619 0.785718 0.000000
0.000000 0.853202 0.000000
0.310405 0.853202 0.000000
0.581233 0.853202 0.000000
0.856619 0.852817 0.000000
0.856619 0.852817 0.000000
0.022429 0.022429 0.275099
0.338891 0.018773 0.269561
0.600855 0.008053 0.255615
0.856619 0.000000 0.243072
0.856619 0.000000 0.243072
0.020369 0.310814 0.271898
0.367748 0.333337 0.289603
0.642129 0.307752 0.265896
0.990874 0.215569 0.164862
0.990874 0.215569 0.164862
0.010748 0.548051 0.258804
0.345973 0.587249 0.270668
0.642129 0.580068 0.265896
0.990874 0.544012 0.164862
0.990874 0.544012 0.164862
0.000000 0.792905 0.245209
0.277870 0.902568 0.189455
0.633168 0.902568 0.189455
0.990874 0.895276 0.164862
0.990874 0.895276 0.164862
0.000000 0.853202 0.243178
0.256768 0.986030 0.166291
0.620000 0.986030 0.166291
0.990874 0.985748 0.164862
0.990874 0.985748 0.164862
0.009808 0.009808 0.500472
0.326438 0.009808 0.500472
0.600855 0.008053 0.497743
0.856619 0.000000 0.454481
0.856619 0.000000 0.454481
0.009808 0.296241 0.500472
0.354531 0.320710 0.519930
0.647518 0.306786 0.503998
0.988172 0.213842 0.446495
0.988172 0.213842 0.446495
0.010748 0.548051 0.501414
0.347838 0.592771 0.512217
0.664283 0.596563 0.510671
0.980357 0.536089 0.441282
0.980357 0.536089 0.441282
0.000000 0.792905 0.458757
0.276460 0.898255 0.464223
0.628375 0.893744 0.464445
0.980357 0.885314 0.441282
0.980357 0.885314 0.441282
0.000000 0.853202 0.454693
0.253787 0.981225 0.445978
0.611882 0.975567 0.442670
0.980357 0.975261 0.441282
0.980357 0.975261 0.441282
0.003272 0.003272 0.695081
0.318377 0.003272 0.695081
0.593995 0.003272 0.695081
0.856619 0.000000 0.680500
0.856619 0.000000 0.680500
0.003272 0.288325 0.695081
0.305329 0.267664 0.776084
0.649391 0.267664 0.776084
0.988172 0.213842 0.750942
0.988172 0.213842 0.750942
0.003272 0.537365 0.695081
0.305448 0.577610 0.774714
0.648629 0.579882 0.771342
0.975681 0.533155 0.740516
0.975681 0.533155 0.740516
0.000000 0.792905 0.686762
0.276460 0.898255 0.760384
0.626669 0.887466 0.753447
0.965812 0.872688 0.734490
0.965812 0.872688 0.734490
0.000000 0.853202 0.680811
0.253787 0.981225 0.749682
0.606843 0.967339 0.738833
0.965812 0.960818 0.734490
0.965812 0.960818 0.734490
0.000488 0.000488 0.750178
0.315170 0.000488 0.750178
0.590186 0.000488 0.750178
0.856619 0.000000 0.738714
0.856619 0.000000 0.738714
0.000488 0.285159 0.750178
0.290445 0.252166 0.843896
0.639827 0.252166 0.843896
0.988172 0.213842 0.829356
0.988172 0.213842 0.829356
0.000488 0.533632 0.750178
0.290249 0.566685 0.842226
0.637452 0.567241 0.836081
0.975681 0.533155 0.818247
0.975681 0.533155 0.818247
0.000000 0.792905 0.745488
0.276460 0.898255 0.836664
0.626669 0.887466 0.827596
0.962459 0.870548 0.809615
0.962459 0.870548 0.809615
0.000000 0.853202 0.739050
0.253787 0.981225 0.827904
0.606843 0.967339 0.816030
0.962459 0.957530 0.809615
0.962459 0.957530 0.809615
