docs/luts/fuji_recipes/ClassicNEGA_PLR_Classic_Nrg.cube
TITLE "Fujifilm Recipe: PLR Classic Nrg (ClassicNEGA)"
# FilmSim=ClassicNEGA HL=-2 SH=-2 Col=0 WB=Auto WBR=0 WBB=0
LUT_3D_SIZE 9
DOMAIN_MIN 0.0 0.0 0.0
DOMAIN_MAX 1.0 1.0 1.0
0.094720 0.094720 0.094720
0.188066 0.115211 0.115211
0.281243 0.135664 0.135664
0.374420 0.156118 0.156118
0.461526 0.175238 0.175238
0.512252 0.195276 0.195276
0.599566 0.215314 0.215314
0.686881 0.235352 0.235352
0.771146 0.254690 0.254690
0.115089 0.187511 0.115089
0.188066 0.187633 0.115211
0.281243 0.208086 0.135664
0.374420 0.228540 0.156118
0.461526 0.247661 0.175238
0.512252 0.267699 0.195276
0.599566 0.287736 0.215314
0.686881 0.307774 0.235352
0.771146 0.327112 0.254690
0.135458 0.280302 0.135458
0.208313 0.280302 0.135458
0.281243 0.280509 0.135664
0.374420 0.300962 0.156118
0.461526 0.320083 0.175238
0.512252 0.340121 0.195276
0.599566 0.360159 0.215314
0.686881 0.380196 0.235352
0.771146 0.399534 0.254690
0.155826 0.373094 0.155826
0.228682 0.373094 0.155826
0.301405 0.373094 0.155826
0.374420 0.373385 0.156118
0.461526 0.392506 0.175238
0.512252 0.412543 0.195276
0.599566 0.432581 0.215314
0.686881 0.452619 0.235352
0.771146 0.471957 0.254690
0.176148 0.465668 0.176148
0.249003 0.465668 0.176148
0.321726 0.465668 0.176148
0.394450 0.465668 0.176148
0.462435 0.465668 0.176148
0.512252 0.484796 0.195276
0.599566 0.504834 0.215314
0.686881 0.524872 0.235352
0.771146 0.504027 0.254690
0.194825 0.510287 0.194825
0.267681 0.510287 0.194825
0.340404 0.510287 0.194825
0.413127 0.510287 0.194825
0.481113 0.510287 0.194825
0.512252 0.510719 0.195276
0.599566 0.529885 0.215314
0.686881 0.549052 0.235352
0.771146 0.567549 0.254690
0.214780 0.597240 0.214780
0.287636 0.597240 0.214780
0.360359 0.597240 0.214780
0.433082 0.597240 0.214780
0.501068 0.597240 0.214780
0.530908 0.597240 0.214780
0.599566 0.597751 0.215314
0.686881 0.616917 0.235352
0.771146 0.635414 0.254690
0.234735 0.684193 0.234735
0.307590 0.684193 0.234735
0.380314 0.684193 0.234735
0.453037 0.684193 0.234735
0.521023 0.684193 0.234735
0.549995 0.684193 0.234735
0.618143 0.684193 0.234735
0.686881 0.684783 0.235352
0.771146 0.703280 0.254690
0.254690 0.771146 0.254690
0.327545 0.771146 0.254690
0.400269 0.771146 0.254690
0.472992 0.771146 0.254690
0.500935 0.771146 0.254690
0.569083 0.771146 0.254690
0.637230 0.771146 0.254690
0.705378 0.771146 0.254690
0.771146 0.771146 0.254690
0.114843 0.114843 0.186391
0.188066 0.115211 0.186759
0.281243 0.135664 0.207212
0.374420 0.156118 0.227666
0.461526 0.175238 0.246787
0.512252 0.195276 0.266824
0.599566 0.215314 0.286862
0.686881 0.235352 0.306900
0.771146 0.254690 0.326238
0.115089 0.187511 0.186637
0.208189 0.207756 0.206882
0.301366 0.228209 0.227335
0.394543 0.248663 0.247789
0.481649 0.267784 0.266910
0.531500 0.287822 0.286947
0.618814 0.307859 0.306985
0.706129 0.327897 0.327023
0.790394 0.347235 0.346361
0.135458 0.280302 0.207006
0.228436 0.300425 0.227129
0.301366 0.300632 0.227335
0.394543 0.321085 0.247789
0.481649 0.340206 0.266910
0.531500 0.360244 0.286947
0.618814 0.380282 0.306985
0.706129 0.400319 0.327023
0.790394 0.419657 0.346361
0.155826 0.373094 0.227375
0.248805 0.393217 0.247498
0.321528 0.393217 0.247498
0.394543 0.393508 0.247789
0.481649 0.412629 0.266910
0.531500 0.432666 0.286947
0.618814 0.452704 0.306985
0.706129 0.472742 0.327023
0.790394 0.492080 0.346361
0.176148 0.465668 0.247696
0.269126 0.485790 0.267819
0.341849 0.485790 0.267819
0.414573 0.485790 0.267819
0.482558 0.485790 0.267819
0.531500 0.504919 0.286947
0.618814 0.524957 0.306985
0.706129 0.504777 0.327023
0.790394 0.523275 0.346361
0.194825 0.510287 0.266373
0.287804 0.529535 0.286496
0.360527 0.529535 0.286496
0.433250 0.529535 0.286496
0.501236 0.529535 0.286496
0.531500 0.529967 0.286947
0.618814 0.549133 0.306985
0.706129 0.568300 0.327023
0.790394 0.586797 0.346361
0.214780 0.597240 0.286328
0.307759 0.616488 0.306451
0.380482 0.616488 0.306451
0.453205 0.616488 0.306451
0.521191 0.616488 0.306451
0.550156 0.616488 0.306451
0.618814 0.616999 0.306985
0.706129 0.636165 0.327023
0.790394 0.654662 0.346361
0.234735 0.684193 0.306283
0.327713 0.703441 0.326406
0.400437 0.703441 0.326406
0.473160 0.703441 0.326406
0.501096 0.703441 0.326406
0.569243 0.703441 0.326406
0.637391 0.703441 0.326406
0.706129 0.704031 0.327023
0.790394 0.722528 0.346361
0.254690 0.771146 0.326238
0.347668 0.790394 0.346361
0.420391 0.790394 0.346361
0.493115 0.790394 0.346361
0.520183 0.790394 0.346361
0.588331 0.790394 0.346361
0.656478 0.790394 0.346361
0.724626 0.790394 0.346361
0.790394 0.790394 0.346361
0.135041 0.135041 0.278405
0.207897 0.135041 0.278405
0.281243 0.135664 0.279028
0.374420 0.156118 0.299481
0.461526 0.175238 0.318602
0.512252 0.195276 0.338640
0.599566 0.215314 0.358677
0.686881 0.235352 0.378715
0.771146 0.254690 0.398053
0.135041 0.207463 0.278405
0.228265 0.227832 0.298773
0.301612 0.228455 0.299396
0.394789 0.248909 0.319850
0.481895 0.268030 0.338971
0.531736 0.288067 0.359009
0.619050 0.308105 0.379046
0.706364 0.328143 0.399084
0.790629 0.347481 0.418422
0.135458 0.280302 0.278821
0.228804 0.300793 0.299312
0.321564 0.320830 0.319349
0.414741 0.341283 0.339802
0.501847 0.360404 0.358923
0.550820 0.380442 0.378961
0.638134 0.400480 0.398998
0.725448 0.420517 0.419036
0.809714 0.439855 0.438374
0.155826 0.373094 0.299190
0.249173 0.393584 0.319681
0.341726 0.413415 0.339511
0.414741 0.413706 0.339802
0.501847 0.432827 0.358923
0.550820 0.452864 0.378961
0.638134 0.472902 0.398998
0.725448 0.492940 0.419036
0.809714 0.512278 0.438374
0.176148 0.465668 0.319511
0.269494 0.486158 0.340002
0.362047 0.505989 0.359832
0.434771 0.505989 0.359832
0.502756 0.505989 0.359832
0.550820 0.525117 0.378961
0.638134 0.504931 0.398998
0.725448 0.524097 0.419036
0.809714 0.542595 0.438374
0.194825 0.510287 0.338189
0.288172 0.529887 0.358679
0.380725 0.548855 0.378510
0.453448 0.548855 0.378510
0.521434 0.548855 0.378510
0.550820 0.549286 0.378961
0.638134 0.568453 0.398998
0.725448 0.587619 0.419036
0.809714 0.606117 0.438374
0.214780 0.597240 0.358144
0.308126 0.616840 0.378634
0.400680 0.635808 0.398465
0.473403 0.635808 0.398465
0.501329 0.635808 0.398465
0.569476 0.635808 0.398465
0.638134 0.636319 0.398998
0.725448 0.655485 0.419036
0.809714 0.673982 0.438374
0.234735 0.684193 0.378098
0.328081 0.703793 0.398589
0.420635 0.722761 0.418419
0.493358 0.722761 0.418419
0.520416 0.722761 0.418419
0.588563 0.722761 0.418419
0.656711 0.722761 0.418419
0.725448 0.723351 0.419036
0.809714 0.741848 0.438374
0.254690 0.771146 0.398053
0.348036 0.790745 0.418544
0.440590 0.809714 0.438374
0.513313 0.809714 0.438374
0.539503 0.809714 0.438374
0.607651 0.809714 0.438374
0.675798 0.809714 0.438374
0.743946 0.809714 0.438374
0.809714 0.809714 0.438374
0.155239 0.155239 0.370418
0.228095 0.155239 0.370418
0.300818 0.155239 0.370418
0.374420 0.156118 0.371296
0.461526 0.175238 0.390417
0.512252 0.195276 0.410455
0.599566 0.215314 0.430493
0.686881 0.235352 0.450530
0.771146 0.254690 0.469868
0.155239 0.227661 0.370418
0.248464 0.248030 0.390787
0.321187 0.248030 0.390787
0.394789 0.248909 0.391665
0.481895 0.268030 0.410786
0.531736 0.288067 0.430824
0.619050 0.308105 0.450862
0.706364 0.328143 0.470899
0.790629 0.347481 0.490237
0.155239 0.300084 0.370418
0.248585 0.320575 0.390909
0.341556 0.340821 0.411156
0.415157 0.341700 0.412034
0.502264 0.360821 0.431155
0.551219 0.380859 0.451193
0.638533 0.400896 0.471230
0.725847 0.420934 0.491268
0.810112 0.440272 0.510606
0.155826 0.373094 0.371005
0.249173 0.393584 0.391496
0.342349 0.414038 0.411949
0.434939 0.433904 0.431815
0.522046 0.453025 0.450936
0.570140 0.473062 0.470974
0.657454 0.493100 0.491012
0.744768 0.513138 0.511050
0.829033 0.532476 0.530388
0.176148 0.465668 0.391326
0.269494 0.486158 0.411817
0.362671 0.506612 0.432270
0.454969 0.526187 0.451845
0.522955 0.526187 0.451845
0.570140 0.505084 0.470974
0.657454 0.524251 0.491012
0.744768 0.543417 0.511050
0.829033 0.561914 0.530388
0.194825 0.510287 0.410004
0.288172 0.529887 0.430495
0.381348 0.549451 0.450948
0.473646 0.568175 0.470523
0.501561 0.568175 0.470523
0.570140 0.568606 0.470974
0.657454 0.587773 0.491012
0.744768 0.606939 0.511050
0.829033 0.625437 0.530388
0.214780 0.597240 0.429959
0.308126 0.616840 0.450450
0.401303 0.636404 0.470903
0.493601 0.655128 0.490478
0.520648 0.655128 0.490478
0.588796 0.655128 0.490478
0.657454 0.655638 0.491012
0.744768 0.674805 0.511050
0.829033 0.693302 0.530388
0.234735 0.684193 0.449914
0.328081 0.703793 0.470404
0.421258 0.723357 0.490858
0.513556 0.742081 0.510433
0.539736 0.742081 0.510433
0.607883 0.742081 0.510433
0.676031 0.742081 0.510433
0.744768 0.742671 0.511050
0.829033 0.761168 0.530388
0.254690 0.771146 0.469868
0.348036 0.790745 0.490359
0.441213 0.810310 0.510813
0.533511 0.829033 0.530388
0.558823 0.829033 0.530388
0.626970 0.829033 0.530388
0.695118 0.829033 0.530388
0.763266 0.829033 0.530388
0.829033 0.829033 0.530388
0.175417 0.175417 0.462338
0.248272 0.175417 0.462338
0.320996 0.175417 0.462338
0.393719 0.175417 0.462338
0.461705 0.175417 0.462338
0.512252 0.195276 0.482198
0.599566 0.215314 0.502236
0.686881 0.235352 0.522273
0.771146 0.254690 0.501541
0.175417 0.247839 0.462338
0.268641 0.268208 0.482707
0.341364 0.268208 0.482707
0.414088 0.268208 0.482707
0.482073 0.268208 0.482707
0.531736 0.288067 0.502567
0.619050 0.308105 0.522604
0.706364 0.328143 0.502527
0.790629 0.347481 0.521024
0.175417 0.320262 0.462338
0.268763 0.340752 0.482829
0.361733 0.360999 0.503076
0.434457 0.360999 0.503076
0.502442 0.360999 0.503076
0.551219 0.380859 0.522935
0.638533 0.400896 0.502844
0.725847 0.420934 0.522010
0.810112 0.440272 0.540508
0.175417 0.392684 0.462338
0.268763 0.413175 0.482829
0.361940 0.433628 0.503282
0.454825 0.453790 0.523445
0.522811 0.453790 0.523445
0.570702 0.473650 0.503161
0.658016 0.493688 0.522327
0.745330 0.513725 0.541494
0.829595 0.533063 0.559991
0.176148 0.465668 0.463069
0.269494 0.486158 0.483560
0.362671 0.506612 0.504013
0.455847 0.527065 0.524467
0.502826 0.505917 0.503432
0.589441 0.524385 0.521899
0.676755 0.543551 0.541066
0.764069 0.562718 0.560232
0.848334 0.581215 0.578729
0.194825 0.510287 0.481747
0.288172 0.529887 0.502237
0.381348 0.549451 0.522691
0.474525 0.569015 0.503008
0.520691 0.587305 0.521297
0.589441 0.587907 0.521899
0.676755 0.607073 0.541066
0.764069 0.626240 0.560232
0.848334 0.644737 0.578729
0.214780 0.597240 0.501702
0.308126 0.616840 0.522192
0.401303 0.636404 0.502531
0.494480 0.655968 0.522095
0.539778 0.674258 0.540384
0.608096 0.674428 0.540555
0.676755 0.674939 0.541066
0.764069 0.694105 0.560232
0.848334 0.712603 0.578729
0.234735 0.684193 0.521656
0.328081 0.703793 0.502054
0.421258 0.723357 0.521618
0.514435 0.742921 0.541182
0.558866 0.761210 0.559472
0.627184 0.761381 0.559642
0.695331 0.761381 0.559642
0.764069 0.761971 0.560232
0.848334 0.780468 0.578729
0.254690 0.771146 0.501541
0.348036 0.790745 0.521141
0.441213 0.810310 0.540705
0.534389 0.829874 0.560269
0.577953 0.848163 0.578559
0.646271 0.848334 0.578729
0.714418 0.848334 0.578729
0.782566 0.848334 0.578729
0.848334 0.848334 0.578729
0.193915 0.193915 0.506322
0.266771 0.193915 0.506322
0.339494 0.193915 0.506322
0.412217 0.193915 0.506322
0.480203 0.193915 0.506322
0.512252 0.195276 0.507624
0.599566 0.215314 0.526790
0.686881 0.235352 0.545957
0.771146 0.254690 0.564454
0.193915 0.266338 0.506322
0.287140 0.286706 0.525805
0.359863 0.286706 0.525805
0.432586 0.286706 0.525805
0.500572 0.286706 0.525805
0.531736 0.288067 0.527107
0.619050 0.308105 0.546274
0.706364 0.328143 0.565440
0.790629 0.347481 0.583937
0.193915 0.338760 0.506322
0.287262 0.359251 0.525922
0.380232 0.379498 0.545288
0.452955 0.379498 0.545288
0.520941 0.379498 0.545288
0.551219 0.380859 0.546590
0.638533 0.400896 0.565757
0.725847 0.420934 0.584923
0.810112 0.440272 0.603420
0.193915 0.411182 0.506322
0.287262 0.431673 0.525922
0.380438 0.452127 0.545486
0.473324 0.472289 0.564772
0.501253 0.472289 0.564772
0.570702 0.473650 0.566073
0.658016 0.493688 0.585240
0.745330 0.513725 0.604406
0.829595 0.533063 0.622904
0.193915 0.483435 0.506322
0.287262 0.503926 0.525922
0.380438 0.524379 0.545486
0.473615 0.504623 0.565050
0.519821 0.522912 0.583340
0.590140 0.525084 0.585511
0.677454 0.544250 0.604678
0.764768 0.563417 0.623844
0.849033 0.581914 0.642341
0.194825 0.510287 0.507192
0.288172 0.529887 0.526792
0.381348 0.549451 0.546356
0.474525 0.569015 0.565921
0.520691 0.587305 0.584210
0.607135 0.605601 0.602506
0.694449 0.624767 0.621673
0.781763 0.643934 0.640839
0.866028 0.662431 0.659336
0.214780 0.597240 0.526280
0.308126 0.616840 0.545879
0.401303 0.636404 0.565444
0.494480 0.655968 0.585008
0.539778 0.674258 0.603297
0.625791 0.692122 0.621162
0.694449 0.692633 0.621673
0.781763 0.711800 0.640839
0.866028 0.730297 0.659336
0.234735 0.684193 0.545367
0.328081 0.703793 0.564967
0.421258 0.723357 0.584531
0.514435 0.742921 0.604095
0.558866 0.761210 0.622385
0.644878 0.779075 0.640249
0.713025 0.779075 0.640249
0.781763 0.779665 0.640839
0.866028 0.798162 0.659336
0.254690 0.771146 0.564454
0.348036 0.790745 0.584054
0.441213 0.810310 0.603618
0.534389 0.829874 0.623182
0.577953 0.848163 0.641472
0.663965 0.866028 0.659336
0.732113 0.866028 0.659336
0.800260 0.866028 0.659336
0.866028 0.866028 0.659336
0.213703 0.213703 0.592546
0.286558 0.213703 0.592546
0.359282 0.213703 0.592546
0.432005 0.213703 0.592546
0.499991 0.213703 0.592546
0.529878 0.213703 0.592546
0.599566 0.215314 0.594087
0.686881 0.235352 0.613254
0.771146 0.254690 0.631751
0.213703 0.286125 0.592546
0.306927 0.306494 0.612029
0.379651 0.306494 0.612029
0.452374 0.306494 0.612029
0.520360 0.306494 0.612029
0.549361 0.306494 0.612029
0.619050 0.308105 0.613570
0.706364 0.328143 0.632737
0.790629 0.347481 0.651234
0.213703 0.358548 0.592546
0.307049 0.379038 0.612146
0.400019 0.399285 0.631512
0.472743 0.399285 0.631512
0.500697 0.399285 0.631512
0.568844 0.399285 0.631512
0.638533 0.400896 0.633053
0.725847 0.420934 0.652220
0.810112 0.440272 0.670717
0.213703 0.430970 0.592546
0.307049 0.451461 0.612146
0.400226 0.471914 0.631710
0.493111 0.492076 0.650996
0.520180 0.492076 0.650996
0.588327 0.492076 0.650996
0.658016 0.493688 0.652537
0.745330 0.513725 0.671703
0.829595 0.533063 0.690200
0.213703 0.503223 0.592546
0.307049 0.523713 0.612146
0.400226 0.503986 0.631710
0.493403 0.523550 0.651274
0.538748 0.541840 0.669564
0.607765 0.542709 0.670433
0.677454 0.544250 0.671974
0.764768 0.563417 0.691141
0.849033 0.581914 0.709638
0.213703 0.528344 0.592546
0.307049 0.547944 0.612146
0.400226 0.567508 0.631710
0.493403 0.587072 0.651274
0.538748 0.605362 0.669564
0.625631 0.624097 0.688299
0.695319 0.625638 0.689840
0.782633 0.644804 0.709006
0.866898 0.663302 0.727504
0.214780 0.597240 0.593576
0.308126 0.616840 0.613176
0.401303 0.636404 0.632740
0.494480 0.655968 0.652304
0.539778 0.674258 0.670594
0.627092 0.693424 0.689761
0.713376 0.711560 0.707897
0.800690 0.730727 0.727063
0.884955 0.749224 0.745560
0.234735 0.684193 0.612664
0.328081 0.703793 0.632263
0.421258 0.723357 0.651828
0.514435 0.742921 0.671392
0.558866 0.761210 0.689681
0.646180 0.780377 0.708848
0.731953 0.798002 0.726473
0.800690 0.798592 0.727063
0.884955 0.817090 0.745560
0.254690 0.771146 0.631751
0.348036 0.790745 0.651351
0.441213 0.810310 0.670915
0.534389 0.829874 0.690479
0.577953 0.848163 0.708768
0.665267 0.867330 0.727935
0.751040 0.884955 0.745560
0.819187 0.884955 0.745560
0.884955 0.884955 0.745560
0.233490 0.233490 0.678770
0.306346 0.233490 0.678770
0.379069 0.233490 0.678770
0.451793 0.233490 0.678770
0.519778 0.233490 0.678770
0.548805 0.233490 0.678770
0.616953 0.233490 0.678770
0.686881 0.235352 0.680550
0.771146 0.254690 0.699048
0.233490 0.305913 0.678770
0.326715 0.326282 0.698253
0.399438 0.326282 0.698253
0.472161 0.326282 0.698253
0.500141 0.326282 0.698253
0.568288 0.326282 0.698253
0.636436 0.326282 0.698253
0.706364 0.328143 0.700034
0.790629 0.347481 0.718531
0.233490 0.378335 0.678770
0.326837 0.398826 0.698370
0.419807 0.419073 0.717736
0.492530 0.419073 0.717736
0.519624 0.419073 0.717736
0.587771 0.419073 0.717736
0.655919 0.419073 0.717736
0.725847 0.420934 0.719517
0.810112 0.440272 0.738014
0.233490 0.450758 0.678770
0.326837 0.471248 0.698370
0.420013 0.491702 0.717934
0.512899 0.511864 0.737220
0.539107 0.511864 0.737220
0.607255 0.511864 0.737220
0.675402 0.511864 0.737220
0.745330 0.513725 0.739000
0.829595 0.533063 0.757497
0.233490 0.523010 0.678770
0.326837 0.503349 0.698370
0.420013 0.522913 0.717934
0.513190 0.542477 0.737498
0.557675 0.560767 0.755788
0.626692 0.561636 0.756657
0.694840 0.561636 0.756657
0.764768 0.563417 0.758437
0.849033 0.581914 0.776935
0.233490 0.547271 0.678770
0.326837 0.566871 0.698370
0.420013 0.586435 0.717934
0.513190 0.605999 0.737498
0.557675 0.624289 0.755788
0.644558 0.643024 0.774523
0.712705 0.643024 0.774523
0.782633 0.644804 0.776303
0.866898 0.663302 0.794800
0.233490 0.615137 0.678770
0.326837 0.634737 0.698370
0.420013 0.654301 0.717934
0.513190 0.673865 0.737498
0.557675 0.692155 0.755788
0.644989 0.711321 0.774954
0.731793 0.729977 0.793610
0.801721 0.731757 0.795390
0.885986 0.750254 0.813888
0.234735 0.684193 0.679960
0.328081 0.703793 0.699560
0.421258 0.723357 0.719124
0.514435 0.742921 0.738688
0.558866 0.761210 0.756978
0.646180 0.780377 0.776145
0.733494 0.799543 0.795311
0.819617 0.817520 0.813287
0.903882 0.836017 0.831784
0.254690 0.771146 0.699048
0.348036 0.790745 0.718647
0.441213 0.810310 0.738211
0.534389 0.829874 0.757776
0.577953 0.848163 0.776065
0.665267 0.867330 0.795232
0.752581 0.886496 0.814398
0.838115 0.903882 0.831784
0.903882 0.903882 0.831784
0.253278 0.253278 0.764994
0.326134 0.253278 0.764994
0.398857 0.253278 0.764994
0.471580 0.253278 0.764994
0.539566 0.253278 0.764994
0.567732 0.253278 0.764994
0.635880 0.253278 0.764994
0.704027 0.253278 0.764994
0.771146 0.254690 0.766344
0.253278 0.325700 0.764994
0.346502 0.346069 0.784477
0.419226 0.346069 0.784477
0.491949 0.346069 0.784477
0.519068 0.346069 0.784477
0.587215 0.346069 0.784477
0.655363 0.346069 0.784477
0.723511 0.346069 0.784477
0.790629 0.347481 0.785827
0.253278 0.398123 0.764994
0.346624 0.418613 0.784594
0.439594 0.438860 0.803960
0.512318 0.438860 0.803960
0.538551 0.438860 0.803960
0.606699 0.438860 0.803960
0.674846 0.438860 0.803960
0.742994 0.438860 0.803960
0.810112 0.440272 0.805311
0.253278 0.470545 0.764994
0.346624 0.491036 0.784594
0.439801 0.511489 0.804158
0.532686 0.531651 0.823443
0.558034 0.531651 0.823443
0.626182 0.531651 0.823443
0.694329 0.531651 0.823443
0.762477 0.531651 0.823443
0.829595 0.533063 0.824794
0.253278 0.502676 0.764994
0.346624 0.522276 0.784594
0.439801 0.541840 0.804158
0.532978 0.561404 0.823722
0.576602 0.579694 0.842012
0.645619 0.580563 0.842881
0.713767 0.580563 0.842881
0.781915 0.580563 0.842881
0.849033 0.581914 0.844231
0.253278 0.566198 0.764994
0.346624 0.585798 0.784594
0.439801 0.605362 0.804158
0.532978 0.624926 0.823722
0.576602 0.643216 0.842012
0.663485 0.661951 0.860747
0.731633 0.661951 0.860747
0.799780 0.661951 0.860747
0.866898 0.663302 0.862097
0.253278 0.634064 0.764994
0.346624 0.653664 0.784594
0.439801 0.673228 0.804158
0.532978 0.692792 0.823722
0.576602 0.711082 0.842012
0.663916 0.730248 0.861178
0.750720 0.748904 0.879834
0.818867 0.748904 0.879834
0.885986 0.750254 0.881184
0.253278 0.701930 0.764994
0.346624 0.721529 0.784594
0.439801 0.741094 0.804158
0.532978 0.760658 0.823722
0.576602 0.778947 0.842012
0.663916 0.798114 0.861178
0.751230 0.817280 0.880345
0.837955 0.835857 0.898921
0.905073 0.837207 0.900271
0.254690 0.771146 0.766344
0.348036 0.790745 0.785944
0.441213 0.810310 0.805508
0.534389 0.829874 0.825072
0.577953 0.848163 0.843362
0.665267 0.867330 0.862528
0.752581 0.886496 0.881695
0.839895 0.905663 0.900861
0.922810 0.922810 0.918008
