docs/luts/fuji_recipes/Classic_RS_Kodak_Portra_400.cube
TITLE "Fujifilm Recipe: RS Kodak Portra 400 (Classic)"
# FilmSim=Classic HL=-1 SH=-1 Col=2 WB=Daylight WBR=4 WBB=-5
LUT_3D_SIZE 9
DOMAIN_MIN 0.0 0.0 0.0
DOMAIN_MAX 1.0 1.0 1.0
0.040000 0.040000 0.040000
0.196880 0.027125 0.027125
0.338891 0.018773 0.018773
0.483649 0.010730 0.010730
0.600855 0.008053 0.008053
0.737056 0.001150 0.001150
0.856619 0.000000 0.000000
0.856619 0.000000 0.000000
0.856619 0.000000 0.000000
0.028056 0.182127 0.028056
0.196880 0.180586 0.027125
0.338891 0.168860 0.018773
0.483649 0.159304 0.010730
0.600855 0.156210 0.008053
0.737056 0.148734 0.001150
0.856619 0.145470 0.000000
0.856619 0.145470 0.000000
0.856619 0.145470 0.000000
0.020369 0.310814 0.020369
0.186884 0.310814 0.020369
0.338891 0.308361 0.018773
0.483649 0.297398 0.010730
0.600855 0.293917 0.008053
0.737056 0.285907 0.001150
0.856619 0.280679 0.000000
0.856619 0.280679 0.000000
0.856619 0.280679 0.000000
0.013186 0.438997 0.013186
0.177941 0.438997 0.013186
0.330859 0.438997 0.013186
0.483649 0.435492 0.010730
0.600855 0.431624 0.008053
0.737056 0.423081 0.001150
0.856619 0.415888 0.000000
0.856619 0.415888 0.000000
0.856619 0.415888 0.000000
0.010748 0.548051 0.010748
0.174963 0.548051 0.010748
0.327379 0.548051 0.010748
0.483280 0.548051 0.010748
0.600855 0.544064 0.008053
0.737056 0.534511 0.001150
0.856619 0.525205 0.000000
0.856619 0.525205 0.000000
0.856619 0.525205 0.000000
0.004471 0.671381 0.004471
0.168000 0.671381 0.004471
0.319780 0.671381 0.004471
0.475029 0.671381 0.004471
0.595675 0.671381 0.004471
0.737056 0.666660 0.001150
0.856619 0.655462 0.000000
0.856619 0.655462 0.000000
0.856619 0.655462 0.000000
0.000000 0.792905 0.000000
0.162330 0.792905 0.000000
0.312997 0.792905 0.000000
0.467108 0.792905 0.000000
0.586353 0.792905 0.000000
0.731501 0.792905 0.000000
0.856619 0.785718 0.000000
0.856619 0.785718 0.000000
0.856619 0.785718 0.000000
0.000000 0.853202 0.000000
0.160986 0.853202 0.000000
0.310405 0.853202 0.000000
0.437287 0.853202 0.000000
0.581233 0.853202 0.000000
0.725179 0.853202 0.000000
0.856619 0.852817 0.000000
0.856619 0.852817 0.000000
0.856619 0.852817 0.000000
0.000000 0.853202 0.000000
0.160986 0.853202 0.000000
0.310405 0.853202 0.000000
0.437287 0.853202 0.000000
0.581233 0.853202 0.000000
0.725179 0.853202 0.000000
0.856619 0.852817 0.000000
0.856619 0.852817 0.000000
0.856619 0.852817 0.000000
0.029279 0.029279 0.163270
0.196880 0.027125 0.159800
0.338891 0.018773 0.148531
0.483649 0.010730 0.139180
0.600855 0.008053 0.136142
0.737056 0.001150 0.128743
0.856619 0.000000 0.125766
0.856619 0.000000 0.125766
0.856619 0.000000 0.125766
0.028056 0.182127 0.161258
0.211066 0.194751 0.173939
0.359239 0.175457 0.153484
0.508119 0.162747 0.141318
0.626739 0.158107 0.136933
0.764774 0.149132 0.128197
0.999339 0.038680 0.012044
0.999339 0.038680 0.012044
0.999339 0.038680 0.012044
0.020369 0.310814 0.150511
0.195629 0.330071 0.156171
0.359239 0.326240 0.153484
0.508119 0.309794 0.141318
0.626739 0.303404 0.136933
0.764774 0.292796 0.128197
0.999339 0.221452 0.012044
0.999339 0.221452 0.012044
0.999339 0.221452 0.012044
0.013186 0.438997 0.141953
0.183310 0.462408 0.144834
0.346796 0.462408 0.144834
0.508119 0.456841 0.141318
0.626739 0.448701 0.136933
0.764774 0.436459 0.128197
0.999339 0.404225 0.012044
0.999339 0.404225 0.012044
0.999339 0.404225 0.012044
0.010748 0.548051 0.139092
0.178510 0.573035 0.140529
0.339898 0.573035 0.140529
0.504975 0.573035 0.140529
0.626739 0.566818 0.136933
0.764774 0.552646 0.128197
0.999339 0.551341 0.012044
0.999339 0.551341 0.012044
0.999339 0.551341 0.012044
0.004471 0.671381 0.132280
0.169861 0.698290 0.132327
0.329349 0.698290 0.132327
0.492483 0.698290 0.132327
0.618739 0.698290 0.132327
0.764774 0.691048 0.128197
0.999339 0.727419 0.012044
0.999339 0.727419 0.012044
0.999339 0.727419 0.012044
0.000000 0.792905 0.126871
0.122642 0.866911 0.080758
0.300613 0.866911 0.080758
0.451476 0.866911 0.080758
0.622928 0.866911 0.080758
0.794380 0.866911 0.080758
0.999339 0.903497 0.012044
0.999339 0.903497 0.012044
0.999339 0.903497 0.012044
0.000000 0.853202 0.125821
0.060954 0.994468 0.013498
0.262600 0.994468 0.013498
0.433177 0.994468 0.013498
0.627437 0.994468 0.013498
0.821697 0.994468 0.013498
0.999339 0.994200 0.012044
0.999339 0.994200 0.012044
0.999339 0.994200 0.012044
0.000000 0.853202 0.125821
0.060954 0.994468 0.013498
0.262600 0.994468 0.013498
0.433177 0.994468 0.013498
0.627437 0.994468 0.013498
0.821697 0.994468 0.013498
0.999339 0.994200 0.012044
0.999339 0.994200 0.012044
0.999339 0.994200 0.012044
0.022429 0.022429 0.275099
0.189699 0.022429 0.275099
0.338891 0.018773 0.269561
0.483649 0.010730 0.258989
0.600855 0.008053 0.255615
0.737056 0.001150 0.247754
0.856619 0.000000 0.243072
0.856619 0.000000 0.243072
0.856619 0.000000 0.243072
0.022429 0.173643 0.275099
0.200300 0.182638 0.294242
0.361181 0.175835 0.285606
0.510848 0.162882 0.269827
0.629809 0.158110 0.263699
0.777747 0.139471 0.247002
0.997914 0.037716 0.169603
0.997914 0.037716 0.169603
0.997914 0.037716 0.169603
0.020369 0.310814 0.271898
0.196557 0.333021 0.290170
0.367748 0.333337 0.289603
0.521325 0.315241 0.272741
0.642129 0.307752 0.265896
0.829668 0.256252 0.207656
0.990874 0.215569 0.164862
0.990874 0.215569 0.164862
0.990874 0.215569 0.164862
0.013186 0.438997 0.262058
0.183841 0.466737 0.274995
0.354059 0.474334 0.277536
0.521325 0.468040 0.272741
0.642129 0.458237 0.265896
0.829668 0.430969 0.207656
0.990874 0.362941 0.164862
0.990874 0.362941 0.164862
0.990874 0.362941 0.164862
0.010748 0.548051 0.258804
0.178795 0.578022 0.268662
0.345973 0.587249 0.270668
0.517171 0.587249 0.270668
0.642129 0.580068 0.265896
0.829668 0.571687 0.207656
0.990874 0.544012 0.164862
0.990874 0.544012 0.164862
0.990874 0.544012 0.164862
0.004471 0.671381 0.251491
0.169862 0.704009 0.258566
0.319764 0.736333 0.238637
0.472686 0.736333 0.238637
0.646395 0.736333 0.238637
0.829668 0.740005 0.207656
0.990874 0.719644 0.164862
0.990874 0.719644 0.164862
0.990874 0.719644 0.164862
0.000000 0.792905 0.245209
0.090370 0.900554 0.196961
0.277870 0.902568 0.189455
0.443855 0.902568 0.189455
0.633168 0.902568 0.189455
0.822480 0.902568 0.189455
0.990874 0.895276 0.164862
0.990874 0.895276 0.164862
0.990874 0.895276 0.164862
0.000000 0.853202 0.243178
0.059286 0.991934 0.170126
0.256768 0.986030 0.166291
0.426270 0.986030 0.166291
0.620000 0.986030 0.166291
0.813730 0.986030 0.166291
0.990874 0.985748 0.164862
0.990874 0.985748 0.164862
0.990874 0.985748 0.164862
0.000000 0.853202 0.243178
0.059286 0.991934 0.170126
0.256768 0.986030 0.166291
0.426270 0.986030 0.166291
0.620000 0.986030 0.166291
0.813730 0.986030 0.166291
0.990874 0.985748 0.164862
0.990874 0.985748 0.164862
0.990874 0.985748 0.164862
0.016104 0.016104 0.386403
0.181450 0.016104 0.386403
0.334915 0.016104 0.386403
0.483649 0.010730 0.378798
0.600855 0.008053 0.375088
0.737056 0.001150 0.366764
0.856619 0.000000 0.360378
0.856619 0.000000 0.360378
0.856619 0.000000 0.360378
0.016104 0.165579 0.386403
0.188478 0.171279 0.410579
0.354784 0.171279 0.410579
0.510848 0.162882 0.398361
0.629809 0.158110 0.390604
0.777747 0.139471 0.376243
0.997914 0.037716 0.328116
0.997914 0.037716 0.328116
0.997914 0.037716 0.328116
0.016104 0.304509 0.386403
0.188736 0.322890 0.412166
0.362358 0.327971 0.420589
0.524266 0.316165 0.407115
0.647518 0.306786 0.397219
0.827574 0.256028 0.358713
0.988172 0.213842 0.321197
0.988172 0.213842 0.321197
0.988172 0.213842 0.321197
0.013186 0.438997 0.382163
0.183841 0.466737 0.405148
0.356194 0.478525 0.414232
0.528969 0.474202 0.409725
0.661816 0.458917 0.390564
0.823370 0.396251 0.358308
0.982471 0.356779 0.317619
0.982471 0.356779 0.317619
0.982471 0.356779 0.317619
0.010748 0.548051 0.378515
0.178795 0.578022 0.396978
0.347838 0.592771 0.404911
0.494135 0.601377 0.400893
0.661816 0.593153 0.390564
0.823370 0.568015 0.358308
0.982471 0.537204 0.317619
0.982471 0.537204 0.317619
0.982471 0.537204 0.317619
0.004471 0.671381 0.370702
0.169862 0.704009 0.385222
0.311447 0.746215 0.374632
0.470466 0.744284 0.375040
0.650877 0.744284 0.375040
0.823370 0.734620 0.358308
0.982471 0.712209 0.317619
0.982471 0.712209 0.317619
0.982471 0.712209 0.317619
0.000000 0.792905 0.363546
0.090370 0.900554 0.349155
0.276460 0.898255 0.342119
0.439949 0.895122 0.341255
0.627801 0.895122 0.341255
0.815653 0.895122 0.341255
0.982471 0.887214 0.317619
0.982471 0.887214 0.317619
0.982471 0.887214 0.317619
0.000000 0.853202 0.360535
0.059286 0.991934 0.328387
0.253787 0.981225 0.321118
0.420049 0.977662 0.319012
0.613036 0.977662 0.319012
0.806023 0.977662 0.319012
0.982471 0.977363 0.317619
0.982471 0.977363 0.317619
0.982471 0.977363 0.317619
0.000000 0.853202 0.360535
0.059286 0.991934 0.328387
0.253787 0.981225 0.321118
0.420049 0.977662 0.319012
0.613036 0.977662 0.319012
0.806023 0.977662 0.319012
0.982471 0.977363 0.317619
0.982471 0.977363 0.317619
0.982471 0.977363 0.317619
0.009808 0.009808 0.500472
0.174023 0.009808 0.500472
0.326438 0.009808 0.500472
0.482339 0.009808 0.500472
0.600855 0.008053 0.497743
0.737056 0.001150 0.462760
0.856619 0.000000 0.454481
0.856619 0.000000 0.454481
0.856619 0.000000 0.454481
0.009808 0.158260 0.500472
0.178411 0.161526 0.528107
0.341680 0.161526 0.528107
0.508682 0.161526 0.528107
0.629809 0.158110 0.492974
0.777747 0.139471 0.479872
0.997914 0.037716 0.454516
0.997914 0.037716 0.454516
0.997914 0.037716 0.454516
0.009808 0.296241 0.500472
0.178533 0.310171 0.530143
0.354531 0.320710 0.519930
0.526841 0.318695 0.517644
0.647518 0.306786 0.503998
0.827574 0.256028 0.479230
0.988172 0.213842 0.446495
0.988172 0.213842 0.446495
0.988172 0.213842 0.446495
0.009808 0.434222 0.500472
0.178533 0.458786 0.530143
0.355316 0.476875 0.521738
0.508765 0.486401 0.527143
0.660860 0.459828 0.506341
0.825716 0.399628 0.480737
0.984606 0.358661 0.444100
0.984606 0.358661 0.444100
0.984606 0.358661 0.444100
0.010748 0.548051 0.501414
0.178795 0.578022 0.528711
0.347838 0.592771 0.512217
0.498795 0.604806 0.519726
0.664283 0.596563 0.510671
0.823014 0.570246 0.480703
0.980357 0.536089 0.441282
0.980357 0.536089 0.441282
0.980357 0.536089 0.441282
0.004471 0.671381 0.493087
0.169862 0.704009 0.487010
0.311447 0.746215 0.492783
0.474496 0.745674 0.496102
0.653004 0.745265 0.496356
0.823014 0.735163 0.480703
0.980357 0.710701 0.441282
0.980357 0.710701 0.441282
0.980357 0.710701 0.441282
0.000000 0.792905 0.458757
0.090370 0.900554 0.470802
0.276460 0.898255 0.464223
0.442045 0.894693 0.464635
0.628375 0.893744 0.464445
0.814855 0.893744 0.464445
0.980357 0.885314 0.441282
0.980357 0.885314 0.441282
0.980357 0.885314 0.441282
0.000000 0.853202 0.454693
0.059286 0.991934 0.454527
0.253787 0.981225 0.445978
0.420067 0.976719 0.443363
0.611882 0.975567 0.442670
0.804371 0.975567 0.442670
0.980357 0.975261 0.441282
0.980357 0.975261 0.441282
0.980357 0.975261 0.441282
0.000000 0.853202 0.454693
0.059286 0.991934 0.454527
0.253787 0.981225 0.445978
0.420067 0.976719 0.443363
0.611882 0.975567 0.442670
0.804371 0.975567 0.442670
0.980357 0.975261 0.441282
0.980357 0.975261 0.441282
0.980357 0.975261 0.441282
0.008703 0.008703 0.588096
0.172665 0.008703 0.588096
0.324847 0.008703 0.588096
0.480507 0.008703 0.588096
0.600855 0.008053 0.587131
0.737056 0.001150 0.577411
0.856619 0.000000 0.567490
0.856619 0.000000 0.567490
0.856619 0.000000 0.567490
0.008703 0.156927 0.588096
0.175742 0.159009 0.616800
0.337534 0.159009 0.616800
0.503025 0.159009 0.616800
0.629809 0.158110 0.615231
0.777747 0.139471 0.604379
0.997914 0.037716 0.607223
0.997914 0.037716 0.607223
0.997914 0.037716 0.607223
0.008703 0.294696 0.588096
0.175796 0.306189 0.619021
0.343011 0.309718 0.632476
0.485752 0.309718 0.632476
0.647518 0.306786 0.632228
0.827574 0.256028 0.624832
0.988172 0.213842 0.598718
0.988172 0.213842 0.598718
0.988172 0.213842 0.598718
0.008703 0.432464 0.588096
0.175796 0.453399 0.619021
0.337087 0.462120 0.641521
0.487500 0.462254 0.646325
0.660860 0.459828 0.644399
0.825716 0.399628 0.624933
0.984606 0.358661 0.595994
0.984606 0.358661 0.595994
0.984606 0.358661 0.595994
0.008703 0.545009 0.588096
0.175796 0.572982 0.619021
0.337087 0.591462 0.641521
0.491552 0.598549 0.649891
0.665236 0.606338 0.651003
0.820472 0.570441 0.623399
0.975681 0.533155 0.589617
0.975681 0.533155 0.589617
0.975681 0.533155 0.589617
0.004471 0.671381 0.581981
0.169862 0.704009 0.609026
0.311447 0.746215 0.635286
0.474496 0.745674 0.636434
0.653494 0.743792 0.637161
0.819269 0.733067 0.623779
0.972923 0.705151 0.588048
0.972923 0.705151 0.588048
0.972923 0.705151 0.588048
0.000000 0.792905 0.572759
0.090370 0.900554 0.617422
0.276460 0.898255 0.612304
0.442045 0.894693 0.611359
0.626657 0.888067 0.609453
0.810355 0.888067 0.609453
0.972923 0.878543 0.588048
0.972923 0.878543 0.588048
0.972923 0.878543 0.588048
0.000000 0.853202 0.567752
0.059286 0.991934 0.606992
0.253787 0.981225 0.597830
0.420067 0.976719 0.594679
0.607260 0.968199 0.589369
0.798296 0.968199 0.589369
0.972923 0.967862 0.588048
0.972923 0.967862 0.588048
0.972923 0.967862 0.588048
0.000000 0.853202 0.567752
0.059286 0.991934 0.606992
0.253787 0.981225 0.597830
0.420067 0.976719 0.594679
0.607260 0.968199 0.589369
0.798296 0.968199 0.589369
0.972923 0.967862 0.588048
0.972923 0.967862 0.588048
0.972923 0.967862 0.588048
0.003272 0.003272 0.695081
0.166695 0.003272 0.695081
0.318377 0.003272 0.695081
0.473527 0.003272 0.695081
0.593995 0.003272 0.695081
0.737056 0.001150 0.692063
0.856619 0.000000 0.680500
0.856619 0.000000 0.680500
0.856619 0.000000 0.680500
0.003272 0.151009 0.695081
0.168279 0.151715 0.725649
0.328454 0.151715 0.725649
0.464595 0.151715 0.725649
0.618904 0.151715 0.725649
0.777747 0.139471 0.728886
0.997914 0.037716 0.759930
0.997914 0.037716 0.759930
0.997914 0.037716 0.759930
0.003272 0.288325 0.695081
0.168236 0.297274 0.728135
0.305329 0.267664 0.776084
0.466248 0.267664 0.776084
0.649391 0.267664 0.776084
0.827574 0.256028 0.770434
0.988172 0.213842 0.750942
0.988172 0.213842 0.750942
0.988172 0.213842 0.750942
0.003272 0.425642 0.695081
0.168236 0.442953 0.728135
0.305448 0.439501 0.774714
0.468694 0.410585 0.775071
0.649792 0.410585 0.775071
0.825716 0.399628 0.769128
0.984606 0.358661 0.747888
0.984606 0.358661 0.747888
0.984606 0.358661 0.747888
0.003272 0.537365 0.695081
0.168236 0.560814 0.728135
0.305448 0.577610 0.774714
0.469037 0.579274 0.773540
0.648629 0.579882 0.771342
0.820472 0.570441 0.764930
0.975681 0.533155 0.740516
0.975681 0.533155 0.740516
0.975681 0.533155 0.740516
0.003272 0.669652 0.695081
0.168236 0.701158 0.728135
0.305448 0.742934 0.774714
0.469037 0.742218 0.773540
0.649353 0.740114 0.770620
0.817899 0.733609 0.764025
0.967339 0.702092 0.735108
0.967339 0.702092 0.735108
0.967339 0.702092 0.735108
0.000000 0.792905 0.686762
0.090370 0.900554 0.764042
0.276460 0.898255 0.760384
0.442045 0.894693 0.758084
0.626669 0.887466 0.753447
0.808151 0.883867 0.752985
0.965812 0.872688 0.734490
0.965812 0.872688 0.734490
0.965812 0.872688 0.734490
0.000000 0.853202 0.680811
0.059286 0.991934 0.759457
0.253787 0.981225 0.749682
0.420067 0.976719 0.745994
0.606843 0.967339 0.738833
0.793732 0.961209 0.735690
0.965812 0.960818 0.734490
0.965812 0.960818 0.734490
0.965812 0.960818 0.734490
0.000000 0.853202 0.680811
0.059286 0.991934 0.759457
0.253787 0.981225 0.749682
0.420067 0.976719 0.745994
0.606843 0.967339 0.738833
0.793732 0.961209 0.735690
0.965812 0.960818 0.734490
0.965812 0.960818 0.734490
0.965812 0.960818 0.734490
0.000488 0.000488 0.750178
0.163692 0.000488 0.750178
0.315170 0.000488 0.750178
0.470112 0.000488 0.750178
0.590186 0.000488 0.750178
0.736116 0.000488 0.750178
0.856619 0.000000 0.738714
0.856619 0.000000 0.738714
0.856619 0.000000 0.738714
0.000488 0.148027 0.750178
0.146115 0.128604 0.801073
0.315442 0.128604 0.801073
0.459103 0.128604 0.801073
0.622229 0.128604 0.801073
0.785354 0.128604 0.801073
0.997914 0.037716 0.838593
0.997914 0.037716 0.838593
0.997914 0.037716 0.838593
0.000488 0.285159 0.750178
0.134461 0.275397 0.814223
0.290445 0.252166 0.843896
0.453694 0.252166 0.843896
0.639827 0.252166 0.843896
0.825960 0.252166 0.843896
0.988172 0.213842 0.829356
0.988172 0.213842 0.829356
0.988172 0.213842 0.829356
0.000488 0.422291 0.750178
0.134461 0.434509 0.814223
0.290249 0.426553 0.842226
0.455143 0.395962 0.841790
0.639580 0.395962 0.841790
0.824017 0.395962 0.841790
0.984606 0.358661 0.826132
0.984606 0.358661 0.826132
0.984606 0.358661 0.826132
0.000488 0.533632 0.750178
0.134461 0.562968 0.814223
0.290249 0.566685 0.842226
0.455022 0.567393 0.839652
0.637452 0.567241 0.836081
0.818623 0.567241 0.836081
0.975681 0.533155 0.818247
0.975681 0.533155 0.818247
0.975681 0.533155 0.818247
0.000488 0.665741 0.750178
0.134461 0.716253 0.814223
0.290249 0.734786 0.842226
0.455022 0.733491 0.839652
0.637764 0.730580 0.834306
0.815895 0.731072 0.832844
0.967339 0.702092 0.811869
0.967339 0.702092 0.811869
0.967339 0.702092 0.811869
0.000000 0.792905 0.745488
0.090370 0.900554 0.839570
0.276460 0.898255 0.836664
0.442045 0.894693 0.833666
0.626669 0.887466 0.827596
0.808519 0.883011 0.825487
0.962459 0.870548 0.809615
0.962459 0.870548 0.809615
0.962459 0.870548 0.809615
0.000000 0.853202 0.739050
0.059286 0.991934 0.837995
0.253787 0.981225 0.827904
0.420067 0.976719 0.823940
0.606843 0.967339 0.816030
0.792878 0.958700 0.810844
0.962459 0.957530 0.809615
0.962459 0.957530 0.809615
0.962459 0.957530 0.809615
0.000000 0.853202 0.739050
0.059286 0.991934 0.837995
0.253787 0.981225 0.827904
0.420067 0.976719 0.823940
0.606843 0.967339 0.816030
0.792878 0.958700 0.810844
0.962459 0.957530 0.809615
0.962459 0.957530 0.809615
0.962459 0.957530 0.809615
0.000488 0.000488 0.750178
0.163692 0.000488 0.750178
0.315170 0.000488 0.750178
0.470112 0.000488 0.750178
0.590186 0.000488 0.750178
0.736116 0.000488 0.750178
0.856619 0.000000 0.738714
0.856619 0.000000 0.738714
0.856619 0.000000 0.738714
0.000488 0.148027 0.750178
0.146115 0.128604 0.801073
0.315442 0.128604 0.801073
0.459103 0.128604 0.801073
0.622229 0.128604 0.801073
0.785354 0.128604 0.801073
0.997914 0.037716 0.838593
0.997914 0.037716 0.838593
0.997914 0.037716 0.838593
0.000488 0.285159 0.750178
0.134461 0.275397 0.814223
0.290445 0.252166 0.843896
0.453694 0.252166 0.843896
0.639827 0.252166 0.843896
0.825960 0.252166 0.843896
0.988172 0.213842 0.829356
0.988172 0.213842 0.829356
0.988172 0.213842 0.829356
0.000488 0.422291 0.750178
0.134461 0.434509 0.814223
0.290249 0.426553 0.842226
0.455143 0.395962 0.841790
0.639580 0.395962 0.841790
0.824017 0.395962 0.841790
0.984606 0.358661 0.826132
0.984606 0.358661 0.826132
0.984606 0.358661 0.826132
0.000488 0.533632 0.750178
0.134461 0.562968 0.814223
0.290249 0.566685 0.842226
0.455022 0.567393 0.839652
0.637452 0.567241 0.836081
0.818623 0.567241 0.836081
0.975681 0.533155 0.818247
0.975681 0.533155 0.818247
0.975681 0.533155 0.818247
0.000488 0.665741 0.750178
0.134461 0.716253 0.814223
0.290249 0.734786 0.842226
0.455022 0.733491 0.839652
0.637764 0.730580 0.834306
0.815895 0.731072 0.832844
0.967339 0.702092 0.811869
0.967339 0.702092 0.811869
0.967339 0.702092 0.811869
0.000000 0.792905 0.745488
0.090370 0.900554 0.839570
0.276460 0.898255 0.836664
0.442045 0.894693 0.833666
0.626669 0.887466 0.827596
0.808519 0.883011 0.825487
0.962459 0.870548 0.809615
0.962459 0.870548 0.809615
0.962459 0.870548 0.809615
0.000000 0.853202 0.739050
0.059286 0.991934 0.837995
0.253787 0.981225 0.827904
0.420067 0.976719 0.823940
0.606843 0.967339 0.816030
0.792878 0.958700 0.810844
0.962459 0.957530 0.809615
0.962459 0.957530 0.809615
0.962459 0.957530 0.809615
0.000000 0.853202 0.739050
0.059286 0.991934 0.837995
0.253787 0.981225 0.827904
0.420067 0.976719 0.823940
0.606843 0.967339 0.816030
0.792878 0.958700 0.810844
0.962459 0.957530 0.809615
0.962459 0.957530 0.809615
0.962459 0.957530 0.809615
