docs/luts/fuji_recipes/Classic_RR_Classic_Slide.cube
TITLE "Fujifilm Recipe: RR Classic Slide (Classic)"
# FilmSim=Classic HL=1 SH=2 Col=0 WB=Daylight WBR=-2 WBB=3
LUT_3D_SIZE 33
DOMAIN_MIN 0.0 0.0 0.0
DOMAIN_MAX 1.0 1.0 1.0
0.000000 0.000000 0.000000
0.036763 0.005738 0.005738
0.065686 0.010252 0.010252
0.094126 0.014690 0.014690
0.122565 0.019129 0.019129
0.151005 0.023567 0.023567
0.179445 0.028006 0.028006
0.207885 0.032444 0.032444
0.236325 0.036883 0.036883
0.264765 0.041322 0.041322
0.293204 0.045760 0.045760
0.321644 0.050199 0.050199
0.350084 0.054637 0.054637
0.378524 0.059076 0.059076
0.409949 0.063981 0.063981
0.437930 0.068348 0.068348
0.506683 0.072715 0.072715
0.538313 0.077082 0.077082
0.569944 0.081448 0.081448
0.601575 0.085815 0.085815
0.633206 0.090182 0.090182
0.664837 0.094549 0.094549
0.696467 0.098916 0.098916
0.728098 0.103283 0.103283
0.759729 0.107650 0.107650
0.791360 0.112017 0.112017
0.822991 0.116384 0.116384
0.824904 0.116649 0.116649
0.824904 0.116649 0.116649
0.824904 0.116649 0.116649
0.824904 0.116649 0.116649
0.824904 0.116649 0.116649
0.824904 0.116649 0.116649
0.005986 0.038355 0.005986
0.037012 0.038355 0.005986
0.065686 0.042621 0.010252
0.094126 0.047059 0.014690
0.122565 0.051498 0.019129
0.151005 0.055936 0.023567
0.179445 0.060375 0.028006
0.207885 0.064814 0.032444
0.236325 0.069252 0.036883
0.264765 0.073691 0.041322
0.293204 0.078129 0.045760
0.321644 0.082568 0.050199
0.350084 0.087006 0.054637
0.378524 0.091445 0.059076
0.409949 0.096350 0.063981
0.437930 0.100717 0.068348
0.506683 0.105084 0.072715
0.538313 0.109451 0.077082
0.569944 0.113818 0.081448
0.601575 0.118185 0.085815
0.633206 0.122552 0.090182
0.664837 0.126919 0.094549
0.696467 0.131286 0.098916
0.728098 0.135653 0.103283
0.759729 0.140020 0.107650
0.791360 0.144387 0.112017
0.822991 0.148754 0.116384
0.824904 0.149018 0.116649
0.824904 0.149018 0.116649
0.824904 0.149018 0.116649
0.824904 0.149018 0.116649
0.824904 0.149018 0.116649
0.824904 0.149018 0.116649
0.010718 0.068673 0.010718
0.041743 0.068673 0.010718
0.066152 0.068673 0.010718
0.094126 0.072645 0.014690
0.122565 0.077084 0.019129
0.151005 0.081522 0.023567
0.179445 0.085961 0.028006
0.207885 0.090399 0.032444
0.236325 0.094838 0.036883
0.264765 0.099277 0.041322
0.293204 0.103715 0.045760
0.321644 0.108154 0.050199
0.350084 0.112592 0.054637
0.378524 0.117031 0.059076
0.409949 0.121935 0.063981
0.437930 0.126302 0.068348
0.506683 0.130669 0.072715
0.538313 0.135036 0.077082
0.569944 0.139403 0.081448
0.601575 0.143770 0.085815
0.633206 0.148137 0.090182
0.664837 0.152504 0.094549
0.696467 0.156871 0.098916
0.728098 0.161238 0.103283
0.759729 0.165605 0.107650
0.791360 0.169972 0.112017
0.822991 0.174339 0.116384
0.824904 0.174604 0.116649
0.824904 0.174604 0.116649
0.824904 0.174604 0.116649
0.824904 0.174604 0.116649
0.824904 0.174604 0.116649
0.824904 0.174604 0.116649
0.015370 0.098484 0.015370
0.046396 0.098484 0.015370
0.070805 0.098484 0.015370
0.094806 0.098484 0.015370
0.122565 0.102242 0.019129
0.151005 0.106681 0.023567
0.179445 0.111120 0.028006
0.207885 0.115558 0.032444
0.236325 0.119997 0.036883
0.264765 0.124435 0.041322
0.293204 0.128874 0.045760
0.321644 0.133313 0.050199
0.350084 0.137751 0.054637
0.378524 0.142190 0.059076
0.409949 0.147094 0.063981
0.437930 0.151461 0.068348
0.506683 0.155828 0.072715
0.538313 0.160195 0.077082
0.569944 0.164562 0.081448
0.601575 0.168929 0.085815
0.633206 0.173296 0.090182
0.664837 0.177663 0.094549
0.696467 0.182030 0.098916
0.728098 0.186397 0.103283
0.759729 0.190764 0.107650
0.791360 0.195131 0.112017
0.822991 0.199498 0.116384
0.824904 0.199762 0.116649
0.824904 0.199762 0.116649
0.824904 0.199762 0.116649
0.824904 0.199762 0.116649
0.824904 0.199762 0.116649
0.824904 0.199762 0.116649
0.020023 0.128296 0.020023
0.051049 0.128296 0.020023
0.075457 0.128296 0.020023
0.099459 0.128296 0.020023
0.123460 0.128296 0.020023
0.151005 0.131840 0.023567
0.179445 0.136279 0.028006
0.207885 0.140717 0.032444
0.236325 0.145156 0.036883
0.264765 0.149594 0.041322
0.293204 0.154033 0.045760
0.321644 0.158471 0.050199
0.350084 0.162910 0.054637
0.378524 0.167349 0.059076
0.409949 0.172253 0.063981
0.437930 0.176620 0.068348
0.506683 0.180987 0.072715
0.538313 0.185354 0.077082
0.569944 0.189721 0.081448
0.601575 0.194088 0.085815
0.633206 0.198455 0.090182
0.664837 0.202822 0.094549
0.696467 0.207189 0.098916
0.728098 0.211556 0.103283
0.759729 0.215923 0.107650
0.791360 0.220290 0.112017
0.822991 0.224657 0.116384
0.824904 0.224921 0.116649
0.824904 0.224921 0.116649
0.824904 0.224921 0.116649
0.824904 0.224921 0.116649
0.824904 0.224921 0.116649
0.824904 0.224921 0.116649
0.024676 0.158107 0.024676
0.055701 0.158107 0.024676
0.080110 0.158107 0.024676
0.104111 0.158107 0.024676
0.128112 0.158107 0.024676
0.152114 0.158107 0.024676
0.179445 0.161437 0.028006
0.207885 0.165876 0.032444
0.236325 0.170315 0.036883
0.264765 0.174753 0.041322
0.293204 0.179192 0.045760
0.321644 0.183630 0.050199
0.350084 0.188069 0.054637
0.378524 0.192507 0.059076
0.409949 0.197412 0.063981
0.437930 0.201779 0.068348
0.506683 0.206146 0.072715
0.538313 0.210513 0.077082
0.569944 0.214880 0.081448
0.601575 0.219247 0.085815
0.633206 0.223614 0.090182
0.664837 0.227981 0.094549
0.696467 0.232348 0.098916
0.728098 0.236715 0.103283
0.759729 0.241082 0.107650
0.791360 0.245449 0.112017
0.822991 0.249816 0.116384
0.824904 0.250080 0.116649
0.824904 0.250080 0.116649
0.824904 0.250080 0.116649
0.824904 0.250080 0.116649
0.824904 0.250080 0.116649
0.824904 0.250080 0.116649
0.029328 0.187919 0.029328
0.060354 0.187919 0.029328
0.084763 0.187919 0.029328
0.108764 0.187919 0.029328
0.132765 0.187919 0.029328
0.156766 0.187919 0.029328
0.180768 0.187919 0.029328
0.207885 0.191035 0.032444
0.236325 0.195473 0.036883
0.264765 0.199912 0.041322
0.293204 0.204351 0.045760
0.321644 0.208789 0.050199
0.350084 0.213228 0.054637
0.378524 0.217666 0.059076
0.409949 0.222571 0.063981
0.437930 0.226938 0.068348
0.506683 0.231305 0.072715
0.538313 0.235672 0.077082
0.569944 0.240039 0.081448
0.601575 0.244406 0.085815
0.633206 0.248773 0.090182
0.664837 0.253140 0.094549
0.696467 0.257507 0.098916
0.728098 0.261874 0.103283
0.759729 0.266241 0.107650
0.791360 0.270608 0.112017
0.822991 0.274975 0.116384
0.824904 0.275239 0.116649
0.824904 0.275239 0.116649
0.824904 0.275239 0.116649
0.824904 0.275239 0.116649
0.824904 0.275239 0.116649
0.824904 0.275239 0.116649
0.033981 0.217730 0.033981
0.065007 0.217730 0.033981
0.089415 0.217730 0.033981
0.113417 0.217730 0.033981
0.137418 0.217730 0.033981
0.161419 0.217730 0.033981
0.185420 0.217730 0.033981
0.209421 0.217730 0.033981
0.236325 0.220632 0.036883
0.264765 0.225071 0.041322
0.293204 0.229509 0.045760
0.321644 0.233948 0.050199
0.350084 0.238387 0.054637
0.378524 0.242825 0.059076
0.409949 0.247730 0.063981
0.437930 0.252097 0.068348
0.506683 0.256464 0.072715
0.538313 0.260831 0.077082
0.569944 0.265198 0.081448
0.601575 0.269565 0.085815
0.633206 0.273932 0.090182
0.664837 0.278299 0.094549
0.696467 0.282666 0.098916
0.728098 0.287033 0.103283
0.759729 0.291400 0.107650
0.791360 0.295767 0.112017
0.822991 0.300134 0.116384
0.824904 0.300398 0.116649
0.824904 0.300398 0.116649
0.824904 0.300398 0.116649
0.824904 0.300398 0.116649
0.824904 0.300398 0.116649
0.824904 0.300398 0.116649
0.038634 0.247542 0.038634
0.069659 0.247542 0.038634
0.094068 0.247542 0.038634
0.118069 0.247542 0.038634
0.142070 0.247542 0.038634
0.166072 0.247542 0.038634
0.190073 0.247542 0.038634
0.214074 0.247542 0.038634
0.238075 0.247542 0.038634
0.264765 0.250230 0.041322
0.293204 0.254668 0.045760
0.321644 0.259107 0.050199
0.350084 0.263546 0.054637
0.378524 0.267984 0.059076
0.409949 0.272889 0.063981
0.437930 0.277256 0.068348
0.506683 0.281623 0.072715
0.538313 0.285990 0.077082
0.569944 0.290357 0.081448
0.601575 0.294724 0.085815
0.633206 0.299091 0.090182
0.664837 0.303458 0.094549
0.696467 0.307825 0.098916
0.728098 0.312192 0.103283
0.759729 0.316559 0.107650
0.791360 0.320926 0.112017
0.822991 0.325293 0.116384
0.824904 0.325557 0.116649
0.824904 0.325557 0.116649
0.824904 0.325557 0.116649
0.824904 0.325557 0.116649
0.824904 0.325557 0.116649
0.824904 0.325557 0.116649
0.043286 0.277353 0.043286
0.074312 0.277353 0.043286
0.098721 0.277353 0.043286
0.122722 0.277353 0.043286
0.146723 0.277353 0.043286
0.170724 0.277353 0.043286
0.194726 0.277353 0.043286
0.218727 0.277353 0.043286
0.242728 0.277353 0.043286
0.266729 0.277353 0.043286
0.293204 0.279827 0.045760
0.321644 0.284266 0.050199
0.350084 0.288704 0.054637
0.378524 0.293143 0.059076
0.409949 0.298048 0.063981
0.437930 0.302415 0.068348
0.506683 0.306782 0.072715
0.538313 0.311149 0.077082
0.569944 0.315516 0.081448
0.601575 0.319883 0.085815
0.633206 0.324250 0.090182
0.664837 0.328616 0.094549
0.696467 0.332983 0.098916
0.728098 0.337350 0.103283
0.759729 0.341717 0.107650
0.791360 0.346084 0.112017
0.822991 0.350451 0.116384
0.824904 0.350716 0.116649
0.824904 0.350716 0.116649
0.824904 0.350716 0.116649
0.824904 0.350716 0.116649
0.824904 0.350716 0.116649
0.824904 0.350716 0.116649
0.047939 0.307165 0.047939
0.078965 0.307165 0.047939
0.103373 0.307165 0.047939
0.127375 0.307165 0.047939
0.151376 0.307165 0.047939
0.175377 0.307165 0.047939
0.199378 0.307165 0.047939
0.223379 0.307165 0.047939
0.247381 0.307165 0.047939
0.271382 0.307165 0.047939
0.295383 0.307165 0.047939
0.321644 0.309425 0.050199
0.350084 0.313863 0.054637
0.378524 0.318302 0.059076
0.409949 0.323206 0.063981
0.437930 0.327573 0.068348
0.506683 0.331940 0.072715
0.538313 0.336307 0.077082
0.569944 0.340674 0.081448
0.601575 0.345041 0.085815
0.633206 0.349408 0.090182
0.664837 0.353775 0.094549
0.696467 0.358142 0.098916
0.728098 0.362509 0.103283
0.759729 0.366876 0.107650
0.791360 0.371243 0.112017
0.822991 0.375610 0.116384
0.824904 0.375875 0.116649
0.824904 0.375875 0.116649
0.824904 0.375875 0.116649
0.824904 0.375875 0.116649
0.824904 0.375875 0.116649
0.824904 0.375875 0.116649
0.052592 0.336976 0.052592
0.083617 0.336976 0.052592
0.108026 0.336976 0.052592
0.132027 0.336976 0.052592
0.156028 0.336976 0.052592
0.180030 0.336976 0.052592
0.204031 0.336976 0.052592
0.228032 0.336976 0.052592
0.252033 0.336976 0.052592
0.276035 0.336976 0.052592
0.300036 0.336976 0.052592
0.324037 0.336976 0.052592
0.350084 0.339022 0.054637
0.378524 0.343461 0.059076
0.409949 0.348365 0.063981
0.437930 0.352732 0.068348
0.506683 0.357099 0.072715
0.538313 0.361466 0.077082
0.569944 0.365833 0.081448
0.601575 0.370200 0.085815
0.633206 0.374567 0.090182
0.664837 0.378934 0.094549
0.696467 0.383301 0.098916
0.728098 0.387668 0.103283
0.759729 0.392035 0.107650
0.791360 0.396402 0.112017
0.822991 0.400769 0.116384
0.824904 0.401033 0.116649
0.824904 0.401033 0.116649
0.824904 0.401033 0.116649
0.824904 0.401033 0.116649
0.824904 0.401033 0.116649
0.824904 0.401033 0.116649
0.057244 0.366788 0.057244
0.088270 0.366788 0.057244
0.112679 0.366788 0.057244
0.136680 0.366788 0.057244
0.160681 0.366788 0.057244
0.184682 0.366788 0.057244
0.208684 0.366788 0.057244
0.232685 0.366788 0.057244
0.256686 0.366788 0.057244
0.280687 0.366788 0.057244
0.304688 0.366788 0.057244
0.328690 0.366788 0.057244
0.352691 0.366788 0.057244
0.378524 0.368620 0.059076
0.409949 0.373524 0.063981
0.437930 0.377891 0.068348
0.506683 0.382258 0.072715
0.538313 0.386625 0.077082
0.569944 0.390992 0.081448
0.601575 0.395359 0.085815
0.633206 0.399726 0.090182
0.664837 0.404093 0.094549
0.696467 0.408460 0.098916
0.728098 0.412827 0.103283
0.759729 0.417194 0.107650
0.791360 0.421561 0.112017
0.822991 0.425928 0.116384
0.824904 0.426192 0.116649
0.824904 0.426192 0.116649
0.824904 0.426192 0.116649
0.824904 0.426192 0.116649
0.824904 0.426192 0.116649
0.824904 0.426192 0.116649
0.062389 0.399752 0.062389
0.093415 0.399752 0.062389
0.117823 0.399752 0.062389
0.141825 0.399752 0.062389
0.165826 0.399752 0.062389
0.189827 0.399752 0.062389
0.213828 0.399752 0.062389
0.237830 0.399752 0.062389
0.261831 0.399752 0.062389
0.285832 0.399752 0.062389
0.309833 0.399752 0.062389
0.333834 0.399752 0.062389
0.357836 0.399752 0.062389
0.381837 0.399752 0.062389
0.409949 0.401344 0.063981
0.437930 0.405711 0.068348
0.506683 0.410078 0.072715
0.538313 0.414445 0.077082
0.569944 0.418812 0.081448
0.601575 0.423179 0.085815
0.633206 0.427546 0.090182
0.664837 0.431913 0.094549
0.696467 0.436280 0.098916
0.728098 0.440647 0.103283
0.759729 0.445014 0.107650
0.791360 0.449381 0.112017
0.822991 0.453748 0.116384
0.824904 0.454012 0.116649
0.824904 0.454012 0.116649
0.824904 0.454012 0.116649
0.824904 0.454012 0.116649
0.824904 0.454012 0.116649
0.824904 0.454012 0.116649
0.066967 0.429083 0.066967
0.097992 0.429083 0.066967
0.122401 0.429083 0.066967
0.146402 0.429083 0.066967
0.170403 0.429083 0.066967
0.194405 0.429083 0.066967
0.218406 0.429083 0.066967
0.242407 0.429083 0.066967
0.266408 0.429083 0.066967
0.290410 0.429083 0.066967
0.314411 0.429083 0.066967
0.338412 0.429083 0.066967
0.362413 0.429083 0.066967
0.386415 0.429083 0.066967
0.412935 0.429083 0.066967
0.437930 0.430464 0.068348
0.506683 0.434831 0.072715
0.538313 0.439198 0.077082
0.569944 0.443565 0.081448
0.601575 0.447932 0.085815
0.633206 0.452299 0.090182
0.664837 0.456666 0.094549
0.696467 0.501168 0.098916
0.728098 0.506104 0.103283
0.759729 0.511041 0.107650
0.791360 0.515977 0.112017
0.822991 0.520914 0.116384
0.824904 0.521213 0.116649
0.824904 0.521213 0.116649
0.824904 0.521213 0.116649
0.824904 0.521213 0.116649
0.824904 0.521213 0.116649
0.824904 0.521213 0.116649
0.071544 0.458414 0.071544
0.102570 0.458414 0.071544
0.126979 0.458414 0.071544
0.150980 0.458414 0.071544
0.174981 0.458414 0.071544
0.198982 0.458414 0.071544
0.222984 0.458414 0.071544
0.246985 0.458414 0.071544
0.270986 0.458414 0.071544
0.294987 0.458414 0.071544
0.318988 0.458414 0.071544
0.342990 0.458414 0.071544
0.366991 0.458414 0.071544
0.390992 0.458414 0.071544
0.417513 0.458414 0.071544
0.441127 0.458414 0.071544
0.506683 0.459584 0.072715
0.538313 0.504466 0.077082
0.569944 0.509403 0.081448
0.601575 0.514340 0.085815
0.633206 0.519276 0.090182
0.664837 0.524213 0.094549
0.696467 0.529149 0.098916
0.728098 0.534086 0.103283
0.759729 0.539023 0.107650
0.791360 0.543959 0.112017
0.822991 0.548896 0.116384
0.824904 0.549194 0.116649
0.824904 0.549194 0.116649
0.824904 0.549194 0.116649
0.824904 0.549194 0.116649
0.824904 0.549194 0.116649
0.824904 0.549194 0.116649
0.076122 0.531363 0.076122
0.107148 0.531363 0.076122
0.131556 0.531363 0.076122
0.155557 0.531363 0.076122
0.179559 0.531363 0.076122
0.203560 0.531363 0.076122
0.227561 0.531363 0.076122
0.251562 0.531363 0.076122
0.275564 0.531363 0.076122
0.299565 0.531363 0.076122
0.323566 0.531363 0.076122
0.347567 0.531363 0.076122
0.371569 0.531363 0.076122
0.395570 0.531363 0.076122
0.422091 0.531363 0.076122
0.445705 0.531363 0.076122
0.510534 0.531363 0.076122
0.538313 0.532448 0.077082
0.569944 0.537385 0.081448
0.601575 0.542321 0.085815
0.633206 0.547258 0.090182
0.664837 0.552194 0.094549
0.696467 0.557131 0.098916
0.728098 0.562068 0.103283
0.759729 0.567004 0.107650
0.791360 0.571941 0.112017
0.822991 0.576877 0.116384
0.824904 0.577176 0.116649
0.824904 0.577176 0.116649
0.824904 0.577176 0.116649
0.824904 0.577176 0.116649
0.824904 0.577176 0.116649
0.824904 0.577176 0.116649
0.080700 0.564520 0.080700
0.111725 0.564520 0.080700
0.136134 0.564520 0.080700
0.160135 0.564520 0.080700
0.184136 0.564520 0.080700
0.208138 0.564520 0.080700
0.232139 0.564520 0.080700
0.256140 0.564520 0.080700
0.280141 0.564520 0.080700
0.304142 0.564520 0.080700
0.328144 0.564520 0.080700
0.352145 0.564520 0.080700
0.376146 0.564520 0.080700
0.400147 0.564520 0.080700
0.426668 0.564520 0.080700
0.450282 0.564520 0.080700
0.515709 0.564520 0.080700
0.542403 0.564520 0.080700
0.569944 0.565366 0.081448
0.601575 0.570303 0.085815
0.633206 0.575240 0.090182
0.664837 0.580176 0.094549
0.696467 0.585113 0.098916
0.728098 0.590049 0.103283
0.759729 0.594986 0.107650
0.791360 0.599923 0.112017
0.822991 0.604859 0.116384
0.824904 0.605158 0.116649
0.824904 0.605158 0.116649
0.824904 0.605158 0.116649
0.824904 0.605158 0.116649
0.824904 0.605158 0.116649
0.824904 0.605158 0.116649
0.085277 0.597676 0.085277
0.116303 0.597676 0.085277
0.140711 0.597676 0.085277
0.164713 0.597676 0.085277
0.188714 0.597676 0.085277
0.212715 0.597676 0.085277
0.236716 0.597676 0.085277
0.260718 0.597676 0.085277
0.284719 0.597676 0.085277
0.308720 0.597676 0.085277
0.332721 0.597676 0.085277
0.356723 0.597676 0.085277
0.380724 0.597676 0.085277
0.404725 0.597676 0.085277
0.431246 0.597676 0.085277
0.454860 0.597676 0.085277
0.520884 0.597676 0.085277
0.547578 0.597676 0.085277
0.574272 0.597676 0.085277
0.601575 0.598285 0.085815
0.633206 0.603221 0.090182
0.664837 0.608158 0.094549
0.696467 0.613095 0.098916
0.728098 0.618031 0.103283
0.759729 0.622968 0.107650
0.791360 0.627904 0.112017
0.822991 0.632841 0.116384
0.824904 0.633140 0.116649
0.824904 0.633140 0.116649
0.824904 0.633140 0.116649
0.824904 0.633140 0.116649
0.824904 0.633140 0.116649
0.824904 0.633140 0.116649
0.089855 0.630833 0.089855
0.120881 0.630833 0.089855
0.145289 0.630833 0.089855
0.169290 0.630833 0.089855
0.193292 0.630833 0.089855
0.217293 0.630833 0.089855
0.241294 0.630833 0.089855
0.265295 0.630833 0.089855
0.289297 0.630833 0.089855
0.313298 0.630833 0.089855
0.337299 0.630833 0.089855
0.361300 0.630833 0.089855
0.385301 0.630833 0.089855
0.409303 0.630833 0.089855
0.435824 0.630833 0.089855
0.459438 0.630833 0.089855
0.526059 0.630833 0.089855
0.552753 0.630833 0.089855
0.579447 0.630833 0.089855
0.606141 0.630833 0.089855
0.633206 0.631203 0.090182
0.664837 0.636140 0.094549
0.696467 0.641076 0.098916
0.728098 0.646013 0.103283
0.759729 0.650950 0.107650
0.791360 0.655886 0.112017
0.822991 0.660823 0.116384
0.824904 0.661121 0.116649
0.824904 0.661121 0.116649
0.824904 0.661121 0.116649
0.824904 0.661121 0.116649
0.824904 0.661121 0.116649
0.824904 0.661121 0.116649
0.094432 0.663989 0.094432
0.125458 0.663989 0.094432
0.149867 0.663989 0.094432
0.173868 0.663989 0.094432
0.197869 0.663989 0.094432
0.221870 0.663989 0.094432
0.245872 0.663989 0.094432
0.269873 0.663989 0.094432
0.293874 0.663989 0.094432
0.317875 0.663989 0.094432
0.341877 0.663989 0.094432
0.365878 0.663989 0.094432
0.389879 0.663989 0.094432
0.413880 0.663989 0.094432
0.440401 0.663989 0.094432
0.504539 0.663989 0.094432
0.531233 0.663989 0.094432
0.557928 0.663989 0.094432
0.584622 0.663989 0.094432
0.611316 0.663989 0.094432
0.638010 0.663989 0.094432
0.664837 0.664121 0.094549
0.696467 0.669058 0.098916
0.728098 0.673995 0.103283
0.759729 0.678931 0.107650
0.791360 0.683868 0.112017
0.822991 0.688805 0.116384
0.824904 0.689103 0.116649
0.824904 0.689103 0.116649
0.824904 0.689103 0.116649
0.824904 0.689103 0.116649
0.824904 0.689103 0.116649
0.824904 0.689103 0.116649
0.099010 0.697146 0.099010
0.130036 0.697146 0.099010
0.154444 0.697146 0.099010
0.178446 0.697146 0.099010
0.202447 0.697146 0.099010
0.226448 0.697146 0.099010
0.250449 0.697146 0.099010
0.274451 0.697146 0.099010
0.298452 0.697146 0.099010
0.322453 0.697146 0.099010
0.346454 0.697146 0.099010
0.370455 0.697146 0.099010
0.394457 0.697146 0.099010
0.418458 0.697146 0.099010
0.444979 0.697146 0.099010
0.509714 0.697146 0.099010
0.536408 0.697146 0.099010
0.563102 0.697146 0.099010
0.589796 0.697146 0.099010
0.616491 0.697146 0.099010
0.643185 0.697146 0.099010
0.669879 0.697146 0.099010
0.696573 0.697146 0.099010
0.728098 0.701976 0.103283
0.759729 0.706913 0.107650
0.791360 0.711850 0.112017
0.822991 0.716786 0.116384
0.824904 0.717085 0.116649
0.824904 0.717085 0.116649
0.824904 0.717085 0.116649
0.824904 0.717085 0.116649
0.824904 0.717085 0.116649
0.824904 0.717085 0.116649
0.103588 0.730302 0.103588
0.134613 0.730302 0.103588
0.159022 0.730302 0.103588
0.183023 0.730302 0.103588
0.207024 0.730302 0.103588
0.231026 0.730302 0.103588
0.255027 0.730302 0.103588
0.279028 0.730302 0.103588
0.303029 0.730302 0.103588
0.327031 0.730302 0.103588
0.351032 0.730302 0.103588
0.375033 0.730302 0.103588
0.399034 0.730302 0.103588
0.423036 0.730302 0.103588
0.449556 0.730302 0.103588
0.514888 0.730302 0.103588
0.541583 0.730302 0.103588
0.568277 0.730302 0.103588
0.594971 0.730302 0.103588
0.621665 0.730302 0.103588
0.648360 0.730302 0.103588
0.675054 0.730302 0.103588
0.701748 0.730302 0.103588
0.728442 0.730302 0.103588
0.759729 0.734895 0.107650
0.791360 0.739831 0.112017
0.822991 0.744768 0.116384
0.824904 0.745067 0.116649
0.824904 0.745067 0.116649
0.824904 0.745067 0.116649
0.824904 0.745067 0.116649
0.824904 0.745067 0.116649
0.824904 0.745067 0.116649
0.108165 0.763459 0.108165
0.139191 0.763459 0.108165
0.163600 0.763459 0.108165
0.187601 0.763459 0.108165
0.211602 0.763459 0.108165
0.235603 0.763459 0.108165
0.259605 0.763459 0.108165
0.283606 0.763459 0.108165
0.307607 0.763459 0.108165
0.331608 0.763459 0.108165
0.355609 0.763459 0.108165
0.379611 0.763459 0.108165
0.403612 0.763459 0.108165
0.427613 0.763459 0.108165
0.454134 0.763459 0.108165
0.520063 0.763459 0.108165
0.546757 0.763459 0.108165
0.573452 0.763459 0.108165
0.600146 0.763459 0.108165
0.626840 0.763459 0.108165
0.653534 0.763459 0.108165
0.680229 0.763459 0.108165
0.706923 0.763459 0.108165
0.733617 0.763459 0.108165
0.760311 0.763459 0.108165
0.791360 0.767813 0.112017
0.822991 0.772750 0.116384
0.824904 0.773048 0.116649
0.824904 0.773048 0.116649
0.824904 0.773048 0.116649
0.824904 0.773048 0.116649
0.824904 0.773048 0.116649
0.824904 0.773048 0.116649
0.112743 0.796615 0.112743
0.143769 0.796615 0.112743
0.168177 0.796615 0.112743
0.192178 0.796615 0.112743
0.216180 0.796615 0.112743
0.240181 0.796615 0.112743
0.264182 0.796615 0.112743
0.288183 0.796615 0.112743
0.312185 0.796615 0.112743
0.336186 0.796615 0.112743
0.360187 0.796615 0.112743
0.384188 0.796615 0.112743
0.408190 0.796615 0.112743
0.432191 0.796615 0.112743
0.458712 0.796615 0.112743
0.525238 0.796615 0.112743
0.551932 0.796615 0.112743
0.578626 0.796615 0.112743
0.605321 0.796615 0.112743
0.632015 0.796615 0.112743
0.658709 0.796615 0.112743
0.685403 0.796615 0.112743
0.712097 0.796615 0.112743
0.738792 0.796615 0.112743
0.765486 0.796615 0.112743
0.792180 0.796615 0.112743
0.822991 0.800732 0.116384
0.824904 0.801030 0.116649
0.824904 0.801030 0.116649
0.824904 0.801030 0.116649
0.824904 0.801030 0.116649
0.824904 0.801030 0.116649
0.824904 0.801030 0.116649
0.117321 0.829772 0.117321
0.148346 0.829772 0.117321
0.172755 0.829772 0.117321
0.196756 0.829772 0.117321
0.220757 0.829772 0.117321
0.244759 0.829772 0.117321
0.268760 0.829772 0.117321
0.292761 0.829772 0.117321
0.316762 0.829772 0.117321
0.340763 0.829772 0.117321
0.364765 0.829772 0.117321
0.388766 0.829772 0.117321
0.412767 0.829772 0.117321
0.436768 0.829772 0.117321
0.503718 0.829772 0.117321
0.530413 0.829772 0.117321
0.557107 0.829772 0.117321
0.583801 0.829772 0.117321
0.610495 0.829772 0.117321
0.637189 0.829772 0.117321
0.663884 0.829772 0.117321
0.690578 0.829772 0.117321
0.717272 0.829772 0.117321
0.743966 0.829772 0.117321
0.770661 0.829772 0.117321
0.797355 0.829772 0.117321
0.824049 0.829772 0.117321
0.825664 0.829772 0.117321
0.825664 0.829772 0.117321
0.825664 0.829772 0.117321
0.825664 0.829772 0.117321
0.825664 0.829772 0.117321
0.825664 0.829772 0.117321
0.121898 0.862928 0.121898
0.152924 0.862928 0.121898
0.177333 0.862928 0.121898
0.201334 0.862928 0.121898
0.225335 0.862928 0.121898
0.249336 0.862928 0.121898
0.273337 0.862928 0.121898
0.297339 0.862928 0.121898
0.321340 0.862928 0.121898
0.345341 0.862928 0.121898
0.369342 0.862928 0.121898
0.393344 0.862928 0.121898
0.417345 0.862928 0.121898
0.441346 0.862928 0.121898
0.508893 0.862928 0.121898
0.535587 0.862928 0.121898
0.562282 0.862928 0.121898
0.588976 0.862928 0.121898
0.615670 0.862928 0.121898
0.642364 0.862928 0.121898
0.669058 0.862928 0.121898
0.695753 0.862928 0.121898
0.722447 0.862928 0.121898
0.749141 0.862928 0.121898
