docs/luts/fuji_recipes/Classic_PE_Chrome_Eggleston.cube
TITLE "Fujifilm Recipe: PE Chrome Eggleston (Classic)"
# FilmSim=Classic HL=2 SH=2 Col=-2 WB=Auto WBR=0 WBB=0
LUT_3D_SIZE 9
DOMAIN_MIN 0.0 0.0 0.0
DOMAIN_MAX 1.0 1.0 1.0
0.000000 0.000000 0.000000
0.083689 0.030391 0.030391
0.167378 0.060782 0.060782
0.251067 0.091173 0.091173
0.334756 0.121564 0.121564
0.457585 0.160740 0.160740
0.553770 0.193680 0.193680
0.649954 0.226620 0.226620
0.746139 0.259560 0.259560
0.030208 0.083185 0.030208
0.083689 0.083368 0.030391
0.167378 0.113759 0.060782
0.251067 0.144150 0.091173
0.334756 0.174541 0.121564
0.457585 0.213717 0.160740
0.553770 0.246657 0.193680
0.649954 0.279597 0.226620
0.746139 0.312537 0.259560
0.060472 0.166525 0.060472
0.113770 0.166525 0.060472
0.167378 0.166835 0.060782
0.251067 0.197226 0.091173
0.334756 0.227617 0.121564
0.457585 0.266793 0.160740
0.553770 0.299733 0.193680
0.649954 0.332673 0.226620
0.746139 0.365613 0.259560
0.090736 0.249864 0.090736
0.144034 0.249864 0.090736
0.197332 0.249864 0.090736
0.251067 0.250301 0.091173
0.334756 0.280692 0.121564
0.457585 0.319868 0.160740
0.553770 0.352808 0.193680
0.649954 0.385748 0.226620
0.746139 0.418688 0.259560
0.121000 0.333204 0.121000
0.174298 0.333204 0.121000
0.227596 0.333204 0.121000
0.280894 0.333204 0.121000
0.334756 0.333767 0.121564
0.457585 0.372944 0.160740
0.553770 0.405884 0.193680
0.649954 0.438824 0.226620
0.746139 0.471764 0.259560
0.159991 0.455398 0.159991
0.213289 0.455398 0.159991
0.266588 0.455398 0.159991
0.319886 0.455398 0.159991
0.373184 0.455398 0.159991
0.457585 0.456185 0.160740
0.553770 0.490812 0.193680
0.649954 0.525438 0.226620
0.746139 0.560065 0.259560
0.192794 0.551181 0.192794
0.246092 0.551181 0.192794
0.299390 0.551181 0.192794
0.352688 0.551181 0.192794
0.405986 0.551181 0.192794
0.491279 0.551181 0.192794
0.553770 0.552113 0.193680
0.649954 0.586739 0.226620
0.746139 0.621366 0.259560
0.225596 0.646964 0.225596
0.278894 0.646964 0.225596
0.332192 0.646964 0.225596
0.385490 0.646964 0.225596
0.438789 0.646964 0.225596
0.525761 0.646964 0.225596
0.587320 0.646964 0.225596
0.649954 0.648040 0.226620
0.746139 0.682667 0.259560
0.258398 0.742747 0.258398
0.311696 0.742747 0.258398
0.364995 0.742747 0.258398
0.418293 0.742747 0.258398
0.471591 0.742747 0.258398
0.560243 0.742747 0.258398
0.621801 0.742747 0.258398
0.683360 0.742747 0.258398
0.746139 0.743968 0.259560
0.029839 0.029839 0.082169
0.083689 0.030391 0.082721
0.167378 0.060782 0.113112
0.251067 0.091173 0.143503
0.334756 0.121564 0.173894
0.457585 0.160740 0.213070
0.553770 0.193680 0.246010
0.649954 0.226620 0.278950
0.746139 0.259560 0.311890
0.030208 0.083185 0.082538
0.113528 0.113207 0.112560
0.197217 0.143598 0.142951
0.280906 0.173989 0.173342
0.364595 0.204380 0.203733
0.489580 0.244030 0.243383
0.585765 0.276970 0.276323
0.681950 0.309910 0.309263
0.778135 0.342850 0.342203
0.060472 0.166525 0.112802
0.143609 0.196364 0.142641
0.197217 0.196674 0.142951
0.280906 0.227065 0.173342
0.364595 0.257456 0.203733
0.489580 0.297105 0.243383
0.585765 0.330045 0.276323
0.681950 0.362985 0.309263
0.778135 0.395925 0.342203
0.090736 0.249864 0.143066
0.173873 0.279703 0.172905
0.227171 0.279703 0.172905
0.280906 0.280140 0.173342
0.364595 0.310531 0.203733
0.489580 0.350181 0.243383
0.585765 0.383121 0.276323
0.681950 0.416061 0.309263
0.778135 0.449001 0.342203
0.121000 0.333204 0.173330
0.204137 0.363043 0.203169
0.257435 0.363043 0.203169
0.310733 0.363043 0.203169
0.364595 0.363606 0.203733
0.489580 0.403256 0.243383
0.585765 0.436196 0.276323
0.681950 0.469136 0.309263
0.778135 0.528722 0.342203
0.159991 0.455398 0.212321
0.243602 0.487394 0.242634
0.296900 0.487394 0.242634
0.350198 0.487394 0.242634
0.403496 0.487394 0.242634
0.489580 0.488181 0.243383
0.585765 0.522807 0.276323
0.681950 0.557434 0.309263
0.778135 0.592060 0.342203
0.192794 0.551181 0.245124
0.276404 0.583176 0.275436
0.329702 0.583176 0.275436
0.383000 0.583176 0.275436
0.436299 0.583176 0.275436
0.523275 0.583176 0.275436
0.585765 0.584108 0.276323
0.681950 0.618735 0.309263
0.778135 0.653361 0.342203
0.225596 0.646964 0.277926
0.309206 0.678959 0.308239
0.362505 0.678959 0.308239
0.415803 0.678959 0.308239
0.469101 0.678959 0.308239
0.557757 0.678959 0.308239
0.619315 0.678959 0.308239
0.681950 0.680036 0.309263
0.778135 0.714662 0.342203
0.258398 0.742747 0.310728
0.342009 0.774742 0.341041
0.395307 0.774742 0.341041
0.448605 0.774742 0.341041
0.528662 0.774742 0.341041
0.592239 0.774742 0.341041
0.653797 0.774742 0.341041
0.715355 0.774742 0.341041
0.778135 0.775963 0.342203
0.059847 0.059847 0.164803
0.113145 0.059847 0.164803
0.167378 0.060782 0.165738
0.251067 0.091173 0.196129
0.334756 0.121564 0.226520
0.457585 0.160740 0.265696
0.553770 0.193680 0.298636
0.649954 0.226620 0.331576
0.746139 0.259560 0.364516
0.059847 0.112824 0.164803
0.143353 0.143032 0.195011
0.197586 0.143967 0.195946
0.281275 0.174358 0.226337
0.364964 0.204749 0.256728
0.489976 0.244405 0.296384
0.586161 0.277345 0.329324
0.682346 0.310285 0.362264
0.778530 0.343225 0.395204
0.060472 0.166525 0.165428
0.144161 0.196916 0.195819
0.227225 0.226681 0.225585
0.310914 0.257072 0.255976
0.394603 0.287463 0.286367
0.521756 0.327589 0.326492
0.617941 0.360529 0.359432
0.714126 0.393469 0.392372
0.810311 0.426409 0.425312
0.090736 0.249864 0.195692
0.174425 0.280255 0.226083
0.257179 0.309711 0.255539
0.310914 0.310148 0.255976
0.394603 0.340539 0.286367
0.521756 0.380664 0.326492
0.617941 0.413604 0.359432
0.714126 0.446544 0.392372
0.810311 0.479484 0.425312
0.121000 0.333204 0.225956
0.204689 0.363594 0.256347
0.287443 0.393050 0.285803
0.340741 0.393050 0.285803
0.394603 0.393614 0.286367
0.521756 0.433740 0.326492
0.617941 0.466680 0.359432
0.714126 0.526272 0.392372
0.810311 0.560899 0.425312
0.159991 0.455398 0.264947
0.244162 0.487985 0.295820
0.327384 0.519570 0.325744
0.380682 0.519570 0.325744
0.433980 0.519570 0.325744
0.521756 0.520357 0.326492
0.617941 0.554984 0.359432
0.714126 0.589610 0.392372
0.810311 0.624237 0.425312
0.192794 0.551181 0.297750
0.276965 0.583768 0.328623
0.360186 0.615353 0.358546
0.413484 0.615353 0.358546
0.466782 0.615353 0.358546
0.555451 0.615353 0.358546
0.617941 0.616285 0.359432
0.714126 0.650911 0.392372
0.810311 0.685538 0.425312
0.225596 0.646964 0.330552
0.309767 0.679551 0.361425
0.392988 0.711136 0.391348
0.446286 0.711136 0.391348
0.526356 0.711136 0.391348
0.589933 0.711136 0.391348
0.651491 0.711136 0.391348
0.714126 0.712212 0.392372
0.810311 0.746839 0.425312
0.258398 0.742747 0.363355
0.342569 0.775334 0.394228
0.425791 0.806918 0.424151
0.479089 0.806918 0.424151
0.560838 0.806918 0.424151
0.624415 0.806918 0.424151
0.685973 0.806918 0.424151
0.747531 0.806918 0.424151
0.810311 0.808140 0.425312
0.089854 0.089854 0.247437
0.143152 0.089854 0.247437
0.196451 0.089854 0.247437
0.251067 0.091173 0.248755
0.334756 0.121564 0.279146
0.457585 0.160740 0.318322
0.553770 0.193680 0.351262
0.649954 0.226620 0.384202
0.746139 0.259560 0.417142
0.089854 0.142832 0.247437
0.173361 0.173040 0.277645
0.226659 0.173040 0.277645
0.281275 0.174358 0.278963
0.364964 0.204749 0.309354
0.489976 0.244405 0.349010
0.586161 0.277345 0.381950
0.682346 0.310285 0.414890
0.778530 0.343225 0.447830
0.089854 0.195907 0.247437
0.173543 0.226298 0.277828
0.256923 0.256379 0.307909
0.311539 0.257698 0.309227
0.395228 0.288088 0.339618
0.522427 0.328224 0.379754
0.618612 0.361164 0.412694
0.714797 0.394104 0.445634
0.810981 0.427044 0.478574
0.090736 0.249864 0.248318
0.174425 0.280255 0.278709
0.258114 0.310646 0.309100
0.340922 0.340155 0.338609
0.424611 0.370546 0.369000
0.553933 0.411148 0.409602
0.650117 0.444088 0.442542
0.746302 0.477028 0.475482
0.842487 0.509968 0.508422
0.121000 0.333204 0.278582
0.204689 0.363594 0.308973
0.288378 0.393985 0.339364
0.370749 0.423058 0.368436
0.424611 0.423622 0.369000
0.553933 0.464224 0.409602
0.650117 0.523822 0.442542
0.746302 0.558448 0.475482
0.842487 0.593075 0.508422
0.159991 0.455398 0.317573
0.244162 0.487985 0.348447
0.328334 0.520573 0.379320
0.411165 0.551746 0.408853
0.464464 0.551746 0.408853
0.553933 0.552533 0.409602
0.650117 0.587160 0.442542
0.746302 0.621786 0.475482
0.842487 0.656413 0.508422
0.192794 0.551181 0.350376
0.276965 0.583768 0.381249
0.361136 0.616355 0.412122
0.443968 0.647529 0.441656
0.524051 0.647529 0.441656
0.587627 0.647529 0.441656
0.650117 0.648461 0.442542
0.746302 0.683087 0.475482
0.842487 0.717714 0.508422
0.225596 0.646964 0.383178
0.309767 0.679551 0.414051
0.393938 0.712138 0.444924
0.476770 0.743312 0.474458
0.558533 0.743312 0.474458
0.622109 0.743312 0.474458
0.683667 0.743312 0.474458
0.746302 0.744388 0.475482
0.842487 0.779015 0.508422
0.258398 0.742747 0.415981
0.342569 0.775334 0.446854
0.426741 0.807921 0.477727
0.509572 0.839095 0.507260
0.593014 0.839095 0.507260
0.656591 0.839095 0.507260
0.718149 0.839095 0.507260
0.779708 0.839095 0.507260
0.842487 0.840316 0.508422
0.119862 0.119862 0.330070
0.173160 0.119862 0.330070
0.226458 0.119862 0.330070
0.279756 0.119862 0.330070
0.334756 0.121564 0.331772
0.457585 0.160740 0.370948
0.553770 0.193680 0.403888
0.649954 0.226620 0.436828
0.746139 0.259560 0.469768
0.119862 0.172839 0.330070
0.203368 0.203047 0.360278
0.256666 0.203047 0.360278
0.309965 0.203047 0.360278
0.364964 0.204749 0.361980
0.489976 0.244405 0.401636
0.586161 0.277345 0.434576
0.682346 0.310285 0.467516
0.778530 0.343225 0.526776
0.119862 0.225915 0.330070
0.203551 0.256306 0.360461
0.286930 0.286387 0.390542
0.340228 0.286387 0.390542
0.395228 0.288088 0.392244
0.522427 0.328224 0.432380
0.618612 0.361164 0.465320
0.714797 0.394104 0.524600
0.810981 0.427044 0.559227
0.119862 0.278990 0.330070
0.203551 0.309381 0.360461
0.287240 0.339772 0.390852
0.370492 0.369726 0.420806
0.425492 0.371428 0.422508
0.554878 0.412044 0.463124
0.651063 0.444984 0.522425
0.747248 0.477924 0.557051
0.843432 0.510864 0.591678
0.121000 0.333204 0.331208
0.204689 0.363594 0.361599
0.288378 0.393985 0.391990
0.372067 0.424376 0.422381
0.454618 0.453629 0.451634
0.593511 0.528773 0.526431
0.690170 0.563874 0.561532
0.786829 0.598975 0.596632
0.883488 0.634076 0.631733
0.159991 0.455398 0.370200
0.244162 0.487985 0.401073
0.328334 0.520573 0.431946
0.412505 0.553160 0.462819
0.529136 0.591313 0.525633
0.593511 0.592111 0.526431
0.690170 0.627212 0.561532
0.786829 0.662313 0.596632
0.883488 0.697414 0.631733
0.192794 0.551181 0.403002
0.276965 0.583768 0.433875
0.361136 0.616355 0.464748
0.445307 0.648943 0.521961
0.564090 0.687568 0.560587
0.627667 0.687568 0.560587
0.690170 0.688513 0.561532
0.786829 0.723614 0.596632
0.883488 0.758715 0.631733
0.225596 0.646964 0.435804
0.309767 0.679551 0.466677
0.393938 0.712138 0.523856
0.478109 0.744726 0.556443
0.599044 0.783824 0.595541
0.662621 0.783824 0.595541
0.724179 0.783824 0.595541
0.786829 0.784915 0.596632
0.883488 0.820016 0.631733
0.258398 0.742747 0.468607
0.342569 0.775334 0.525750
0.426741 0.807921 0.558338
0.510912 0.840508 0.590925
0.633999 0.880079 0.630495
0.697575 0.880079 0.630495
0.759134 0.880079 0.630495
0.820692 0.880079 0.630495
0.883488 0.881317 0.631733
0.158480 0.158480 0.450986
0.211778 0.158480 0.450986
0.265077 0.158480 0.450986
0.318375 0.158480 0.450986
0.371673 0.158480 0.450986
0.457585 0.160740 0.453362
0.553770 0.193680 0.487988
0.649954 0.226620 0.522615
0.746139 0.259560 0.557241
0.158480 0.211458 0.450986
0.242466 0.242145 0.483377
0.295764 0.242145 0.483377
0.349062 0.242145 0.483377
0.402360 0.242145 0.483377
0.489976 0.244405 0.485753
0.586161 0.277345 0.520379
0.682346 0.310285 0.555006
0.778530 0.343225 0.589632
0.158480 0.264533 0.450986
0.242651 0.295406 0.483573
0.326508 0.325964 0.515828
0.379806 0.325964 0.515828
0.433104 0.325964 0.515828
0.522427 0.328224 0.518204
0.618612 0.361164 0.552830
0.714797 0.394104 0.587457
0.810981 0.427044 0.622083
0.158480 0.317609 0.450986
0.242651 0.348482 0.483573
0.326823 0.379355 0.516160
0.410550 0.409784 0.548279
0.463848 0.409784 0.548279
0.554878 0.412044 0.550655
0.651063 0.444984 0.585281
0.747248 0.477924 0.619908
0.843432 0.510864 0.654534
0.158480 0.370684 0.450986
0.242651 0.401557 0.483573
0.326823 0.432430 0.516160
0.410994 0.463303 0.548748
0.528862 0.527701 0.588215
0.594846 0.530109 0.590623
0.691505 0.565210 0.625724
0.788165 0.600311 0.660825
0.884824 0.635411 0.695926
0.159991 0.455398 0.452574
0.244162 0.487985 0.485162
0.328334 0.520573 0.517749
0.412505 0.553160 0.550336
0.531134 0.593311 0.590487
0.629352 0.627953 0.625129
0.726011 0.663053 0.660230
0.822670 0.698154 0.695330
0.919329 0.733255 0.730431
0.192794 0.551181 0.487056
0.276965 0.583768 0.519643
0.361136 0.616355 0.552231
0.445307 0.648943 0.584818
0.566088 0.689566 0.625441
0.663508 0.723410 0.659285
0.726011 0.724354 0.660230
0.822670 0.759455 0.695330
0.919329 0.794556 0.730431
0.225596 0.646964 0.521538
0.309767 0.679551 0.554125
0.393938 0.712138 0.586713
0.478109 0.744726 0.619300
0.601042 0.785821 0.660396
0.698462 0.819665 0.694239
0.760021 0.819665 0.694239
0.822670 0.820756 0.695330
0.919329 0.855857 0.730431
0.258398 0.742747 0.556020
0.342569 0.775334 0.588607
0.426741 0.807921 0.621194
0.510912 0.840508 0.653782
0.635996 0.882077 0.695350
0.733417 0.915920 0.729193
0.794975 0.915920 0.729193
0.856533 0.915920 0.729193
0.919329 0.917158 0.730431
0.191005 0.191005 0.545958
0.244303 0.191005 0.545958
0.297601 0.191005 0.545958
0.350899 0.191005 0.545958
0.404197 0.191005 0.545958
0.489399 0.191005 0.545958
0.553770 0.193680 0.548770
0.649954 0.226620 0.583397
0.746139 0.259560 0.618023
0.191005 0.243982 0.545958
0.274990 0.274669 0.578349
0.328288 0.274669 0.578349
0.381587 0.274669 0.578349
0.434885 0.274669 0.578349
0.521790 0.274669 0.578349
0.586161 0.277345 0.581161
0.682346 0.310285 0.615788
0.778530 0.343225 0.650414
0.191005 0.297058 0.545958
0.275176 0.327931 0.578545
0.359032 0.358489 0.610800
0.412331 0.358489 0.610800
0.465629 0.358489 0.610800
0.554241 0.358489 0.610800
0.618612 0.361164 0.613612
0.714797 0.394104 0.648239
0.810981 0.427044 0.682865
0.191005 0.350133 0.545958
0.275176 0.381006 0.578545
0.359347 0.411879 0.611132
0.443075 0.442308 0.643251
0.523116 0.442308 0.643251
0.586692 0.442308 0.643251
0.651063 0.444984 0.646063
0.747248 0.477924 0.680690
0.843432 0.510864 0.715316
0.191005 0.403209 0.545958
0.275176 0.434082 0.578545
0.359347 0.464955 0.611132
0.443518 0.522423 0.643719
0.563520 0.562359 0.683655
0.627096 0.562359 0.683655
0.691505 0.565210 0.686506
0.788165 0.600311 0.721607
0.884824 0.635411 0.756708
0.191005 0.488000 0.545958
0.275176 0.520587 0.578545
0.359347 0.553174 0.611132
0.443518 0.585761 0.643719
0.564182 0.626359 0.684317
0.663212 0.661813 0.719771
0.727621 0.664663 0.722622
0.824280 0.699764 0.757723
0.920939 0.734865 0.792823
0.192794 0.551181 0.547838
0.276965 0.583768 0.580425
0.361136 0.616355 0.613013
0.445307 0.648943 0.645600
0.566088 0.689566 0.686223
0.665916 0.725818 0.722475
0.760669 0.759013 0.755670
0.857328 0.794113 0.790771
0.953988 0.829214 0.825871
0.225596 0.646964 0.582320
0.309767 0.679551 0.614907
0.393938 0.712138 0.647494
0.478109 0.744726 0.680082
0.601042 0.785821 0.721177
0.700870 0.822073 0.757429
0.794679 0.854323 0.789679
0.857328 0.855414 0.790771
0.953988 0.890515 0.825871
0.258398 0.742747 0.616802
0.342569 0.775334 0.649389
0.426741 0.807921 0.681976
0.510912 0.840508 0.714563
0.635996 0.882077 0.756132
0.735825 0.918328 0.792383
0.829633 0.950578 0.824633
0.891191 0.950578 0.824633
0.953988 0.951816 0.825871
0.223529 0.223529 0.640930
0.276828 0.223529 0.640930
0.330126 0.223529 0.640930
0.383424 0.223529 0.640930
0.436722 0.223529 0.640930
0.523589 0.223529 0.640930
0.585147 0.223529 0.640930
0.649954 0.226620 0.644179
0.746139 0.259560 0.678805
0.223529 0.276507 0.640930
0.307515 0.307194 0.673321
0.360813 0.307194 0.673321
0.414111 0.307194 0.673321
0.467409 0.307194 0.673321
0.555980 0.307194 0.673321
0.617538 0.307194 0.673321
0.682346 0.310285 0.676570
0.778530 0.343225 0.711196
0.223529 0.329582 0.640930
0.307701 0.360455 0.673517
0.391557 0.391013 0.705772
0.444855 0.391013 0.705772
0.524855 0.391013 0.705772
0.588431 0.391013 0.705772
0.649989 0.391013 0.705772
0.714797 0.394104 0.709021
0.810981 0.427044 0.743647
0.223529 0.382658 0.640930
0.307701 0.413531 0.673517
0.391872 0.444404 0.706104
0.475599 0.474833 0.738223
0.557306 0.474833 0.738223
0.620882 0.474833 0.738223
0.682440 0.474833 0.738223
0.747248 0.477924 0.741472
0.843432 0.510864 0.776098
0.223529 0.435733 0.640930
0.307701 0.466606 0.673517
0.391872 0.524026 0.706104
0.476043 0.556613 0.738691
0.598178 0.597017 0.779095
0.661755 0.597017 0.779095
0.723313 0.597017 0.779095
0.788165 0.600311 0.782389
0.884824 0.635411 0.817490
0.223529 0.522190 0.640930
0.307701 0.554777 0.673517
0.391872 0.587364 0.706104
0.476043 0.619951 0.738691
0.598840 0.661017 0.779757
0.697870 0.696471 0.815211
0.759429 0.696471 0.815211
0.824280 0.699764 0.818504
0.920939 0.734865 0.853605
0.223529 0.583491 0.640930
0.307701 0.616078 0.673517
0.391872 0.648665 0.706104
0.476043 0.681252 0.738691
0.598840 0.722318 0.779757
0.698668 0.758570 0.816009
0.794383 0.792726 0.850165
0.859235 0.796020 0.853459
0.955894 0.831120 0.888560
0.225596 0.646964 0.643102
0.309767 0.679551 0.675689
0.393938 0.712138 0.708276
0.478109 0.744726 0.740864
0.601042 0.785821 0.781959
0.700870 0.822073 0.818211
0.797530 0.857174 0.853312
0.891987 0.890073 0.886211
0.982427 0.923809 0.919947
0.258398 0.742747 0.677584
0.342569 0.775334 0.710171
0.426741 0.807921 0.742758
0.510912 0.840508 0.775345
0.635996 0.882077 0.816914
0.735825 0.918328 0.853165
0.832484 0.953429 0.888266
0.925208 0.982314 0.919432
0.982427 0.982427 0.919947
0.256054 0.256054 0.735901
0.309352 0.256054 0.735901
0.362650 0.256054 0.735901
0.415948 0.256054 0.735901
0.469247 0.256054 0.735901
0.557779 0.256054 0.735901
0.619337 0.256054 0.735901
0.680895 0.256054 0.735901
0.746139 0.259560 0.739587
0.256054 0.309031 0.735901
0.340039 0.339719 0.768293
0.393338 0.339719 0.768293
0.446636 0.339719 0.768293
0.526593 0.339719 0.768293
0.590170 0.339719 0.768293
0.651728 0.339719 0.768293
0.713286 0.339719 0.768293
0.778530 0.343225 0.771978
0.256054 0.362107 0.735901
0.340225 0.392980 0.768489
0.424082 0.423538 0.800744
0.477380 0.423538 0.800744
0.559044 0.423538 0.800744
0.622621 0.423538 0.800744
0.684179 0.423538 0.800744
0.745737 0.423538 0.800744
0.810981 0.427044 0.804429
0.256054 0.415182 0.735901
0.340225 0.446055 0.768489
0.424396 0.476928 0.801076
0.508124 0.507358 0.833195
0.591495 0.507358 0.833195
0.655072 0.507358 0.833195
0.716630 0.507358 0.833195
0.778188 0.507358 0.833195
0.843432 0.510864 0.836880
0.256054 0.468258 0.735901
0.340225 0.525629 0.768489
0.424396 0.558216 0.801076
0.508568 0.590803 0.833663
0.632836 0.631675 0.874536
0.696413 0.631675 0.874536
0.757971 0.631675 0.874536
0.819529 0.631675 0.874536
0.884824 0.635411 0.878272
0.256054 0.556379 0.735901
0.340225 0.588967 0.768489
0.424396 0.621554 0.801076
0.508568 0.654141 0.833663
0.633498 0.695675 0.875197
0.732529 0.731129 0.910651
0.794087 0.731129 0.910651
0.855645 0.731129 0.910651
0.920939 0.734865 0.914387
0.256054 0.617680 0.735901
0.340225 0.650268 0.768489
0.424396 0.682855 0.801076
0.508568 0.715442 0.833663
0.633498 0.756976 0.875197
0.733327 0.793228 0.911449
0.829041 0.827384 0.945605
0.890599 0.827384 0.945605
0.955894 0.831120 0.949341
0.256054 0.678981 0.735901
0.340225 0.711569 0.768489
0.424396 0.744156 0.801076
0.508568 0.776743 0.833663
0.633498 0.818277 0.875197
0.733327 0.854529 0.911449
0.829986 0.889630 0.946550
0.925553 0.923640 0.980560
0.983714 0.925810 0.982730
0.258398 0.742747 0.738366
0.342569 0.775334 0.770953
0.426741 0.807921 0.803540
0.510912 0.840508 0.836127
0.635996 0.882077 0.877696
0.735825 0.918328 0.913947
0.832484 0.953429 0.949048
0.928201 0.984239 0.983207
1.000000 1.000000 1.000000
