docs/luts/fuji_recipes/Classic_JP_Chrome_Travel.cube
TITLE "Fujifilm Recipe: JP Chrome Travel (Classic)"
# FilmSim=Classic HL=-2 SH=1 Col=3 WB=Auto WBR=0 WBB=0
LUT_3D_SIZE 5
DOMAIN_MIN 0.0 0.0 0.0
DOMAIN_MAX 1.0 1.0 1.0
0.000000 0.000000 0.000000
0.238080 0.000000 0.000000
0.476160 0.000000 0.000000
0.722755 0.000000 0.000000
0.940110 0.000000 0.000000
0.000000 0.236866 0.000000
0.238080 0.236866 0.000000
0.476160 0.236866 0.000000
0.722755 0.235839 0.000000
0.940110 0.237649 0.000000
0.000000 0.473951 0.000000
0.238080 0.473951 0.000000
0.476160 0.473951 0.000000
0.722755 0.471895 0.000000
0.940110 0.475517 0.000000
0.000000 0.719830 0.000000
0.237015 0.719830 0.000000
0.474031 0.719830 0.000000
0.722755 0.719878 0.000000
0.940110 0.721782 0.000000
0.000000 0.936277 0.000000
0.238842 0.936277 0.000000
0.477683 0.936277 0.000000
0.724669 0.936277 0.000000
0.940110 0.936311 0.000000
0.000000 0.000000 0.234417
0.238080 0.000000 0.234417
0.476160 0.000000 0.234417
0.722755 0.000000 0.233400
0.940110 0.000000 0.235191
0.000000 0.236866 0.234417
0.238307 0.236943 0.234190
0.491172 0.222158 0.219405
0.751502 0.205786 0.203033
0.978845 0.195799 0.193046
0.000000 0.473951 0.234417
0.223660 0.488826 0.219542
0.491172 0.488689 0.219405
0.751502 0.472317 0.203033
0.978845 0.489835 0.193046
0.000000 0.719830 0.233369
0.207285 0.748443 0.203167
0.474935 0.748443 0.203167
0.751502 0.748254 0.203033
0.978845 0.734208 0.193046
0.000000 0.936277 0.235167
0.197340 0.974836 0.193222
0.492359 0.974836 0.193222
0.737704 0.974836 0.193222
0.978845 0.974588 0.193046
0.000000 0.000000 0.469495
0.238080 0.000000 0.469495
0.476160 0.000000 0.469495
0.722755 0.000000 0.467458
0.940110 0.000000 0.471046
0.000000 0.236866 0.469495
0.223785 0.222420 0.483941
0.491020 0.222006 0.483527
0.751315 0.205642 0.467162
0.978658 0.195654 0.485055
0.000000 0.473951 0.469495
0.223432 0.488599 0.483589
0.476574 0.474091 0.469081
0.728652 0.481031 0.476438
0.956706 0.467697 0.463104
0.000000 0.719830 0.467395
0.207069 0.748163 0.467225
0.483486 0.725583 0.476617
0.728652 0.725404 0.476438
0.956706 0.712070 0.463104
0.000000 0.936277 0.470996
0.197123 0.974556 0.485210
0.470208 0.952685 0.463339
0.715553 0.952685 0.463339
0.956706 0.952449 0.463104
0.000000 0.000000 0.713929
0.236951 0.000000 0.713929
0.473901 0.000000 0.713929
0.722755 0.000000 0.714074
0.940110 0.000000 0.715933
0.000000 0.235743 0.713929
0.207412 0.206047 0.742083
0.475061 0.206047 0.742083
0.751315 0.205642 0.741513
0.978658 0.195654 0.727467
0.000000 0.471703 0.713929
0.207340 0.472507 0.741990
0.483594 0.481318 0.719138
0.728398 0.480777 0.718596
0.956453 0.467443 0.705262
0.000000 0.719830 0.714026
0.207069 0.748163 0.741609
0.483107 0.725204 0.718650
0.715261 0.712013 0.705459
0.943316 0.698679 0.692125
0.000000 0.936277 0.715922
0.197123 0.974556 0.727622
0.469828 0.952305 0.705371
0.702163 0.939294 0.692360
0.943316 0.939059 0.692125
0.000000 0.000000 0.928543
0.238791 0.000000 0.928543
0.477581 0.000000 0.928543
0.724643 0.000000 0.928543
0.940110 0.000000 0.928645
0.000000 0.237573 0.928543
0.197550 0.196186 0.966559
0.492671 0.196186 0.966559
0.738017 0.196186 0.966559
0.978658 0.195654 0.965811
0.000000 0.475366 0.928543
0.197479 0.490303 0.966466
0.470429 0.468152 0.944316
0.715774 0.468152 0.944316
0.956453 0.467443 0.943606
0.000000 0.721745 0.928543
0.197479 0.734676 0.966466
0.470303 0.712400 0.944190
0.702275 0.699027 0.930817
0.942954 0.698317 0.930107
0.000000 0.936277 0.928612
0.197123 0.974556 0.965966
0.469828 0.952305 0.943716
0.701621 0.938752 0.930163
0.930150 0.925893 0.917303
