docs/luts/fuji_recipes/Classic_RR_Elite_Chrome_200_Color_Fade.cube
TITLE "Fujifilm Recipe: RR Elite Chrome 200 Color Fade (Classic)"
# FilmSim=Classic HL=0 SH=2 Col=-2 WB=8300K WBR=4 WBB=8
LUT_3D_SIZE 9
DOMAIN_MIN 0.0 0.0 0.0
DOMAIN_MAX 1.0 1.0 1.0
0.000000 0.000000 0.000000
0.099830 0.031244 0.031244
0.196177 0.061397 0.061397
0.292524 0.091551 0.091551
0.422587 0.127369 0.127369
0.525201 0.158297 0.158297
0.627815 0.189225 0.189225
0.693392 0.208990 0.208990
0.693392 0.208990 0.208990
0.025009 0.079908 0.025009
0.099830 0.086143 0.031244
0.196177 0.116297 0.061397
0.292524 0.146451 0.091551
0.422587 0.182154 0.127369
0.525201 0.213082 0.158297
0.627815 0.244010 0.189225
0.693392 0.263775 0.208990
0.693392 0.263775 0.208990
0.050064 0.159964 0.050064
0.118650 0.159964 0.050064
0.196177 0.171298 0.061397
0.292524 0.201451 0.091551
0.422587 0.237040 0.127369
0.525201 0.267968 0.158297
0.627815 0.298896 0.189225
0.693392 0.318661 0.208990
0.693392 0.318661 0.208990
0.075119 0.240020 0.075119
0.143705 0.240020 0.075119
0.209899 0.240020 0.075119
0.292524 0.256452 0.091551
0.422587 0.291926 0.127369
0.525201 0.322854 0.158297
0.627815 0.353782 0.189225
0.693392 0.373547 0.208990
0.693392 0.373547 0.208990
0.100174 0.320076 0.100174
0.168760 0.320076 0.100174
0.234954 0.320076 0.100174
0.301147 0.320076 0.100174
0.422587 0.346811 0.127369
0.525201 0.377740 0.158297
0.627815 0.408668 0.189225
0.693392 0.428433 0.208990
0.693392 0.428433 0.208990
0.130984 0.434581 0.130984
0.199427 0.434581 0.130984
0.265482 0.434581 0.130984
0.331537 0.434581 0.130984
0.426324 0.434581 0.130984
0.525201 0.462817 0.158297
0.627815 0.494791 0.189225
0.693392 0.515224 0.208990
0.693392 0.515224 0.208990
0.156683 0.519845 0.156683
0.225126 0.519845 0.156683
0.291180 0.519845 0.156683
0.357235 0.519845 0.156683
0.452891 0.519845 0.156683
0.525201 0.521514 0.158297
0.627815 0.553487 0.189225
0.693392 0.573920 0.208990
0.693392 0.573920 0.208990
0.182382 0.605108 0.182382
0.250824 0.605108 0.182382
0.316879 0.605108 0.182382
0.382934 0.605108 0.182382
0.479459 0.605108 0.182382
0.550099 0.605108 0.182382
0.627815 0.612184 0.189225
0.693392 0.632616 0.208990
0.693392 0.632616 0.208990
0.208080 0.690372 0.208080
0.276523 0.690372 0.208080
0.342578 0.690372 0.208080
0.408633 0.690372 0.208080
0.506026 0.690372 0.208080
0.576666 0.690372 0.208080
0.647307 0.690372 0.208080
0.693392 0.691313 0.208990
0.693392 0.691313 0.208990
0.026145 0.026145 0.083538
0.099830 0.031244 0.088637
0.196177 0.061397 0.118791
0.292524 0.091551 0.148945
0.422587 0.127369 0.184642
0.525201 0.158297 0.215571
0.627815 0.189225 0.246499
0.693392 0.208990 0.266264
0.693392 0.208990 0.266264
0.026145 0.081044 0.083538
0.134132 0.120925 0.123331
0.231530 0.147914 0.150525
0.328541 0.177404 0.179984
0.460320 0.212701 0.215254
0.563179 0.243384 0.245927
0.665967 0.274138 0.276673
0.762952 0.262495 0.265388
0.762952 0.262495 0.265388
0.050064 0.159964 0.107457
0.152822 0.196426 0.141009
0.233050 0.206971 0.151930
0.330107 0.235766 0.181374
0.461977 0.270452 0.216634
0.564855 0.300878 0.247298
0.669551 0.330073 0.276145
0.764325 0.327625 0.266712
0.764325 0.327625 0.266712
0.075119 0.240020 0.132513
0.176936 0.277269 0.165277
0.245891 0.277269 0.165277
0.330107 0.292741 0.181374
0.461977 0.326827 0.216634
0.564855 0.357002 0.247298
0.669551 0.386563 0.276145
0.764325 0.391430 0.266712
0.764325 0.391430 0.266712
0.100174 0.320076 0.157568
0.201424 0.357800 0.189857
0.269831 0.357800 0.189857
0.338238 0.357800 0.189857
0.461977 0.383201 0.216634
0.564855 0.413126 0.247298
0.669551 0.443052 0.276145
0.764325 0.486699 0.266712
0.764325 0.486699 0.266712
0.130984 0.434581 0.188258
0.231678 0.474008 0.220213
0.299483 0.474008 0.220213
0.367288 0.474008 0.220213
0.465532 0.474008 0.220213
0.564855 0.501064 0.247298
0.669551 0.532640 0.276145
0.764325 0.557202 0.266712
0.764325 0.557202 0.266712
0.156683 0.519845 0.213956
0.257119 0.559488 0.245696
0.324677 0.559488 0.245696
0.392235 0.559488 0.245696
0.491010 0.559488 0.245696
0.564855 0.561085 0.247298
0.669551 0.593051 0.276145
0.764325 0.625438 0.266712
0.764325 0.625438 0.266712
0.182382 0.605108 0.239655
0.282624 0.644914 0.271231
0.349996 0.644914 0.271231
0.417368 0.644914 0.271231
0.516758 0.644914 0.271231
0.588807 0.644914 0.271231
0.669551 0.653463 0.276145
0.764325 0.693673 0.266712
0.764325 0.693673 0.266712
0.208080 0.690372 0.265354
0.279112 0.760971 0.266136
0.355851 0.760971 0.266136
0.432591 0.760971 0.266136
0.546807 0.760971 0.266136
0.628874 0.760971 0.266136
0.710941 0.760971 0.266136
0.764325 0.761908 0.266712
0.764325 0.761908 0.266712
0.053507 0.053507 0.170966
0.122093 0.053507 0.170966
0.196177 0.061397 0.178856
0.292524 0.091551 0.209010
0.422587 0.127369 0.244582
0.525201 0.158297 0.275511
0.627815 0.189225 0.306439
0.693392 0.208990 0.326204
0.693392 0.208990 0.326204
0.053507 0.108407 0.170966
0.154673 0.140282 0.206061
0.231530 0.147914 0.213400
0.328541 0.177404 0.242132
0.460320 0.212701 0.276761
0.563179 0.243384 0.307168
0.665967 0.274138 0.337726
0.762952 0.262495 0.335069
0.762952 0.262495 0.335069
0.053507 0.163408 0.170966
0.162471 0.206246 0.214255
0.264694 0.240686 0.247980
0.362157 0.265883 0.273873
0.496029 0.300284 0.308167
0.599387 0.330468 0.338300
0.721120 0.342277 0.350919
0.793228 0.355511 0.364280
0.793228 0.355511 0.364280
0.075119 0.240020 0.192578
0.183253 0.284139 0.234445
0.285428 0.314495 0.268714
0.366655 0.328434 0.278164
0.500820 0.362015 0.312437
0.604255 0.391795 0.342544
0.725294 0.409272 0.355048
0.797389 0.423336 0.368294
0.797389 0.423336 0.368294
0.100174 0.320076 0.217633
0.207687 0.364816 0.258438
0.304689 0.394601 0.286394
0.374606 0.394601 0.286394
0.500820 0.419493 0.312437
0.604255 0.448892 0.342544
0.725294 0.503473 0.355048
0.797389 0.519736 0.368294
0.797389 0.519736 0.368294
0.130984 0.434581 0.248198
0.237904 0.481407 0.288171
0.334026 0.512925 0.315942
0.403138 0.512925 0.315942
0.504286 0.512925 0.315942
0.604255 0.539358 0.342544
0.725294 0.572935 0.355048
0.797389 0.590245 0.368294
0.797389 0.590245 0.368294
0.156683 0.519845 0.273896
0.263312 0.566962 0.313373
0.358953 0.598862 0.340967
0.427689 0.598862 0.340967
0.529190 0.598862 0.340967
0.604255 0.600419 0.342544
0.725294 0.640162 0.355048
0.797389 0.658488 0.368294
0.797389 0.658488 0.368294
0.182382 0.605108 0.299595
0.288789 0.652446 0.338695
0.369857 0.700641 0.350150
0.445172 0.700641 0.350150
0.557377 0.700641 0.350150
0.637920 0.700641 0.350150
0.725294 0.707390 0.355048
0.797389 0.726730 0.368294
0.797389 0.726730 0.368294
0.208080 0.690372 0.325294
0.285065 0.767132 0.341724
0.387798 0.794035 0.367718
0.464536 0.794035 0.367718
0.579872 0.794035 0.367718
0.661938 0.794035 0.367718
0.744005 0.794035 0.367718
0.797389 0.794972 0.368294
0.797389 0.794972 0.368294
0.080870 0.080870 0.258394
0.149456 0.080870 0.258394
0.215649 0.080870 0.258394
0.292524 0.091551 0.269076
0.422587 0.127369 0.304522
0.525201 0.158297 0.335451
0.627815 0.189225 0.366379
0.693392 0.208990 0.386144
0.693392 0.208990 0.386144
0.080870 0.135769 0.258394
0.181123 0.166914 0.294220
0.249843 0.166914 0.294220
0.328541 0.177404 0.304280
0.460320 0.212701 0.338267
0.563179 0.243384 0.368409
0.665967 0.274138 0.398779
0.762952 0.262495 0.404750
0.762952 0.262495 0.404750
0.080870 0.190770 0.258394
0.188836 0.232011 0.302680
0.282130 0.255713 0.327516
0.362157 0.265883 0.337370
0.496029 0.300284 0.370806
0.599387 0.330468 0.400536
0.721120 0.342277 0.419588
0.793228 0.355511 0.433967
0.793228 0.355511 0.433967
0.080870 0.245771 0.258394
0.188836 0.289488 0.302680
0.301904 0.330972 0.343153
0.395257 0.360448 0.372630
0.530409 0.389197 0.402541
0.641431 0.411717 0.425833
0.751499 0.435191 0.449592
0.823504 0.448527 0.463174
0.823504 0.448527 0.463174
0.100174 0.320076 0.277699
0.207687 0.364816 0.320811
0.314548 0.404897 0.359917
0.412619 0.430885 0.389991
0.538162 0.454656 0.409741
0.648517 0.510801 0.432928
0.758476 0.537193 0.456511
0.830453 0.552761 0.469875
0.830453 0.552761 0.469875
0.130984 0.434581 0.308138
0.237904 0.481407 0.349950
0.343851 0.523841 0.388681
0.437992 0.550348 0.413165
0.541587 0.550348 0.413165
0.648517 0.578687 0.432928
0.758476 0.606486 0.456511
0.830453 0.623281 0.469875
0.830453 0.623281 0.469875
0.156683 0.519845 0.333836
0.263312 0.566962 0.374900
0.365213 0.613442 0.411084
0.457800 0.642843 0.431631
0.567965 0.642843 0.431631
0.648517 0.644390 0.432928
0.758476 0.673551 0.456511
0.830453 0.691533 0.469875
0.830453 0.691533 0.469875
0.182382 0.605108 0.359535
0.288789 0.652446 0.400030
0.379389 0.710228 0.427986
0.478126 0.733908 0.451528
0.591083 0.733908 0.451528
0.671380 0.733908 0.451528
0.758476 0.740616 0.456511
0.830453 0.759784 0.469875
0.830453 0.759784 0.469875
0.208080 0.690372 0.385234
0.285065 0.767132 0.411360
0.397010 0.803569 0.446565
0.528221 0.827099 0.469300
0.612937 0.827099 0.469300
0.695003 0.827099 0.469300
0.777069 0.827099 0.469300
0.830453 0.828036 0.469875
0.830453 0.828036 0.469875
0.108921 0.108921 0.348024
0.177507 0.108921 0.348024
0.243700 0.108921 0.348024
0.309894 0.108921 0.348024
0.422587 0.127369 0.365972
0.525201 0.158297 0.396900
0.627815 0.189225 0.454971
0.693392 0.208990 0.475404
0.693392 0.208990 0.475404
0.108921 0.163820 0.348024
0.208627 0.194527 0.384288
0.276817 0.194527 0.384288
0.345007 0.194527 0.384288
0.460320 0.212701 0.401322
0.563179 0.243384 0.458757
0.665967 0.274138 0.489913
0.762952 0.262495 0.509539
0.762952 0.262495 0.509539
0.108921 0.218821 0.348024
0.216270 0.259072 0.392928
0.308712 0.282567 0.418344
0.378273 0.282567 0.418344
0.496029 0.300284 0.463045
0.599387 0.330468 0.493268
0.721120 0.342277 0.523103
0.793228 0.355511 0.539792
0.793228 0.355511 0.539792
0.108921 0.273822 0.348024
0.216270 0.316054 0.392928
0.327112 0.358857 0.465303
0.414394 0.376106 0.483832
0.530409 0.389197 0.496975
0.641431 0.411717 0.526903
0.751499 0.435191 0.553898
0.823504 0.448527 0.570038
0.823504 0.448527 0.570038
0.108921 0.328823 0.348024
0.216270 0.373036 0.392928
0.327112 0.416820 0.465303
0.443649 0.461916 0.507338
0.573249 0.522587 0.542727
0.679804 0.543209 0.566332
0.789163 0.569132 0.592794
0.860919 0.583830 0.607995
0.860919 0.583830 0.607995
0.130984 0.434581 0.369587
0.237904 0.481407 0.413285
0.343851 0.523841 0.481992
0.449511 0.566563 0.522703
0.589285 0.597270 0.558764
0.691242 0.622182 0.578101
0.800315 0.649466 0.604311
0.871965 0.665303 0.619115
0.871965 0.665303 0.619115
0.156683 0.519845 0.395286
0.263312 0.566962 0.465838
0.365213 0.613442 0.507499
0.470995 0.656042 0.546112
0.611571 0.685615 0.576666
0.691242 0.687160 0.578101
0.800315 0.716027 0.604311
0.871965 0.733386 0.619115
0.871965 0.733386 0.619115
0.182382 0.605108 0.447896
0.288789 0.652446 0.491574
0.379389 0.710228 0.531118
0.528998 0.753686 0.575797
0.634332 0.775926 0.598764
0.713936 0.775926 0.598764
0.800315 0.782589 0.604311
0.871965 0.801470 0.619115
0.871965 0.801470 0.619115
0.208080 0.690372 0.474463
0.285065 0.767132 0.516300
0.397010 0.803569 0.552739
0.548415 0.846678 0.596365
0.655049 0.868616 0.618483
0.736887 0.868616 0.618483
0.818725 0.868616 0.618483
0.871965 0.869553 0.619115
0.871965 0.869553 0.619115
0.141615 0.141615 0.469853
0.210058 0.141615 0.469853
0.276113 0.141615 0.469853
0.342168 0.141615 0.469853
0.437315 0.141615 0.469853
0.525201 0.158297 0.487099
0.627815 0.189225 0.519072
0.693392 0.208990 0.539505
0.693392 0.208990 0.539505
0.141615 0.196400 0.469853
0.240807 0.226823 0.507710
0.308440 0.226823 0.507710
0.376073 0.226823 0.507710
0.474395 0.226823 0.507710
0.563179 0.243384 0.524250
0.665967 0.274138 0.555205
0.762952 0.262495 0.584057
0.762952 0.262495 0.584057
0.141615 0.251286 0.469853
0.248404 0.290819 0.516810
0.340019 0.314158 0.543668
0.408826 0.314158 0.543668
0.509774 0.314158 0.543668
0.599387 0.330468 0.559825
0.721120 0.342277 0.596540
0.793228 0.355511 0.614318
0.793228 0.355511 0.614318
0.141615 0.306172 0.469853
0.248404 0.347284 0.516810
0.354117 0.385627 0.559478
0.440092 0.401579 0.579539
0.544725 0.401579 0.579539
0.641431 0.411717 0.598734
0.751499 0.435191 0.627181
0.823504 0.448527 0.644572
0.823504 0.448527 0.644572
0.141615 0.361058 0.469853
0.248404 0.403750 0.516810
0.354117 0.443163 0.559478
0.458532 0.509433 0.603445
0.591190 0.540528 0.622655
0.679804 0.543209 0.637501
0.789163 0.569132 0.665620
0.860919 0.583830 0.682370
0.860919 0.583830 0.682370
0.141615 0.445572 0.469853
0.248404 0.491829 0.516810
0.354117 0.534024 0.559478
0.458532 0.576566 0.603445
0.620078 0.628062 0.651543
0.713951 0.653625 0.677105
0.821689 0.671517 0.698929
0.893085 0.686575 0.714719
0.893085 0.686575 0.714719
0.156683 0.519845 0.485430
0.263312 0.566962 0.531636
0.365213 0.613442 0.576433
0.470995 0.656042 0.617640
0.639054 0.703799 0.670519
0.727339 0.723774 0.690494
0.834770 0.751162 0.712450
0.905964 0.767575 0.727711
0.905964 0.767575 0.727711
0.182382 0.605108 0.511997
0.288789 0.652446 0.557167
0.379389 0.710228 0.604148
0.528998 0.753686 0.648329
0.651939 0.792963 0.688459
0.749205 0.810616 0.706669
0.834770 0.817187 0.712450
0.905964 0.835565 0.727711
0.905964 0.835565 0.727711
0.208080 0.690372 0.538564
0.285065 0.767132 0.590770
0.397010 0.803569 0.627208
0.548415 0.846678 0.670680
0.671952 0.885359 0.709620
0.771133 0.902622 0.727071
0.852822 0.902622 0.727071
0.905964 0.903556 0.727711
0.905964 0.903556 0.727711
0.169680 0.169680 0.562968
0.238123 0.169680 0.562968
0.304178 0.169680 0.562968
0.370233 0.169680 0.562968
0.466328 0.169680 0.562968
0.536969 0.169680 0.562968
0.627815 0.189225 0.583173
0.693392 0.208990 0.603606
0.693392 0.208990 0.603606
0.169680 0.224465 0.562968
0.268634 0.254696 0.601016
0.336039 0.254696 0.601016
0.403443 0.254696 0.601016
0.502402 0.254696 0.601016
0.574486 0.254696 0.601016
0.665967 0.274138 0.620497
0.762952 0.262495 0.658576
0.762952 0.262495 0.658576
0.169680 0.279351 0.562968
0.276190 0.318438 0.610204
0.361567 0.334619 0.644387
0.433267 0.334619 0.644387
0.539488 0.334619 0.644387
0.616166 0.334619 0.644387
0.721120 0.342277 0.669977
0.793228 0.355511 0.688843
0.793228 0.355511 0.688843
0.169680 0.334237 0.562968
0.276190 0.374683 0.610204
0.369905 0.403882 0.664870
0.461252 0.420647 0.681650
0.572637 0.420647 0.681650
0.652322 0.420647 0.681650
0.751499 0.435191 0.700463
0.823504 0.448527 0.719106
0.823504 0.448527 0.719106
0.169680 0.389123 0.562968
0.276190 0.430927 0.610204
0.369905 0.496416 0.664870
0.481370 0.534158 0.701787
0.611654 0.553055 0.719748
0.690667 0.553055 0.719748
0.789163 0.569132 0.738446
0.860919 0.583830 0.756744
0.860919 0.583830 0.756744
0.169680 0.474585 0.562968
0.276190 0.519633 0.610204
0.369905 0.564968 0.664870
0.481370 0.602374 0.701787
0.641026 0.650193 0.748319
0.724026 0.654864 0.752850
0.821689 0.671517 0.771293
0.893085 0.686575 0.789017
0.893085 0.686575 0.789017
0.169680 0.533282 0.562968
0.276190 0.579782 0.610204
0.369905 0.631314 0.664870
0.481370 0.668396 0.701787
0.641026 0.715360 0.748319
0.760651 0.757086 0.785793
0.853409 0.770369 0.803535
0.924222 0.786010 0.820353
0.924222 0.786010 0.820353
0.182382 0.605108 0.576098
0.288789 0.652446 0.622761
0.379389 0.710228 0.677177
0.528998 0.753686 0.720861
0.651939 0.792963 0.760404
0.770582 0.831462 0.799356
0.869633 0.852318 0.820183
0.939975 0.869794 0.836295
0.939975 0.869794 0.836295
0.208080 0.690372 0.602665
0.285065 0.767132 0.665240
0.397010 0.803569 0.701677
0.548415 0.846678 0.744996
0.671952 0.885359 0.783826
0.791609 0.922844 0.821616
0.887052 0.936650 0.835639
0.939975 0.937574 0.836295
0.939975 0.937574 0.836295
0.197745 0.197745 0.656083
0.266188 0.197745 0.656083
0.332243 0.197745 0.656083
0.398298 0.197745 0.656083
0.495342 0.197745 0.656083
0.565982 0.197745 0.656083
0.636623 0.197745 0.656083
0.693392 0.208990 0.667708
0.693392 0.208990 0.667708
0.197745 0.252530 0.656083
0.280748 0.265704 0.711189
0.353508 0.265704 0.711189
0.426268 0.265704 0.711189
0.534132 0.265704 0.711189
0.611943 0.265704 0.711189
0.689754 0.265704 0.711189
0.762952 0.262495 0.733094
0.762952 0.262495 0.733094
0.197745 0.307416 0.656083
0.278307 0.325858 0.729266
0.376770 0.348157 0.752028
0.452898 0.348157 0.752028
0.566774 0.348157 0.752028
0.648187 0.348157 0.752028
0.729601 0.348157 0.752028
0.793228 0.355511 0.763368
0.793228 0.355511 0.763368
0.197745 0.362302 0.656083
0.278307 0.389161 0.729266
0.390218 0.424842 0.765737
0.513382 0.441139 0.782338
0.597319 0.441139 0.782338
0.678629 0.441139 0.782338
0.759939 0.441139 0.782338
0.823504 0.448527 0.793640
0.823504 0.448527 0.793640
0.197745 0.417188 0.656083
0.278307 0.483449 0.729266
0.390218 0.520234 0.765737
0.540957 0.564505 0.808930
0.635720 0.575705 0.819858
0.716643 0.575705 0.819858
0.797565 0.575705 0.819858
0.860919 0.583830 0.831119
0.860919 0.583830 0.831119
0.197745 0.503599 0.656083
0.278307 0.553397 0.729266
0.390218 0.590092 0.765737
0.540957 0.634056 0.808930
0.664331 0.673754 0.847774
0.749433 0.678293 0.852180
0.829989 0.678293 0.852180
0.893085 0.686575 0.863315
0.893085 0.686575 0.863315
0.197745 0.562295 0.656083
0.278307 0.621095 0.729266
0.390218 0.657704 0.765737
0.540957 0.701371 0.808930
0.664331 0.740740 0.847774
0.781634 0.777462 0.883583
0.861564 0.777462 0.883583
0.924222 0.786010 0.894509
0.924222 0.786010 0.894509
0.197745 0.620991 0.656083
0.278307 0.688793 0.729266
0.390218 0.725316 0.765737
0.540957 0.768686 0.808930
0.664331 0.807727 0.847774
0.783685 0.845884 0.885563
0.893680 0.876297 0.915320
0.955379 0.885424 0.925816
0.955379 0.885424 0.925816
0.208080 0.690372 0.666767
0.285065 0.767132 0.739709
0.397010 0.803569 0.776146
0.548415 0.846678 0.819311
0.671952 0.885359 0.858033
0.791609 0.922844 0.895600
0.911201 0.960395 0.933430
0.974058 0.971690 0.944808
0.974058 0.971690 0.944808
0.206244 0.206244 0.684278
0.274686 0.206244 0.684278
0.340741 0.206244 0.684278
0.406796 0.206244 0.684278
0.504127 0.206244 0.684278
0.574768 0.206244 0.684278
0.645408 0.206244 0.684278
0.693392 0.208990 0.687118
0.693392 0.208990 0.687118
0.206244 0.261028 0.684278
0.276593 0.260746 0.752841
0.353232 0.260746 0.752841
0.429872 0.260746 0.752841
0.543821 0.260746 0.752841
0.625782 0.260746 0.752841
0.707742 0.260746 0.752841
0.762952 0.262495 0.755659
0.762952 0.262495 0.755659
0.206244 0.315914 0.684278
0.283892 0.331725 0.760375
0.382561 0.353761 0.783118
0.459186 0.353761 0.783118
0.574138 0.353761 0.783118
0.656083 0.353761 0.783118
0.738028 0.353761 0.783118
0.793228 0.355511 0.785934
0.793228 0.355511 0.785934
0.206244 0.370800 0.684278
0.283892 0.395403 0.760375
0.395836 0.430701 0.796813
0.519898 0.446777 0.813395
0.604468 0.446777 0.813395
0.686392 0.446777 0.813395
0.768316 0.446777 0.813395
0.823504 0.448527 0.816210
0.823504 0.448527 0.816210
0.206244 0.425686 0.684278
0.283892 0.490582 0.760375
0.395836 0.527089 0.796813
0.547131 0.570886 0.839928
0.642495 0.581912 0.850823
0.724184 0.581912 0.850823
0.805873 0.581912 0.850823
0.860919 0.583830 0.853640
0.860919 0.583830 0.853640
0.206244 0.512384 0.684278
0.283892 0.560944 0.760375
0.395836 0.597433 0.796813
0.547131 0.641053 0.839928
0.670651 0.680183 0.878626
0.756629 0.684636 0.883010
0.838152 0.684636 0.883010
0.893085 0.686575 0.885813
0.893085 0.686575 0.885813
0.206244 0.571080 0.684278
0.283892 0.629044 0.760375
0.395836 0.665515 0.796813
0.547131 0.708962 0.839928
0.670651 0.747945 0.878626
0.788272 0.784032 0.914185
0.869493 0.784032 0.914185
0.924222 0.786010 0.916964
0.924222 0.786010 0.916964
0.206244 0.629777 0.684278
0.283892 0.697143 0.760375
0.395836 0.733597 0.796813
0.547131 0.776872 0.839928
0.670651 0.815707 0.878626
0.790274 0.853501 0.916145
0.901158 0.883351 0.945437
0.955379 0.885424 0.948158
0.955379 0.885424 0.948158
0.208080 0.690372 0.686177
0.285065 0.767132 0.762259
0.397010 0.803569 0.798696
0.548415 0.846678 0.841815
0.671952 0.885359 0.880503
0.791609 0.922844 0.918002
0.911201 0.960395 0.955603
0.984509 0.982198 0.977535
0.984509 0.982198 0.977535
