docs/luts/fuji_recipes/Classic_LC_Color.cube
TITLE "Fujifilm Recipe: LC Color (Classic)"
# FilmSim=Classic HL=1 SH=0 Col=3 WB=Auto WBR=4 WBB=-4
LUT_3D_SIZE 33
DOMAIN_MIN 0.0 0.0 0.0
DOMAIN_MAX 1.0 1.0 1.0
0.000000 0.000000 0.000000
0.027128 0.000000 0.000000
0.056544 0.000000 0.000000
0.087544 0.000000 0.000000
0.118544 0.000000 0.000000
0.149545 0.000000 0.000000
0.180545 0.000000 0.000000
0.211545 0.000000 0.000000
0.242545 0.000000 0.000000
0.273545 0.000000 0.000000
0.304545 0.000000 0.000000
0.335545 0.000000 0.000000
0.366545 0.000000 0.000000
0.397545 0.000000 0.000000
0.428545 0.000000 0.000000
0.459545 0.000000 0.000000
0.490545 0.000000 0.000000
0.525133 0.000000 0.000000
0.555633 0.000000 0.000000
0.586414 0.000000 0.000000
0.617969 0.000000 0.000000
0.649525 0.000000 0.000000
0.681080 0.000000 0.000000
0.712635 0.000000 0.000000
0.744191 0.000000 0.000000
0.775746 0.000000 0.000000
0.807301 0.000000 0.000000
0.838857 0.000000 0.000000
0.870412 0.000000 0.000000
0.901968 0.000000 0.000000
0.933523 0.000000 0.000000
0.965078 0.000000 0.000000
0.996634 0.000000 0.000000
0.001269 0.024415 0.000000
0.027128 0.023098 0.000000
0.056544 0.022933 0.000000
0.087544 0.024415 0.000000
0.118544 0.024415 0.000000
0.149545 0.024415 0.000000
0.180545 0.024415 0.000000
0.211545 0.024415 0.000000
0.242545 0.024415 0.000000
0.273545 0.024415 0.000000
0.304545 0.024415 0.000000
0.335545 0.024415 0.000000
0.366545 0.024415 0.000000
0.397545 0.024415 0.000000
0.428545 0.024415 0.000000
0.459545 0.024415 0.000000
0.490545 0.024415 0.000000
0.525133 0.024415 0.000000
0.555633 0.024415 0.000000
0.586414 0.024411 0.000000
0.617969 0.024396 0.000000
0.649525 0.024382 0.000000
0.681080 0.024369 0.000000
0.712635 0.024358 0.000000
0.744191 0.024348 0.000000
0.775746 0.024338 0.000000
0.807301 0.024330 0.000000
0.838857 0.024321 0.000000
0.870412 0.024314 0.000000
0.901968 0.024307 0.000000
0.933523 0.024301 0.000000
0.965078 0.024294 0.000000
0.996634 0.024289 0.000000
0.002648 0.050961 0.000000
0.030184 0.050961 0.000000
0.056544 0.048214 0.000000
0.087544 0.047954 0.000000
0.118544 0.047866 0.000000
0.149545 0.047827 0.000000
0.180545 0.050961 0.000000
0.211545 0.050961 0.000000
0.242545 0.050961 0.000000
0.273545 0.050961 0.000000
0.304545 0.050961 0.000000
0.335545 0.050961 0.000000
0.366545 0.050961 0.000000
0.397545 0.050961 0.000000
0.428545 0.050961 0.000000
0.459545 0.050961 0.000000
0.490545 0.050961 0.000000
0.525133 0.050961 0.000000
0.555633 0.050961 0.000000
0.586414 0.050952 0.000000
0.617969 0.050920 0.000000
0.649525 0.050892 0.000000
0.681080 0.050866 0.000000
0.712635 0.050842 0.000000
0.744191 0.050821 0.000000
0.775746 0.050801 0.000000
0.807301 0.050783 0.000000
0.838857 0.050766 0.000000
0.870412 0.050750 0.000000
0.901968 0.050736 0.000000
0.933523 0.050722 0.000000
0.965078 0.050710 0.000000
0.996634 0.050698 0.000000
0.004106 0.079025 0.000000
0.031806 0.079025 0.000000
0.061166 0.079025 0.000000
0.087544 0.074767 0.000000
0.118544 0.074453 0.000000
0.149545 0.074309 0.000000
0.180545 0.074232 0.000000
0.211545 0.074186 0.000000
0.242545 0.074156 0.000000
0.273545 0.079025 0.000000
0.304545 0.079025 0.000000
0.335545 0.079025 0.000000
0.366545 0.079025 0.000000
0.397545 0.079025 0.000000
0.428545 0.079025 0.000000
0.459545 0.079025 0.000000
0.490545 0.079025 0.000000
0.525133 0.079025 0.000000
0.555633 0.079025 0.000000
0.586414 0.079011 0.000000
0.617969 0.078962 0.000000
0.649525 0.078918 0.000000
0.681080 0.078878 0.000000
0.712635 0.078841 0.000000
0.744191 0.078808 0.000000
0.775746 0.078777 0.000000
0.807301 0.078749 0.000000
0.838857 0.078722 0.000000
0.870412 0.078698 0.000000
0.901968 0.078676 0.000000
0.933523 0.078655 0.000000
0.965078 0.078635 0.000000
0.996634 0.078617 0.000000
0.005565 0.107089 0.000000
0.033340 0.107089 0.000000
0.062967 0.107089 0.000000
0.093618 0.107089 0.000000
0.118544 0.101320 0.000000
0.149545 0.100974 0.000000
0.180545 0.100785 0.000000
0.211545 0.100671 0.000000
0.242545 0.100598 0.000000
0.273545 0.100548 0.000000
0.304545 0.100512 0.000000
0.335545 0.100485 0.000000
0.366545 0.100465 0.000000
0.397545 0.107089 0.000000
0.428545 0.107089 0.000000
0.459545 0.107089 0.000000
0.490545 0.107089 0.000000
0.525133 0.107089 0.000000
0.555633 0.107089 0.000000
0.586414 0.107070 0.000000
0.617969 0.107004 0.000000
0.649525 0.106944 0.000000
0.681080 0.106889 0.000000
0.712635 0.106840 0.000000
0.744191 0.106794 0.000000
0.775746 0.106753 0.000000
0.807301 0.106714 0.000000
0.838857 0.106679 0.000000
0.870412 0.106646 0.000000
0.901968 0.106616 0.000000
0.933523 0.106587 0.000000
0.965078 0.106561 0.000000
0.996634 0.106536 0.000000
0.007023 0.135153 0.000000
0.034842 0.135153 0.000000
0.064624 0.135153 0.000000
0.095557 0.135153 0.000000
0.126029 0.135153 0.000000
0.149545 0.127874 0.000000
0.180545 0.127505 0.000000
0.211545 0.127281 0.000000
0.242545 0.127135 0.000000
0.273545 0.127035 0.000000
0.304545 0.126964 0.000000
0.335545 0.126911 0.000000
0.366545 0.126871 0.000000
0.397545 0.126840 0.000000
0.428545 0.126815 0.000000
0.459545 0.126795 0.000000
0.490545 0.135153 0.000000
0.525133 0.135153 0.000000
0.555633 0.135153 0.000000
0.586414 0.135130 0.000000
0.617969 0.135045 0.000000
0.649525 0.134970 0.000000
0.681080 0.134901 0.000000
0.712635 0.134838 0.000000
0.744191 0.134781 0.000000
0.775746 0.134729 0.000000
0.807301 0.134680 0.000000
0.838857 0.134636 0.000000
0.870412 0.134594 0.000000
0.901968 0.134556 0.000000
0.933523 0.134520 0.000000
0.965078 0.134486 0.000000
0.996634 0.134455 0.000000
0.008481 0.163218 0.000000
0.036329 0.163218 0.000000
0.066211 0.163218 0.000000
0.097330 0.163218 0.000000
0.128064 0.163218 0.000000
0.158422 0.163218 0.000000
0.180545 0.154427 0.000000
0.211545 0.154042 0.000000
0.242545 0.153790 0.000000
0.273545 0.153617 0.000000
0.304545 0.153492 0.000000
0.335545 0.153400 0.000000
0.366545 0.153330 0.000000
0.397545 0.153275 0.000000
0.428545 0.153232 0.000000
0.459545 0.153197 0.000000
0.490545 0.153169 0.000000
0.525133 0.153142 0.000000
0.555633 0.153123 0.000000
0.586414 0.163189 0.000000
0.617969 0.163087 0.000000
0.649525 0.162996 0.000000
0.681080 0.162913 0.000000
0.712635 0.162837 0.000000
0.744191 0.162768 0.000000
0.775746 0.162705 0.000000
0.807301 0.162646 0.000000
0.838857 0.162592 0.000000
0.870412 0.162542 0.000000
0.901968 0.162496 0.000000
0.933523 0.162452 0.000000
0.965078 0.162412 0.000000
0.996634 0.162374 0.000000
0.009939 0.191282 0.000000
0.037807 0.191282 0.000000
0.067759 0.191282 0.000000
0.099010 0.191282 0.000000
0.129931 0.191282 0.000000
0.160525 0.191282 0.000000
0.190804 0.191282 0.000000
0.211545 0.180980 0.000000
0.242545 0.180583 0.000000
0.273545 0.180309 0.000000
0.304545 0.180111 0.000000
0.335545 0.179964 0.000000
0.366545 0.179852 0.000000
0.397545 0.179765 0.000000
0.428545 0.179696 0.000000
0.459545 0.179640 0.000000
0.490545 0.179594 0.000000
0.525133 0.179552 0.000000
0.555633 0.179522 0.000000
0.586414 0.179464 0.000000
0.617969 0.179329 0.000000
0.649525 0.179208 0.000000
0.681080 0.190924 0.000000
0.712635 0.190836 0.000000
0.744191 0.190755 0.000000
0.775746 0.190681 0.000000
0.807301 0.190612 0.000000
0.838857 0.190549 0.000000
0.870412 0.190490 0.000000
0.901968 0.190436 0.000000
0.933523 0.190385 0.000000
0.965078 0.190337 0.000000
0.996634 0.190293 0.000000
0.011398 0.219346 0.000000
0.039280 0.219346 0.000000
0.069284 0.219346 0.000000
0.100632 0.219346 0.000000
0.131693 0.219346 0.000000
0.162468 0.219346 0.000000
0.192959 0.219346 0.000000
0.219346 0.215512 0.000000
0.242545 0.207534 0.000000
0.273545 0.207127 0.000000
0.304545 0.206834 0.000000
0.335545 0.206615 0.000000
0.366545 0.206448 0.000000
0.397545 0.206318 0.000000
0.428545 0.206214 0.000000
0.459545 0.206131 0.000000
0.490545 0.206062 0.000000
0.525133 0.205999 0.000000
0.555633 0.205953 0.000000
0.586414 0.205877 0.000000
0.617969 0.205714 0.000000
0.649525 0.205569 0.000000
0.681080 0.205438 0.000000
0.712635 0.205321 0.000000
0.744191 0.205214 0.000000
0.775746 0.218656 0.000000
0.807301 0.218578 0.000000
0.838857 0.218505 0.000000
0.870412 0.218438 0.000000
0.901968 0.218376 0.000000
0.933523 0.218317 0.000000
0.965078 0.218263 0.000000
0.996634 0.218212 0.000000
0.012856 0.247410 0.000000
0.040749 0.247410 0.000000
0.070793 0.247410 0.000000
0.102215 0.247410 0.000000
0.133385 0.247410 0.000000
0.164300 0.247410 0.000000
0.194962 0.247410 0.000000
0.225375 0.247410 0.000000
0.247410 0.239269 0.000000
0.273545 0.234087 0.000000
0.304545 0.233673 0.000000
0.335545 0.233364 0.000000
0.366545 0.233127 0.000000
0.397545 0.232942 0.000000
0.428545 0.232795 0.000000
0.459545 0.232675 0.000000
0.490545 0.232577 0.000000
0.525133 0.232488 0.000000
0.555633 0.232422 0.000000
0.586414 0.232324 0.000000
0.617969 0.232130 0.000000
0.649525 0.231957 0.000000
0.681080 0.231802 0.000000
0.712635 0.231662 0.000000
0.744191 0.231536 0.000000
0.775746 0.231421 0.000000
0.807301 0.231316 0.000000
0.838857 0.231220 0.000000
0.870412 0.246386 0.000000
0.901968 0.246316 0.000000
0.933523 0.246250 0.000000
0.965078 0.246189 0.000000
0.996634 0.246131 0.000000
0.014314 0.275474 0.000000
0.042217 0.275474 0.000000
0.072292 0.275474 0.000000
0.103773 0.275474 0.000000
0.135029 0.275474 0.000000
0.166056 0.275474 0.000000
0.196855 0.275474 0.000000
0.227427 0.275474 0.000000
0.257779 0.275474 0.000000
0.275474 0.263029 0.000000
0.304545 0.260640 0.000000
0.335545 0.260220 0.000000
0.366545 0.259898 0.000000
0.397545 0.259645 0.000000
0.428545 0.259443 0.000000
0.459545 0.259280 0.000000
0.490545 0.259146 0.000000
0.525133 0.259023 0.000000
0.555633 0.258933 0.000000
0.586414 0.258809 0.000000
0.617969 0.258580 0.000000
0.649525 0.258376 0.000000
0.681080 0.258193 0.000000
0.712635 0.258029 0.000000
0.744191 0.257881 0.000000
0.775746 0.257747 0.000000
0.807301 0.257624 0.000000
0.838857 0.257512 0.000000
0.870412 0.257409 0.000000
0.901968 0.257313 0.000000
0.933523 0.257225 0.000000
0.965078 0.274114 0.000000
0.996634 0.274050 0.000000
0.015772 0.303538 0.000000
0.043682 0.303538 0.000000
0.073783 0.303538 0.000000
0.105311 0.303538 0.000000
0.136637 0.303538 0.000000
0.167756 0.303538 0.000000
0.198667 0.303538 0.000000
0.229371 0.303538 0.000000
0.259871 0.303538 0.000000
0.290173 0.303538 0.000000
0.304545 0.287745 0.000000
0.335545 0.287193 0.000000
0.366545 0.286768 0.000000
0.397545 0.286434 0.000000
0.428545 0.286168 0.000000
0.459545 0.285951 0.000000
0.490545 0.285773 0.000000
0.525133 0.285610 0.000000
0.555633 0.285490 0.000000
0.586414 0.285336 0.000000
0.617969 0.285067 0.000000
0.649525 0.284829 0.000000
0.681080 0.284616 0.000000
0.712635 0.284425 0.000000
0.744191 0.284253 0.000000
0.775746 0.284097 0.000000
0.807301 0.283954 0.000000
0.838857 0.283824 0.000000
0.870412 0.283705 0.000000
0.901968 0.283595 0.000000
0.933523 0.283494 0.000000
0.965078 0.283400 0.000000
0.996634 0.283313 0.000000
0.017231 0.331602 0.000000
0.045146 0.331602 0.000000
0.075268 0.331602 0.000000
0.106836 0.331602 0.000000
0.138219 0.331602 0.000000
0.169414 0.331602 0.000000
0.200419 0.331602 0.000000
0.231234 0.331602 0.000000
0.261859 0.331602 0.000000
0.292300 0.331602 0.000000
0.322562 0.331602 0.000000
0.335545 0.314292 0.000000
0.366545 0.313747 0.000000
0.397545 0.313317 0.000000
0.428545 0.312973 0.000000
0.459545 0.312694 0.000000
0.490545 0.312464 0.000000
0.525133 0.312253 0.000000
0.555633 0.312097 0.000000
0.586414 0.311908 0.000000
0.617969 0.311596 0.000000
0.649525 0.311319 0.000000
0.681080 0.311073 0.000000
0.712635 0.310852 0.000000
0.744191 0.310653 0.000000
0.775746 0.310473 0.000000
0.807301 0.310309 0.000000
0.838857 0.310160 0.000000
0.870412 0.310023 0.000000
0.901968 0.309897 0.000000
0.933523 0.309781 0.000000
0.965078 0.309673 0.000000
0.996634 0.309573 0.000000
0.018689 0.359666 0.000000
0.046610 0.359666 0.000000
0.076749 0.359666 0.000000
0.108350 0.359666 0.000000
0.139782 0.359666 0.000000
0.171041 0.359666 0.000000
0.202125 0.359666 0.000000
0.233033 0.359666 0.000000
0.263766 0.359666 0.000000
0.294326 0.359666 0.000000
0.324718 0.359666 0.000000
0.354945 0.359666 0.000000
0.366545 0.340840 0.000000
0.397545 0.340300 0.000000
0.428545 0.339867 0.000000
0.459545 0.339514 0.000000
0.490545 0.339224 0.000000
0.525133 0.338956 0.000000
0.555633 0.338759 0.000000
0.586414 0.338530 0.000000
0.617969 0.338169 0.000000
0.649525 0.337850 0.000000
0.681080 0.337566 0.000000
0.712635 0.337313 0.000000
0.744191 0.337084 0.000000
0.775746 0.336878 0.000000
0.807301 0.336690 0.000000
0.838857 0.336520 0.000000
0.870412 0.336363 0.000000
0.901968 0.336220 0.000000
0.933523 0.336087 0.000000
0.965078 0.335965 0.000000
0.996634 0.335852 0.000000
0.020147 0.387731 0.000000
0.048072 0.387731 0.000000
0.078226 0.387731 0.000000
0.109856 0.387731 0.000000
0.141329 0.387731 0.000000
0.172642 0.387731 0.000000
0.203793 0.387731 0.000000
0.234782 0.387731 0.000000
0.265608 0.387731 0.000000
0.296272 0.387731 0.000000
0.326777 0.387731 0.000000
0.357126 0.387731 0.000000
0.387324 0.387731 0.000000
0.397545 0.367389 0.000000
0.428545 0.366853 0.000000
0.459545 0.366417 0.000000
0.490545 0.366057 0.000000
0.525133 0.365725 0.000000
0.555633 0.365480 0.000000
0.586414 0.365204 0.000000
0.617969 0.364790 0.000000
0.649525 0.364424 0.000000
0.681080 0.364100 0.000000
0.712635 0.363810 0.000000
0.744191 0.363549 0.000000
0.775746 0.363314 0.000000
0.807301 0.363100 0.000000
0.838857 0.362906 0.000000
0.870412 0.362728 0.000000
0.901968 0.362565 0.000000
0.933523 0.362415 0.000000
0.965078 0.362277 0.000000
0.996634 0.362149 0.000000
0.021605 0.415795 0.000000
0.049534 0.415795 0.000000
0.079701 0.415795 0.000000
0.111355 0.415795 0.000000
0.142863 0.415795 0.000000
0.174223 0.415795 0.000000
0.205433 0.415795 0.000000
0.236491 0.415795 0.000000
0.267397 0.415795 0.000000
0.298152 0.415795 0.000000
0.328757 0.415795 0.000000
0.359214 0.415795 0.000000
0.389528 0.415795 0.000000
0.415795 0.411888 0.000000
0.428545 0.393938 0.000000
0.459545 0.393407 0.000000
0.490545 0.392967 0.000000
0.525133 0.392562 0.000000
0.555633 0.392262 0.000000
0.586414 0.391935 0.000000
0.617969 0.391462 0.000000
0.649525 0.391045 0.000000
0.681080 0.390676 0.000000
0.712635 0.390346 0.000000
0.744191 0.390050 0.000000
0.775746 0.389783 0.000000
0.807301 0.389541 0.000000
0.838857 0.389321 0.000000
0.870412 0.389120 0.000000
0.901968 0.388936 0.000000
0.933523 0.388767 0.000000
0.965078 0.388611 0.000000
0.996634 0.388466 0.000000
0.023064 0.443859 0.000000
0.050996 0.443859 0.000000
0.081174 0.443859 0.000000
0.112849 0.443859 0.000000
0.144388 0.443859 0.000000
0.175789 0.443859 0.000000
0.207049 0.443859 0.000000
0.238168 0.443859 0.000000
0.269145 0.443859 0.000000
0.299979 0.443859 0.000000
0.330672 0.443859 0.000000
0.361225 0.443859 0.000000
0.391641 0.443859 0.000000
0.421923 0.443859 0.000000
0.443859 0.435643 0.000000
0.459545 0.420488 0.000000
0.490545 0.419960 0.000000
0.525133 0.419472 0.000000
0.555633 0.419111 0.000000
0.586414 0.418725 0.000000
0.617969 0.418188 0.000000
0.649525 0.417716 0.000000
0.681080 0.417297 0.000000
0.712635 0.416923 0.000000
0.744191 0.416588 0.000000
0.775746 0.416287 0.000000
0.807301 0.416014 0.000000
0.838857 0.415766 0.000000
0.870412 0.415540 0.000000
0.901968 0.415333 0.000000
0.933523 0.415142 0.000000
0.965078 0.414967 0.000000
0.996634 0.414805 0.000000
0.024522 0.471923 0.000000
0.052457 0.471923 0.000000
0.082645 0.471923 0.000000
0.114338 0.471923 0.000000
0.145904 0.471923 0.000000
0.177341 0.471923 0.000000
0.208646 0.471923 0.000000
0.239818 0.471923 0.000000
0.270857 0.471923 0.000000
0.301762 0.471923 0.000000
0.332533 0.471923 0.000000
0.363172 0.471923 0.000000
0.393680 0.471923 0.000000
0.424060 0.471923 0.000000
0.454314 0.471923 0.000000
0.471923 0.459399 0.000000
0.490545 0.447038 0.000000
0.525133 0.446458 0.000000
0.555633 0.446029 0.000000
0.586414 0.445578 0.000000
0.617969 0.444972 0.000000
0.649525 0.444438 0.000000
0.681080 0.443965 0.000000
0.712635 0.443544 0.000000
0.744191 0.443168 0.000000
0.775746 0.442828 0.000000
0.807301 0.442522 0.000000
0.838857 0.442243 0.000000
0.870412 0.441990 0.000000
0.901968 0.441757 0.000000
0.933523 0.441544 0.000000
0.965078 0.441348 0.000000
0.996634 0.441167 0.000000
0.026185 0.503923 0.000000
0.054123 0.503923 0.000000
0.084321 0.503923 0.000000
0.116032 0.503923 0.000000
0.147625 0.503923 0.000000
0.179098 0.503923 0.000000
0.210448 0.503923 0.000000
0.241673 0.503923 0.000000
0.272774 0.503923 0.000000
0.303750 0.503923 0.000000
0.334600 0.503923 0.000000
0.365325 0.503923 0.000000
0.395927 0.503923 0.000000
0.426407 0.503923 0.000000
0.456768 0.503923 0.000000
0.487011 0.503923 0.000000
0.503923 0.490705 0.000000
0.525133 0.477326 0.000000
0.555633 0.476810 0.000000
0.586414 0.476278 0.000000
0.617969 0.475585 0.000000
0.649525 0.474975 0.000000
0.681080 0.474435 0.000000
0.712635 0.473956 0.000000
0.744191 0.473526 0.000000
0.775746 0.473140 0.000000
0.807301 0.472791 0.000000
0.838857 0.472475 0.000000
0.870412 0.472187 0.000000
0.901968 0.471924 0.000000
0.933523 0.471683 0.000000
0.965078 0.471461 0.000000
0.996634 0.471283 0.000000
0.027619 0.531534 0.000000
0.055560 0.531534 0.000000
0.085765 0.531534 0.000000
0.117491 0.531534 0.000000
0.149104 0.531534 0.000000
0.180604 0.531534 0.000000
0.211988 0.531534 0.000000
0.243255 0.531534 0.000000
0.274403 0.531534 0.000000
0.305433 0.531534 0.000000
0.336344 0.531534 0.000000
0.367136 0.531534 0.000000
0.397811 0.531534 0.000000
0.428368 0.531534 0.000000
0.458811 0.531534 0.000000
0.489141 0.531534 0.000000
0.519361 0.531534 0.000000
0.531534 0.510117 0.000000
0.555633 0.503449 0.000000
0.586414 0.502840 0.000000
0.617969 0.502065 0.000000
0.649525 0.501384 0.000000
0.681080 0.500782 0.000000
0.712635 0.500247 0.000000
0.744191 0.499768 0.000000
0.775746 0.499339 0.000000
0.807301 0.498950 0.000000
0.838857 0.498603 0.000000
0.870412 0.498497 0.000000
0.901968 0.498417 0.000000
0.933523 0.498362 0.000000
0.965078 0.498328 0.000000
0.996634 0.498312 0.000000
0.029054 0.559146 0.000000
0.056996 0.559146 0.000000
0.087209 0.559146 0.000000
0.118947 0.559146 0.000000
0.150579 0.559146 0.000000
0.182103 0.559146 0.000000
0.213518 0.559146 0.000000
0.244821 0.559146 0.000000
0.276013 0.559146 0.000000
0.307091 0.559146 0.000000
0.338057 0.559146 0.000000
0.368910 0.559146 0.000000
0.399650 0.559146 0.000000
0.430278 0.559146 0.000000
0.460797 0.559146 0.000000
0.491206 0.559146 0.000000
0.521509 0.559146 0.000000
0.555196 0.559146 0.000000
0.559146 0.533494 0.000000
0.586414 0.529472 0.000000
0.617969 0.528609 0.000000
0.649525 0.527852 0.000000
0.681080 0.527183 0.000000
0.712635 0.526785 0.000000
0.744191 0.526468 0.000000
0.775746 0.526205 0.000000
0.807301 0.525988 0.000000
0.838857 0.525810 0.000000
0.870412 0.525668 0.000000
0.901968 0.525556 0.000000
0.933523 0.525472 0.000000
0.965078 0.525410 0.000000
0.996634 0.525371 0.000000
0.030504 0.587059 0.000000
0.058443 0.587059 0.000000
0.088656 0.587059 0.000000
0.120400 0.587059 0.000000
0.152043 0.587059 0.000000
0.183584 0.587059 0.000000
0.215020 0.587059 0.000000
0.246352 0.587059 0.000000
0.277576 0.587059 0.000000
0.308694 0.587059 0.000000
0.339704 0.587059 0.000000
0.370606 0.587059 0.000000
0.401401 0.587059 0.000000
0.432089 0.587059 0.000000
0.462672 0.587059 0.000000
0.493150 0.587059 0.000000
0.523525 0.587059 0.000000
0.557296 0.587059 0.000000
0.586974 0.587059 0.000000
0.587059 0.557182 0.000000
0.617969 0.555831 0.000000
0.649525 0.555207 0.000000
0.681080 0.554680 0.000000
0.712635 0.554234 0.000000
0.744191 0.553859 0.000000
0.775746 0.553543 0.000000
0.807301 0.553278 0.000000
0.838857 0.553059 0.000000
0.870412 0.552878 0.000000
0.901968 0.552731 0.000000
0.933523 0.552615 0.000000
0.965078 0.552525 0.000000
0.996634 0.552459 0.000000
0.031989 0.615626 0.000000
0.059913 0.615626 0.000000
0.090115 0.615626 0.000000
0.121852 0.615626 0.000000
0.153493 0.615626 0.000000
0.185037 0.615626 0.000000
0.216482 0.615626 0.000000
0.247827 0.615626 0.000000
0.279071 0.615626 0.000000
0.310212 0.615626 0.000000
0.341252 0.615626 0.000000
0.372189 0.615626 0.000000
0.403023 0.615626 0.000000
0.433756 0.615626 0.000000
0.464387 0.615626 0.000000
0.494918 0.615626 0.000000
0.525350 0.615626 0.000000
0.559188 0.615626 0.000000
0.588929 0.615626 0.000000
0.615626 0.612098 0.000000
0.617969 0.583579 0.000000
0.649525 0.582864 0.000000
0.681080 0.582257 0.000000
0.712635 0.581741 0.000000
0.744191 0.581302 0.000000
0.775746 0.580930 0.000000
0.807301 0.580615 0.000000
0.838857 0.580350 0.000000
0.870412 0.580128 0.000000
0.901968 0.579944 0.000000
0.933523 0.579794 0.000000
0.965078 0.579673 0.000000
0.996634 0.579578 0.000000
0.033473 0.644193 0.000000
0.061385 0.644193 0.000000
0.091576 0.644193 0.000000
0.123307 0.644193 0.000000
0.154946 0.644193 0.000000
0.186492 0.644193 0.000000
0.217945 0.644193 0.000000
0.249302 0.644193 0.000000
0.280563 0.644193 0.000000
0.311727 0.644193 0.000000
0.342794 0.644193 0.000000
0.373762 0.644193 0.000000
0.404633 0.644193 0.000000
0.435406 0.644193 0.000000
0.466082 0.644193 0.000000
0.496661 0.644193 0.000000
0.527145 0.644193 0.000000
0.561046 0.644193 0.000000
0.590844 0.644193 0.000000
0.621330 0.644193 0.000000
0.644193 0.636250 0.000000
0.649525 0.610591 0.000000
0.681080 0.609899 0.000000
0.712635 0.609307 0.000000
0.744191 0.608801 0.000000
0.775746 0.608369 0.000000
0.807301 0.608000 0.000000
0.838857 0.607686 0.000000
0.870412 0.607420 0.000000
0.901968 0.607196 0.000000
0.933523 0.607009 0.000000
0.965078 0.606855 0.000000
0.996634 0.606729 0.000000
0.034958 0.672759 0.000000
0.062858 0.672759 0.000000
0.093040 0.672759 0.000000
0.124764 0.672759 0.000000
0.156401 0.672759 0.000000
0.187950 0.672759 0.000000
0.219410 0.672759 0.000000
0.250778 0.672759 0.000000
0.282055 0.672759 0.000000
0.313239 0.672759 0.000000
0.344330 0.672759 0.000000
0.375327 0.672759 0.000000
0.406231 0.672759 0.000000
0.437041 0.672759 0.000000
0.467758 0.672759 0.000000
0.498382 0.672759 0.000000
0.528914 0.672759 0.000000
0.562873 0.672759 0.000000
0.592725 0.672759 0.000000
0.623468 0.672759 0.000000
0.654334 0.672759 0.000000
0.672759 0.660408 0.000000
0.681080 0.637607 0.000000
0.712635 0.636935 0.000000
0.744191 0.636357 0.000000
0.775746 0.635860 0.000000
0.807301 0.635434 0.000000
0.838857 0.635068 0.000000
0.870412 0.634755 0.000000
0.901968 0.634488 0.000000
0.933523 0.634262 0.000000
0.965078 0.634073 0.000000
0.996634 0.633915 0.000000
0.036442 0.701326 0.000000
0.064331 0.701326 0.000000
0.094505 0.701326 0.000000
0.126223 0.701326 0.000000
0.157859 0.701326 0.000000
0.189410 0.701326 0.000000
0.220876 0.701326 0.000000
0.252255 0.701326 0.000000
0.283546 0.701326 0.000000
0.314748 0.701326 0.000000
0.345861 0.701326 0.000000
0.376885 0.701326 0.000000
0.407819 0.701326 0.000000
0.438663 0.701326 0.000000
0.469417 0.701326 0.000000
0.500083 0.701326 0.000000
0.530660 0.701326 0.000000
0.564672 0.701326 0.000000
0.594575 0.701326 0.000000
0.625571 0.701326 0.000000
0.656494 0.701326 0.000000
0.687330 0.701326 0.000000
0.701326 0.684571 0.000000
0.712635 0.664625 0.000000
0.744191 0.663972 0.000000
0.775746 0.663407 0.000000
0.807301 0.662919 0.000000
0.838857 0.662498 0.000000
0.870412 0.662135 0.000000
0.901968 0.661822 0.000000
0.933523 0.661555 0.000000
0.965078 0.661328 0.000000
0.996634 0.661135 0.000000
0.037926 0.729893 0.000000
0.065806 0.729893 0.000000
0.095971 0.729893 0.000000
0.127685 0.729893 0.000000
0.159319 0.729893 0.000000
0.190872 0.729893 0.000000
0.222343 0.729893 0.000000
0.253731 0.729893 0.000000
0.285035 0.729893 0.000000
0.316254 0.729893 0.000000
0.347388 0.729893 0.000000
0.378436 0.729893 0.000000
0.409398 0.729893 0.000000
0.440273 0.729893 0.000000
0.471063 0.729893 0.000000
0.501766 0.729893 0.000000
0.532385 0.729893 0.000000
0.566447 0.729893 0.000000
0.596582 0.729893 0.000000
0.627644 0.729893 0.000000
0.658620 0.729893 0.000000
0.689511 0.729893 0.000000
0.720320 0.729893 0.000000
0.729893 0.708738 0.000000
