docs/luts/fuji_recipes/Classic_DC_Classic_Chrome_II.cube
TITLE "Fujifilm Recipe: DC Classic Chrome II (Classic)"
# FilmSim=Classic HL=0 SH=0 Col=3 WB=Auto WBR=0 WBB=0
LUT_3D_SIZE 5
DOMAIN_MIN 0.0 0.0 0.0
DOMAIN_MAX 1.0 1.0 1.0
0.000000 0.000000 0.000000
0.248000 0.000000 0.000000
0.496000 0.000000 0.000000
0.744000 0.000000 0.000000
0.988000 0.000000 0.000000
0.000000 0.246736 0.000000
0.248000 0.246736 0.000000
0.496000 0.246736 0.000000
0.744000 0.246736 0.000000
0.988000 0.246736 0.000000
0.000000 0.493699 0.000000
0.248000 0.493699 0.000000
0.496000 0.493699 0.000000
0.744000 0.493699 0.000000
0.988000 0.493699 0.000000
0.000000 0.740717 0.000000
0.248000 0.740717 0.000000
0.496000 0.740717 0.000000
0.744000 0.740717 0.000000
0.988000 0.740717 0.000000
0.000000 0.983697 0.000000
0.248000 0.983697 0.000000
0.496000 0.983697 0.000000
0.744000 0.983697 0.000000
0.988000 0.983697 0.000000
0.000000 0.000000 0.244184
0.248000 0.000000 0.244184
0.496000 0.000000 0.244184
0.744000 0.000000 0.244184
0.988000 0.000000 0.244184
0.000000 0.246736 0.244184
0.248237 0.246816 0.243947
0.511638 0.231415 0.228547
0.775039 0.216014 0.213146
1.000000 0.234818 0.232184
0.000000 0.493699 0.244184
0.232979 0.509194 0.228689
0.511638 0.509051 0.228547
0.775039 0.493650 0.213146
1.000000 0.489750 0.232184
0.000000 0.740717 0.244184
0.217639 0.771551 0.213350
0.496441 0.771551 0.213350
0.775039 0.771348 0.213146
1.000000 0.744738 0.232184
0.000000 0.983697 0.244184
0.231865 1.000000 0.227881
0.490800 1.000000 0.227881
0.749734 1.000000 0.227881
1.000000 0.995558 0.232184
0.000000 0.000000 0.489057
0.248000 0.000000 0.489057
0.496000 0.000000 0.489057
0.744000 0.000000 0.489057
0.988000 0.000000 0.489057
0.000000 0.246736 0.489057
0.233109 0.231687 0.504105
0.511479 0.231256 0.503674
0.774880 0.215856 0.488273
1.000000 0.234736 0.484902
0.000000 0.493699 0.489057
0.232742 0.508957 0.503738
0.496431 0.493845 0.488626
0.759832 0.478444 0.473225
1.000000 0.481923 0.477057
0.000000 0.740717 0.489057
0.217402 0.771314 0.488398
0.481234 0.756345 0.473429
0.759832 0.756141 0.473225
1.000000 0.740822 0.477057
0.000000 0.983697 0.489057
0.231697 1.000000 0.483437
0.480155 1.000000 0.472754
0.744502 1.000000 0.472754
1.000000 0.995490 0.477057
0.000000 0.000000 0.734092
0.248000 0.000000 0.734092
0.496000 0.000000 0.734092
0.744000 0.000000 0.734092
0.988000 0.000000 0.734092
0.000000 0.246736 0.734092
0.217892 0.216471 0.764356
0.496694 0.216471 0.764356
0.774880 0.215856 0.763741
1.000000 0.234736 0.737871
0.000000 0.493699 0.734092
0.217814 0.494029 0.764278
0.481357 0.478771 0.749020
0.759544 0.478156 0.748405
1.000000 0.481699 0.733764
0.000000 0.740717 0.734092
0.217402 0.771314 0.763867
0.480803 0.755914 0.748466
0.744615 0.740924 0.733476
1.000000 0.729343 0.722092
0.000000 0.983697 0.734092
0.231697 1.000000 0.739332
0.479697 1.000000 0.733707
0.729730 0.999198 0.718591
1.000000 0.995290 0.722092
0.000000 0.000000 0.975015
0.248000 0.000000 0.975015
0.496000 0.000000 0.975015
0.744000 0.000000 0.975015
0.988000 0.000000 0.975015
0.000000 0.246736 0.975015
0.223101 0.221750 1.000000
0.488118 0.221750 1.000000
0.753134 0.221750 1.000000
1.000000 0.234736 0.986594
0.000000 0.493699 0.975015
0.223015 0.485602 1.000000
0.471253 0.468714 1.000000
0.745001 0.468714 1.000000
1.000000 0.481699 0.986384
0.000000 0.740717 0.975015
0.223015 0.749598 1.000000
0.471015 0.741260 1.000000
0.729858 0.726167 0.989564
1.000000 0.728717 0.985754
0.000000 0.983697 0.975015
0.231697 1.000000 0.990933
0.479697 1.000000 0.990737
0.729115 0.998582 0.988821
0.988806 0.983969 0.974208
