docs/luts/fuji_recipes/Classic_PE_Chrome_Eggleston.cube
TITLE "Fujifilm Recipe: PE Chrome Eggleston (Classic)"
# FilmSim=Classic HL=2 SH=2 Col=-2 WB=Auto WBR=0 WBB=0
LUT_3D_SIZE 5
DOMAIN_MIN 0.0 0.0 0.0
DOMAIN_MAX 1.0 1.0 1.0
0.000000 0.000000 0.000000
0.167378 0.060782 0.060782
0.334756 0.121564 0.121564
0.553770 0.193680 0.193680
0.746139 0.259560 0.259560
0.060472 0.166525 0.060472
0.167378 0.166835 0.060782
0.334756 0.227617 0.121564
0.553770 0.299733 0.193680
0.746139 0.365613 0.259560
0.121000 0.333204 0.121000
0.227596 0.333204 0.121000
0.334756 0.333767 0.121564
0.553770 0.405884 0.193680
0.746139 0.471764 0.259560
0.192794 0.551181 0.192794
0.299390 0.551181 0.192794
0.405986 0.551181 0.192794
0.553770 0.552113 0.193680
0.746139 0.621366 0.259560
0.258398 0.742747 0.258398
0.364995 0.742747 0.258398
0.471591 0.742747 0.258398
0.621801 0.742747 0.258398
0.746139 0.743968 0.259560
0.059847 0.059847 0.164803
0.167378 0.060782 0.165738
0.334756 0.121564 0.226520
0.553770 0.193680 0.298636
0.746139 0.259560 0.364516
0.060472 0.166525 0.165428
0.227225 0.226681 0.225585
0.394603 0.287463 0.286367
0.617941 0.360529 0.359432
0.810311 0.426409 0.425312
0.121000 0.333204 0.225956
0.287443 0.393050 0.285803
0.394603 0.393614 0.286367
0.617941 0.466680 0.359432
0.810311 0.560899 0.425312
0.192794 0.551181 0.297750
0.360186 0.615353 0.358546
0.466782 0.615353 0.358546
0.617941 0.616285 0.359432
0.810311 0.685538 0.425312
0.258398 0.742747 0.363355
0.425791 0.806918 0.424151
0.560838 0.806918 0.424151
0.685973 0.806918 0.424151
0.810311 0.808140 0.425312
0.119862 0.119862 0.330070
0.226458 0.119862 0.330070
0.334756 0.121564 0.331772
0.553770 0.193680 0.403888
0.746139 0.259560 0.469768
0.119862 0.225915 0.330070
0.286930 0.286387 0.390542
0.395228 0.288088 0.392244
0.618612 0.361164 0.465320
0.810981 0.427044 0.559227
0.121000 0.333204 0.331208
0.288378 0.393985 0.391990
0.454618 0.453629 0.451634
0.690170 0.563874 0.561532
0.883488 0.634076 0.631733
0.192794 0.551181 0.403002
0.361136 0.616355 0.464748
0.564090 0.687568 0.560587
0.690170 0.688513 0.561532
0.883488 0.758715 0.631733
0.258398 0.742747 0.468607
0.426741 0.807921 0.558338
0.633999 0.880079 0.630495
0.759134 0.880079 0.630495
0.883488 0.881317 0.631733
0.191005 0.191005 0.545958
0.297601 0.191005 0.545958
0.404197 0.191005 0.545958
0.553770 0.193680 0.548770
0.746139 0.259560 0.618023
0.191005 0.297058 0.545958
0.359032 0.358489 0.610800
0.465629 0.358489 0.610800
0.618612 0.361164 0.613612
0.810981 0.427044 0.682865
0.191005 0.403209 0.545958
0.359347 0.464955 0.611132
0.563520 0.562359 0.683655
0.691505 0.565210 0.686506
0.884824 0.635411 0.756708
0.192794 0.551181 0.547838
0.361136 0.616355 0.613013
0.566088 0.689566 0.686223
0.760669 0.759013 0.755670
0.953988 0.829214 0.825871
0.258398 0.742747 0.616802
0.426741 0.807921 0.681976
0.635996 0.882077 0.756132
0.829633 0.950578 0.824633
0.953988 0.951816 0.825871
0.256054 0.256054 0.735901
0.362650 0.256054 0.735901
0.469247 0.256054 0.735901
0.619337 0.256054 0.735901
0.746139 0.259560 0.739587
0.256054 0.362107 0.735901
0.424082 0.423538 0.800744
0.559044 0.423538 0.800744
0.684179 0.423538 0.800744
0.810981 0.427044 0.804429
0.256054 0.468258 0.735901
0.424396 0.558216 0.801076
0.632836 0.631675 0.874536
0.757971 0.631675 0.874536
0.884824 0.635411 0.878272
0.256054 0.617680 0.735901
0.424396 0.682855 0.801076
0.633498 0.756976 0.875197
0.829041 0.827384 0.945605
0.955894 0.831120 0.949341
0.258398 0.742747 0.738366
0.426741 0.807921 0.803540
0.635996 0.882077 0.877696
0.832484 0.953429 0.949048
1.000000 1.000000 1.000000
