docs/luts/fuji_recipes/Classic_RR_Kodacolor_S__Shore.cube
TITLE "Fujifilm Recipe: RR Kodacolor S. Shore (Classic)"
# FilmSim=Classic HL=-1 SH=2 Col=0 WB=6300K WBR=-1 WBB=-4
LUT_3D_SIZE 33
DOMAIN_MIN 0.0 0.0 0.0
DOMAIN_MAX 1.0 1.0 1.0
0.000000 0.000000 0.000000
0.040028 0.006247 0.006247
0.070564 0.011013 0.011013
0.100590 0.015699 0.015699
0.130615 0.020385 0.020385
0.160641 0.025071 0.025071
0.190667 0.029757 0.029757
0.220693 0.034443 0.034443
0.250719 0.039129 0.039129
0.280744 0.043816 0.043816
0.310770 0.048502 0.048502
0.340796 0.053188 0.053188
0.370822 0.057874 0.057874
0.403932 0.063041 0.063041
0.433474 0.067652 0.067652
0.503081 0.072262 0.072262
0.533264 0.076873 0.076873
0.563448 0.081484 0.081484
0.593632 0.086094 0.086094
0.623816 0.090705 0.090705
0.653999 0.095315 0.095315
0.684183 0.099926 0.099926
0.714367 0.104536 0.104536
0.744551 0.109147 0.109147
0.774734 0.113757 0.113757
0.804918 0.118368 0.118368
0.813503 0.119679 0.119679
0.813503 0.119679 0.119679
0.813503 0.119679 0.119679
0.813503 0.119679 0.119679
0.813503 0.119679 0.119679
0.813503 0.119679 0.119679
0.813503 0.119679 0.119679
0.005986 0.038355 0.005986
0.040028 0.038616 0.006247
0.070564 0.043382 0.011013
0.100590 0.048068 0.015699
0.130615 0.052754 0.020385
0.160641 0.057440 0.025071
0.190667 0.062126 0.029757
0.220693 0.066812 0.034443
0.250719 0.071499 0.039129
0.280744 0.076185 0.043816
0.310770 0.080871 0.048502
0.340796 0.085557 0.053188
0.370822 0.090243 0.057874
0.403932 0.095410 0.063041
0.433474 0.100021 0.067652
0.503081 0.104632 0.072262
0.533264 0.109242 0.076873
0.563448 0.113853 0.081484
0.593632 0.118463 0.086094
0.623816 0.123074 0.090705
0.653999 0.127684 0.095315
0.684183 0.132295 0.099926
0.714367 0.136905 0.104536
0.744551 0.141516 0.109147
0.774734 0.146126 0.113757
0.804918 0.150737 0.118368
0.813503 0.152048 0.119679
0.813503 0.152048 0.119679
0.813503 0.152048 0.119679
0.813503 0.152048 0.119679
0.813503 0.152048 0.119679
0.813503 0.152048 0.119679
0.813503 0.152048 0.119679
0.010718 0.068673 0.010718
0.044499 0.068673 0.010718
0.070564 0.068968 0.011013
0.100590 0.073654 0.015699
0.130615 0.078340 0.020385
0.160641 0.083026 0.025071
0.190667 0.087712 0.029757
0.220693 0.092398 0.034443
0.250719 0.097084 0.039129
0.280744 0.101770 0.043816
0.310770 0.106457 0.048502
0.340796 0.111143 0.053188
0.370822 0.115829 0.057874
0.403932 0.120996 0.063041
0.433474 0.125607 0.067652
0.503081 0.130217 0.072262
0.533264 0.134828 0.076873
0.563448 0.139438 0.081484
0.593632 0.144049 0.086094
0.623816 0.148659 0.090705
0.653999 0.153270 0.095315
0.684183 0.157881 0.099926
0.714367 0.162491 0.104536
0.744551 0.167102 0.109147
0.774734 0.171712 0.113757
0.804918 0.176323 0.118368
0.813503 0.177634 0.119679
0.813503 0.177634 0.119679
0.813503 0.177634 0.119679
0.813503 0.177634 0.119679
0.813503 0.177634 0.119679
0.813503 0.177634 0.119679
0.813503 0.177634 0.119679
0.015370 0.098484 0.015370
0.049151 0.098484 0.015370
0.074921 0.098484 0.015370
0.100590 0.098813 0.015699
0.130615 0.103499 0.020385
0.160641 0.108185 0.025071
0.190667 0.112871 0.029757
0.220693 0.117557 0.034443
0.250719 0.122243 0.039129
0.280744 0.126929 0.043816
0.310770 0.131615 0.048502
0.340796 0.136302 0.053188
0.370822 0.140988 0.057874
0.403932 0.146155 0.063041
0.433474 0.150766 0.067652
0.503081 0.155376 0.072262
0.533264 0.159987 0.076873
0.563448 0.164597 0.081484
0.593632 0.169208 0.086094
0.623816 0.173818 0.090705
0.653999 0.178429 0.095315
0.684183 0.183039 0.099926
0.714367 0.187650 0.104536
0.744551 0.192260 0.109147
0.774734 0.196871 0.113757
0.804918 0.201482 0.118368
0.813503 0.202793 0.119679
0.813503 0.202793 0.119679
0.813503 0.202793 0.119679
0.813503 0.202793 0.119679
0.813503 0.202793 0.119679
0.813503 0.202793 0.119679
0.813503 0.202793 0.119679
0.020023 0.128296 0.020023
0.053804 0.128296 0.020023
0.079574 0.128296 0.020023
0.104914 0.128296 0.020023
0.130615 0.128658 0.020385
0.160641 0.133344 0.025071
0.190667 0.138030 0.029757
0.220693 0.142716 0.034443
0.250719 0.147402 0.039129
0.280744 0.152088 0.043816
0.310770 0.156774 0.048502
0.340796 0.161460 0.053188
0.370822 0.166147 0.057874
0.403932 0.171314 0.063041
0.433474 0.175925 0.067652
0.503081 0.180535 0.072262
0.533264 0.185146 0.076873
0.563448 0.189756 0.081484
0.593632 0.194367 0.086094
0.623816 0.198977 0.090705
0.653999 0.203588 0.095315
0.684183 0.208198 0.099926
0.714367 0.212809 0.104536
0.744551 0.217419 0.109147
0.774734 0.222030 0.113757
0.804918 0.226640 0.118368
0.813503 0.227952 0.119679
0.813503 0.227952 0.119679
0.813503 0.227952 0.119679
0.813503 0.227952 0.119679
0.813503 0.227952 0.119679
0.813503 0.227952 0.119679
0.813503 0.227952 0.119679
0.024676 0.158107 0.024676
0.058457 0.158107 0.024676
0.084227 0.158107 0.024676
0.109566 0.158107 0.024676
0.134906 0.158107 0.024676
0.160641 0.158503 0.025071
0.190667 0.163189 0.029757
0.220693 0.167875 0.034443
0.250719 0.172561 0.039129
0.280744 0.177247 0.043816
0.310770 0.181933 0.048502
0.340796 0.186619 0.053188
0.370822 0.191305 0.057874
0.403932 0.196473 0.063041
0.433474 0.201083 0.067652
0.503081 0.205694 0.072262
0.533264 0.210305 0.076873
0.563448 0.214915 0.081484
0.593632 0.219526 0.086094
0.623816 0.224136 0.090705
0.653999 0.228747 0.095315
0.684183 0.233357 0.099926
0.714367 0.237968 0.104536
0.744551 0.242578 0.109147
0.774734 0.247189 0.113757
0.804918 0.251799 0.118368
0.813503 0.253111 0.119679
0.813503 0.253111 0.119679
0.813503 0.253111 0.119679
0.813503 0.253111 0.119679
0.813503 0.253111 0.119679
0.813503 0.253111 0.119679
0.813503 0.253111 0.119679
0.029328 0.187919 0.029328
0.063110 0.187919 0.029328
0.088879 0.187919 0.029328
0.114219 0.187919 0.029328
0.139559 0.187919 0.029328
0.164898 0.187919 0.029328
0.190667 0.188348 0.029757
0.220693 0.193034 0.034443
0.250719 0.197720 0.039129
0.280744 0.202406 0.043816
0.310770 0.207092 0.048502
0.340796 0.211778 0.053188
0.370822 0.216464 0.057874
0.403932 0.221632 0.063041
0.433474 0.226242 0.067652
0.503081 0.230853 0.072262
0.533264 0.235463 0.076873
0.563448 0.240074 0.081484
0.593632 0.244684 0.086094
0.623816 0.249295 0.090705
0.653999 0.253905 0.095315
0.684183 0.258516 0.099926
0.714367 0.263127 0.104536
0.744551 0.267737 0.109147
0.774734 0.272348 0.113757
0.804918 0.276958 0.118368
0.813503 0.278270 0.119679
0.813503 0.278270 0.119679
0.813503 0.278270 0.119679
0.813503 0.278270 0.119679
0.813503 0.278270 0.119679
0.813503 0.278270 0.119679
0.813503 0.278270 0.119679
0.033981 0.217730 0.033981
0.067762 0.217730 0.033981
0.093532 0.217730 0.033981
0.118872 0.217730 0.033981
0.144211 0.217730 0.033981
0.169551 0.217730 0.033981
0.194891 0.217730 0.033981
0.220693 0.218193 0.034443
0.250719 0.222879 0.039129
0.280744 0.227565 0.043816
0.310770 0.232251 0.048502
0.340796 0.236937 0.053188
0.370822 0.241623 0.057874
0.403932 0.246791 0.063041
0.433474 0.251401 0.067652
0.503081 0.256012 0.072262
0.533264 0.260622 0.076873
0.563448 0.265233 0.081484
0.593632 0.269843 0.086094
0.623816 0.274454 0.090705
0.653999 0.279064 0.095315
0.684183 0.283675 0.099926
0.714367 0.288285 0.104536
0.744551 0.292896 0.109147
0.774734 0.297506 0.113757
0.804918 0.302117 0.118368
0.813503 0.303428 0.119679
0.813503 0.303428 0.119679
0.813503 0.303428 0.119679
0.813503 0.303428 0.119679
0.813503 0.303428 0.119679
0.813503 0.303428 0.119679
0.813503 0.303428 0.119679
0.038634 0.247542 0.038634
0.072415 0.247542 0.038634
0.098185 0.247542 0.038634
0.123524 0.247542 0.038634
0.148864 0.247542 0.038634
0.174204 0.247542 0.038634
0.199543 0.247542 0.038634
0.224883 0.247542 0.038634
0.250719 0.248038 0.039129
0.280744 0.252724 0.043816
0.310770 0.257410 0.048502
0.340796 0.262096 0.053188
0.370822 0.266782 0.057874
0.403932 0.271950 0.063041
0.433474 0.276560 0.067652
0.503081 0.281171 0.072262
0.533264 0.285781 0.076873
0.563448 0.290392 0.081484
0.593632 0.295002 0.086094
0.623816 0.299613 0.090705
0.653999 0.304223 0.095315
0.684183 0.308834 0.099926
0.714367 0.313444 0.104536
0.744551 0.318055 0.109147
0.774734 0.322665 0.113757
0.804918 0.327276 0.118368
0.813503 0.328587 0.119679
0.813503 0.328587 0.119679
0.813503 0.328587 0.119679
0.813503 0.328587 0.119679
0.813503 0.328587 0.119679
0.813503 0.328587 0.119679
0.813503 0.328587 0.119679
0.043286 0.277353 0.043286
0.077068 0.277353 0.043286
0.102837 0.277353 0.043286
0.128177 0.277353 0.043286
0.153517 0.277353 0.043286
0.178856 0.277353 0.043286
0.204196 0.277353 0.043286
0.229536 0.277353 0.043286
0.254875 0.277353 0.043286
0.280744 0.277883 0.043816
0.310770 0.282569 0.048502
0.340796 0.287255 0.053188
0.370822 0.291941 0.057874
0.403932 0.297108 0.063041
0.433474 0.301719 0.067652
0.503081 0.306329 0.072262
0.533264 0.310940 0.076873
0.563448 0.315551 0.081484
0.593632 0.320161 0.086094
0.623816 0.324772 0.090705
0.653999 0.329382 0.095315
0.684183 0.333993 0.099926
0.714367 0.338603 0.104536
0.744551 0.343214 0.109147
0.774734 0.347824 0.113757
0.804918 0.352435 0.118368
0.813503 0.353746 0.119679
0.813503 0.353746 0.119679
0.813503 0.353746 0.119679
0.813503 0.353746 0.119679
0.813503 0.353746 0.119679
0.813503 0.353746 0.119679
0.813503 0.353746 0.119679
0.047939 0.307165 0.047939
0.081720 0.307165 0.047939
0.107490 0.307165 0.047939
0.132830 0.307165 0.047939
0.158169 0.307165 0.047939
0.183509 0.307165 0.047939
0.208849 0.307165 0.047939
0.234188 0.307165 0.047939
0.259528 0.307165 0.047939
0.284868 0.307165 0.047939
0.310770 0.307728 0.048502
0.340796 0.312414 0.053188
0.370822 0.317100 0.057874
0.403932 0.322267 0.063041
0.433474 0.326878 0.067652
0.503081 0.331488 0.072262
0.533264 0.336099 0.076873
0.563448 0.340709 0.081484
0.593632 0.345320 0.086094
0.623816 0.349930 0.090705
0.653999 0.354541 0.095315
0.684183 0.359152 0.099926
0.714367 0.363762 0.104536
0.744551 0.368373 0.109147
0.774734 0.372983 0.113757
0.804918 0.377594 0.118368
0.813503 0.378905 0.119679
0.813503 0.378905 0.119679
0.813503 0.378905 0.119679
0.813503 0.378905 0.119679
0.813503 0.378905 0.119679
0.813503 0.378905 0.119679
0.813503 0.378905 0.119679
0.052592 0.336976 0.052592
0.086373 0.336976 0.052592
0.112143 0.336976 0.052592
0.137482 0.336976 0.052592
0.162822 0.336976 0.052592
0.188162 0.336976 0.052592
0.213501 0.336976 0.052592
0.238841 0.336976 0.052592
0.264181 0.336976 0.052592
0.289521 0.336976 0.052592
0.314860 0.336976 0.052592
0.340796 0.337573 0.053188
0.370822 0.342259 0.057874
0.403932 0.347426 0.063041
0.433474 0.352037 0.067652
0.503081 0.356647 0.072262
0.533264 0.361258 0.076873
0.563448 0.365868 0.081484
0.593632 0.370479 0.086094
0.623816 0.375089 0.090705
0.653999 0.379700 0.095315
0.684183 0.384310 0.099926
0.714367 0.388921 0.104536
0.744551 0.393531 0.109147
0.774734 0.398142 0.113757
0.804918 0.402753 0.118368
0.813503 0.404064 0.119679
0.813503 0.404064 0.119679
0.813503 0.404064 0.119679
0.813503 0.404064 0.119679
0.813503 0.404064 0.119679
0.813503 0.404064 0.119679
0.813503 0.404064 0.119679
0.057244 0.366788 0.057244
0.091026 0.366788 0.057244
0.116795 0.366788 0.057244
0.142135 0.366788 0.057244
0.167475 0.366788 0.057244
0.192814 0.366788 0.057244
0.218154 0.366788 0.057244
0.243494 0.366788 0.057244
0.268833 0.366788 0.057244
0.294173 0.366788 0.057244
0.319513 0.366788 0.057244
0.344853 0.366788 0.057244
0.370822 0.367418 0.057874
0.403932 0.372585 0.063041
0.433474 0.377196 0.067652
0.503081 0.381806 0.072262
0.533264 0.386417 0.076873
0.563448 0.391027 0.081484
0.593632 0.395638 0.086094
0.623816 0.400248 0.090705
0.653999 0.404859 0.095315
0.684183 0.409469 0.099926
0.714367 0.414080 0.104536
0.744551 0.418690 0.109147
0.774734 0.423301 0.113757
0.804918 0.427911 0.118368
0.813503 0.429223 0.119679
0.813503 0.429223 0.119679
0.813503 0.429223 0.119679
0.813503 0.429223 0.119679
0.813503 0.429223 0.119679
0.813503 0.429223 0.119679
0.813503 0.429223 0.119679
0.062389 0.399752 0.062389
0.096170 0.399752 0.062389
0.121940 0.399752 0.062389
0.147280 0.399752 0.062389
0.172619 0.399752 0.062389
0.197959 0.399752 0.062389
0.223299 0.399752 0.062389
0.248639 0.399752 0.062389
0.273978 0.399752 0.062389
0.299318 0.399752 0.062389
0.324658 0.399752 0.062389
0.349997 0.399752 0.062389
0.375337 0.399752 0.062389
0.403932 0.400405 0.063041
0.433474 0.405015 0.067652
0.503081 0.409626 0.072262
0.533264 0.414236 0.076873
0.563448 0.418847 0.081484
0.593632 0.423457 0.086094
0.623816 0.428068 0.090705
0.653999 0.432678 0.095315
0.684183 0.437289 0.099926
0.714367 0.441899 0.104536
0.744551 0.446510 0.109147
0.774734 0.451121 0.113757
0.804918 0.455731 0.118368
0.813503 0.457042 0.119679
0.813503 0.457042 0.119679
0.813503 0.457042 0.119679
0.813503 0.457042 0.119679
0.813503 0.457042 0.119679
0.813503 0.457042 0.119679
0.813503 0.457042 0.119679
0.066967 0.429083 0.066967
0.100748 0.429083 0.066967
0.126518 0.429083 0.066967
0.151857 0.429083 0.066967
0.177197 0.429083 0.066967
0.202537 0.429083 0.066967
0.227876 0.429083 0.066967
0.253216 0.429083 0.066967
0.278556 0.429083 0.066967
0.303896 0.429083 0.066967
0.329235 0.429083 0.066967
0.354575 0.429083 0.066967
0.379915 0.429083 0.066967
0.407857 0.429083 0.066967
0.433474 0.429768 0.067652
0.503081 0.434379 0.072262
0.533264 0.438989 0.076873
0.563448 0.443600 0.081484
0.593632 0.448210 0.086094
0.623816 0.452821 0.090705
0.653999 0.457431 0.095315
0.684183 0.502086 0.099926
0.714367 0.506797 0.104536
0.744551 0.511508 0.109147
0.774734 0.516219 0.113757
0.804918 0.520929 0.118368
0.813503 0.522269 0.119679
0.813503 0.522269 0.119679
0.813503 0.522269 0.119679
0.813503 0.522269 0.119679
0.813503 0.522269 0.119679
0.813503 0.522269 0.119679
0.813503 0.522269 0.119679
0.071544 0.458414 0.071544
0.105326 0.458414 0.071544
0.131095 0.458414 0.071544
0.156435 0.458414 0.071544
0.181775 0.458414 0.071544
0.207114 0.458414 0.071544
0.232454 0.458414 0.071544
0.257794 0.458414 0.071544
0.283133 0.458414 0.071544
0.308473 0.458414 0.071544
0.333813 0.458414 0.071544
0.359153 0.458414 0.071544
0.384492 0.458414 0.071544
0.412435 0.458414 0.071544
0.437366 0.458414 0.071544
0.503081 0.459132 0.072262
0.533264 0.503824 0.076873
0.563448 0.508535 0.081484
0.593632 0.513245 0.086094
0.623816 0.517956 0.090705
0.653999 0.522667 0.095315
0.684183 0.527378 0.099926
0.714367 0.532088 0.104536
0.744551 0.536799 0.109147
0.774734 0.541510 0.113757
0.804918 0.546221 0.118368
0.813503 0.547561 0.119679
0.813503 0.547561 0.119679
0.813503 0.547561 0.119679
0.813503 0.547561 0.119679
0.813503 0.547561 0.119679
0.813503 0.547561 0.119679
0.813503 0.547561 0.119679
0.076122 0.528348 0.076122
0.109903 0.528348 0.076122
0.135673 0.528348 0.076122
0.161013 0.528348 0.076122
0.186352 0.528348 0.076122
0.211692 0.528348 0.076122
0.237032 0.528348 0.076122
0.262371 0.528348 0.076122
0.287711 0.528348 0.076122
0.313051 0.528348 0.076122
0.338391 0.528348 0.076122
0.363730 0.528348 0.076122
0.389070 0.528348 0.076122
0.417013 0.528348 0.076122
0.441944 0.528348 0.076122
0.507024 0.528348 0.076122
0.533264 0.529115 0.076873
0.563448 0.533826 0.081484
0.593632 0.538537 0.086094
0.623816 0.543247 0.090705
0.653999 0.547958 0.095315
0.684183 0.552669 0.099926
0.714367 0.557380 0.104536
0.744551 0.562090 0.109147
0.774734 0.566801 0.113757
0.804918 0.571512 0.118368
0.813503 0.572852 0.119679
0.813503 0.572852 0.119679
0.813503 0.572852 0.119679
0.813503 0.572852 0.119679
0.813503 0.572852 0.119679
0.813503 0.572852 0.119679
0.813503 0.572852 0.119679
0.080700 0.558316 0.080700
0.114481 0.558316 0.080700
0.140250 0.558316 0.080700
0.165590 0.558316 0.080700
0.190930 0.558316 0.080700
0.216270 0.558316 0.080700
0.241609 0.558316 0.080700
0.266949 0.558316 0.080700
0.292289 0.558316 0.080700
0.317628 0.558316 0.080700
0.342968 0.558316 0.080700
0.368308 0.558316 0.080700
0.393648 0.558316 0.080700
0.421590 0.558316 0.080700
0.446521 0.558316 0.080700
0.511701 0.558316 0.080700
0.537174 0.558316 0.080700
0.563448 0.559117 0.081484
0.593632 0.563828 0.086094
0.623816 0.568538 0.090705
0.653999 0.573249 0.095315
0.684183 0.577960 0.099926
0.714367 0.582671 0.104536
0.744551 0.587382 0.109147
0.774734 0.592092 0.113757
0.804918 0.596803 0.118368
0.813503 0.598143 0.119679
0.813503 0.598143 0.119679
0.813503 0.598143 0.119679
0.813503 0.598143 0.119679
0.813503 0.598143 0.119679
0.813503 0.598143 0.119679
0.813503 0.598143 0.119679
0.085277 0.588284 0.085277
0.119058 0.588284 0.085277
0.144828 0.588284 0.085277
0.170168 0.588284 0.085277
0.195508 0.588284 0.085277
0.220847 0.588284 0.085277
0.246187 0.588284 0.085277
0.271527 0.588284 0.085277
0.296866 0.588284 0.085277
0.322206 0.588284 0.085277
0.347546 0.588284 0.085277
0.372885 0.588284 0.085277
0.398225 0.588284 0.085277
0.426168 0.588284 0.085277
0.451099 0.588284 0.085277
0.516378 0.588284 0.085277
0.541851 0.588284 0.085277
0.567324 0.588284 0.085277
0.593632 0.589119 0.086094
0.623816 0.593830 0.090705
0.653999 0.598540 0.095315
0.684183 0.603251 0.099926
0.714367 0.607962 0.104536
0.744551 0.612673 0.109147
0.774734 0.617383 0.113757
0.804918 0.622094 0.118368
0.813503 0.623434 0.119679
0.813503 0.623434 0.119679
0.813503 0.623434 0.119679
0.813503 0.623434 0.119679
0.813503 0.623434 0.119679
0.813503 0.623434 0.119679
0.813503 0.623434 0.119679
0.089855 0.618253 0.089855
0.123636 0.618253 0.089855
0.149406 0.618253 0.089855
0.174745 0.618253 0.089855
0.200085 0.618253 0.089855
0.225425 0.618253 0.089855
0.250765 0.618253 0.089855
0.276104 0.618253 0.089855
0.301444 0.618253 0.089855
0.326784 0.618253 0.089855
0.352123 0.618253 0.089855
0.377463 0.618253 0.089855
0.402803 0.618253 0.089855
0.430745 0.618253 0.089855
0.455676 0.618253 0.089855
0.521055 0.618253 0.089855
0.546528 0.618253 0.089855
0.572001 0.618253 0.089855
0.597474 0.618253 0.089855
0.623816 0.619121 0.090705
0.653999 0.623832 0.095315
0.684183 0.628542 0.099926
0.714367 0.633253 0.104536
0.744551 0.637964 0.109147
0.774734 0.642675 0.113757
0.804918 0.647385 0.118368
0.813503 0.648725 0.119679
0.813503 0.648725 0.119679
0.813503 0.648725 0.119679
0.813503 0.648725 0.119679
0.813503 0.648725 0.119679
0.813503 0.648725 0.119679
0.813503 0.648725 0.119679
0.094432 0.648221 0.094432
0.128214 0.648221 0.094432
0.153983 0.648221 0.094432
0.179323 0.648221 0.094432
0.204663 0.648221 0.094432
0.230002 0.648221 0.094432
0.255342 0.648221 0.094432
0.280682 0.648221 0.094432
0.306022 0.648221 0.094432
0.331361 0.648221 0.094432
0.356701 0.648221 0.094432
0.382041 0.648221 0.094432
0.407380 0.648221 0.094432
0.435323 0.648221 0.094432
0.500260 0.648221 0.094432
0.525733 0.648221 0.094432
0.551206 0.648221 0.094432
0.576679 0.648221 0.094432
0.602152 0.648221 0.094432
0.627625 0.648221 0.094432
0.653999 0.649123 0.095315
0.684183 0.653834 0.099926
0.714367 0.658544 0.104536
0.744551 0.663255 0.109147
0.774734 0.667966 0.113757
0.804918 0.672677 0.118368
0.813503 0.674017 0.119679
0.813503 0.674017 0.119679
0.813503 0.674017 0.119679
0.813503 0.674017 0.119679
0.813503 0.674017 0.119679
0.813503 0.674017 0.119679
0.813503 0.674017 0.119679
0.099010 0.678189 0.099010
0.132791 0.678189 0.099010
0.158561 0.678189 0.099010
0.183901 0.678189 0.099010
0.209240 0.678189 0.099010
0.234580 0.678189 0.099010
0.259920 0.678189 0.099010
0.285260 0.678189 0.099010
0.310599 0.678189 0.099010
0.335939 0.678189 0.099010
0.361279 0.678189 0.099010
0.386618 0.678189 0.099010
0.411958 0.678189 0.099010
0.439901 0.678189 0.099010
0.504937 0.678189 0.099010
0.530410 0.678189 0.099010
0.555883 0.678189 0.099010
0.581356 0.678189 0.099010
0.606829 0.678189 0.099010
0.632302 0.678189 0.099010
0.657775 0.678189 0.099010
0.684183 0.679125 0.099926
0.714367 0.683836 0.104536
0.744551 0.688546 0.109147
0.774734 0.693257 0.113757
0.804918 0.697968 0.118368
0.813503 0.699308 0.119679
0.813503 0.699308 0.119679
0.813503 0.699308 0.119679
0.813503 0.699308 0.119679
0.813503 0.699308 0.119679
0.813503 0.699308 0.119679
0.813503 0.699308 0.119679
0.103588 0.708158 0.103588
0.137369 0.708158 0.103588
0.163139 0.708158 0.103588
0.188478 0.708158 0.103588
0.213818 0.708158 0.103588
0.239158 0.708158 0.103588
0.264497 0.708158 0.103588
0.289837 0.708158 0.103588
0.315177 0.708158 0.103588
0.340517 0.708158 0.103588
0.365856 0.708158 0.103588
0.391196 0.708158 0.103588
0.416536 0.708158 0.103588
0.444478 0.708158 0.103588
0.509614 0.708158 0.103588
0.535087 0.708158 0.103588
0.560560 0.708158 0.103588
0.586033 0.708158 0.103588
0.611506 0.708158 0.103588
0.636979 0.708158 0.103588
0.662452 0.708158 0.103588
0.687925 0.708158 0.103588
0.714367 0.709127 0.104536
0.744551 0.713838 0.109147
0.774734 0.718548 0.113757
0.804918 0.723259 0.118368
0.813503 0.724599 0.119679
0.813503 0.724599 0.119679
0.813503 0.724599 0.119679
0.813503 0.724599 0.119679
0.813503 0.724599 0.119679
0.813503 0.724599 0.119679
0.813503 0.724599 0.119679
0.108165 0.738126 0.108165
0.141947 0.738126 0.108165
0.167716 0.738126 0.108165
0.193056 0.738126 0.108165
0.218396 0.738126 0.108165
0.243735 0.738126 0.108165
0.269075 0.738126 0.108165
0.294415 0.738126 0.108165
0.319754 0.738126 0.108165
0.345094 0.738126 0.108165
0.370434 0.738126 0.108165
0.395774 0.738126 0.108165
0.421113 0.738126 0.108165
0.449056 0.738126 0.108165
0.514291 0.738126 0.108165
0.539764 0.738126 0.108165
0.565237 0.738126 0.108165
0.590710 0.738126 0.108165
0.616183 0.738126 0.108165
0.641656 0.738126 0.108165
0.667129 0.738126 0.108165
0.692602 0.738126 0.108165
0.718075 0.738126 0.108165
0.744551 0.739129 0.109147
0.774734 0.743839 0.113757
0.804918 0.748550 0.118368
0.813503 0.749890 0.119679
0.813503 0.749890 0.119679
0.813503 0.749890 0.119679
0.813503 0.749890 0.119679
0.813503 0.749890 0.119679
0.813503 0.749890 0.119679
0.813503 0.749890 0.119679
0.112743 0.768094 0.112743
0.146524 0.768094 0.112743
0.172294 0.768094 0.112743
0.197634 0.768094 0.112743
0.222973 0.768094 0.112743
0.248313 0.768094 0.112743
0.273653 0.768094 0.112743
0.298992 0.768094 0.112743
0.324332 0.768094 0.112743
0.349672 0.768094 0.112743
0.375012 0.768094 0.112743
0.400351 0.768094 0.112743
0.425691 0.768094 0.112743
0.453634 0.768094 0.112743
0.518968 0.768094 0.112743
0.544441 0.768094 0.112743
0.569914 0.768094 0.112743
0.595387 0.768094 0.112743
0.620860 0.768094 0.112743
0.646333 0.768094 0.112743
0.671806 0.768094 0.112743
0.697279 0.768094 0.112743
0.722752 0.768094 0.112743
0.748225 0.768094 0.112743
0.774734 0.769131 0.113757
0.804918 0.773841 0.118368
0.813503 0.775181 0.119679
0.813503 0.775181 0.119679
0.813503 0.775181 0.119679
0.813503 0.775181 0.119679
0.813503 0.775181 0.119679
0.813503 0.775181 0.119679
0.813503 0.775181 0.119679
0.117321 0.798063 0.117321
0.151102 0.798063 0.117321
0.176871 0.798063 0.117321
0.202211 0.798063 0.117321
0.227551 0.798063 0.117321
0.252891 0.798063 0.117321
0.278230 0.798063 0.117321
0.303570 0.798063 0.117321
0.328910 0.798063 0.117321
0.354249 0.798063 0.117321
0.379589 0.798063 0.117321
0.404929 0.798063 0.117321
0.430269 0.798063 0.117321
0.458211 0.798063 0.117321
0.523645 0.798063 0.117321
0.549118 0.798063 0.117321
0.574591 0.798063 0.117321
0.600064 0.798063 0.117321
0.625537 0.798063 0.117321
0.651010 0.798063 0.117321
0.676483 0.798063 0.117321
0.701956 0.798063 0.117321
0.727429 0.798063 0.117321
0.752902 0.798063 0.117321
0.778375 0.798063 0.117321
0.804918 0.799133 0.118368
0.813503 0.800473 0.119679
0.813503 0.800473 0.119679
0.813503 0.800473 0.119679
0.813503 0.800473 0.119679
0.813503 0.800473 0.119679
0.813503 0.800473 0.119679
0.813503 0.800473 0.119679
0.121898 0.828031 0.121898
0.155679 0.828031 0.121898
0.181449 0.828031 0.121898
0.206789 0.828031 0.121898
0.232129 0.828031 0.121898
0.257468 0.828031 0.121898
0.282808 0.828031 0.121898
0.308148 0.828031 0.121898
0.333487 0.828031 0.121898
0.358827 0.828031 0.121898
0.384167 0.828031 0.121898
0.409506 0.828031 0.121898
0.434846 0.828031 0.121898
0.502849 0.828031 0.121898
0.528322 0.828031 0.121898
0.553795 0.828031 0.121898
0.579268 0.828031 0.121898
0.604741 0.828031 0.121898
0.630214 0.828031 0.121898
0.655687 0.828031 0.121898
0.681160 0.828031 0.121898
0.706633 0.828031 0.121898
0.732106 0.828031 0.121898
0.757579 0.828031 0.121898
