docs/luts/fuji_recipes/Classic_RR_Kodachrome_64.cube
TITLE "Fujifilm Recipe: RR Kodachrome 64 (Classic)"
# FilmSim=Classic HL=1 SH=2 Col=0 WB=Daylight WBR=2 WBB=-5
LUT_3D_SIZE 5
DOMAIN_MIN 0.0 0.0 0.0
DOMAIN_MAX 1.0 1.0 1.0
0.000000 0.000000 0.000000
0.224472 0.028625 0.028625
0.484930 0.055721 0.055721
0.729253 0.082444 0.082444
0.837540 0.094287 0.094287
0.027126 0.212714 0.027126
0.224472 0.214213 0.028625
0.484930 0.241011 0.055721
0.729253 0.267689 0.082444
0.837540 0.279521 0.094287
0.054051 0.423851 0.054051
0.249897 0.423851 0.054051
0.484930 0.424927 0.055721
0.729253 0.493711 0.082444
0.837540 0.507545 0.094287
0.078258 0.690986 0.078258
0.273748 0.690986 0.078258
0.511211 0.690986 0.078258
0.729253 0.695867 0.082444
0.837540 0.709689 0.094287
0.093879 0.833809 0.093879
0.289352 0.833809 0.093879
0.529454 0.833809 0.093879
0.742596 0.833809 0.093879
0.837540 0.834285 0.094287
0.023486 0.023486 0.184172
0.224472 0.028625 0.189311
0.484930 0.055721 0.216149
0.729253 0.082444 0.242832
0.837540 0.094287 0.254666
0.027126 0.212714 0.187812
0.262280 0.252002 0.227052
0.529865 0.273499 0.247777
0.796435 0.279840 0.252251
0.915331 0.281522 0.253486
0.054051 0.423851 0.214737
0.281568 0.503974 0.245200
0.529865 0.506697 0.247777
0.796435 0.535001 0.252251
0.915331 0.543097 0.253486
0.078258 0.690986 0.238651
0.289907 0.755097 0.251137
0.556503 0.755097 0.251137
0.796435 0.759380 0.252251
0.915331 0.771115 0.253486
0.093879 0.833809 0.254259
0.293061 0.911177 0.253501
0.568084 0.911177 0.253501
0.808355 0.911177 0.253501
0.915331 0.911660 0.253486
0.046578 0.046578 0.365251
0.242424 0.046578 0.365251
0.484930 0.055721 0.373882
0.729253 0.082444 0.400528
0.837540 0.094287 0.412352
0.046578 0.232166 0.365251
0.281856 0.271129 0.410290
0.536136 0.278232 0.416193
0.801211 0.284203 0.475906
0.920071 0.285473 0.482690
0.054051 0.423851 0.372724
0.288309 0.512722 0.415996
0.569084 0.545033 0.441567
0.825912 0.566191 0.502579
0.944055 0.571821 0.506752
0.078258 0.690986 0.396351
0.296198 0.761892 0.431511
0.588002 0.785027 0.500240
0.825912 0.789099 0.502579
0.944055 0.799840 0.506752
0.093879 0.833809 0.411944
0.298666 0.917869 0.484420
0.596922 0.939905 0.506688
0.837116 0.939905 0.506688
0.944055 0.940384 0.506752
0.068081 0.068081 0.597936
0.263586 0.068081 0.597936
0.499336 0.068081 0.597936
0.729253 0.082444 0.614688
0.837540 0.094287 0.628514
0.068081 0.253345 0.597936
0.300145 0.289566 0.650168
0.548307 0.289566 0.650168
0.801211 0.284203 0.674114
0.920071 0.285473 0.684248
0.068081 0.437237 0.597936
0.302069 0.527645 0.652794
0.590977 0.566839 0.697279
0.835699 0.576749 0.709748
0.953552 0.581211 0.717704
0.078258 0.690986 0.609804
0.296198 0.761892 0.672295
0.602900 0.798903 0.710392
0.856595 0.820261 0.731912
0.973472 0.829048 0.737351
0.093879 0.833809 0.628038
0.298666 0.917869 0.685858
0.610044 0.953086 0.721159
0.866466 0.969314 0.737295
0.973472 0.969795 0.737351
0.081634 0.081634 0.721848
0.277119 0.081634 0.721848
0.515152 0.081634 0.721848
0.729253 0.082444 0.722793
0.837540 0.094287 0.736613
0.081634 0.266880 0.721848
0.295352 0.284004 0.793195
0.564115 0.284004 0.793195
0.801211 0.284203 0.794044
0.920071 0.285473 0.806205
0.081634 0.492765 0.721848
0.297163 0.541332 0.795166
0.600868 0.576290 0.827794
0.835699 0.576749 0.828597
0.953552 0.581211 0.839674
0.081634 0.694923 0.721848
0.297163 0.765331 0.795166
0.605033 0.802113 0.831630
0.871249 0.835400 0.864313
0.986847 0.842119 0.872597
0.093879 0.833809 0.736136
0.298666 0.917869 0.807741
0.610044 0.953086 0.842998
0.884119 0.987112 0.876825
0.991288 0.987598 0.876862
