docs/luts/fuji_recipes/Classic_GB_Chrome.cube
TITLE "Fujifilm Recipe: GB Chrome (Classic)"
# FilmSim=Classic HL=-1 SH=2 Col=-1 WB=Auto WBR=0 WBB=0
LUT_3D_SIZE 33
DOMAIN_MIN 0.0 0.0 0.0
DOMAIN_MAX 1.0 1.0 1.0
0.000000 0.000000 0.000000
0.022796 0.005724 0.005724
0.045592 0.011448 0.011448
0.068388 0.017172 0.017172
0.091184 0.022896 0.022896
0.113980 0.028620 0.028620
0.136776 0.034344 0.034344
0.159572 0.040068 0.040068
0.182368 0.045792 0.045792
0.205164 0.051516 0.051516
0.227960 0.057240 0.057240
0.250756 0.062964 0.062964
0.273552 0.068688 0.068688
0.296348 0.074412 0.074412
0.319145 0.080135 0.080135
0.341941 0.085859 0.085859
0.364737 0.091583 0.091583
0.390106 0.097954 0.097954
0.412535 0.103585 0.103585
0.471575 0.112838 0.112838
0.494484 0.118517 0.118517
0.517392 0.124196 0.124196
0.540301 0.129875 0.129875
0.563209 0.135554 0.135554
0.586118 0.141234 0.141234
0.609026 0.146913 0.146913
0.631935 0.152592 0.152592
0.654843 0.158271 0.158271
0.677752 0.163950 0.163950
0.700660 0.169629 0.169629
0.723569 0.175308 0.175308
0.746477 0.180987 0.180987
0.769386 0.186667 0.186667
0.005667 0.022568 0.005667
0.022796 0.022625 0.005724
0.045592 0.028349 0.011448
0.068388 0.034073 0.017172
0.091184 0.039797 0.022896
0.113980 0.045521 0.028620
0.136776 0.051245 0.034344
0.159572 0.056969 0.040068
0.182368 0.062693 0.045792
0.205164 0.068417 0.051516
0.227960 0.074141 0.057240
0.250756 0.079865 0.062964
0.273552 0.085589 0.068688
0.296348 0.091313 0.074412
0.319145 0.097037 0.080135
0.341941 0.102761 0.085859
0.364737 0.108485 0.091583
0.390106 0.114855 0.097954
0.412535 0.120487 0.103585
0.471575 0.129739 0.112838
0.494484 0.135418 0.118517
0.517392 0.141098 0.124196
0.540301 0.146777 0.129875
0.563209 0.152456 0.135554
0.586118 0.158135 0.141234
0.609026 0.163814 0.146913
0.631935 0.169493 0.152592
0.654843 0.175172 0.158271
0.677752 0.180851 0.163950
0.700660 0.186531 0.169629
0.723569 0.192210 0.175308
0.746477 0.197889 0.180987
0.769386 0.203568 0.186667
0.011358 0.045234 0.011358
0.028430 0.045234 0.011358
0.045592 0.045324 0.011448
0.068388 0.051048 0.017172
0.091184 0.056772 0.022896
0.113980 0.062496 0.028620
0.136776 0.068220 0.034344
0.159572 0.073944 0.040068
0.182368 0.079668 0.045792
0.205164 0.085392 0.051516
0.227960 0.091116 0.057240
0.250756 0.096840 0.062964
0.273552 0.102563 0.068688
0.296348 0.108287 0.074412
0.319145 0.114011 0.080135
0.341941 0.119735 0.085859
0.364737 0.125459 0.091583
0.390106 0.131830 0.097954
0.412535 0.137461 0.103585
0.471575 0.146714 0.112838
0.494484 0.152393 0.118517
0.517392 0.158072 0.124196
0.540301 0.163751 0.129875
0.563209 0.169430 0.135554
0.586118 0.175109 0.141234
0.609026 0.180789 0.146913
0.631935 0.186468 0.152592
0.654843 0.192147 0.158271
0.677752 0.197826 0.163950
0.700660 0.203505 0.169629
0.723569 0.209184 0.175308
0.746477 0.214863 0.180987
0.769386 0.220542 0.186667
0.017058 0.067935 0.017058
0.034130 0.067935 0.017058
0.051202 0.067935 0.017058
0.068388 0.068049 0.017172
0.091184 0.073772 0.022896
0.113980 0.079496 0.028620
0.136776 0.085220 0.034344
0.159572 0.090944 0.040068
0.182368 0.096668 0.045792
0.205164 0.102392 0.051516
0.227960 0.108116 0.057240
0.250756 0.113840 0.062964
0.273552 0.119564 0.068688
0.296348 0.125288 0.074412
0.319145 0.131012 0.080135
0.341941 0.136736 0.085859
0.364737 0.142460 0.091583
0.390106 0.148830 0.097954
0.412535 0.154462 0.103585
0.471575 0.163715 0.112838
0.494484 0.169394 0.118517
0.517392 0.175073 0.124196
0.540301 0.180752 0.129875
0.563209 0.186431 0.135554
0.586118 0.192110 0.141234
0.609026 0.197789 0.146913
0.631935 0.203468 0.152592
0.654843 0.209148 0.158271
0.677752 0.214827 0.163950
0.700660 0.220506 0.169629
0.723569 0.226185 0.175308
0.746477 0.231864 0.180987
0.769386 0.237543 0.186667
0.022758 0.090635 0.022758
0.039830 0.090635 0.022758
0.056902 0.090635 0.022758
0.073974 0.090635 0.022758
0.091184 0.090773 0.022896
0.113980 0.096497 0.028620
0.136776 0.102221 0.034344
0.159572 0.107945 0.040068
0.182368 0.113669 0.045792
0.205164 0.119393 0.051516
0.227960 0.125117 0.057240
0.250756 0.130841 0.062964
0.273552 0.136565 0.068688
0.296348 0.142289 0.074412
0.319145 0.148013 0.080135
0.341941 0.153737 0.085859
0.364737 0.159461 0.091583
0.390106 0.165831 0.097954
0.412535 0.171463 0.103585
0.471575 0.180715 0.112838
0.494484 0.186394 0.118517
0.517392 0.192074 0.124196
0.540301 0.197753 0.129875
0.563209 0.203432 0.135554
0.586118 0.209111 0.141234
0.609026 0.214790 0.146913
0.631935 0.220469 0.152592
0.654843 0.226148 0.158271
0.677752 0.231827 0.163950
0.700660 0.237507 0.169629
0.723569 0.243186 0.175308
0.746477 0.248865 0.180987
0.769386 0.254544 0.186667
0.028458 0.113336 0.028458
0.045530 0.113336 0.028458
0.062602 0.113336 0.028458
0.079674 0.113336 0.028458
0.096746 0.113336 0.028458
0.113980 0.113498 0.028620
0.136776 0.119222 0.034344
0.159572 0.124946 0.040068
0.182368 0.130670 0.045792
0.205164 0.136394 0.051516
0.227960 0.142118 0.057240
0.250756 0.147842 0.062964
0.273552 0.153566 0.068688
0.296348 0.159290 0.074412
0.319145 0.165014 0.080135
0.341941 0.170738 0.085859
0.364737 0.176462 0.091583
0.390106 0.182832 0.097954
0.412535 0.188463 0.103585
0.471575 0.197716 0.112838
0.494484 0.203395 0.118517
0.517392 0.209074 0.124196
0.540301 0.214753 0.129875
0.563209 0.220433 0.135554
0.586118 0.226112 0.141234
0.609026 0.231791 0.146913
0.631935 0.237470 0.152592
0.654843 0.243149 0.158271
0.677752 0.248828 0.163950
0.700660 0.254507 0.169629
0.723569 0.260186 0.175308
0.746477 0.265866 0.180987
0.769386 0.271545 0.186667
0.034158 0.136037 0.034158
0.051230 0.136037 0.034158
0.068302 0.136037 0.034158
0.085374 0.136037 0.034158
0.102446 0.136037 0.034158
0.119519 0.136037 0.034158
0.136776 0.136223 0.034344
0.159572 0.141947 0.040068
0.182368 0.147671 0.045792
0.205164 0.153394 0.051516
0.227960 0.159118 0.057240
0.250756 0.164842 0.062964
0.273552 0.170566 0.068688
0.296348 0.176290 0.074412
0.319145 0.182014 0.080135
0.341941 0.187738 0.085859
0.364737 0.193462 0.091583
0.390106 0.199832 0.097954
0.412535 0.205464 0.103585
0.471575 0.214717 0.112838
0.494484 0.220396 0.118517
0.517392 0.226075 0.124196
0.540301 0.231754 0.129875
0.563209 0.237433 0.135554
0.586118 0.243112 0.141234
0.609026 0.248791 0.146913
0.631935 0.254471 0.152592
0.654843 0.260150 0.158271
0.677752 0.265829 0.163950
0.700660 0.271508 0.169629
0.723569 0.277187 0.175308
0.746477 0.282866 0.180987
0.769386 0.288545 0.186667
0.039858 0.158738 0.039858
0.056930 0.158738 0.039858
0.074002 0.158738 0.039858
0.091074 0.158738 0.039858
0.108146 0.158738 0.039858
0.125219 0.158738 0.039858
0.142291 0.158738 0.039858
0.159572 0.158947 0.040068
0.182368 0.164671 0.045792
0.205164 0.170395 0.051516
0.227960 0.176119 0.057240
0.250756 0.181843 0.062964
0.273552 0.187567 0.068688
0.296348 0.193291 0.074412
0.319145 0.199015 0.080135
0.341941 0.204739 0.085859
0.364737 0.210463 0.091583
0.390106 0.216833 0.097954
0.412535 0.222465 0.103585
0.471575 0.231717 0.112838
0.494484 0.237397 0.118517
0.517392 0.243076 0.124196
0.540301 0.248755 0.129875
0.563209 0.254434 0.135554
0.586118 0.260113 0.141234
0.609026 0.265792 0.146913
0.631935 0.271471 0.152592
0.654843 0.277150 0.158271
0.677752 0.282830 0.163950
0.700660 0.288509 0.169629
0.723569 0.294188 0.175308
0.746477 0.299867 0.180987
0.769386 0.305546 0.186667
0.045558 0.181439 0.045558
0.062630 0.181439 0.045558
0.079702 0.181439 0.045558
0.096774 0.181439 0.045558
0.113847 0.181439 0.045558
0.130919 0.181439 0.045558
0.147991 0.181439 0.045558
0.165063 0.181439 0.045558
0.182368 0.181672 0.045792
0.205164 0.187396 0.051516
0.227960 0.193120 0.057240
0.250756 0.198844 0.062964
0.273552 0.204568 0.068688
0.296348 0.210292 0.074412
0.319145 0.216016 0.080135
0.341941 0.221740 0.085859
0.364737 0.227464 0.091583
0.390106 0.233834 0.097954
0.412535 0.239466 0.103585
0.471575 0.248718 0.112838
0.494484 0.254397 0.118517
0.517392 0.260076 0.124196
0.540301 0.265756 0.129875
0.563209 0.271435 0.135554
0.586118 0.277114 0.141234
0.609026 0.282793 0.146913
0.631935 0.288472 0.152592
0.654843 0.294151 0.158271
0.677752 0.299830 0.163950
0.700660 0.305509 0.169629
0.723569 0.311189 0.175308
0.746477 0.316868 0.180987
0.769386 0.322547 0.186667
0.051258 0.204139 0.051258
0.068330 0.204139 0.051258
0.085402 0.204139 0.051258
0.102475 0.204139 0.051258
0.119547 0.204139 0.051258
0.136619 0.204139 0.051258
0.153691 0.204139 0.051258
0.170763 0.204139 0.051258
0.187835 0.204139 0.051258
0.205164 0.204397 0.051516
0.227960 0.210121 0.057240
0.250756 0.215845 0.062964
0.273552 0.221569 0.068688
0.296348 0.227293 0.074412
0.319145 0.233017 0.080135
0.341941 0.238740 0.085859
0.364737 0.244464 0.091583
0.390106 0.250835 0.097954
0.412535 0.256466 0.103585
0.471575 0.265719 0.112838
0.494484 0.271398 0.118517
0.517392 0.277077 0.124196
0.540301 0.282756 0.129875
0.563209 0.288435 0.135554
0.586118 0.294115 0.141234
0.609026 0.299794 0.146913
0.631935 0.305473 0.152592
0.654843 0.311152 0.158271
0.677752 0.316831 0.163950
0.700660 0.322510 0.169629
0.723569 0.328189 0.175308
0.746477 0.333868 0.180987
0.769386 0.339548 0.186667
0.056958 0.226840 0.056958
0.074030 0.226840 0.056958
0.091102 0.226840 0.056958
0.108175 0.226840 0.056958
0.125247 0.226840 0.056958
0.142319 0.226840 0.056958
0.159391 0.226840 0.056958
0.176463 0.226840 0.056958
0.193535 0.226840 0.056958
0.210607 0.226840 0.056958
0.227960 0.227121 0.057240
0.250756 0.232845 0.062964
0.273552 0.238569 0.068688
0.296348 0.244293 0.074412
0.319145 0.250017 0.080135
0.341941 0.255741 0.085859
0.364737 0.261465 0.091583
0.390106 0.267835 0.097954
0.412535 0.273467 0.103585
0.471575 0.282720 0.112838
0.494484 0.288399 0.118517
0.517392 0.294078 0.124196
0.540301 0.299757 0.129875
0.563209 0.305436 0.135554
0.586118 0.311115 0.141234
0.609026 0.316794 0.146913
0.631935 0.322474 0.152592
0.654843 0.328153 0.158271
0.677752 0.333832 0.163950
0.700660 0.339511 0.169629
0.723569 0.345190 0.175308
0.746477 0.350869 0.180987
0.769386 0.356548 0.186667
0.062658 0.249541 0.062658
0.079730 0.249541 0.062658
0.096803 0.249541 0.062658
0.113875 0.249541 0.062658
0.130947 0.249541 0.062658
0.148019 0.249541 0.062658
0.165091 0.249541 0.062658
0.182163 0.249541 0.062658
0.199235 0.249541 0.062658
0.216307 0.249541 0.062658
0.233379 0.249541 0.062658
0.250756 0.249846 0.062964
0.273552 0.255570 0.068688
0.296348 0.261294 0.074412
0.319145 0.267018 0.080135
0.341941 0.272742 0.085859
0.364737 0.278466 0.091583
0.390106 0.284836 0.097954
0.412535 0.290468 0.103585
0.471575 0.299720 0.112838
0.494484 0.305399 0.118517
0.517392 0.311079 0.124196
0.540301 0.316758 0.129875
0.563209 0.322437 0.135554
0.586118 0.328116 0.141234
0.609026 0.333795 0.146913
0.631935 0.339474 0.152592
0.654843 0.345153 0.158271
0.677752 0.350833 0.163950
0.700660 0.356512 0.169629
0.723569 0.362191 0.175308
0.746477 0.367870 0.180987
0.769386 0.373549 0.186667
0.068358 0.272242 0.068358
0.085431 0.272242 0.068358
0.102503 0.272242 0.068358
0.119575 0.272242 0.068358
0.136647 0.272242 0.068358
0.153719 0.272242 0.068358
0.170791 0.272242 0.068358
0.187863 0.272242 0.068358
0.204935 0.272242 0.068358
0.222007 0.272242 0.068358
0.239079 0.272242 0.068358
0.256151 0.272242 0.068358
0.273552 0.272571 0.068688
0.296348 0.278295 0.074412
0.319145 0.284019 0.080135
0.341941 0.289743 0.085859
0.364737 0.295467 0.091583
0.390106 0.301837 0.097954
0.412535 0.307468 0.103585
0.471575 0.316721 0.112838
0.494484 0.322400 0.118517
0.517392 0.328079 0.124196
0.540301 0.333758 0.129875
0.563209 0.339438 0.135554
0.586118 0.345117 0.141234
0.609026 0.350796 0.146913
0.631935 0.356475 0.152592
0.654843 0.362154 0.158271
0.677752 0.367833 0.163950
0.700660 0.373512 0.169629
0.723569 0.379192 0.175308
0.746477 0.384871 0.180987
0.769386 0.390550 0.186667
0.074058 0.294942 0.074058
0.091131 0.294942 0.074058
0.108203 0.294942 0.074058
0.125275 0.294942 0.074058
0.142347 0.294942 0.074058
0.159419 0.294942 0.074058
0.176491 0.294942 0.074058
0.193563 0.294942 0.074058
0.210635 0.294942 0.074058
0.227707 0.294942 0.074058
0.244779 0.294942 0.074058
0.261851 0.294942 0.074058
0.278923 0.294942 0.074058
0.296348 0.295295 0.074412
0.319145 0.301019 0.080135
0.341941 0.306743 0.085859
0.364737 0.312467 0.091583
0.390106 0.318838 0.097954
0.412535 0.324469 0.103585
0.471575 0.333722 0.112838
0.494484 0.339401 0.118517
0.517392 0.345080 0.124196
0.540301 0.350759 0.129875
0.563209 0.356438 0.135554
0.586118 0.362117 0.141234
0.609026 0.367797 0.146913
0.631935 0.373476 0.152592
0.654843 0.379155 0.158271
0.677752 0.384834 0.163950
0.700660 0.390513 0.169629
0.723569 0.396192 0.175308
0.746477 0.401871 0.180987
0.769386 0.407551 0.186667
0.079759 0.317643 0.079759
0.096831 0.317643 0.079759
0.113903 0.317643 0.079759
0.130975 0.317643 0.079759
0.148047 0.317643 0.079759
0.165119 0.317643 0.079759
0.182191 0.317643 0.079759
0.199263 0.317643 0.079759
0.216335 0.317643 0.079759
0.233407 0.317643 0.079759
0.250479 0.317643 0.079759
0.267551 0.317643 0.079759
0.284623 0.317643 0.079759
0.301695 0.317643 0.079759
0.319145 0.318020 0.080135
0.341941 0.323744 0.085859
0.364737 0.329468 0.091583
0.390106 0.335838 0.097954
0.412535 0.341470 0.103585
0.471575 0.350723 0.112838
0.494484 0.356402 0.118517
0.517392 0.362081 0.124196
0.540301 0.367760 0.129875
0.563209 0.373439 0.135554
0.586118 0.379118 0.141234
0.609026 0.384797 0.146913
0.631935 0.390476 0.152592
0.654843 0.396156 0.158271
0.677752 0.401835 0.163950
0.700660 0.407514 0.169629
0.723569 0.413193 0.175308
0.746477 0.418872 0.180987
0.769386 0.424551 0.186667
0.085459 0.340344 0.085459
0.102531 0.340344 0.085459
0.119603 0.340344 0.085459
0.136675 0.340344 0.085459
0.153747 0.340344 0.085459
0.170819 0.340344 0.085459
0.187891 0.340344 0.085459
0.204963 0.340344 0.085459
0.222035 0.340344 0.085459
0.239107 0.340344 0.085459
0.256179 0.340344 0.085459
0.273251 0.340344 0.085459
0.290323 0.340344 0.085459
0.307396 0.340344 0.085459
0.324468 0.340344 0.085459
0.341941 0.340745 0.085859
0.364737 0.346469 0.091583
0.390106 0.352839 0.097954
0.412535 0.358471 0.103585
0.471575 0.367723 0.112838
0.494484 0.373402 0.118517
0.517392 0.379082 0.124196
0.540301 0.384761 0.129875
0.563209 0.390440 0.135554
0.586118 0.396119 0.141234
0.609026 0.401798 0.146913
0.631935 0.407477 0.152592
0.654843 0.413156 0.158271
0.677752 0.418835 0.163950
0.700660 0.424515 0.169629
0.723569 0.430194 0.175308
0.746477 0.435873 0.180987
0.769386 0.441552 0.186667
0.091159 0.363045 0.091159
0.108231 0.363045 0.091159
0.125303 0.363045 0.091159
0.142375 0.363045 0.091159
0.159447 0.363045 0.091159
0.176519 0.363045 0.091159
0.193591 0.363045 0.091159
0.210663 0.363045 0.091159
0.227735 0.363045 0.091159
0.244807 0.363045 0.091159
0.261879 0.363045 0.091159
0.278951 0.363045 0.091159
0.296023 0.363045 0.091159
0.313096 0.363045 0.091159
0.330168 0.363045 0.091159
0.347240 0.363045 0.091159
0.364737 0.363470 0.091583
0.390106 0.369840 0.097954
0.412535 0.375471 0.103585
0.471575 0.384724 0.112838
0.494484 0.390403 0.118517
0.517392 0.396082 0.124196
0.540301 0.401761 0.129875
0.563209 0.407441 0.135554
0.586118 0.413120 0.141234
0.609026 0.418799 0.146913
0.631935 0.424478 0.152592
0.654843 0.430157 0.158271
0.677752 0.435836 0.163950
0.700660 0.441515 0.169629
0.723569 0.447194 0.175308
0.746477 0.452874 0.180987
0.769386 0.458553 0.186667
0.097512 0.388348 0.097512
0.114584 0.388348 0.097512
0.131656 0.388348 0.097512
0.148728 0.388348 0.097512
0.165800 0.388348 0.097512
0.182873 0.388348 0.097512
0.199945 0.388348 0.097512
0.217017 0.388348 0.097512
0.234089 0.388348 0.097512
0.251161 0.388348 0.097512
0.268233 0.388348 0.097512
0.285305 0.388348 0.097512
0.302377 0.388348 0.097512
0.319449 0.388348 0.097512
0.336521 0.388348 0.097512
0.353593 0.388348 0.097512
0.370665 0.388348 0.097512
0.390106 0.388790 0.097954
0.412535 0.394421 0.103585
0.471575 0.403674 0.112838
0.494484 0.409353 0.118517
0.517392 0.415032 0.124196
0.540301 0.420711 0.129875
0.563209 0.426390 0.135554
0.586118 0.432069 0.141234
0.609026 0.437749 0.146913
0.631935 0.443428 0.152592
0.654843 0.449107 0.158271
0.677752 0.487626 0.163950
0.700660 0.493372 0.169629
0.723569 0.499119 0.175308
0.746477 0.504866 0.180987
0.769386 0.510612 0.186667
0.103120 0.410683 0.103120
0.120192 0.410683 0.103120
0.137264 0.410683 0.103120
0.154336 0.410683 0.103120
0.171409 0.410683 0.103120
0.188481 0.410683 0.103120
0.205553 0.410683 0.103120
0.222625 0.410683 0.103120
0.239697 0.410683 0.103120
0.256769 0.410683 0.103120
0.273841 0.410683 0.103120
0.290913 0.410683 0.103120
0.307985 0.410683 0.103120
0.325057 0.410683 0.103120
0.342129 0.410683 0.103120
0.359201 0.410683 0.103120
0.376273 0.410683 0.103120
0.395273 0.410683 0.103120
0.412535 0.411148 0.103585
0.471575 0.420400 0.112838
0.494484 0.426079 0.118517
0.517392 0.431759 0.124196
0.540301 0.437438 0.129875
0.563209 0.475983 0.135554
0.586118 0.481729 0.141234
0.609026 0.487476 0.146913
0.631935 0.493223 0.152592
0.654843 0.498969 0.158271
0.677752 0.504716 0.163950
0.700660 0.510463 0.169629
0.723569 0.516209 0.175308
0.746477 0.521956 0.180987
0.769386 0.527703 0.186667
0.112345 0.469588 0.112345
0.129417 0.469588 0.112345
0.146489 0.469588 0.112345
0.163561 0.469588 0.112345
0.180633 0.469588 0.112345
0.197706 0.469588 0.112345
0.214778 0.469588 0.112345
0.231850 0.469588 0.112345
0.248922 0.469588 0.112345
0.265994 0.469588 0.112345
0.283066 0.469588 0.112345
0.300138 0.469588 0.112345
0.317210 0.469588 0.112345
0.334282 0.469588 0.112345
0.351354 0.469588 0.112345
0.368426 0.469588 0.112345
0.385498 0.469588 0.112345
0.404498 0.469588 0.112345
0.421295 0.469588 0.112345
0.471575 0.470086 0.112838
0.494484 0.475833 0.118517
0.517392 0.481580 0.124196
0.540301 0.487326 0.129875
0.563209 0.493073 0.135554
0.586118 0.498819 0.141234
0.609026 0.504566 0.146913
0.631935 0.510313 0.152592
0.654843 0.516059 0.158271
0.677752 0.521806 0.163950
0.700660 0.527553 0.169629
0.723569 0.533299 0.175308
0.746477 0.539046 0.180987
0.769386 0.544793 0.186667
0.118001 0.492400 0.118001
0.135073 0.492400 0.118001
0.152145 0.492400 0.118001
0.169217 0.492400 0.118001
0.186289 0.492400 0.118001
0.203361 0.492400 0.118001
0.220433 0.492400 0.118001
0.237505 0.492400 0.118001
0.254577 0.492400 0.118001
0.271649 0.492400 0.118001
0.288721 0.492400 0.118001
0.305793 0.492400 0.118001
0.322865 0.492400 0.118001
0.339938 0.492400 0.118001
0.357010 0.492400 0.118001
0.374082 0.492400 0.118001
0.391154 0.492400 0.118001
0.410153 0.492400 0.118001
0.426950 0.492400 0.118001
0.476799 0.492400 0.118001
0.494484 0.492923 0.118517
0.517392 0.498670 0.124196
0.540301 0.504416 0.129875
0.563209 0.510163 0.135554
0.586118 0.515910 0.141234
0.609026 0.521656 0.146913
0.631935 0.527403 0.152592
0.654843 0.533150 0.158271
0.677752 0.538896 0.163950
0.700660 0.544643 0.169629
0.723569 0.550390 0.175308
0.746477 0.556136 0.180987
0.769386 0.561883 0.186667
0.123656 0.515213 0.123656
0.140728 0.515213 0.123656
0.157800 0.515213 0.123656
0.174872 0.515213 0.123656
0.191944 0.515213 0.123656
0.209016 0.515213 0.123656
0.226088 0.515213 0.123656
0.243161 0.515213 0.123656
0.260233 0.515213 0.123656
0.277305 0.515213 0.123656
0.294377 0.515213 0.123656
0.311449 0.515213 0.123656
0.328521 0.515213 0.123656
0.345593 0.515213 0.123656
0.362665 0.515213 0.123656
0.379737 0.515213 0.123656
0.396809 0.515213 0.123656
0.415809 0.515213 0.123656
0.432605 0.515213 0.123656
0.482522 0.515213 0.123656
0.499684 0.515213 0.123656
0.517392 0.515760 0.124196
0.540301 0.521506 0.129875
0.563209 0.527253 0.135554
0.586118 0.533000 0.141234
0.609026 0.538746 0.146913
0.631935 0.544493 0.152592
0.654843 0.550240 0.158271
0.677752 0.555986 0.163950
0.700660 0.561733 0.169629
0.723569 0.567480 0.175308
0.746477 0.573226 0.180987
0.769386 0.578973 0.186667
0.129311 0.538026 0.129311
0.146383 0.538026 0.129311
0.163456 0.538026 0.129311
0.180528 0.538026 0.129311
0.197600 0.538026 0.129311
0.214672 0.538026 0.129311
0.231744 0.538026 0.129311
0.248816 0.538026 0.129311
0.265888 0.538026 0.129311
0.282960 0.538026 0.129311
0.300032 0.538026 0.129311
0.317104 0.538026 0.129311
0.334176 0.538026 0.129311
0.351248 0.538026 0.129311
0.368320 0.538026 0.129311
0.385392 0.538026 0.129311
0.402465 0.538026 0.129311
0.421464 0.538026 0.129311
0.471083 0.538026 0.129311
0.488244 0.538026 0.129311
0.505406 0.538026 0.129311
0.522568 0.538026 0.129311
0.540301 0.538597 0.129875
0.563209 0.544343 0.135554
0.586118 0.550090 0.141234
0.609026 0.555837 0.146913
0.631935 0.561583 0.152592
0.654843 0.567330 0.158271
0.677752 0.573077 0.163950
0.700660 0.578823 0.169629
0.723569 0.584570 0.175308
0.746477 0.590317 0.180987
0.769386 0.596063 0.186667
0.134967 0.560839 0.134967
0.152039 0.560839 0.134967
0.169111 0.560839 0.134967
0.186183 0.560839 0.134967
0.203255 0.560839 0.134967
0.220327 0.560839 0.134967
0.237399 0.560839 0.134967
0.254471 0.560839 0.134967
0.271543 0.560839 0.134967
0.288615 0.560839 0.134967
0.305688 0.560839 0.134967
0.322760 0.560839 0.134967
0.339832 0.560839 0.134967
0.356904 0.560839 0.134967
0.373976 0.560839 0.134967
0.391048 0.560839 0.134967
0.408120 0.560839 0.134967
0.427120 0.560839 0.134967
0.476805 0.560839 0.134967
0.493967 0.560839 0.134967
0.511129 0.560839 0.134967
0.528291 0.560839 0.134967
0.545453 0.560839 0.134967
0.563209 0.561433 0.135554
0.586118 0.567180 0.141234
0.609026 0.572927 0.146913
0.631935 0.578673 0.152592
0.654843 0.584420 0.158271
0.677752 0.590167 0.163950
0.700660 0.595913 0.169629
0.723569 0.601660 0.175308
0.746477 0.607407 0.180987
0.769386 0.613153 0.186667
0.140622 0.583652 0.140622
0.157694 0.583652 0.140622
0.174766 0.583652 0.140622
0.191838 0.583652 0.140622
0.208910 0.583652 0.140622
0.225983 0.583652 0.140622
0.243055 0.583652 0.140622
0.260127 0.583652 0.140622
0.277199 0.583652 0.140622
0.294271 0.583652 0.140622
0.311343 0.583652 0.140622
0.328415 0.583652 0.140622
0.345487 0.583652 0.140622
0.362559 0.583652 0.140622
0.379631 0.583652 0.140622
0.396703 0.583652 0.140622
0.413775 0.583652 0.140622
0.432775 0.583652 0.140622
0.482528 0.583652 0.140622
0.499690 0.583652 0.140622
0.516852 0.583652 0.140622
0.534013 0.583652 0.140622
0.551175 0.583652 0.140622
0.568337 0.583652 0.140622
0.586118 0.584270 0.141234
0.609026 0.590017 0.146913
0.631935 0.595764 0.152592
0.654843 0.601510 0.158271
0.677752 0.607257 0.163950
0.700660 0.613004 0.169629
0.723569 0.618750 0.175308
0.746477 0.624497 0.180987
0.769386 0.630243 0.186667
0.146278 0.606464 0.146278
0.163350 0.606464 0.146278
0.180422 0.606464 0.146278
0.197494 0.606464 0.146278
0.214566 0.606464 0.146278
0.231638 0.606464 0.146278
0.248710 0.606464 0.146278
0.265782 0.606464 0.146278
0.282854 0.606464 0.146278
0.299926 0.606464 0.146278
0.316998 0.606464 0.146278
0.334070 0.606464 0.146278
0.351142 0.606464 0.146278
0.368215 0.606464 0.146278
0.385287 0.606464 0.146278
0.402359 0.606464 0.146278
0.419431 0.606464 0.146278
0.438430 0.606464 0.146278
0.488251 0.606464 0.146278
0.505412 0.606464 0.146278
0.522574 0.606464 0.146278
0.539736 0.606464 0.146278
0.556898 0.606464 0.146278
0.574060 0.606464 0.146278
0.591222 0.606464 0.146278
0.609026 0.607107 0.146913
0.631935 0.612854 0.152592
0.654843 0.618600 0.158271
0.677752 0.624347 0.163950
0.700660 0.630094 0.169629
0.723569 0.635840 0.175308
0.746477 0.641587 0.180987
0.769386 0.647334 0.186667
0.151933 0.629277 0.151933
0.169005 0.629277 0.151933
0.186077 0.629277 0.151933
0.203149 0.629277 0.151933
0.220221 0.629277 0.151933
0.237293 0.629277 0.151933
0.254365 0.629277 0.151933
0.271437 0.629277 0.151933
0.288510 0.629277 0.151933
0.305582 0.629277 0.151933
0.322654 0.629277 0.151933
0.339726 0.629277 0.151933
0.356798 0.629277 0.151933
0.373870 0.629277 0.151933
0.390942 0.629277 0.151933
0.408014 0.629277 0.151933
0.425086 0.629277 0.151933
0.444086 0.629277 0.151933
0.493973 0.629277 0.151933
0.511135 0.629277 0.151933
0.528297 0.629277 0.151933
0.545459 0.629277 0.151933
0.562621 0.629277 0.151933
0.579782 0.629277 0.151933
