docs/luts/fuji_recipes/Classic_JP_Chrome_Travel.cube
TITLE "Fujifilm Recipe: JP Chrome Travel (Classic)"
# FilmSim=Classic HL=-2 SH=1 Col=3 WB=Auto WBR=0 WBB=0
LUT_3D_SIZE 33
DOMAIN_MIN 0.0 0.0 0.0
DOMAIN_MAX 1.0 1.0 1.0
0.000000 0.000000 0.000000
0.029760 0.000000 0.000000
0.059520 0.000000 0.000000
0.089280 0.000000 0.000000
0.119040 0.000000 0.000000
0.148800 0.000000 0.000000
0.178560 0.000000 0.000000
0.208320 0.000000 0.000000
0.238080 0.000000 0.000000
0.267840 0.000000 0.000000
0.297600 0.000000 0.000000
0.327360 0.000000 0.000000
0.357120 0.000000 0.000000
0.386880 0.000000 0.000000
0.416640 0.000000 0.000000
0.446400 0.000000 0.000000
0.476160 0.000000 0.000000
0.509280 0.000000 0.000000
0.538560 0.000000 0.000000
0.586908 0.000000 0.000000
0.614078 0.000000 0.000000
0.641247 0.000000 0.000000
0.668416 0.000000 0.000000
0.695586 0.000000 0.000000
0.722755 0.000000 0.000000
0.749925 0.000000 0.000000
0.777094 0.000000 0.000000
0.804263 0.000000 0.000000
0.831433 0.000000 0.000000
0.858602 0.000000 0.000000
0.885772 0.000000 0.000000
0.912941 0.000000 0.000000
0.940110 0.000000 0.000000
0.000000 0.029462 0.000000
0.029760 0.029462 0.000000
0.059520 0.029462 0.000000
0.089280 0.029462 0.000000
0.119040 0.029462 0.000000
0.148800 0.029462 0.000000
0.178560 0.029462 0.000000
0.208320 0.029462 0.000000
0.238080 0.029462 0.000000
0.267840 0.029462 0.000000
0.297600 0.029462 0.000000
0.327360 0.029462 0.000000
0.357120 0.029462 0.000000
0.386880 0.029462 0.000000
0.416640 0.029462 0.000000
0.446400 0.029462 0.000000
0.476160 0.029462 0.000000
0.509280 0.029462 0.000000
0.538560 0.029462 0.000000
0.586908 0.029113 0.000000
0.614078 0.029165 0.000000
0.641247 0.029212 0.000000
0.668416 0.029256 0.000000
0.695586 0.029297 0.000000
0.722755 0.029335 0.000000
0.749925 0.029370 0.000000
0.777094 0.029402 0.000000
0.804263 0.029433 0.000000
0.831433 0.029461 0.000000
0.858602 0.029488 0.000000
0.885772 0.029514 0.000000
0.912941 0.029537 0.000000
0.940110 0.029560 0.000000
0.000000 0.059052 0.000000
0.029760 0.059052 0.000000
0.059520 0.059052 0.000000
0.089280 0.059052 0.000000
0.119040 0.059052 0.000000
0.148800 0.059052 0.000000
0.178560 0.059052 0.000000
0.208320 0.059052 0.000000
0.238080 0.059052 0.000000
0.267840 0.059052 0.000000
0.297600 0.059052 0.000000
0.327360 0.059052 0.000000
0.357120 0.059052 0.000000
0.386880 0.059052 0.000000
0.416640 0.059052 0.000000
0.446400 0.059052 0.000000
0.476160 0.059052 0.000000
0.509280 0.059052 0.000000
0.538560 0.059052 0.000000
0.586908 0.058351 0.000000
0.614078 0.058455 0.000000
0.641247 0.058551 0.000000
0.668416 0.058639 0.000000
0.695586 0.058721 0.000000
0.722755 0.058796 0.000000
0.749925 0.058866 0.000000
0.777094 0.058932 0.000000
0.804263 0.058993 0.000000
0.831433 0.059050 0.000000
0.858602 0.059104 0.000000
0.885772 0.059155 0.000000
0.912941 0.059203 0.000000
0.940110 0.059247 0.000000
0.000000 0.088688 0.000000
0.029760 0.088688 0.000000
0.059520 0.088688 0.000000
0.089280 0.088688 0.000000
0.119040 0.088688 0.000000
0.148800 0.088688 0.000000
0.178560 0.088688 0.000000
0.208320 0.088688 0.000000
0.238080 0.088688 0.000000
0.267840 0.088688 0.000000
0.297600 0.088688 0.000000
0.327360 0.088688 0.000000
0.357120 0.088688 0.000000
0.386880 0.088688 0.000000
0.416640 0.088688 0.000000
0.446400 0.088688 0.000000
0.476160 0.088688 0.000000
0.509280 0.088688 0.000000
0.538560 0.088688 0.000000
0.586908 0.087635 0.000000
0.614078 0.087791 0.000000
0.641247 0.087935 0.000000
0.668416 0.088067 0.000000
0.695586 0.088190 0.000000
0.722755 0.088303 0.000000
0.749925 0.088409 0.000000
0.777094 0.088507 0.000000
0.804263 0.088599 0.000000
0.831433 0.088685 0.000000
0.858602 0.088766 0.000000
0.885772 0.088842 0.000000
0.912941 0.088913 0.000000
0.940110 0.088981 0.000000
0.000000 0.118324 0.000000
0.029760 0.118324 0.000000
0.059520 0.118324 0.000000
0.089280 0.118324 0.000000
0.119040 0.118324 0.000000
0.148800 0.118324 0.000000
0.178560 0.118324 0.000000
0.208320 0.118324 0.000000
0.238080 0.118324 0.000000
0.267840 0.118324 0.000000
0.297600 0.118324 0.000000
0.327360 0.118324 0.000000
0.357120 0.118324 0.000000
0.386880 0.118324 0.000000
0.416640 0.118324 0.000000
0.446400 0.118324 0.000000
0.476160 0.118324 0.000000
0.509280 0.118324 0.000000
0.538560 0.118324 0.000000
0.586908 0.116919 0.000000
0.614078 0.117127 0.000000
0.641247 0.117319 0.000000
0.668416 0.117496 0.000000
0.695586 0.117659 0.000000
0.722755 0.117810 0.000000
0.749925 0.117951 0.000000
0.777094 0.118082 0.000000
0.804263 0.118205 0.000000
0.831433 0.118320 0.000000
0.858602 0.118428 0.000000
0.885772 0.118529 0.000000
0.912941 0.118624 0.000000
0.940110 0.118715 0.000000
0.000000 0.147959 0.000000
0.029760 0.147959 0.000000
0.059520 0.147959 0.000000
0.089280 0.147959 0.000000
0.119040 0.147959 0.000000
0.148800 0.147959 0.000000
0.178560 0.147959 0.000000
0.208320 0.147959 0.000000
0.238080 0.147959 0.000000
0.267840 0.147959 0.000000
0.297600 0.147959 0.000000
0.327360 0.147959 0.000000
0.357120 0.147959 0.000000
0.386880 0.147959 0.000000
0.416640 0.147959 0.000000
0.446400 0.147959 0.000000
0.476160 0.147959 0.000000
0.509280 0.147959 0.000000
0.538560 0.147959 0.000000
0.586908 0.146202 0.000000
0.614078 0.146463 0.000000
0.641247 0.146703 0.000000
0.668416 0.146924 0.000000
0.695586 0.147128 0.000000
0.722755 0.147317 0.000000
0.749925 0.147493 0.000000
0.777094 0.147658 0.000000
0.804263 0.147811 0.000000
0.831433 0.147955 0.000000
0.858602 0.148089 0.000000
0.885772 0.148216 0.000000
0.912941 0.148335 0.000000
0.940110 0.148448 0.000000
0.000000 0.177595 0.000000
0.029760 0.177595 0.000000
0.059520 0.177595 0.000000
0.089280 0.177595 0.000000
0.119040 0.177595 0.000000
0.148800 0.177595 0.000000
0.178560 0.177595 0.000000
0.208320 0.177595 0.000000
0.238080 0.177595 0.000000
0.267840 0.177595 0.000000
0.297600 0.177595 0.000000
0.327360 0.177595 0.000000
0.357120 0.177595 0.000000
0.386880 0.177595 0.000000
0.416640 0.177595 0.000000
0.446400 0.177595 0.000000
0.476160 0.177595 0.000000
0.509280 0.177595 0.000000
0.538560 0.177595 0.000000
0.586908 0.175486 0.000000
0.614078 0.175799 0.000000
0.641247 0.176087 0.000000
0.668416 0.176352 0.000000
0.695586 0.176597 0.000000
0.722755 0.176824 0.000000
0.749925 0.177036 0.000000
0.777094 0.177233 0.000000
0.804263 0.177417 0.000000
0.831433 0.177589 0.000000
0.858602 0.177751 0.000000
0.885772 0.177903 0.000000
0.912941 0.178046 0.000000
0.940110 0.178182 0.000000
0.000000 0.207231 0.000000
0.029760 0.207231 0.000000
0.059520 0.207231 0.000000
0.089280 0.207231 0.000000
0.119040 0.207231 0.000000
0.148800 0.207231 0.000000
0.178560 0.207231 0.000000
0.208320 0.207231 0.000000
0.238080 0.207231 0.000000
0.267840 0.207231 0.000000
0.297600 0.207231 0.000000
0.327360 0.207231 0.000000
0.357120 0.207231 0.000000
0.386880 0.207231 0.000000
0.416640 0.207231 0.000000
0.446400 0.207231 0.000000
0.476160 0.207231 0.000000
0.509280 0.207231 0.000000
0.538560 0.207231 0.000000
0.586908 0.204770 0.000000
0.614078 0.205135 0.000000
0.641247 0.205471 0.000000
0.668416 0.205780 0.000000
0.695586 0.206066 0.000000
0.722755 0.206331 0.000000
0.749925 0.206578 0.000000
0.777094 0.206808 0.000000
0.804263 0.207023 0.000000
0.831433 0.207224 0.000000
0.858602 0.207413 0.000000
0.885772 0.207590 0.000000
0.912941 0.207757 0.000000
0.940110 0.207915 0.000000
0.000000 0.236866 0.000000
0.029760 0.236866 0.000000
0.059520 0.236866 0.000000
0.089280 0.236866 0.000000
0.119040 0.236866 0.000000
0.148800 0.236866 0.000000
0.178560 0.236866 0.000000
0.208320 0.236866 0.000000
0.238080 0.236866 0.000000
0.267840 0.236866 0.000000
0.297600 0.236866 0.000000
0.327360 0.236866 0.000000
0.357120 0.236866 0.000000
0.386880 0.236866 0.000000
0.416640 0.236866 0.000000
0.446400 0.236866 0.000000
0.476160 0.236866 0.000000
0.509280 0.236866 0.000000
0.538560 0.236866 0.000000
0.586908 0.234054 0.000000
0.614078 0.234471 0.000000
0.641247 0.234855 0.000000
0.668416 0.235209 0.000000
0.695586 0.235535 0.000000
0.722755 0.235839 0.000000
0.749925 0.236120 0.000000
0.777094 0.236383 0.000000
0.804263 0.236629 0.000000
0.831433 0.236859 0.000000
0.858602 0.237074 0.000000
0.885772 0.237277 0.000000
0.912941 0.237468 0.000000
0.940110 0.237649 0.000000
0.000000 0.266502 0.000000
0.029760 0.266502 0.000000
0.059520 0.266502 0.000000
0.089280 0.266502 0.000000
0.119040 0.266502 0.000000
0.148800 0.266502 0.000000
0.178560 0.266502 0.000000
0.208320 0.266502 0.000000
0.238080 0.266502 0.000000
0.267840 0.266502 0.000000
0.297600 0.266502 0.000000
0.327360 0.266502 0.000000
0.357120 0.266502 0.000000
0.386880 0.266502 0.000000
0.416640 0.266502 0.000000
0.446400 0.266502 0.000000
0.476160 0.266502 0.000000
0.509280 0.266502 0.000000
0.538560 0.266502 0.000000
0.586908 0.263337 0.000000
0.614078 0.263807 0.000000
0.641247 0.264239 0.000000
0.668416 0.264637 0.000000
0.695586 0.265005 0.000000
0.722755 0.265346 0.000000
0.749925 0.265663 0.000000
0.777094 0.265958 0.000000
0.804263 0.266235 0.000000
0.831433 0.266493 0.000000
0.858602 0.266736 0.000000
0.885772 0.266964 0.000000
0.912941 0.267179 0.000000
0.940110 0.267382 0.000000
0.000000 0.296137 0.000000
0.029760 0.296137 0.000000
0.059520 0.296137 0.000000
0.089280 0.296137 0.000000
0.119040 0.296137 0.000000
0.148800 0.296137 0.000000
0.178560 0.296137 0.000000
0.208320 0.296137 0.000000
0.238080 0.296137 0.000000
0.267840 0.296137 0.000000
0.297600 0.296137 0.000000
0.327360 0.296137 0.000000
0.357120 0.296137 0.000000
0.386880 0.296137 0.000000
0.416640 0.296137 0.000000
0.446400 0.296137 0.000000
0.476160 0.296137 0.000000
0.509280 0.296137 0.000000
0.538560 0.296137 0.000000
0.586908 0.292621 0.000000
0.614078 0.293143 0.000000
0.641247 0.293623 0.000000
0.668416 0.294065 0.000000
0.695586 0.294474 0.000000
0.722755 0.294853 0.000000
0.749925 0.295205 0.000000
0.777094 0.295533 0.000000
0.804263 0.295840 0.000000
0.831433 0.296128 0.000000
0.858602 0.296398 0.000000
0.885772 0.296651 0.000000
0.912941 0.296890 0.000000
0.940110 0.297116 0.000000
0.000000 0.325773 0.000000
0.029760 0.325773 0.000000
0.059520 0.325773 0.000000
0.089280 0.325773 0.000000
0.119040 0.325773 0.000000
0.148800 0.325773 0.000000
0.178560 0.325773 0.000000
0.208320 0.325773 0.000000
0.238080 0.325773 0.000000
0.267840 0.325773 0.000000
0.297600 0.325773 0.000000
0.327360 0.325773 0.000000
0.357120 0.325773 0.000000
0.386880 0.325773 0.000000
0.416640 0.325773 0.000000
0.446400 0.325773 0.000000
0.476160 0.325773 0.000000
0.509280 0.325773 0.000000
0.538560 0.325773 0.000000
0.586908 0.321905 0.000000
0.614078 0.322479 0.000000
0.641247 0.323007 0.000000
0.668416 0.323493 0.000000
0.695586 0.323943 0.000000
0.722755 0.324360 0.000000
0.749925 0.324747 0.000000
0.777094 0.325109 0.000000
0.804263 0.325446 0.000000
0.831433 0.325763 0.000000
0.858602 0.326059 0.000000
0.885772 0.326338 0.000000
0.912941 0.326601 0.000000
0.940110 0.326849 0.000000
0.000000 0.355409 0.000000
0.029760 0.355409 0.000000
0.059520 0.355409 0.000000
0.089280 0.355409 0.000000
0.119040 0.355409 0.000000
0.148800 0.355409 0.000000
0.178560 0.355409 0.000000
0.208320 0.355409 0.000000
0.238080 0.355409 0.000000
0.267840 0.355409 0.000000
0.297600 0.355409 0.000000
0.327360 0.355409 0.000000
0.357120 0.355409 0.000000
0.386880 0.355409 0.000000
0.416640 0.355409 0.000000
0.446400 0.355409 0.000000
0.476160 0.355409 0.000000
0.509280 0.355409 0.000000
0.538560 0.355409 0.000000
0.586908 0.351189 0.000000
0.614078 0.351815 0.000000
0.641247 0.352391 0.000000
0.668416 0.352922 0.000000
0.695586 0.353412 0.000000
0.722755 0.353867 0.000000
0.749925 0.354290 0.000000
0.777094 0.354684 0.000000
0.804263 0.355052 0.000000
0.831433 0.355397 0.000000
0.858602 0.355721 0.000000
0.885772 0.356025 0.000000
0.912941 0.356312 0.000000
0.940110 0.356583 0.000000
0.000000 0.385044 0.000000
0.029760 0.385044 0.000000
0.059520 0.385044 0.000000
0.089280 0.385044 0.000000
0.119040 0.385044 0.000000
0.148800 0.385044 0.000000
0.178560 0.385044 0.000000
0.208320 0.385044 0.000000
0.238080 0.385044 0.000000
0.267840 0.385044 0.000000
0.297600 0.385044 0.000000
0.327360 0.385044 0.000000
0.357120 0.385044 0.000000
0.386880 0.385044 0.000000
0.416640 0.385044 0.000000
0.446400 0.385044 0.000000
0.476160 0.385044 0.000000
0.509280 0.385044 0.000000
0.538560 0.385044 0.000000
0.586908 0.380472 0.000000
0.614078 0.381151 0.000000
0.641247 0.381775 0.000000
0.668416 0.382350 0.000000
0.695586 0.382881 0.000000
0.722755 0.383374 0.000000
0.749925 0.383832 0.000000
0.777094 0.384259 0.000000
0.804263 0.384658 0.000000
0.831433 0.385032 0.000000
0.858602 0.385383 0.000000
0.885772 0.385713 0.000000
0.912941 0.386023 0.000000
0.940110 0.386316 0.000000
0.000000 0.414680 0.000000
0.029760 0.414680 0.000000
0.059520 0.414680 0.000000
0.089280 0.414680 0.000000
0.119040 0.414680 0.000000
0.148800 0.414680 0.000000
0.178560 0.414680 0.000000
0.208320 0.414680 0.000000
0.238080 0.414680 0.000000
0.267840 0.414680 0.000000
0.297600 0.414680 0.000000
0.327360 0.414680 0.000000
0.357120 0.414680 0.000000
0.386880 0.414680 0.000000
0.416640 0.414680 0.000000
0.446400 0.414680 0.000000
0.476160 0.414680 0.000000
0.509280 0.414680 0.000000
0.538560 0.414680 0.000000
0.586908 0.409756 0.000000
0.614078 0.410487 0.000000
0.641247 0.411159 0.000000
0.668416 0.411778 0.000000
0.695586 0.412350 0.000000
0.722755 0.412881 0.000000
0.749925 0.413374 0.000000
0.777094 0.413834 0.000000
0.804263 0.414264 0.000000
0.831433 0.414667 0.000000
0.858602 0.415044 0.000000
0.885772 0.415400 0.000000
0.912941 0.415734 0.000000
0.940110 0.416050 0.000000
0.000000 0.444316 0.000000
0.029760 0.444316 0.000000
0.059520 0.444316 0.000000
0.089280 0.444316 0.000000
0.119040 0.444316 0.000000
0.148800 0.444316 0.000000
0.178560 0.444316 0.000000
0.208320 0.444316 0.000000
0.238080 0.444316 0.000000
0.267840 0.444316 0.000000
0.297600 0.444316 0.000000
0.327360 0.444316 0.000000
0.357120 0.444316 0.000000
0.386880 0.444316 0.000000
0.416640 0.444316 0.000000
0.446400 0.444316 0.000000
0.476160 0.444316 0.000000
0.509280 0.444316 0.000000
0.538560 0.444316 0.000000
0.586908 0.439040 0.000000
0.614078 0.439823 0.000000
0.641247 0.440543 0.000000
0.668416 0.441206 0.000000
0.695586 0.441819 0.000000
0.722755 0.442388 0.000000
0.749925 0.442917 0.000000
0.777094 0.443409 0.000000
0.804263 0.443870 0.000000
0.831433 0.444301 0.000000
0.858602 0.444706 0.000000
0.885772 0.445087 0.000000
0.912941 0.445445 0.000000
0.940110 0.445784 0.000000
0.000000 0.473951 0.000000
0.029760 0.473951 0.000000
0.059520 0.473951 0.000000
0.089280 0.473951 0.000000
0.119040 0.473951 0.000000
0.148800 0.473951 0.000000
0.178560 0.473951 0.000000
0.208320 0.473951 0.000000
0.238080 0.473951 0.000000
0.267840 0.473951 0.000000
0.297600 0.473951 0.000000
0.327360 0.473951 0.000000
0.357120 0.473951 0.000000
0.386880 0.473951 0.000000
0.416640 0.473951 0.000000
0.446400 0.473951 0.000000
0.476160 0.473951 0.000000
0.509280 0.473951 0.000000
0.538560 0.473951 0.000000
0.586908 0.468324 0.000000
0.614078 0.469159 0.000000
0.641247 0.469927 0.000000
0.668416 0.470634 0.000000
0.695586 0.471289 0.000000
0.722755 0.471895 0.000000
0.749925 0.472459 0.000000
0.777094 0.472985 0.000000
0.804263 0.473476 0.000000
0.831433 0.473936 0.000000
0.858602 0.474368 0.000000
0.885772 0.474774 0.000000
0.912941 0.475156 0.000000
0.940110 0.475517 0.000000
0.000000 0.506985 0.000000
0.029760 0.506985 0.000000
0.059520 0.506985 0.000000
0.089280 0.506985 0.000000
0.119040 0.506985 0.000000
0.148800 0.506985 0.000000
0.178560 0.506985 0.000000
0.208320 0.506985 0.000000
0.238080 0.506985 0.000000
0.267840 0.506985 0.000000
0.297600 0.506985 0.000000
0.327360 0.506985 0.000000
0.357120 0.506985 0.000000
0.386880 0.506985 0.000000
0.416640 0.506985 0.000000
0.446400 0.506985 0.000000
0.476160 0.506985 0.000000
0.509280 0.506985 0.000000
0.538560 0.506985 0.000000
0.586908 0.500965 0.000000
0.614078 0.501859 0.000000
0.641247 0.502680 0.000000
0.668416 0.503437 0.000000
0.695586 0.504136 0.000000
0.722755 0.504785 0.000000
0.749925 0.505388 0.000000
0.777094 0.505951 0.000000
0.804263 0.506476 0.000000
0.831433 0.534098 0.000000
0.858602 0.534133 0.000000
0.885772 0.534138 0.000000
0.912941 0.534116 0.000000
0.940110 0.534069 0.000000
0.000000 0.536142 0.000000
0.029760 0.536142 0.000000
0.059520 0.536142 0.000000
0.089280 0.536142 0.000000
0.119040 0.536142 0.000000
0.148800 0.536142 0.000000
0.178560 0.536142 0.000000
0.208320 0.536142 0.000000
0.238080 0.536142 0.000000
0.267840 0.536142 0.000000
0.297600 0.536142 0.000000
0.327360 0.536142 0.000000
0.357120 0.536142 0.000000
0.386880 0.536142 0.000000
0.416640 0.536142 0.000000
0.446400 0.536142 0.000000
0.476160 0.536142 0.000000
0.509280 0.536142 0.000000
0.538560 0.536142 0.000000
0.586908 0.529776 0.000000
0.614078 0.530722 0.000000
0.641247 0.531590 0.000000
0.668416 0.532390 0.000000
0.695586 0.559936 0.000000
0.722755 0.560207 0.000000
0.749925 0.560427 0.000000
0.777094 0.560600 0.000000
0.804263 0.560732 0.000000
0.831433 0.560825 0.000000
0.858602 0.560885 0.000000
0.885772 0.560913 0.000000
0.912941 0.560912 0.000000
0.940110 0.560885 0.000000
0.000000 0.584551 0.000000
0.029402 0.584551 0.000000
0.058804 0.584551 0.000000
0.088206 0.584551 0.000000
0.117607 0.584551 0.000000
0.147009 0.584551 0.000000
0.176411 0.584551 0.000000
0.205813 0.584551 0.000000
0.235215 0.584551 0.000000
0.264617 0.584551 0.000000
0.294019 0.584551 0.000000
0.323420 0.584551 0.000000
0.352822 0.584551 0.000000
0.382224 0.584551 0.000000
0.411626 0.584551 0.000000
0.441028 0.584551 0.000000
0.470430 0.584551 0.000000
0.503151 0.584551 0.000000
0.532079 0.584551 0.000000
0.586908 0.584607 0.000000
0.614078 0.585204 0.000000
0.641247 0.585714 0.000000
0.668416 0.586148 0.000000
0.695586 0.586514 0.000000
0.722755 0.586819 0.000000
0.749925 0.587071 0.000000
0.777094 0.587273 0.000000
0.804263 0.587433 0.000000
0.831433 0.587552 0.000000
0.858602 0.587636 0.000000
0.885772 0.587687 0.000000
0.912941 0.587708 0.000000
0.940110 0.587702 0.000000
0.000000 0.611607 0.000000
0.029455 0.611607 0.000000
0.058909 0.611607 0.000000
0.088364 0.611607 0.000000
0.117818 0.611607 0.000000
0.147273 0.611607 0.000000
0.176727 0.611607 0.000000
0.206182 0.611607 0.000000
0.235636 0.611607 0.000000
0.265091 0.611607 0.000000
0.294545 0.611607 0.000000
0.324000 0.611607 0.000000
0.353454 0.611607 0.000000
0.382909 0.611607 0.000000
0.412363 0.611607 0.000000
0.441818 0.611607 0.000000
0.471272 0.611607 0.000000
0.504052 0.611607 0.000000
0.533032 0.611607 0.000000
0.587458 0.611607 0.000000
0.614078 0.611662 0.000000
0.641247 0.612215 0.000000
0.668416 0.612689 0.000000
0.695586 0.613091 0.000000
0.722755 0.613431 0.000000
0.749925 0.613714 0.000000
0.777094 0.613947 0.000000
0.804263 0.614134 0.000000
0.831433 0.614279 0.000000
0.858602 0.614387 0.000000
0.885772 0.614461 0.000000
0.912941 0.614504 0.000000
0.940110 0.614518 0.000000
0.000000 0.638663 0.000000
0.029503 0.638663 0.000000
0.059006 0.638663 0.000000
0.088509 0.638663 0.000000
0.118012 0.638663 0.000000
0.147514 0.638663 0.000000
0.177017 0.638663 0.000000
0.206520 0.638663 0.000000
0.236023 0.638663 0.000000
0.265526 0.638663 0.000000
0.295029 0.638663 0.000000
0.324532 0.638663 0.000000
0.354035 0.638663 0.000000
0.383538 0.638663 0.000000
0.413041 0.638663 0.000000
0.442543 0.638663 0.000000
0.472046 0.638663 0.000000
0.504880 0.638663 0.000000
0.533907 0.638663 0.000000
0.587977 0.638663 0.000000
0.614585 0.638663 0.000000
0.641247 0.638716 0.000000
0.668416 0.639229 0.000000
0.695586 0.639669 0.000000
0.722755 0.640043 0.000000
0.749925 0.640358 0.000000
0.777094 0.640620 0.000000
0.804263 0.640835 0.000000
0.831433 0.641006 0.000000
0.858602 0.641139 0.000000
0.885772 0.641235 0.000000
0.912941 0.641299 0.000000
0.940110 0.641334 0.000000
0.000000 0.665719 0.000000
0.029547 0.665719 0.000000
0.059095 0.665719 0.000000
0.088642 0.665719 0.000000
0.118190 0.665719 0.000000
0.147737 0.665719 0.000000
0.177285 0.665719 0.000000
0.206832 0.665719 0.000000
0.236380 0.665719 0.000000
0.265927 0.665719 0.000000
0.295475 0.665719 0.000000
0.325022 0.665719 0.000000
0.354570 0.665719 0.000000
0.384117 0.665719 0.000000
0.413665 0.665719 0.000000
0.443212 0.665719 0.000000
0.472760 0.665719 0.000000
0.505643 0.665719 0.000000
0.561771 0.665719 0.000000
0.588420 0.665719 0.000000
0.615068 0.665719 0.000000
0.641716 0.665719 0.000000
0.668416 0.665770 0.000000
0.695586 0.666247 0.000000
0.722755 0.666655 0.000000
0.749925 0.667002 0.000000
0.777094 0.667293 0.000000
0.804263 0.667536 0.000000
0.831433 0.667733 0.000000
0.858602 0.667890 0.000000
0.885772 0.668009 0.000000
0.912941 0.668095 0.000000
0.940110 0.668150 0.000000
0.000000 0.692775 0.000000
0.029589 0.692775 0.000000
0.059177 0.692775 0.000000
0.088766 0.692775 0.000000
0.118355 0.692775 0.000000
0.147943 0.692775 0.000000
0.177532 0.692775 0.000000
0.207121 0.692775 0.000000
0.236710 0.692775 0.000000
0.266298 0.692775 0.000000
0.295887 0.692775 0.000000
0.325476 0.692775 0.000000
0.355064 0.692775 0.000000
0.384653 0.692775 0.000000
0.414242 0.692775 0.000000
0.443830 0.692775 0.000000
0.473419 0.692775 0.000000
0.506348 0.692775 0.000000
0.562108 0.692775 0.000000
0.588794 0.692775 0.000000
0.615479 0.692775 0.000000
0.642165 0.692775 0.000000
0.668850 0.692775 0.000000
0.695586 0.692824 0.000000
0.722755 0.693267 0.000000
0.749925 0.693645 0.000000
0.777094 0.693967 0.000000
0.804263 0.694237 0.000000
0.831433 0.694460 0.000000
0.858602 0.694641 0.000000
0.885772 0.694784 0.000000
0.912941 0.694891 0.000000
0.940110 0.694966 0.000000
0.000000 0.719830 0.000000
0.029627 0.719830 0.000000
0.059254 0.719830 0.000000
0.088881 0.719830 0.000000
0.118508 0.719830 0.000000
0.148135 0.719830 0.000000
0.177761 0.719830 0.000000
0.207388 0.719830 0.000000
0.237015 0.719830 0.000000
0.266642 0.719830 0.000000
0.296269 0.719830 0.000000
0.325896 0.719830 0.000000
0.355523 0.719830 0.000000
0.385150 0.719830 0.000000
0.414777 0.719830 0.000000
0.444404 0.719830 0.000000
0.474031 0.719830 0.000000
0.507003 0.719830 0.000000
0.562387 0.719830 0.000000
0.589107 0.719830 0.000000
0.615827 0.719830 0.000000
0.642547 0.719830 0.000000
0.669267 0.719830 0.000000
0.695987 0.719830 0.000000
0.722755 0.719878 0.000000
0.749925 0.720289 0.000000
0.777094 0.720640 0.000000
0.804263 0.720938 0.000000
0.831433 0.721187 0.000000
0.858602 0.721392 0.000000
0.885772 0.721558 0.000000
0.912941 0.721687 0.000000
0.940110 0.721782 0.000000
0.000000 0.746886 0.000000
0.029662 0.746886 0.000000
0.059325 0.746886 0.000000
0.088987 0.746886 0.000000
0.118650 0.746886 0.000000
0.148312 0.746886 0.000000
0.177975 0.746886 0.000000
0.207637 0.746886 0.000000
0.237300 0.746886 0.000000
0.266962 0.746886 0.000000
0.296625 0.746886 0.000000
0.326287 0.746886 0.000000
0.355949 0.746886 0.000000
0.385612 0.746886 0.000000
0.415274 0.746886 0.000000
0.444937 0.746886 0.000000
0.474599 0.746886 0.000000
0.507611 0.746886 0.000000
0.562614 0.746886 0.000000
0.589366 0.746886 0.000000
0.616118 0.746886 0.000000
0.642870 0.746886 0.000000
0.669622 0.746886 0.000000
0.696374 0.746886 0.000000
0.723126 0.746886 0.000000
0.749925 0.746933 0.000000
0.777094 0.747313 0.000000
0.804263 0.747639 0.000000
0.831433 0.747914 0.000000
0.858602 0.748144 0.000000
0.885772 0.748332 0.000000
0.912941 0.748483 0.000000
0.940110 0.748598 0.000000
0.000000 0.773942 0.000000
0.029696 0.773942 0.000000
0.059391 0.773942 0.000000
0.089087 0.773942 0.000000
0.118782 0.773942 0.000000
0.148478 0.773942 0.000000
0.178174 0.773942 0.000000
0.207869 0.773942 0.000000
0.237565 0.773942 0.000000
0.267260 0.773942 0.000000
0.296956 0.773942 0.000000
0.326651 0.773942 0.000000
0.356347 0.773942 0.000000
0.386043 0.773942 0.000000
0.415738 0.773942 0.000000
0.445434 0.773942 0.000000
0.475129 0.773942 0.000000
0.508178 0.773942 0.000000
0.562794 0.773942 0.000000
0.589576 0.773942 0.000000
0.616358 0.773942 0.000000
0.643140 0.773942 0.000000
0.669921 0.773942 0.000000
0.696703 0.773942 0.000000
