docs/luts/fuji_recipes/Classic_DC_Classic_Chrome_II.cube
TITLE "Fujifilm Recipe: DC Classic Chrome II (Classic)"
# FilmSim=Classic HL=0 SH=0 Col=3 WB=Auto WBR=0 WBB=0
LUT_3D_SIZE 33
DOMAIN_MIN 0.0 0.0 0.0
DOMAIN_MAX 1.0 1.0 1.0
0.000000 0.000000 0.000000
0.031000 0.000000 0.000000
0.062000 0.000000 0.000000
0.093000 0.000000 0.000000
0.124000 0.000000 0.000000
0.155000 0.000000 0.000000
0.186000 0.000000 0.000000
0.217000 0.000000 0.000000
0.248000 0.000000 0.000000
0.279000 0.000000 0.000000
0.310000 0.000000 0.000000
0.341000 0.000000 0.000000
0.372000 0.000000 0.000000
0.403000 0.000000 0.000000
0.434000 0.000000 0.000000
0.465000 0.000000 0.000000
0.496000 0.000000 0.000000
0.530500 0.000000 0.000000
0.561000 0.000000 0.000000
0.591500 0.000000 0.000000
0.622000 0.000000 0.000000
0.652500 0.000000 0.000000
0.683000 0.000000 0.000000
0.713500 0.000000 0.000000
0.744000 0.000000 0.000000
0.774500 0.000000 0.000000
0.805000 0.000000 0.000000
0.835500 0.000000 0.000000
0.866000 0.000000 0.000000
0.896500 0.000000 0.000000
0.927000 0.000000 0.000000
0.957500 0.000000 0.000000
0.988000 0.000000 0.000000
0.000000 0.030690 0.000000
0.031000 0.030690 0.000000
0.062000 0.030690 0.000000
0.093000 0.030690 0.000000
0.124000 0.030690 0.000000
0.155000 0.030690 0.000000
0.186000 0.030690 0.000000
0.217000 0.030690 0.000000
0.248000 0.030690 0.000000
0.279000 0.030690 0.000000
0.310000 0.030690 0.000000
0.341000 0.030690 0.000000
0.372000 0.030690 0.000000
0.403000 0.030690 0.000000
0.434000 0.030690 0.000000
0.465000 0.030690 0.000000
0.496000 0.030690 0.000000
0.530500 0.030690 0.000000
0.561000 0.030690 0.000000
0.591500 0.030690 0.000000
0.622000 0.030690 0.000000
0.652500 0.030690 0.000000
0.683000 0.030690 0.000000
0.713500 0.030690 0.000000
0.744000 0.030690 0.000000
0.774500 0.030690 0.000000
0.805000 0.030690 0.000000
0.835500 0.030690 0.000000
0.866000 0.030690 0.000000
0.896500 0.030690 0.000000
0.927000 0.030690 0.000000
0.957500 0.030690 0.000000
0.988000 0.030690 0.000000
0.000000 0.061513 0.000000
0.031000 0.061513 0.000000
0.062000 0.061513 0.000000
0.093000 0.061513 0.000000
0.124000 0.061513 0.000000
0.155000 0.061513 0.000000
0.186000 0.061513 0.000000
0.217000 0.061513 0.000000
0.248000 0.061513 0.000000
0.279000 0.061513 0.000000
0.310000 0.061513 0.000000
0.341000 0.061513 0.000000
0.372000 0.061513 0.000000
0.403000 0.061513 0.000000
0.434000 0.061513 0.000000
0.465000 0.061513 0.000000
0.496000 0.061513 0.000000
0.530500 0.061513 0.000000
0.561000 0.061513 0.000000
0.591500 0.061513 0.000000
0.622000 0.061513 0.000000
0.652500 0.061513 0.000000
0.683000 0.061513 0.000000
0.713500 0.061513 0.000000
0.744000 0.061513 0.000000
0.774500 0.061513 0.000000
0.805000 0.061513 0.000000
0.835500 0.061513 0.000000
0.866000 0.061513 0.000000
0.896500 0.061513 0.000000
0.927000 0.061513 0.000000
0.957500 0.061513 0.000000
0.988000 0.061513 0.000000
0.000000 0.092383 0.000000
0.031000 0.092383 0.000000
0.062000 0.092383 0.000000
0.093000 0.092383 0.000000
0.124000 0.092383 0.000000
0.155000 0.092383 0.000000
0.186000 0.092383 0.000000
0.217000 0.092383 0.000000
0.248000 0.092383 0.000000
0.279000 0.092383 0.000000
0.310000 0.092383 0.000000
0.341000 0.092383 0.000000
0.372000 0.092383 0.000000
0.403000 0.092383 0.000000
0.434000 0.092383 0.000000
0.465000 0.092383 0.000000
0.496000 0.092383 0.000000
0.530500 0.092383 0.000000
0.561000 0.092383 0.000000
0.591500 0.092383 0.000000
0.622000 0.092383 0.000000
0.652500 0.092383 0.000000
0.683000 0.092383 0.000000
0.713500 0.092383 0.000000
0.744000 0.092383 0.000000
0.774500 0.092383 0.000000
0.805000 0.092383 0.000000
0.835500 0.092383 0.000000
0.866000 0.092383 0.000000
0.896500 0.092383 0.000000
0.927000 0.092383 0.000000
0.957500 0.092383 0.000000
0.988000 0.092383 0.000000
0.000000 0.123254 0.000000
0.031000 0.123254 0.000000
0.062000 0.123254 0.000000
0.093000 0.123254 0.000000
0.124000 0.123254 0.000000
0.155000 0.123254 0.000000
0.186000 0.123254 0.000000
0.217000 0.123254 0.000000
0.248000 0.123254 0.000000
0.279000 0.123254 0.000000
0.310000 0.123254 0.000000
0.341000 0.123254 0.000000
0.372000 0.123254 0.000000
0.403000 0.123254 0.000000
0.434000 0.123254 0.000000
0.465000 0.123254 0.000000
0.496000 0.123254 0.000000
0.530500 0.123254 0.000000
0.561000 0.123254 0.000000
0.591500 0.123254 0.000000
0.622000 0.123254 0.000000
0.652500 0.123254 0.000000
0.683000 0.123254 0.000000
0.713500 0.123254 0.000000
0.744000 0.123254 0.000000
0.774500 0.123254 0.000000
0.805000 0.123254 0.000000
0.835500 0.123254 0.000000
0.866000 0.123254 0.000000
0.896500 0.123254 0.000000
0.927000 0.123254 0.000000
0.957500 0.123254 0.000000
0.988000 0.123254 0.000000
0.000000 0.154124 0.000000
0.031000 0.154124 0.000000
0.062000 0.154124 0.000000
0.093000 0.154124 0.000000
0.124000 0.154124 0.000000
0.155000 0.154124 0.000000
0.186000 0.154124 0.000000
0.217000 0.154124 0.000000
0.248000 0.154124 0.000000
0.279000 0.154124 0.000000
0.310000 0.154124 0.000000
0.341000 0.154124 0.000000
0.372000 0.154124 0.000000
0.403000 0.154124 0.000000
0.434000 0.154124 0.000000
0.465000 0.154124 0.000000
0.496000 0.154124 0.000000
0.530500 0.154124 0.000000
0.561000 0.154124 0.000000
0.591500 0.154124 0.000000
0.622000 0.154124 0.000000
0.652500 0.154124 0.000000
0.683000 0.154124 0.000000
0.713500 0.154124 0.000000
0.744000 0.154124 0.000000
0.774500 0.154124 0.000000
0.805000 0.154124 0.000000
0.835500 0.154124 0.000000
0.866000 0.154124 0.000000
0.896500 0.154124 0.000000
0.927000 0.154124 0.000000
0.957500 0.154124 0.000000
0.988000 0.154124 0.000000
0.000000 0.184995 0.000000
0.031000 0.184995 0.000000
0.062000 0.184995 0.000000
0.093000 0.184995 0.000000
0.124000 0.184995 0.000000
0.155000 0.184995 0.000000
0.186000 0.184995 0.000000
0.217000 0.184995 0.000000
0.248000 0.184995 0.000000
0.279000 0.184995 0.000000
0.310000 0.184995 0.000000
0.341000 0.184995 0.000000
0.372000 0.184995 0.000000
0.403000 0.184995 0.000000
0.434000 0.184995 0.000000
0.465000 0.184995 0.000000
0.496000 0.184995 0.000000
0.530500 0.184995 0.000000
0.561000 0.184995 0.000000
0.591500 0.184995 0.000000
0.622000 0.184995 0.000000
0.652500 0.184995 0.000000
0.683000 0.184995 0.000000
0.713500 0.184995 0.000000
0.744000 0.184995 0.000000
0.774500 0.184995 0.000000
0.805000 0.184995 0.000000
0.835500 0.184995 0.000000
0.866000 0.184995 0.000000
0.896500 0.184995 0.000000
0.927000 0.184995 0.000000
0.957500 0.184995 0.000000
0.988000 0.184995 0.000000
0.000000 0.215865 0.000000
0.031000 0.215865 0.000000
0.062000 0.215865 0.000000
0.093000 0.215865 0.000000
0.124000 0.215865 0.000000
0.155000 0.215865 0.000000
0.186000 0.215865 0.000000
0.217000 0.215865 0.000000
0.248000 0.215865 0.000000
0.279000 0.215865 0.000000
0.310000 0.215865 0.000000
0.341000 0.215865 0.000000
0.372000 0.215865 0.000000
0.403000 0.215865 0.000000
0.434000 0.215865 0.000000
0.465000 0.215865 0.000000
0.496000 0.215865 0.000000
0.530500 0.215865 0.000000
0.561000 0.215865 0.000000
0.591500 0.215865 0.000000
0.622000 0.215865 0.000000
0.652500 0.215865 0.000000
0.683000 0.215865 0.000000
0.713500 0.215865 0.000000
0.744000 0.215865 0.000000
0.774500 0.215865 0.000000
0.805000 0.215865 0.000000
0.835500 0.215865 0.000000
0.866000 0.215865 0.000000
0.896500 0.215865 0.000000
0.927000 0.215865 0.000000
0.957500 0.215865 0.000000
0.988000 0.215865 0.000000
0.000000 0.246736 0.000000
0.031000 0.246736 0.000000
0.062000 0.246736 0.000000
0.093000 0.246736 0.000000
0.124000 0.246736 0.000000
0.155000 0.246736 0.000000
0.186000 0.246736 0.000000
0.217000 0.246736 0.000000
0.248000 0.246736 0.000000
0.279000 0.246736 0.000000
0.310000 0.246736 0.000000
0.341000 0.246736 0.000000
0.372000 0.246736 0.000000
0.403000 0.246736 0.000000
0.434000 0.246736 0.000000
0.465000 0.246736 0.000000
0.496000 0.246736 0.000000
0.530500 0.246736 0.000000
0.561000 0.246736 0.000000
0.591500 0.246736 0.000000
0.622000 0.246736 0.000000
0.652500 0.246736 0.000000
0.683000 0.246736 0.000000
0.713500 0.246736 0.000000
0.744000 0.246736 0.000000
0.774500 0.246736 0.000000
0.805000 0.246736 0.000000
0.835500 0.246736 0.000000
0.866000 0.246736 0.000000
0.896500 0.246736 0.000000
0.927000 0.246736 0.000000
0.957500 0.246736 0.000000
0.988000 0.246736 0.000000
0.000000 0.277606 0.000000
0.031000 0.277606 0.000000
0.062000 0.277606 0.000000
0.093000 0.277606 0.000000
0.124000 0.277606 0.000000
0.155000 0.277606 0.000000
0.186000 0.277606 0.000000
0.217000 0.277606 0.000000
0.248000 0.277606 0.000000
0.279000 0.277606 0.000000
0.310000 0.277606 0.000000
0.341000 0.277606 0.000000
0.372000 0.277606 0.000000
0.403000 0.277606 0.000000
0.434000 0.277606 0.000000
0.465000 0.277606 0.000000
0.496000 0.277606 0.000000
0.530500 0.277606 0.000000
0.561000 0.277606 0.000000
0.591500 0.277606 0.000000
0.622000 0.277606 0.000000
0.652500 0.277606 0.000000
0.683000 0.277606 0.000000
0.713500 0.277606 0.000000
0.744000 0.277606 0.000000
0.774500 0.277606 0.000000
0.805000 0.277606 0.000000
0.835500 0.277606 0.000000
0.866000 0.277606 0.000000
0.896500 0.277606 0.000000
0.927000 0.277606 0.000000
0.957500 0.277606 0.000000
0.988000 0.277606 0.000000
0.000000 0.308477 0.000000
0.031000 0.308477 0.000000
0.062000 0.308477 0.000000
0.093000 0.308477 0.000000
0.124000 0.308477 0.000000
0.155000 0.308477 0.000000
0.186000 0.308477 0.000000
0.217000 0.308477 0.000000
0.248000 0.308477 0.000000
0.279000 0.308477 0.000000
0.310000 0.308477 0.000000
0.341000 0.308477 0.000000
0.372000 0.308477 0.000000
0.403000 0.308477 0.000000
0.434000 0.308477 0.000000
0.465000 0.308477 0.000000
0.496000 0.308477 0.000000
0.530500 0.308477 0.000000
0.561000 0.308477 0.000000
0.591500 0.308477 0.000000
0.622000 0.308477 0.000000
0.652500 0.308477 0.000000
0.683000 0.308477 0.000000
0.713500 0.308477 0.000000
0.744000 0.308477 0.000000
0.774500 0.308477 0.000000
0.805000 0.308477 0.000000
0.835500 0.308477 0.000000
0.866000 0.308477 0.000000
0.896500 0.308477 0.000000
0.927000 0.308477 0.000000
0.957500 0.308477 0.000000
0.988000 0.308477 0.000000
0.000000 0.339347 0.000000
0.031000 0.339347 0.000000
0.062000 0.339347 0.000000
0.093000 0.339347 0.000000
0.124000 0.339347 0.000000
0.155000 0.339347 0.000000
0.186000 0.339347 0.000000
0.217000 0.339347 0.000000
0.248000 0.339347 0.000000
0.279000 0.339347 0.000000
0.310000 0.339347 0.000000
0.341000 0.339347 0.000000
0.372000 0.339347 0.000000
0.403000 0.339347 0.000000
0.434000 0.339347 0.000000
0.465000 0.339347 0.000000
0.496000 0.339347 0.000000
0.530500 0.339347 0.000000
0.561000 0.339347 0.000000
0.591500 0.339347 0.000000
0.622000 0.339347 0.000000
0.652500 0.339347 0.000000
0.683000 0.339347 0.000000
0.713500 0.339347 0.000000
0.744000 0.339347 0.000000
0.774500 0.339347 0.000000
0.805000 0.339347 0.000000
0.835500 0.339347 0.000000
0.866000 0.339347 0.000000
0.896500 0.339347 0.000000
0.927000 0.339347 0.000000
0.957500 0.339347 0.000000
0.988000 0.339347 0.000000
0.000000 0.370217 0.000000
0.031000 0.370217 0.000000
0.062000 0.370217 0.000000
0.093000 0.370217 0.000000
0.124000 0.370217 0.000000
0.155000 0.370217 0.000000
0.186000 0.370217 0.000000
0.217000 0.370217 0.000000
0.248000 0.370217 0.000000
0.279000 0.370217 0.000000
0.310000 0.370217 0.000000
0.341000 0.370217 0.000000
0.372000 0.370217 0.000000
0.403000 0.370217 0.000000
0.434000 0.370217 0.000000
0.465000 0.370217 0.000000
0.496000 0.370217 0.000000
0.530500 0.370217 0.000000
0.561000 0.370217 0.000000
0.591500 0.370217 0.000000
0.622000 0.370217 0.000000
0.652500 0.370217 0.000000
0.683000 0.370217 0.000000
0.713500 0.370217 0.000000
0.744000 0.370217 0.000000
0.774500 0.370217 0.000000
0.805000 0.370217 0.000000
0.835500 0.370217 0.000000
0.866000 0.370217 0.000000
0.896500 0.370217 0.000000
0.927000 0.370217 0.000000
0.957500 0.370217 0.000000
0.988000 0.370217 0.000000
0.000000 0.401088 0.000000
0.031000 0.401088 0.000000
0.062000 0.401088 0.000000
0.093000 0.401088 0.000000
0.124000 0.401088 0.000000
0.155000 0.401088 0.000000
0.186000 0.401088 0.000000
0.217000 0.401088 0.000000
0.248000 0.401088 0.000000
0.279000 0.401088 0.000000
0.310000 0.401088 0.000000
0.341000 0.401088 0.000000
0.372000 0.401088 0.000000
0.403000 0.401088 0.000000
0.434000 0.401088 0.000000
0.465000 0.401088 0.000000
0.496000 0.401088 0.000000
0.530500 0.401088 0.000000
0.561000 0.401088 0.000000
0.591500 0.401088 0.000000
0.622000 0.401088 0.000000
0.652500 0.401088 0.000000
0.683000 0.401088 0.000000
0.713500 0.401088 0.000000
0.744000 0.401088 0.000000
0.774500 0.401088 0.000000
0.805000 0.401088 0.000000
0.835500 0.401088 0.000000
0.866000 0.401088 0.000000
0.896500 0.401088 0.000000
0.927000 0.401088 0.000000
0.957500 0.401088 0.000000
0.988000 0.401088 0.000000
0.000000 0.431958 0.000000
0.031000 0.431958 0.000000
0.062000 0.431958 0.000000
0.093000 0.431958 0.000000
0.124000 0.431958 0.000000
0.155000 0.431958 0.000000
0.186000 0.431958 0.000000
0.217000 0.431958 0.000000
0.248000 0.431958 0.000000
0.279000 0.431958 0.000000
0.310000 0.431958 0.000000
0.341000 0.431958 0.000000
0.372000 0.431958 0.000000
0.403000 0.431958 0.000000
0.434000 0.431958 0.000000
0.465000 0.431958 0.000000
0.496000 0.431958 0.000000
0.530500 0.431958 0.000000
0.561000 0.431958 0.000000
0.591500 0.431958 0.000000
0.622000 0.431958 0.000000
0.652500 0.431958 0.000000
0.683000 0.431958 0.000000
0.713500 0.431958 0.000000
0.744000 0.431958 0.000000
0.774500 0.431958 0.000000
0.805000 0.431958 0.000000
0.835500 0.431958 0.000000
0.866000 0.431958 0.000000
0.896500 0.431958 0.000000
0.927000 0.431958 0.000000
0.957500 0.431958 0.000000
0.988000 0.431958 0.000000
0.000000 0.462829 0.000000
0.031000 0.462829 0.000000
0.062000 0.462829 0.000000
0.093000 0.462829 0.000000
0.124000 0.462829 0.000000
0.155000 0.462829 0.000000
0.186000 0.462829 0.000000
0.217000 0.462829 0.000000
0.248000 0.462829 0.000000
0.279000 0.462829 0.000000
0.310000 0.462829 0.000000
0.341000 0.462829 0.000000
0.372000 0.462829 0.000000
0.403000 0.462829 0.000000
0.434000 0.462829 0.000000
0.465000 0.462829 0.000000
0.496000 0.462829 0.000000
0.530500 0.462829 0.000000
0.561000 0.462829 0.000000
0.591500 0.462829 0.000000
0.622000 0.462829 0.000000
0.652500 0.462829 0.000000
0.683000 0.462829 0.000000
0.713500 0.462829 0.000000
0.744000 0.462829 0.000000
0.774500 0.462829 0.000000
0.805000 0.462829 0.000000
0.835500 0.462829 0.000000
0.866000 0.462829 0.000000
0.896500 0.462829 0.000000
0.927000 0.462829 0.000000
0.957500 0.462829 0.000000
0.988000 0.462829 0.000000
0.000000 0.493699 0.000000
0.031000 0.493699 0.000000
0.062000 0.493699 0.000000
0.093000 0.493699 0.000000
0.124000 0.493699 0.000000
0.155000 0.493699 0.000000
0.186000 0.493699 0.000000
0.217000 0.493699 0.000000
0.248000 0.493699 0.000000
0.279000 0.493699 0.000000
0.310000 0.493699 0.000000
0.341000 0.493699 0.000000
0.372000 0.493699 0.000000
0.403000 0.493699 0.000000
0.434000 0.493699 0.000000
0.465000 0.493699 0.000000
0.496000 0.493699 0.000000
0.530500 0.493699 0.000000
0.561000 0.493699 0.000000
0.591500 0.493699 0.000000
0.622000 0.493699 0.000000
0.652500 0.493699 0.000000
0.683000 0.493699 0.000000
0.713500 0.493699 0.000000
0.744000 0.493699 0.000000
0.774500 0.493699 0.000000
0.805000 0.493699 0.000000
0.835500 0.493699 0.000000
0.866000 0.493699 0.000000
0.896500 0.493699 0.000000
0.927000 0.493699 0.000000
0.957500 0.493699 0.000000
0.988000 0.493699 0.000000
0.000000 0.528109 0.000000
0.031000 0.528109 0.000000
0.062000 0.528109 0.000000
0.093000 0.528109 0.000000
0.124000 0.528109 0.000000
0.155000 0.528109 0.000000
0.186000 0.528109 0.000000
0.217000 0.528109 0.000000
0.248000 0.528109 0.000000
0.279000 0.528109 0.000000
0.310000 0.528109 0.000000
0.341000 0.528109 0.000000
0.372000 0.528109 0.000000
0.403000 0.528109 0.000000
0.434000 0.528109 0.000000
0.465000 0.528109 0.000000
0.496000 0.528109 0.000000
0.530500 0.528109 0.000000
0.561000 0.528109 0.000000
0.591500 0.528109 0.000000
0.622000 0.528109 0.000000
0.652500 0.528109 0.000000
0.683000 0.528109 0.000000
0.713500 0.528109 0.000000
0.744000 0.528109 0.000000
0.774500 0.528109 0.000000
0.805000 0.528109 0.000000
0.835500 0.528109 0.000000
0.866000 0.528109 0.000000
0.896500 0.528109 0.000000
0.927000 0.528109 0.000000
0.957500 0.528109 0.000000
0.988000 0.528109 0.000000
0.000000 0.558481 0.000000
0.031000 0.558481 0.000000
0.062000 0.558481 0.000000
0.093000 0.558481 0.000000
0.124000 0.558481 0.000000
0.155000 0.558481 0.000000
0.186000 0.558481 0.000000
0.217000 0.558481 0.000000
0.248000 0.558481 0.000000
0.279000 0.558481 0.000000
0.310000 0.558481 0.000000
0.341000 0.558481 0.000000
0.372000 0.558481 0.000000
0.403000 0.558481 0.000000
0.434000 0.558481 0.000000
0.465000 0.558481 0.000000
0.496000 0.558481 0.000000
0.530500 0.558481 0.000000
0.561000 0.558481 0.000000
0.591500 0.558481 0.000000
0.622000 0.558481 0.000000
0.652500 0.558481 0.000000
0.683000 0.558481 0.000000
0.713500 0.558481 0.000000
0.744000 0.558481 0.000000
0.774500 0.558481 0.000000
0.805000 0.558481 0.000000
0.835500 0.558481 0.000000
0.866000 0.558481 0.000000
0.896500 0.558481 0.000000
0.927000 0.558481 0.000000
0.957500 0.558481 0.000000
0.988000 0.558481 0.000000
0.000000 0.588854 0.000000
0.031000 0.588854 0.000000
0.062000 0.588854 0.000000
0.093000 0.588854 0.000000
0.124000 0.588854 0.000000
0.155000 0.588854 0.000000
0.186000 0.588854 0.000000
0.217000 0.588854 0.000000
0.248000 0.588854 0.000000
0.279000 0.588854 0.000000
0.310000 0.588854 0.000000
0.341000 0.588854 0.000000
0.372000 0.588854 0.000000
0.403000 0.588854 0.000000
0.434000 0.588854 0.000000
0.465000 0.588854 0.000000
0.496000 0.588854 0.000000
0.530500 0.588854 0.000000
0.561000 0.588854 0.000000
0.591500 0.588854 0.000000
0.622000 0.588854 0.000000
0.652500 0.588854 0.000000
0.683000 0.588854 0.000000
0.713500 0.588854 0.000000
0.744000 0.588854 0.000000
0.774500 0.588854 0.000000
0.805000 0.588854 0.000000
0.835500 0.588854 0.000000
0.866000 0.588854 0.000000
0.896500 0.588854 0.000000
0.927000 0.588854 0.000000
0.957500 0.588854 0.000000
0.988000 0.588854 0.000000
0.000000 0.619227 0.000000
0.031000 0.619227 0.000000
0.062000 0.619227 0.000000
0.093000 0.619227 0.000000
0.124000 0.619227 0.000000
0.155000 0.619227 0.000000
0.186000 0.619227 0.000000
0.217000 0.619227 0.000000
0.248000 0.619227 0.000000
0.279000 0.619227 0.000000
0.310000 0.619227 0.000000
0.341000 0.619227 0.000000
0.372000 0.619227 0.000000
0.403000 0.619227 0.000000
0.434000 0.619227 0.000000
0.465000 0.619227 0.000000
0.496000 0.619227 0.000000
0.530500 0.619227 0.000000
0.561000 0.619227 0.000000
0.591500 0.619227 0.000000
0.622000 0.619227 0.000000
0.652500 0.619227 0.000000
0.683000 0.619227 0.000000
0.713500 0.619227 0.000000
0.744000 0.619227 0.000000
0.774500 0.619227 0.000000
0.805000 0.619227 0.000000
0.835500 0.619227 0.000000
0.866000 0.619227 0.000000
0.896500 0.619227 0.000000
0.927000 0.619227 0.000000
0.957500 0.619227 0.000000
0.988000 0.619227 0.000000
0.000000 0.649599 0.000000
0.031000 0.649599 0.000000
0.062000 0.649599 0.000000
0.093000 0.649599 0.000000
0.124000 0.649599 0.000000
0.155000 0.649599 0.000000
0.186000 0.649599 0.000000
0.217000 0.649599 0.000000
0.248000 0.649599 0.000000
0.279000 0.649599 0.000000
0.310000 0.649599 0.000000
0.341000 0.649599 0.000000
0.372000 0.649599 0.000000
0.403000 0.649599 0.000000
0.434000 0.649599 0.000000
0.465000 0.649599 0.000000
0.496000 0.649599 0.000000
0.530500 0.649599 0.000000
0.561000 0.649599 0.000000
0.591500 0.649599 0.000000
0.622000 0.649599 0.000000
0.652500 0.649599 0.000000
0.683000 0.649599 0.000000
0.713500 0.649599 0.000000
0.744000 0.649599 0.000000
0.774500 0.649599 0.000000
0.805000 0.649599 0.000000
0.835500 0.649599 0.000000
0.866000 0.649599 0.000000
0.896500 0.649599 0.000000
0.927000 0.649599 0.000000
0.957500 0.649599 0.000000
0.988000 0.649599 0.000000
0.000000 0.679972 0.000000
0.031000 0.679972 0.000000
0.062000 0.679972 0.000000
0.093000 0.679972 0.000000
0.124000 0.679972 0.000000
0.155000 0.679972 0.000000
0.186000 0.679972 0.000000
0.217000 0.679972 0.000000
0.248000 0.679972 0.000000
0.279000 0.679972 0.000000
0.310000 0.679972 0.000000
0.341000 0.679972 0.000000
0.372000 0.679972 0.000000
0.403000 0.679972 0.000000
0.434000 0.679972 0.000000
0.465000 0.679972 0.000000
0.496000 0.679972 0.000000
0.530500 0.679972 0.000000
0.561000 0.679972 0.000000
0.591500 0.679972 0.000000
0.622000 0.679972 0.000000
0.652500 0.679972 0.000000
0.683000 0.679972 0.000000
0.713500 0.679972 0.000000
0.744000 0.679972 0.000000
0.774500 0.679972 0.000000
0.805000 0.679972 0.000000
0.835500 0.679972 0.000000
0.866000 0.679972 0.000000
0.896500 0.679972 0.000000
0.927000 0.679972 0.000000
0.957500 0.679972 0.000000
0.988000 0.679972 0.000000
0.000000 0.710344 0.000000
0.031000 0.710344 0.000000
0.062000 0.710344 0.000000
0.093000 0.710344 0.000000
0.124000 0.710344 0.000000
0.155000 0.710344 0.000000
0.186000 0.710344 0.000000
0.217000 0.710344 0.000000
0.248000 0.710344 0.000000
0.279000 0.710344 0.000000
0.310000 0.710344 0.000000
0.341000 0.710344 0.000000
0.372000 0.710344 0.000000
0.403000 0.710344 0.000000
0.434000 0.710344 0.000000
0.465000 0.710344 0.000000
0.496000 0.710344 0.000000
0.530500 0.710344 0.000000
0.561000 0.710344 0.000000
0.591500 0.710344 0.000000
0.622000 0.710344 0.000000
0.652500 0.710344 0.000000
0.683000 0.710344 0.000000
0.713500 0.710344 0.000000
0.744000 0.710344 0.000000
0.774500 0.710344 0.000000
0.805000 0.710344 0.000000
0.835500 0.710344 0.000000
0.866000 0.710344 0.000000
0.896500 0.710344 0.000000
0.927000 0.710344 0.000000
0.957500 0.710344 0.000000
0.988000 0.710344 0.000000
0.000000 0.740717 0.000000
0.031000 0.740717 0.000000
0.062000 0.740717 0.000000
0.093000 0.740717 0.000000
0.124000 0.740717 0.000000
0.155000 0.740717 0.000000
0.186000 0.740717 0.000000
0.217000 0.740717 0.000000
0.248000 0.740717 0.000000
0.279000 0.740717 0.000000
0.310000 0.740717 0.000000
0.341000 0.740717 0.000000
0.372000 0.740717 0.000000
0.403000 0.740717 0.000000
0.434000 0.740717 0.000000
0.465000 0.740717 0.000000
0.496000 0.740717 0.000000
0.530500 0.740717 0.000000
0.561000 0.740717 0.000000
0.591500 0.740717 0.000000
0.622000 0.740717 0.000000
0.652500 0.740717 0.000000
0.683000 0.740717 0.000000
0.713500 0.740717 0.000000
0.744000 0.740717 0.000000
0.774500 0.740717 0.000000
0.805000 0.740717 0.000000
0.835500 0.740717 0.000000
0.866000 0.740717 0.000000
0.896500 0.740717 0.000000
0.927000 0.740717 0.000000
0.957500 0.740717 0.000000
0.988000 0.740717 0.000000
0.000000 0.771089 0.000000
0.031000 0.771089 0.000000
0.062000 0.771089 0.000000
0.093000 0.771089 0.000000
0.124000 0.771089 0.000000
0.155000 0.771089 0.000000
0.186000 0.771089 0.000000
0.217000 0.771089 0.000000
0.248000 0.771089 0.000000
0.279000 0.771089 0.000000
0.310000 0.771089 0.000000
0.341000 0.771089 0.000000
0.372000 0.771089 0.000000
0.403000 0.771089 0.000000
0.434000 0.771089 0.000000
0.465000 0.771089 0.000000
0.496000 0.771089 0.000000
0.530500 0.771089 0.000000
0.561000 0.771089 0.000000
0.591500 0.771089 0.000000
0.622000 0.771089 0.000000
0.652500 0.771089 0.000000
0.683000 0.771089 0.000000
0.713500 0.771089 0.000000
0.744000 0.771089 0.000000
0.774500 0.771089 0.000000
0.805000 0.771089 0.000000
0.835500 0.771089 0.000000
0.866000 0.771089 0.000000
0.896500 0.771089 0.000000
0.927000 0.771089 0.000000
0.957500 0.771089 0.000000
0.988000 0.771089 0.000000
0.000000 0.801462 0.000000
0.031000 0.801462 0.000000
0.062000 0.801462 0.000000
0.093000 0.801462 0.000000
0.124000 0.801462 0.000000
0.155000 0.801462 0.000000
0.186000 0.801462 0.000000
0.217000 0.801462 0.000000
0.248000 0.801462 0.000000
0.279000 0.801462 0.000000
0.310000 0.801462 0.000000
0.341000 0.801462 0.000000
0.372000 0.801462 0.000000
0.403000 0.801462 0.000000
0.434000 0.801462 0.000000
0.465000 0.801462 0.000000
0.496000 0.801462 0.000000
0.530500 0.801462 0.000000
0.561000 0.801462 0.000000
0.591500 0.801462 0.000000
0.622000 0.801462 0.000000
0.652500 0.801462 0.000000
0.683000 0.801462 0.000000
0.713500 0.801462 0.000000
