docs/luts/fuji_recipes/Classic_JP_Chrome_Travel.cube
TITLE "Fujifilm Recipe: JP Chrome Travel (Classic)"
# FilmSim=Classic HL=-2 SH=1 Col=3 WB=Auto WBR=0 WBB=0
LUT_3D_SIZE 9
DOMAIN_MIN 0.0 0.0 0.0
DOMAIN_MAX 1.0 1.0 1.0
0.000000 0.000000 0.000000
0.119040 0.000000 0.000000
0.238080 0.000000 0.000000
0.357120 0.000000 0.000000
0.476160 0.000000 0.000000
0.614078 0.000000 0.000000
0.722755 0.000000 0.000000
0.831433 0.000000 0.000000
0.940110 0.000000 0.000000
0.000000 0.118324 0.000000
0.119040 0.118324 0.000000
0.238080 0.118324 0.000000
0.357120 0.118324 0.000000
0.476160 0.118324 0.000000
0.614078 0.117127 0.000000
0.722755 0.117810 0.000000
0.831433 0.118320 0.000000
0.940110 0.118715 0.000000
0.000000 0.236866 0.000000
0.119040 0.236866 0.000000
0.238080 0.236866 0.000000
0.357120 0.236866 0.000000
0.476160 0.236866 0.000000
0.614078 0.234471 0.000000
0.722755 0.235839 0.000000
0.831433 0.236859 0.000000
0.940110 0.237649 0.000000
0.000000 0.355409 0.000000
0.119040 0.355409 0.000000
0.238080 0.355409 0.000000
0.357120 0.355409 0.000000
0.476160 0.355409 0.000000
0.614078 0.351815 0.000000
0.722755 0.353867 0.000000
0.831433 0.355397 0.000000
0.940110 0.356583 0.000000
0.000000 0.473951 0.000000
0.119040 0.473951 0.000000
0.238080 0.473951 0.000000
0.357120 0.473951 0.000000
0.476160 0.473951 0.000000
0.614078 0.469159 0.000000
0.722755 0.471895 0.000000
0.831433 0.473936 0.000000
0.940110 0.475517 0.000000
0.000000 0.611607 0.000000
0.117818 0.611607 0.000000
0.235636 0.611607 0.000000
0.353454 0.611607 0.000000
0.471272 0.611607 0.000000
0.614078 0.611662 0.000000
0.722755 0.613431 0.000000
0.831433 0.614279 0.000000
0.940110 0.614518 0.000000
0.000000 0.719830 0.000000
0.118508 0.719830 0.000000
0.237015 0.719830 0.000000
0.355523 0.719830 0.000000
0.474031 0.719830 0.000000
0.615827 0.719830 0.000000
0.722755 0.719878 0.000000
0.831433 0.721187 0.000000
0.940110 0.721782 0.000000
0.000000 0.828054 0.000000
0.119022 0.828054 0.000000
0.238044 0.828054 0.000000
0.357067 0.828054 0.000000
0.476089 0.828054 0.000000
0.616703 0.828054 0.000000
0.724047 0.828054 0.000000
0.831433 0.828095 0.000000
0.940110 0.829047 0.000000
0.000000 0.936277 0.000000
0.119421 0.936277 0.000000
0.238842 0.936277 0.000000
0.358262 0.936277 0.000000
0.477683 0.936277 0.000000
0.616966 0.936277 0.000000
0.724669 0.936277 0.000000
0.832373 0.936277 0.000000
0.940110 0.936311 0.000000
0.000000 0.000000 0.116878
0.119040 0.000000 0.116878
0.238080 0.000000 0.116878
0.357120 0.000000 0.116878
0.476160 0.000000 0.116878
0.614078 0.000000 0.115697
0.722755 0.000000 0.116371
0.831433 0.000000 0.116874
0.940110 0.000000 0.117264
0.000000 0.118324 0.116878
0.119174 0.118369 0.116744
0.245607 0.110977 0.109352
0.372039 0.103584 0.101959
0.498471 0.096192 0.094567
0.646809 0.084457 0.082832
0.760481 0.079463 0.077838
0.874152 0.074469 0.072844
0.987823 0.069476 0.067851
0.000000 0.236866 0.116878
0.111857 0.244317 0.109427
0.245607 0.244242 0.109352
0.372039 0.236850 0.101959
0.498471 0.229457 0.094567
0.646809 0.217722 0.082832
0.760481 0.212728 0.077838
0.874152 0.207735 0.072844
0.987823 0.202741 0.067851
0.000000 0.355409 0.116878
0.104496 0.370222 0.102065
0.238321 0.370222 0.102065
0.372039 0.370115 0.101959
0.498471 0.362723 0.094567
0.646809 0.350988 0.082832
0.760481 0.345994 0.077838
0.874152 0.341000 0.072844
0.987823 0.336007 0.067851
0.000000 0.473951 0.116878
0.097134 0.496126 0.094704
0.230959 0.496126 0.094704
0.364784 0.496126 0.094704
0.498471 0.495988 0.094567
0.646809 0.484253 0.082832
0.760481 0.479260 0.077838
0.874152 0.474266 0.072844
0.987823 0.498813 0.067851
0.000000 0.611607 0.115679
0.085375 0.644225 0.082945
0.219200 0.644225 0.082945
0.353025 0.644225 0.082945
0.486850 0.644225 0.082945
0.646809 0.644066 0.082832
0.760481 0.637043 0.077838
0.874152 0.630020 0.072844
0.987823 0.622997 0.067851
0.000000 0.719830 0.116356
0.080403 0.757421 0.077972
0.214227 0.757421 0.077972
0.348052 0.757421 0.077972
0.481877 0.757421 0.077972
0.639975 0.757421 0.077972
0.760481 0.757232 0.077838
0.874152 0.750210 0.072844
0.987823 0.743187 0.067851
0.000000 0.828054 0.116861
0.075430 0.870618 0.073000
0.209255 0.870618 0.073000
0.343079 0.870618 0.073000
0.476904 0.870618 0.073000
0.632982 0.870618 0.073000
0.753676 0.870618 0.073000
0.874152 0.870399 0.072844
0.987823 0.863377 0.067851
0.000000 0.936277 0.117252
0.070457 0.983814 0.068027
0.204282 0.983814 0.068027
0.338106 0.983814 0.068027
0.501337 0.983814 0.068027
0.625989 0.983814 0.068027
0.746683 0.983814 0.068027
0.867377 0.983814 0.068027
0.987823 0.983566 0.067851
0.000000 0.000000 0.234417
0.119040 0.000000 0.234417
0.238080 0.000000 0.234417
0.357120 0.000000 0.234417
0.476160 0.000000 0.234417
0.614078 0.000000 0.232047
0.722755 0.000000 0.233400
0.831433 0.000000 0.234409
0.940110 0.000000 0.235191
0.000000 0.118324 0.234417
0.111920 0.111114 0.241626
0.245517 0.110887 0.241399
0.371949 0.103494 0.234007
0.498382 0.096102 0.226614
0.646699 0.084371 0.214883
0.760370 0.079378 0.209890
0.874041 0.074384 0.204896
0.987713 0.069390 0.199902
0.000000 0.236866 0.234417
0.111723 0.244183 0.241430
0.238307 0.236943 0.234190
0.364740 0.229551 0.226797
0.491172 0.222158 0.219405
0.637831 0.210780 0.208027
0.751502 0.205786 0.203033
0.865173 0.200793 0.198039
0.978845 0.195799 0.193046
0.000000 0.355409 0.234417
0.104362 0.370087 0.234068
0.231021 0.362922 0.226903
0.364740 0.362816 0.226797
0.491172 0.355424 0.219405
0.637831 0.344046 0.208027
0.751502 0.339052 0.203033
0.865173 0.334058 0.198039
0.978845 0.329064 0.193046
0.000000 0.473951 0.234417
0.097000 0.495991 0.226707
0.223660 0.488826 0.219542
0.357485 0.488826 0.219542
0.491172 0.488689 0.219405
0.637831 0.477311 0.208027
0.751502 0.472317 0.203033
0.865173 0.496858 0.198039
0.978845 0.489835 0.193046
0.000000 0.611607 0.232011
0.085248 0.644060 0.214955
0.212258 0.635247 0.208140
0.346083 0.635247 0.208140
0.479908 0.635247 0.208140
0.637831 0.635087 0.208027
0.751502 0.628064 0.203033
0.865173 0.621041 0.198039
0.978845 0.614019 0.193046
0.000000 0.719830 0.233369
0.080275 0.757256 0.209982
0.207285 0.748443 0.203167
0.341110 0.748443 0.203167
0.474935 0.748443 0.203167
0.630997 0.748443 0.203167
0.751502 0.748254 0.203033
0.865173 0.741231 0.198039
0.978845 0.734208 0.193046
0.000000 0.828054 0.234382
0.075302 0.870453 0.205009
0.202312 0.861639 0.198194
0.336137 0.861639 0.198194
0.499352 0.861639 0.198194
0.624004 0.861639 0.198194
0.744698 0.861639 0.198194
0.865173 0.861421 0.198039
0.978845 0.854398 0.193046
0.000000 0.936277 0.235167
0.070329 0.983649 0.200036
0.197340 0.974836 0.193222
0.331164 0.974836 0.193222
0.492359 0.974836 0.193222
0.617010 0.974836 0.193222
0.737704 0.974836 0.193222
0.858398 0.974836 0.193222
0.978845 0.974588 0.193046
0.000000 0.000000 0.351956
0.119040 0.000000 0.351956
0.238080 0.000000 0.351956
0.357120 0.000000 0.351956
0.476160 0.000000 0.351956
0.614078 0.000000 0.348397
0.722755 0.000000 0.350429
0.831433 0.000000 0.351944
0.940110 0.000000 0.353119
0.000000 0.118324 0.351956
0.104620 0.103815 0.366464
0.238445 0.103815 0.366464
0.371949 0.103494 0.366144
0.498382 0.096102 0.358751
0.646699 0.084371 0.347020
0.760370 0.079378 0.342027
0.874041 0.074384 0.337033
0.987713 0.069390 0.332039
0.000000 0.236866 0.351956
0.104576 0.237036 0.366420
0.231084 0.229719 0.359103
0.364588 0.229398 0.358782
0.491020 0.222006 0.351390
0.637644 0.210635 0.340019
0.751315 0.205642 0.335025
0.864986 0.200648 0.330032
0.978658 0.195654 0.325038
0.000000 0.355409 0.351956
0.104362 0.370087 0.366205
0.230794 0.362695 0.358813
0.357441 0.355517 0.351635
0.483873 0.348125 0.344243
0.628852 0.337103 0.333222
0.742524 0.332110 0.328228
0.856195 0.327116 0.323234
0.969866 0.322122 0.318240
0.000000 0.473951 0.351956
0.097000 0.495991 0.358844
0.223432 0.488599 0.351452
0.350185 0.481527 0.344380
0.483873 0.481390 0.344243
0.628852 0.470369 0.333222
0.742524 0.494902 0.328228
0.856195 0.487879 0.323234
0.969866 0.480856 0.318240
0.000000 0.611607 0.348343
0.085248 0.644060 0.347092
0.212042 0.634967 0.340061
0.339141 0.626268 0.333335
0.472966 0.626268 0.333335
0.628852 0.626109 0.333222
0.742524 0.619086 0.328228
0.856195 0.612063 0.323234
0.969866 0.605040 0.318240
0.000000 0.719830 0.350382
0.080275 0.757256 0.342119
0.207069 0.748163 0.335088
0.334168 0.739464 0.328362
0.497367 0.739464 0.328362
0.622018 0.739464 0.328362
0.742524 0.739275 0.328228
0.856195 0.732253 0.323234
0.969866 0.725230 0.318240
0.000000 0.828054 0.351903
0.075302 0.870453 0.337146
0.202096 0.861359 0.330115
0.329195 0.852661 0.323389
0.490374 0.852661 0.323389
0.615025 0.852661 0.323389
0.735719 0.852661 0.323389
0.856195 0.852442 0.323234
0.969866 0.845420 0.318240
0.000000 0.936277 0.353082
0.070329 0.983649 0.332173
0.197123 0.974556 0.325142
0.324222 0.965857 0.318417
0.483380 0.965857 0.318417
0.608032 0.965857 0.318417
0.728726 0.965857 0.318417
0.849420 0.965857 0.318417
0.969866 0.965609 0.318240
0.000000 0.000000 0.469495
0.119040 0.000000 0.469495
0.238080 0.000000 0.469495
0.357120 0.000000 0.469495
0.476160 0.000000 0.469495
0.614078 0.000000 0.464748
0.722755 0.000000 0.467458
0.831433 0.000000 0.469479
0.940110 0.000000 0.471046
0.000000 0.118324 0.469495
0.097321 0.096516 0.491302
0.231146 0.096516 0.491302
0.364971 0.096516 0.491302
0.498382 0.096102 0.490888
0.646699 0.084371 0.479158
0.760370 0.079378 0.474164
0.874041 0.074384 0.469170
0.987713 0.069390 0.494110
0.000000 0.236866 0.469495
0.097277 0.229737 0.491258
0.223785 0.222420 0.483941
0.357609 0.222420 0.483941
0.491020 0.222006 0.483527
0.637644 0.210635 0.472156
0.751315 0.205642 0.467162
0.864986 0.200648 0.492078
0.978658 0.195654 0.485055
0.000000 0.355409 0.469495
0.097277 0.363003 0.491258
0.223709 0.355610 0.483865
0.350248 0.348324 0.476579
0.483659 0.347910 0.476165
0.628589 0.336899 0.465155
0.742260 0.331906 0.490046
0.855931 0.326912 0.483023
0.969602 0.321918 0.476000
0.000000 0.473951 0.469495
0.097000 0.495991 0.490981
0.223432 0.488599 0.483589
0.349865 0.481207 0.476196
0.476574 0.474091 0.469081
0.614625 0.487698 0.483105
0.728652 0.481031 0.476438
0.842679 0.474364 0.469771
0.956706 0.467697 0.463104
0.000000 0.611607 0.464675
0.085248 0.644060 0.479229
0.212042 0.634967 0.472198
0.338836 0.625874 0.465167
0.490125 0.612033 0.483256
0.614625 0.611881 0.483105
0.728652 0.605214 0.476438
0.842679 0.598547 0.469771
0.956706 0.591880 0.463104
0.000000 0.719830 0.467395
0.080275 0.757256 0.474256
0.207069 0.748163 0.467225
0.333863 0.739070 0.490104
0.483486 0.725583 0.476617
0.608137 0.725583 0.476617
0.728652 0.725404 0.476438
0.842679 0.718737 0.469771
0.956706 0.712070 0.463104
0.000000 0.828054 0.469424
0.075302 0.870453 0.469283
0.202096 0.861359 0.492204
0.328890 0.852266 0.483110
0.476847 0.839134 0.469978
0.601498 0.839134 0.469978
0.722192 0.839134 0.469978
0.842679 0.838927 0.469771
0.956706 0.832260 0.463104
0.000000 0.936277 0.470996
0.070329 0.983649 0.494303
0.197123 0.974556 0.485210
0.323917 0.965463 0.476117
0.470208 0.952685 0.463339
0.594859 0.952685 0.463339
0.715553 0.952685 0.463339
0.836247 0.952685 0.463339
0.956706 0.952449 0.463104
0.000000 0.000000 0.606622
0.117781 0.000000 0.606622
0.235561 0.000000 0.606622
0.353342 0.000000 0.606622
0.471123 0.000000 0.606622
0.614078 0.000000 0.606787
0.722755 0.000000 0.608528
0.831433 0.000000 0.609355
0.940110 0.000000 0.609577
0.000000 0.117072 0.606622
0.085519 0.084714 0.638900
0.219344 0.084714 0.638900
0.353169 0.084714 0.638900
0.486993 0.084714 0.638900
0.646699 0.084371 0.638419
0.760370 0.079378 0.631396
0.874041 0.074384 0.624373
0.987713 0.069390 0.617350
0.000000 0.234360 0.606622
0.085477 0.217937 0.638846
0.212343 0.210978 0.629845
0.346167 0.210978 0.629845
0.479992 0.210978 0.629845
0.637644 0.210635 0.629364
0.751315 0.205642 0.622341
0.864986 0.200648 0.615318
0.978658 0.195654 0.608295
0.000000 0.351649 0.606622
0.085477 0.351203 0.638846
0.212271 0.344172 0.629753
0.339166 0.337242 0.620790
0.472991 0.337242 0.620790
0.628589 0.336899 0.620308
0.742260 0.331906 0.613286
0.855931 0.326912 0.606263
0.969602 0.321918 0.599240
0.000000 0.468937 0.606622
0.085477 0.484468 0.638846
0.212271 0.477437 0.629753
0.339065 0.470407 0.620659
0.490177 0.487901 0.606549
0.614371 0.487444 0.606091
0.728398 0.480777 0.599424
0.842425 0.474110 0.592757
0.956453 0.467443 0.586090
0.000000 0.611607 0.606733
0.085248 0.644060 0.638524
0.212042 0.634967 0.629430
0.338836 0.625874 0.620337
0.489746 0.611653 0.606117
0.607817 0.605074 0.599537
0.721844 0.598407 0.592870
0.835872 0.591740 0.586203
0.949899 0.585072 0.579536
0.000000 0.719830 0.608494
0.080275 0.757256 0.631530
0.207069 0.748163 0.622437
0.333863 0.739070 0.613344
0.483107 0.725204 0.599478
0.601330 0.718776 0.593050
0.721844 0.718596 0.592870
0.835872 0.711929 0.586203
0.949899 0.705262 0.579536
0.000000 0.828054 0.609339
0.075302 0.870453 0.624537
0.202096 0.861359 0.615444
0.328890 0.852266 0.606350
0.476468 0.838755 0.592839
0.594691 0.832326 0.586410
0.715385 0.832326 0.586410
0.835872 0.832119 0.586203
0.949899 0.825452 0.579536
0.000000 0.936277 0.609577
0.070329 0.983649 0.617543
0.197123 0.974556 0.608450
0.323917 0.965463 0.599357
0.469828 0.952305 0.586199
0.588051 0.945877 0.579771
0.708745 0.945877 0.579771
0.829440 0.945877 0.579771
0.949899 0.945642 0.579536
0.000000 0.000000 0.713929
0.118475 0.000000 0.713929
0.236951 0.000000 0.713929
0.355426 0.000000 0.713929
0.473901 0.000000 0.713929
0.615756 0.000000 0.713929
0.722755 0.000000 0.714074
0.831433 0.000000 0.715357
0.940110 0.000000 0.715933
0.000000 0.117762 0.713929
0.080588 0.079783 0.751138
0.214413 0.079783 0.751138
0.348238 0.079783 0.751138
0.482063 0.079783 0.751138
0.640246 0.079783 0.751138
0.760370 0.079378 0.750568
0.874041 0.074384 0.743545
0.987713 0.069390 0.736522
0.000000 0.235743 0.713929
0.080546 0.213006 0.751084
0.207412 0.206047 0.742083
0.341237 0.206047 0.742083
0.475061 0.206047 0.742083
0.631191 0.206047 0.742083
0.751315 0.205642 0.741513
0.864986 0.200648 0.734490
0.978658 0.195654 0.727467
0.000000 0.353723 0.713929
0.080546 0.346272 0.751084
0.207340 0.339241 0.741990
0.334235 0.332311 0.733028
0.497485 0.332311 0.733028
0.622136 0.332311 0.733028
0.742260 0.331906 0.732458
0.855931 0.326912 0.725435
0.969602 0.321918 0.718412
0.000000 0.471703 0.713929
0.080546 0.479537 0.751084
0.207340 0.472507 0.741990
0.334134 0.495078 0.732897
0.483594 0.481318 0.719138
0.608246 0.481318 0.719138
0.728398 0.480777 0.718596
0.842425 0.474110 0.711929
0.956453 0.467443 0.705262
0.000000 0.613327 0.713929
0.080546 0.637448 0.751084
0.207340 0.628355 0.741990
0.334134 0.619262 0.732897
0.483469 0.605376 0.719012
0.601386 0.598642 0.712278
0.721539 0.598101 0.711736
0.835566 0.591434 0.705069
0.949593 0.584767 0.698402
0.000000 0.719830 0.714026
0.080275 0.757256 0.750702
0.207069 0.748163 0.741609
0.333863 0.739070 0.732516
0.483107 0.725204 0.718650
0.600872 0.718318 0.711764
0.715261 0.712013 0.705459
0.829289 0.705346 0.698792
0.943316 0.698679 0.692125
0.000000 0.828054 0.715329
0.075302 0.870453 0.743709
0.202096 0.861359 0.734616
0.328890 0.852266 0.725522
0.476468 0.838755 0.712011
0.594233 0.831869 0.705125
0.708802 0.825743 0.698999
0.829289 0.825536 0.698792
0.943316 0.818869 0.692125
0.000000 0.936277 0.715922
0.070329 0.983649 0.736715
0.197123 0.974556 0.727622
0.323917 0.965463 0.718529
0.469828 0.952305 0.705371
0.587594 0.945419 0.698486
0.702163 0.939294 0.692360
0.822857 0.939294 0.692360
0.943316 0.939059 0.692125
0.000000 0.000000 0.821236
0.118994 0.000000 0.821236
0.237987 0.000000 0.821236
0.356981 0.000000 0.821236
0.475975 0.000000 0.821236
0.616669 0.000000 0.821236
0.723987 0.000000 0.821236
0.831433 0.000000 0.821360
0.940110 0.000000 0.822289
0.000000 0.118278 0.821236
0.075658 0.074852 0.863376
0.209482 0.074852 0.863376
0.343307 0.074852 0.863376
0.477132 0.074852 0.863376
0.633312 0.074852 0.863376
0.754006 0.074852 0.863376
0.874041 0.074384 0.862717
0.987713 0.069390 0.855694
0.000000 0.236774 0.821236
0.075615 0.208076 0.863321
0.202481 0.201117 0.854321
0.336306 0.201117 0.854321
0.499606 0.201117 0.854321
0.624257 0.201117 0.854321
0.744951 0.201117 0.854321
0.864986 0.200648 0.853662
0.978658 0.195654 0.846639
0.000000 0.355270 0.821236
0.075615 0.341341 0.863321
0.202409 0.334310 0.854228
0.329304 0.327381 0.845266
0.490551 0.327381 0.845266
0.615202 0.327381 0.845266
0.735896 0.327381 0.845266
0.855931 0.326912 0.844607
0.969602 0.321918 0.837584
0.000000 0.473767 0.821236
0.075615 0.474607 0.863321
0.202409 0.497237 0.854228
0.329203 0.488144 0.845135
0.477012 0.474735 0.831727
0.601663 0.474735 0.831727
0.722357 0.474735 0.831727
0.842425 0.474110 0.831101
0.956453 0.467443 0.824434
0.000000 0.614229 0.821236
0.075615 0.630514 0.863321
0.202409 0.621421 0.854228
0.329203 0.612327 0.845135
0.476886 0.598793 0.831601
0.594803 0.592059 0.824867
0.715497 0.592059 0.824867
0.835566 0.591434 0.824241
0.949593 0.584767 0.817574
0.000000 0.721099 0.821236
0.075615 0.750703 0.863321
0.202409 0.741610 0.854228
0.329203 0.732517 0.845135
0.476886 0.718983 0.831601
0.594651 0.712097 0.824715
0.708858 0.705610 0.818228
0.828926 0.704984 0.817602
0.942954 0.698317 0.810935
0.000000 0.828054 0.821320
0.075302 0.870453 0.862881
0.202096 0.861359 0.853788
0.328890 0.852266 0.844694
0.476468 0.838755 0.831183
0.594233 0.831869 0.824297
0.708260 0.825202 0.817630
0.822706 0.818953 0.811381
0.936733 0.812286 0.804714
0.000000 0.936277 0.822267
0.070329 0.983649 0.855887
0.197123 0.974556 0.846794
0.323917 0.965463 0.837701
0.469828 0.952305 0.824543
0.587594 0.945419 0.817658
0.701621 0.938752 0.810991
0.816274 0.932711 0.804949
0.936733 0.932476 0.804714
0.000000 0.000000 0.928543
0.119395 0.000000 0.928543
0.238791 0.000000 0.928543
0.358186 0.000000 0.928543
0.477581 0.000000 0.928543
0.616963 0.000000 0.928543
0.724643 0.000000 0.928543
0.832324 0.000000 0.928543
0.940110 0.000000 0.928645
0.000000 0.118677 0.928543
0.070727 0.069922 0.975614
0.204552 0.069922 0.975614
0.338377 0.069922 0.975614
0.501727 0.069922 0.975614
0.626378 0.069922 0.975614
0.747072 0.069922 0.975614
0.867766 0.069922 0.975614
0.987713 0.069390 0.974866
0.000000 0.237573 0.928543
0.070685 0.203145 0.975559
0.197550 0.196186 0.966559
0.331375 0.196186 0.966559
0.492671 0.196186 0.966559
0.617323 0.196186 0.966559
0.738017 0.196186 0.966559
0.858711 0.196186 0.966559
0.978658 0.195654 0.965811
0.000000 0.356470 0.928543
0.070685 0.336410 0.975559
0.197479 0.329380 0.966466
0.324374 0.322450 0.957503
0.483616 0.322450 0.957503
0.608268 0.322450 0.957503
0.728962 0.322450 0.957503
0.849656 0.322450 0.957503
0.969602 0.321918 0.956756
0.000000 0.475366 0.928543
0.070685 0.499396 0.975559
0.197479 0.490303 0.966466
0.324273 0.481209 0.957373
0.470429 0.468152 0.944316
0.595080 0.468152 0.944316
0.715774 0.468152 0.944316
0.836468 0.468152 0.944316
0.956453 0.467443 0.943606
0.000000 0.614515 0.928543
0.070685 0.623579 0.975559
0.197479 0.614486 0.966466
0.324273 0.605393 0.957373
0.470303 0.592210 0.944190
0.588220 0.585476 0.937456
0.708914 0.585476 0.937456
0.829608 0.585476 0.937456
0.949593 0.584767 0.936746
0.000000 0.721745 0.928543
0.070685 0.743769 0.975559
0.197479 0.734676 0.966466
0.324273 0.725583 0.957373
0.470303 0.712400 0.944190
0.588068 0.705514 0.937304
0.702275 0.699027 0.930817
0.822969 0.699027 0.930817
0.942954 0.698317 0.930107
0.000000 0.828976 0.928543
0.070685 0.863959 0.975559
0.197479 0.854866 0.966466
0.324273 0.845773 0.957373
0.470303 0.832590 0.944190
0.588068 0.825704 0.937304
0.702096 0.819037 0.930637
0.816330 0.812577 0.924178
0.936314 0.811868 0.923468
0.000000 0.936277 0.928612
0.070329 0.983649 0.975059
0.197123 0.974556 0.965966
0.323917 0.965463 0.956873
0.469828 0.952305 0.943716
0.587594 0.945419 0.936830
0.701621 0.938752 0.930163
0.815648 0.932085 0.923496
0.930150 0.925893 0.917303
