docs/luts/fuji_recipes/Classic_RR_Faded_Color.cube
TITLE "Fujifilm Recipe: RR Faded Color (Classic)"
# FilmSim=Classic HL=3 SH=4 Col=4 WB=Auto WBR=0 WBB=0
LUT_3D_SIZE 9
DOMAIN_MIN 0.0 0.0 0.0
DOMAIN_MAX 1.0 1.0 1.0
0.000000 0.000000 0.000000
0.100093 0.000000 0.000000
0.196337 0.000000 0.000000
0.292580 0.000000 0.000000
0.391020 0.000000 0.000000
0.575358 0.000000 0.000000
0.697352 0.000000 0.000000
0.819346 0.000000 0.000000
0.850688 0.000000 0.000000
0.000000 0.099514 0.000000
0.100093 0.099514 0.000000
0.196337 0.099514 0.000000
0.292580 0.099514 0.000000
0.391020 0.099514 0.000000
0.575358 0.094092 0.000000
0.697352 0.093702 0.000000
0.819346 0.093430 0.000000
0.850688 0.093703 0.000000
0.000000 0.195356 0.000000
0.100093 0.195356 0.000000
0.196337 0.195356 0.000000
0.292580 0.195356 0.000000
0.391020 0.195356 0.000000
0.575358 0.184711 0.000000
0.697352 0.183946 0.000000
0.819346 0.183412 0.000000
0.850688 0.183948 0.000000
0.000000 0.291197 0.000000
0.100093 0.291197 0.000000
0.196337 0.291197 0.000000
0.292580 0.291197 0.000000
0.391020 0.291197 0.000000
0.575358 0.275330 0.000000
0.697352 0.274190 0.000000
0.819346 0.273394 0.000000
0.850688 0.274193 0.000000
0.000000 0.389263 0.000000
0.100093 0.389263 0.000000
0.196337 0.389263 0.000000
0.292580 0.389263 0.000000
0.391020 0.389263 0.000000
0.575358 0.368053 0.000000
0.697352 0.457384 0.000000
0.819346 0.461538 0.000000
0.850688 0.464165 0.000000
0.000000 0.572585 0.000000
0.094650 0.572585 0.000000
0.185660 0.572585 0.000000
0.276670 0.572585 0.000000
0.369756 0.572585 0.000000
0.575358 0.572644 0.000000
0.697352 0.575768 0.000000
0.819346 0.579579 0.000000
0.850688 0.582551 0.000000
0.000000 0.694069 0.000000
0.094256 0.694069 0.000000
0.184887 0.694069 0.000000
0.275518 0.694069 0.000000
0.459484 0.694069 0.000000
0.578376 0.694069 0.000000
0.697352 0.694153 0.000000
0.819346 0.697619 0.000000
0.850688 0.700936 0.000000
0.000000 0.815553 0.000000
0.093981 0.815553 0.000000
0.184348 0.815553 0.000000
0.274714 0.815553 0.000000
0.463602 0.815553 0.000000
0.582148 0.815553 0.000000
0.700693 0.815553 0.000000
0.819346 0.815660 0.000000
0.850688 0.819322 0.000000
0.000000 0.845286 0.000000
0.094091 0.845286 0.000000
0.184563 0.845286 0.000000
0.275036 0.845286 0.000000
0.465416 0.845286 0.000000
0.584100 0.845286 0.000000
0.702784 0.845286 0.000000
0.821468 0.845286 0.000000
0.850688 0.846876 0.000000
0.000000 0.000000 0.098345
0.100093 0.000000 0.098345
0.196337 0.000000 0.098345
0.292580 0.000000 0.098345
0.391020 0.000000 0.098345
0.575358 0.000000 0.092987
0.697352 0.000000 0.092602
0.819346 0.000000 0.092333
0.850688 0.000000 0.092603
0.000000 0.099514 0.098345
0.119425 0.118559 0.116812
0.240234 0.088968 0.087143
0.355826 0.064870 0.063109
0.471843 0.042459 0.040738
0.683833 0.001548 0.000000
0.800123 0.001442 0.000000
0.953399 0.001428 0.000000
0.992610 0.001430 0.000000
0.000000 0.195356 0.098345
0.090138 0.239037 0.087406
0.240234 0.238701 0.087143
0.355826 0.209305 0.063109
0.471843 0.183632 0.040738
0.683833 0.128506 0.000000
0.800123 0.119724 0.000000
0.953399 0.118513 0.000000
0.992610 0.118710 0.000000
0.000000 0.291197 0.098345
0.066070 0.354183 0.063435
0.211170 0.354183 0.063435
0.355826 0.353741 0.063109
0.471843 0.324805 0.040738
0.683833 0.255463 0.000000
0.800123 0.238006 0.000000
0.953399 0.235598 0.000000
0.992610 0.235991 0.000000
0.000000 0.389263 0.098345
0.043701 0.469785 0.041125
0.185513 0.469785 0.041125
0.327325 0.469785 0.041125
0.471843 0.469255 0.040738
0.683833 0.513485 0.000000
0.800123 0.485599 0.000000
0.953399 0.487817 0.000000
0.992610 0.490293 0.000000
0.000000 0.572585 0.092997
0.002320 0.681250 0.000000
0.130072 0.681250 0.000000
0.257824 0.681250 0.000000
0.517471 0.681250 0.000000
0.683833 0.680031 0.000000
0.800123 0.640764 0.000000
0.953399 0.641413 0.000000
0.992610 0.644144 0.000000
0.000000 0.694069 0.092610
0.002160 0.796840 0.000000
0.121103 0.796840 0.000000
0.240046 0.796840 0.000000
0.488974 0.796840 0.000000
0.645006 0.796840 0.000000
0.800123 0.795930 0.000000
0.953399 0.795008 0.000000
0.992610 0.797996 0.000000
0.000000 0.815553 0.092340
0.002135 0.948162 0.000000
0.119684 0.948162 0.000000
0.237233 0.948162 0.000000
0.490343 0.948162 0.000000
0.644547 0.948162 0.000000
0.798752 0.948162 0.000000
0.953399 0.948604 0.000000
0.992610 0.951848 0.000000
0.000000 0.845286 0.092448
0.002138 0.987208 0.000000
0.119885 0.987208 0.000000
0.237631 0.987208 0.000000
0.492821 0.987208 0.000000
0.647284 0.987208 0.000000
0.801747 0.987208 0.000000
0.956210 0.987208 0.000000
0.992610 0.987656 0.000000
0.000000 0.000000 0.193375
0.100093 0.000000 0.193375
0.196337 0.000000 0.193375
0.292580 0.000000 0.193375
0.391020 0.000000 0.193375
0.575358 0.000000 0.182839
0.697352 0.000000 0.182081
0.819346 0.000000 0.181553
0.850688 0.000000 0.182083
0.000000 0.099514 0.193375
0.090512 0.089605 0.236625
0.240242 0.088805 0.235610
0.355925 0.064680 0.206272
0.472005 0.042247 0.180624
0.685549 0.000000 0.124912
0.801344 0.000000 0.116211
0.955086 0.000000 0.115031
0.994296 0.000000 0.115208
0.000000 0.195356 0.193375
0.089895 0.239046 0.235946
0.234185 0.232718 0.229758
0.357032 0.200940 0.197761
0.579456 0.133301 0.130286
0.729719 0.096612 0.093663
0.937021 0.003318 0.000000
1.000000 0.093142 0.090537
1.000000 0.132134 0.129747
0.000000 0.291197 0.193375
0.065787 0.354330 0.206631
0.202933 0.355301 0.198176
0.357032 0.354811 0.197761
0.579456 0.279246 0.130286
0.729719 0.239357 0.093663
0.937021 0.163928 0.000000
1.000000 0.219239 0.090537
1.000000 0.247657 0.129747
0.000000 0.389263 0.193375
0.043385 0.470024 0.181013
0.135502 0.576644 0.130990
0.282130 0.576644 0.130990
0.579456 0.575889 0.130286
0.729719 0.538188 0.093663
0.937021 0.509942 0.000000
1.000000 0.498580 0.090537
1.000000 0.505210 0.129747
0.000000 0.572585 0.182860
0.000000 0.683817 0.124686
0.098884 0.726327 0.094471
0.242289 0.726327 0.094471
0.542480 0.726327 0.094471
0.729719 0.725444 0.093663
0.937021 0.720634 0.000000
1.000000 0.663999 0.090537
1.000000 0.656756 0.129747
0.000000 0.694069 0.182098
0.000000 0.798666 0.115842
0.006471 0.932454 0.001509
0.167735 0.932454 0.001509
0.515047 0.932454 0.001509
0.726597 0.932454 0.001509
0.937021 0.931327 0.000000
1.000000 0.829417 0.090537
1.000000 0.808302 0.129747
0.000000 0.815553 0.181567
0.000000 0.950684 0.114477
0.089241 1.000000 0.085299
0.217358 1.000000 0.085299
0.501022 1.000000 0.085299
0.669090 1.000000 0.085299
0.837158 1.000000 0.085299
1.000000 0.994835 0.090537
1.000000 0.959849 0.129747
0.000000 0.845286 0.181779
0.000000 0.989730 0.114648
0.127958 1.000000 0.124345
0.245375 1.000000 0.124345
0.506997 1.000000 0.124345
0.661028 1.000000 0.124345
0.815058 1.000000 0.124345
0.969089 1.000000 0.124345
1.000000 0.995120 0.129747
0.000000 0.000000 0.288405
0.100093 0.000000 0.288405
0.196337 0.000000 0.288405
0.292580 0.000000 0.288405
0.391020 0.000000 0.288405
0.575358 0.000000 0.272690
0.697352 0.000000 0.271561
0.819346 0.000000 0.270773
0.850688 0.000000 0.271564
0.000000 0.099514 0.288405
0.066544 0.065669 0.350964
0.211907 0.065669 0.350964
0.355925 0.064680 0.349627
0.472005 0.042247 0.320723
0.685549 0.000000 0.251379
0.801344 0.000000 0.233870
0.955086 0.000000 0.231493
0.994296 0.000000 0.231851
0.000000 0.195356 0.288405
0.066451 0.210402 0.351011
0.203526 0.201947 0.351705
0.356938 0.200686 0.350228
0.579704 0.132946 0.274772
0.730064 0.096226 0.234933
0.939929 0.000000 0.156937
1.000000 0.093394 0.215763
1.000000 0.132604 0.244683
0.000000 0.291197 0.288405
0.065787 0.354330 0.350114
0.202555 0.355156 0.350665
0.348945 0.346877 0.342704
0.587474 0.266234 0.261817
0.766272 0.201364 0.196657
0.986212 0.095679 0.090357
1.000000 0.231255 0.227674
1.000000 0.270118 0.266884
0.000000 0.389263 0.288405
0.043385 0.470024 0.321219
0.134972 0.577010 0.275436
0.269229 0.584564 0.262618
0.587474 0.583767 0.261817
0.766272 0.549481 0.196657
0.986212 0.500424 0.090357
1.000000 0.511123 0.227674
1.000000 0.524445 0.266884
0.000000 0.572585 0.272722
0.000000 0.683817 0.251708
0.098309 0.726838 0.235671
0.206618 0.760724 0.199623
0.553992 0.760724 0.199623
0.766272 0.761434 0.196657
0.986212 0.740079 0.090357
1.000000 0.672403 0.227674
1.000000 0.670100 0.266884
0.000000 0.694069 0.271586
0.000000 0.798666 0.233854
0.002011 0.936301 0.157611
0.100830 0.980628 0.092883
0.506494 0.980628 0.092883
0.746794 0.980628 0.092883
0.986212 0.979735 0.090357
1.000000 0.833684 0.227674
1.000000 0.815755 0.266884
0.000000 0.815553 0.270794
0.000000 0.950684 0.231099
0.089573 1.000000 0.212054
0.227865 1.000000 0.222436
0.512577 1.000000 0.222436
0.676753 1.000000 0.222436
0.840929 1.000000 0.222436
1.000000 0.994965 0.227674
1.000000 0.961410 0.266884
0.000000 0.845286 0.271111
0.000000 0.989730 0.231444
0.128619 1.000000 0.240828
0.266388 1.000000 0.261482
0.525222 1.000000 0.261482
0.673558 1.000000 0.261482
0.821895 1.000000 0.261482
0.970231 1.000000 0.261482
1.000000 0.995310 0.266884
0.000000 0.000000 0.385718
0.100093 0.000000 0.385718
0.196337 0.000000 0.385718
0.292580 0.000000 0.385718
0.391020 0.000000 0.385718
0.575358 0.000000 0.364701
0.697352 0.000000 0.452933
0.819346 0.000000 0.457100
0.850688 0.000000 0.459714
0.000000 0.099514 0.385718
0.044275 0.043420 0.465788
0.186307 0.043420 0.465788
0.328340 0.043420 0.465788
0.472005 0.042247 0.464188
0.685549 0.000000 0.508119
0.801344 0.000000 0.479954
0.955086 0.000000 0.482231
0.994296 0.000000 0.484643
0.000000 0.195356 0.385718
0.044171 0.184815 0.465865
0.136577 0.135079 0.571207
0.283489 0.135079 0.571207
0.579704 0.132946 0.568929
0.730064 0.096226 0.531320
0.939929 0.000000 0.502124
1.000000 0.093394 0.492592
1.000000 0.132604 0.499868
0.000000 0.291197 0.385718
0.044171 0.326315 0.465865
0.136402 0.281269 0.571326
0.270412 0.268217 0.578810
0.587605 0.265785 0.576407
0.768352 0.198678 0.541812
0.985695 0.094974 0.490974
1.000000 0.231702 0.505489
1.000000 0.270913 0.519624
0.000000 0.389263 0.385718
0.043385 0.470024 0.464793
0.134972 0.577010 0.569799
0.268559 0.584754 0.577259
0.561742 0.558241 0.551175
0.732099 0.507492 0.499236
0.916008 0.444186 0.435435
1.000000 0.500239 0.494040
1.000000 0.539918 0.534620
0.000000 0.572585 0.364743
0.000000 0.683817 0.509444
0.098309 0.726838 0.532206
0.202682 0.763796 0.542627
0.512834 0.728104 0.500500
0.732099 0.727086 0.499236
0.916008 0.676952 0.435435
1.000000 0.665110 0.494040
1.000000 0.680834 0.534620
0.000000 0.694069 0.452827
0.000000 0.798666 0.480528
0.002011 0.936301 0.503341
0.099785 0.979857 0.492387
0.450478 0.910796 0.437415
0.683776 0.910796 0.437415
0.916008 0.909717 0.435435
1.000000 0.829981 0.494040
1.000000 0.821750 0.534620
0.000000 0.815553 0.456965
0.000000 0.950684 0.482000
0.089573 1.000000 0.491932
0.228461 1.000000 0.503983
0.498086 1.000000 0.488620
0.667143 1.000000 0.488620
0.836199 1.000000 0.488620
1.000000 0.994852 0.494040
1.000000 0.962665 0.534620
0.000000 0.845286 0.458771
0.000000 0.989730 0.484382
0.128619 1.000000 0.498881
0.267508 1.000000 0.517852
0.537127 1.000000 0.529030
0.681744 1.000000 0.529030
0.826361 1.000000 0.529030
0.970978 1.000000 0.529030
1.000000 0.995463 0.534620
0.000000 0.000000 0.566989
0.094673 0.000000 0.566989
0.185704 0.000000 0.566989
0.276735 0.000000 0.566989
0.369844 0.000000 0.566989
0.575358 0.000000 0.567168
0.697352 0.000000 0.570315
0.819346 0.000000 0.574141
0.850688 0.000000 0.577097
0.000000 0.094125 0.566989
0.000776 0.000000 0.677753
0.129669 0.000000 0.677753
0.258562 0.000000 0.677753
0.520268 0.000000 0.677753
0.685549 0.000000 0.674022
0.801344 0.000000 0.634301
0.955086 0.000000 0.635010
0.994296 0.000000 0.637658
0.000000 0.184776 0.566989
0.000000 0.127876 0.678604
0.100139 0.098674 0.719819
0.243795 0.098674 0.719819
0.544295 0.098674 0.719819
0.730064 0.096226 0.717152
0.939929 0.000000 0.712379
1.000000 0.093394 0.656535
1.000000 0.132604 0.650024
0.000000 0.275427 0.566989
0.000000 0.256530 0.678604
0.099948 0.241601 0.719986
0.209866 0.207558 0.751675
0.555528 0.207558 0.751675
0.768352 0.198678 0.753634
0.985695 0.094974 0.728563
1.000000 0.231702 0.665265
1.000000 0.270913 0.663849
0.000000 0.368182 0.566989
0.000000 0.517606 0.678604
0.099948 0.540888 0.719986
0.208596 0.551831 0.752669
0.514721 0.510648 0.719204
0.731219 0.506873 0.716108
0.914814 0.443386 0.665244
1.000000 0.500568 0.657741
1.000000 0.541148 0.675213
0.000000 0.572585 0.567108
0.000000 0.683817 0.676075
0.098309 0.726838 0.718198
0.202682 0.763796 0.753977
0.511909 0.726802 0.716715
0.712288 0.707998 0.699341
0.886085 0.653990 0.643580
1.000000 0.673596 0.666194
1.000000 0.712618 0.706774
0.000000 0.694069 0.570220
0.000000 0.798666 0.635340
0.002011 0.936301 0.714027
0.099785 0.979857 0.729599
0.449293 0.909025 0.666309
0.660826 0.881139 0.645294
0.886085 0.879978 0.643580
1.000000 0.834289 0.666194
1.000000 0.839501 0.706774
0.000000 0.815553 0.574015
0.000000 0.950684 0.634988
0.089573 1.000000 0.657776
0.228461 1.000000 0.665893
0.498382 1.000000 0.655748
0.672195 1.000000 0.660773
0.838686 1.000000 0.660773
1.000000 0.994983 0.666194
1.000000 0.966383 0.706774
0.000000 0.845286 0.575958
0.000000 0.989730 0.637598
0.128619 1.000000 0.650815
0.267508 1.000000 0.664034
0.538792 1.000000 0.673003
0.710217 1.000000 0.701183
0.841896 1.000000 0.701183
0.973574 1.000000 0.701183
1.000000 0.995915 0.706774
0.000000 0.000000 0.687444
0.094274 0.000000 0.687444
0.184922 0.000000 0.687444
0.275570 0.000000 0.687444
0.459273 0.000000 0.687444
0.578187 0.000000 0.687444
0.697352 0.000000 0.687697
0.819346 0.000000 0.691183
0.850688 0.000000 0.694481
0.000000 0.093728 0.687444
0.000720 0.000000 0.791436
0.120391 0.000000 0.791436
0.240063 0.000000 0.791436
0.490210 0.000000 0.791436
0.647198 0.000000 0.791436
0.801344 0.000000 0.788649
0.955086 0.000000 0.787789
0.994296 0.000000 0.790672
0.000000 0.183998 0.687444
0.000000 0.118643 0.792041
0.013309 0.011680 0.919019
0.173081 0.011680 0.919019
0.516857 0.011680 0.919019
0.726449 0.011680 0.919019
0.939929 0.000000 0.922635
1.000000 0.093394 0.820478
1.000000 0.132604 0.800181
0.000000 0.274267 0.687444
0.000000 0.238007 0.792041
0.011873 0.169797 0.920268
0.105166 0.102541 0.968898
0.509272 0.102541 0.968898
0.748812 0.102541 0.968898
0.985695 0.094974 0.966152
1.000000 0.231702 0.825041
1.000000 0.270913 0.808074
0.000000 0.457066 0.687444
0.000000 0.487410 0.792041
0.011873 0.513058 0.920268
0.104826 0.504615 0.968645
0.453590 0.449281 0.899164
0.685807 0.449281 0.899164
0.914814 0.443386 0.895847
1.000000 0.500568 0.821108
1.000000 0.541148 0.814562
0.000000 0.575484 0.687444
0.000000 0.643995 0.792041
0.011873 0.722370 0.920268
0.104826 0.743133 0.968645
0.453208 0.680046 0.898587
0.663325 0.658212 0.869979
0.884801 0.653145 0.866405
1.000000 0.674192 0.825845
1.000000 0.713850 0.833684
0.000000 0.694069 0.687612
0.000000 0.798666 0.790152
0.002011 0.936301 0.924714
0.099785 0.979857 0.966811
0.449293 0.909025 0.896372
0.659570 0.879246 0.866987
0.862834 0.857755 0.847507
1.000000 0.846466 0.838347
1.000000 0.862757 0.855845
0.000000 0.815553 0.691065
0.000000 0.950684 0.787976
0.089573 1.000000 0.823619
0.228461 1.000000 0.827803
0.498382 1.000000 0.822574
0.672734 1.000000 0.825452
0.845848 1.000000 0.832927
1.000000 0.995352 0.838347
1.000000 0.989502 0.855845
0.000000 0.845286 0.693145
0.000000 0.989730 0.790814
0.128619 1.000000 0.802749
0.267508 1.000000 0.810216
0.538792 1.000000 0.815283
0.713145 1.000000 0.832907
0.865427 1.000000 0.855090
0.992704 1.000000 0.855090
1.000000 1.000000 0.855845
0.000000 0.000000 0.807900
0.093996 0.000000 0.807900
0.184377 0.000000 0.807900
0.274758 0.000000 0.807900
0.463332 0.000000 0.807900
0.581896 0.000000 0.807900
0.700460 0.000000 0.807900
0.819346 0.000000 0.808224
0.850688 0.000000 0.811864
0.000000 0.093452 0.807900
0.000709 0.000000 0.939279
0.118582 0.000000 0.939279
0.236455 0.000000 0.939279
0.489901 0.000000 0.939279
0.644530 0.000000 0.939279
0.799159 0.000000 0.939279
0.955086 0.000000 0.940568
0.994296 0.000000 0.943687
0.000000 0.183455 0.807900
0.000000 0.116857 0.940115
0.078924 0.077587 1.000000
0.210058 0.077587 1.000000
0.500067 0.077587 1.000000
0.672092 0.077587 1.000000
0.844116 0.077587 1.000000
1.000000 0.093394 0.984421
1.000000 0.132604 0.950337
0.000000 0.273458 0.807900
0.000000 0.234425 0.940115
0.079004 0.208229 1.000000
0.217744 0.215896 1.000000
0.509925 0.215896 1.000000
0.678558 0.215896 1.000000
0.847190 0.215896 1.000000
1.000000 0.231702 0.984817
1.000000 0.270913 0.952298
0.000000 0.461132 0.807900
0.000000 0.487145 0.940115
0.079004 0.496964 1.000000
0.217892 0.506962 1.000000
0.487481 0.484209 1.000000
0.663836 0.484209 1.000000
0.840192 0.484209 1.000000
1.000000 0.500568 0.984476
1.000000 0.541148 0.953911
0.000000 0.579200 0.807900
0.000000 0.641374 0.940115
0.079004 0.668239 1.000000
0.217892 0.674833 1.000000
0.487444 0.659803 1.000000
0.661865 0.657833 1.000000
0.839255 0.657833 1.000000
1.000000 0.674192 0.984887
1.000000 0.713850 0.959356
0.000000 0.697269 0.807900
0.000000 0.795602 0.940115
0.079004 0.839515 1.000000
0.217892 0.842704 1.000000
0.487444 0.835434 1.000000
0.661796 0.834447 1.000000
0.836317 0.831456 1.000000
1.000000 0.847815 0.986095
1.000000 0.864035 0.982795
0.000000 0.815553 0.808116
0.000000 0.950684 0.940963
0.089573 1.000000 0.989463
0.228461 1.000000 0.989713
0.498382 1.000000 0.989400
0.672734 1.000000 0.989572
0.847087 1.000000 0.990099
1.000000 1.000000 0.999279
1.000000 1.000000 1.000000
0.000000 0.845286 0.810333
0.000000 0.989730 0.944030
0.128619 1.000000 0.954683
0.267508 1.000000 0.956398
0.538792 1.000000 0.957562
0.713145 1.000000 0.961611
0.867339 1.000000 0.982674
1.000000 1.000000 1.000000
1.000000 1.000000 1.000000
0.000000 0.000000 0.835935
0.093943 0.000000 0.835935
0.184273 0.000000 0.835935
0.274603 0.000000 0.835935
0.464329 0.000000 0.835935
0.582827 0.000000 0.835935
0.701324 0.000000 0.835935
0.819821 0.000000 0.835935
0.850688 0.000000 0.839184
0.000000 0.093399 0.835935
0.000710 0.000000 0.977995
0.118769 0.000000 0.977995
0.236827 0.000000 0.977995
0.492318 0.000000 0.977995
0.647190 0.000000 0.977995
0.802063 0.000000 0.977995
0.956935 0.000000 0.977995
0.994296 0.000000 0.979301
0.000000 0.183352 0.835935
0.000000 0.117034 0.978831
0.117529 0.116303 1.000000
0.237767 0.116303 1.000000
0.505356 0.116303 1.000000
0.663088 0.116303 1.000000
0.820820 0.116303 1.000000
0.978551 0.116303 1.000000
1.000000 0.132604 0.985285
0.000000 0.273304 0.835935
0.000000 0.234780 0.978831
0.117719 0.236193 1.000000
0.256282 0.254611 1.000000
0.522000 0.254611 1.000000
0.674424 0.254611 1.000000
0.826848 0.254611 1.000000
0.979273 0.254611 1.000000
1.000000 0.270913 0.985866
0.000000 0.462131 0.835935
0.000000 0.489529 0.978831
0.117719 0.502580 1.000000
0.256608 0.519449 1.000000
0.527075 0.524277 1.000000
0.677881 0.524277 1.000000
0.828687 0.524277 1.000000
0.979493 0.524277 1.000000
1.000000 0.541148 0.986344
0.000000 0.580133 0.835935
0.000000 0.643991 0.978831
0.117719 0.659605 1.000000
0.256608 0.671149 1.000000
0.527512 0.674754 1.000000
0.701082 0.697901 1.000000
0.841026 0.697901 1.000000
0.980970 0.697901 1.000000
1.000000 0.713850 0.988606
0.000000 0.698135 0.835935
0.000000 0.798454 0.978831
0.117719 0.816630 1.000000
0.256608 0.822849 1.000000
0.527512 0.824790 1.000000
0.701864 0.837686 1.000000
0.865182 0.861757 1.000000
0.992460 0.861757 1.000000
1.000000 0.864035 1.000000
0.000000 0.816137 0.835935
0.000000 0.952916 0.978831
0.117719 0.973655 1.000000
0.256608 0.974548 1.000000
0.527512 0.974827 1.000000
0.701864 0.976680 1.000000
0.865816 0.989136 1.000000
1.000000 1.000000 1.000000
1.000000 1.000000 1.000000
0.000000 0.845286 0.837607
0.000000 0.989730 0.979691
0.128619 1.000000 0.990045
0.267508 1.000000 0.990421
0.538792 1.000000 0.990677
0.713145 1.000000 0.991567
0.867339 1.000000 1.000000
1.000000 1.000000 1.000000
1.000000 1.000000 1.000000
