docs/luts/fuji_recipes/Classic_RR_Cross_Process.cube
TITLE "Fujifilm Recipe: RR Cross Process (Classic)"
# FilmSim=Classic HL=4 SH=-1 Col=3 WB=7700K WBR=-8 WBB=-3
LUT_3D_SIZE 9
DOMAIN_MIN 0.0 0.0 0.0
DOMAIN_MAX 1.0 1.0 1.0
0.040000 0.040000 0.040000
0.137520 0.034298 0.034298
0.236148 0.028531 0.028531
0.334776 0.022765 0.022765
0.433404 0.016998 0.016998
0.532032 0.011231 0.011231
0.608829 0.010523 0.010523
0.726776 0.000404 0.000404
0.835009 0.000000 0.000000
0.033616 0.149190 0.033616
0.136838 0.149190 0.033616
0.236148 0.144106 0.028531
0.334776 0.138339 0.022765
0.433404 0.132572 0.016998
0.532032 0.126806 0.011231
0.608829 0.126098 0.010523
0.726776 0.115978 0.000404
0.835009 0.112946 0.000000
0.026923 0.263648 0.026923
0.130145 0.263648 0.026923
0.234540 0.263648 0.026923
0.334776 0.259490 0.022765
0.433404 0.253723 0.016998
0.532032 0.247956 0.011231
0.608829 0.247248 0.010523
0.726776 0.237129 0.000404
0.835009 0.231342 0.000000
0.020231 0.378107 0.020231
0.123453 0.378107 0.020231
0.227848 0.378107 0.020231
0.332242 0.378107 0.020231
0.433404 0.374874 0.016998
0.532032 0.369107 0.011231
0.608829 0.368399 0.010523
0.726776 0.358280 0.000404
0.835009 0.349738 0.000000
0.013539 0.492565 0.013539
0.116761 0.492565 0.013539
0.221156 0.492565 0.013539
0.325550 0.492565 0.013539
0.429945 0.492565 0.013539
0.532032 0.490258 0.011231
0.608829 0.489550 0.010523
0.726776 0.479431 0.000404
0.835009 0.468134 0.000000
0.006666 0.610114 0.006666
0.109888 0.610114 0.006666
0.214283 0.610114 0.006666
0.318677 0.610114 0.006666
0.423072 0.610114 0.006666
0.527467 0.610114 0.006666
0.607928 0.613070 0.009622
0.726776 0.603852 0.000404
0.835009 0.563369 0.000000
0.001205 0.717442 0.001205
0.104427 0.717442 0.001205
0.208822 0.717442 0.001205
0.313216 0.717442 0.001205
0.417611 0.717442 0.001205
0.522006 0.717442 0.001205
0.603155 0.717442 0.001205
0.726776 0.716955 0.000404
0.835009 0.704123 0.000000
0.000000 0.843782 0.000000
0.100706 0.843782 0.000000
0.202557 0.843782 0.000000
0.304408 0.843782 0.000000
0.406258 0.843782 0.000000
0.508109 0.843782 0.000000
0.591761 0.843782 0.000000
0.712845 0.843782 0.000000
0.833930 0.843782 0.000000
0.000000 0.968918 0.000000
0.098683 0.968918 0.000000
0.198488 0.968918 0.000000
0.298292 0.968918 0.000000
0.398096 0.968918 0.000000
0.497901 0.968918 0.000000
0.584263 0.968918 0.000000
0.702915 0.968918 0.000000
0.821567 0.968918 0.000000
0.034771 0.034771 0.129423
0.137520 0.034298 0.128950
0.236148 0.028531 0.123183
0.334776 0.022765 0.117417
0.433404 0.016998 0.111650
0.532032 0.011231 0.105883
0.608829 0.010523 0.105175
0.726776 0.000404 0.095056
0.835009 0.000000 0.092500
0.033616 0.149190 0.128268
0.131609 0.143961 0.123039
0.230920 0.138877 0.117955
0.329547 0.133110 0.112188
0.428175 0.127344 0.106421
0.526803 0.121577 0.100655
0.606608 0.120230 0.099307
0.724555 0.110111 0.089188
0.842502 0.099991 0.079069
0.026923 0.263648 0.121575
0.124917 0.258420 0.116347
0.229312 0.258420 0.116347
0.329547 0.254261 0.112188
0.428175 0.248495 0.106421
0.526803 0.242728 0.100655
0.606608 0.241380 0.099307
0.724555 0.231261 0.089188
0.842502 0.221142 0.079069
0.020231 0.378107 0.114883
0.118225 0.372878 0.109655
0.222619 0.372878 0.109655
0.327014 0.372878 0.109655
0.428175 0.369645 0.106421
0.526803 0.363879 0.100655
0.606608 0.362531 0.099307
0.724555 0.352412 0.089188
0.842502 0.342293 0.079069
0.013539 0.492565 0.108191
0.111532 0.487337 0.102962
0.215927 0.487337 0.102962
0.320322 0.487337 0.102962
0.424716 0.487337 0.102962
0.526803 0.485029 0.100655
0.606608 0.483682 0.099307
0.724555 0.473563 0.089188
0.842502 0.463444 0.079069
0.006666 0.610114 0.101318
0.104659 0.604885 0.096089
0.209054 0.604885 0.096089
0.313449 0.604885 0.096089
0.417843 0.604885 0.096089
0.522238 0.604885 0.096089
0.606346 0.607841 0.099045
0.724555 0.570704 0.089188
0.842502 0.564542 0.079069
0.001205 0.717442 0.095857
0.098559 0.715221 0.089989
0.202954 0.715221 0.089989
0.307348 0.715221 0.089989
0.411743 0.715221 0.089989
0.516138 0.715221 0.089989
0.600934 0.715221 0.089989
0.724555 0.714733 0.089188
0.842502 0.708571 0.079069
0.000000 0.843782 0.092345
0.086816 0.852099 0.078246
0.191210 0.852099 0.078246
0.295605 0.852099 0.078246
0.400000 0.852099 0.078246
0.504394 0.852099 0.078246
0.593783 0.852099 0.078246
0.717892 0.852099 0.078246
0.842001 0.852099 0.078246
0.000000 0.968918 0.090490
0.075073 0.988978 0.066503
0.179467 0.988978 0.066503
0.283862 0.988978 0.066503
0.388257 0.988978 0.066503
0.492651 0.988978 0.066503
0.586632 0.988978 0.066503
0.710741 0.988978 0.066503
0.834850 0.988978 0.066503
0.029049 0.029049 0.227294
0.132271 0.029049 0.227294
0.236148 0.028531 0.226777
0.334776 0.022765 0.221010
0.433404 0.016998 0.215243
0.532032 0.011231 0.209477
0.608829 0.010523 0.208768
0.726776 0.000404 0.198649
0.835009 0.000000 0.193737
0.029049 0.144623 0.227294
0.126569 0.138921 0.221592
0.229764 0.137721 0.220392
0.328392 0.131955 0.214626
0.427020 0.126188 0.208859
0.525648 0.120421 0.203092
0.606117 0.118933 0.201604
0.724064 0.108814 0.191484
0.842011 0.098694 0.181365
0.026923 0.263648 0.225169
0.124444 0.257947 0.219467
0.223589 0.252698 0.214218
0.323825 0.248539 0.210059
0.422453 0.242772 0.204292
0.521081 0.237005 0.198526
0.604177 0.234958 0.196478
0.722124 0.224839 0.186359
0.840071 0.214720 0.176240
0.020231 0.378107 0.218476
0.117751 0.372405 0.212774
0.216897 0.367156 0.207525
0.321292 0.367156 0.207525
0.422453 0.363923 0.204292
0.521081 0.358156 0.198526
0.604177 0.356109 0.196478
0.722124 0.345990 0.186359
0.840071 0.335871 0.176240
0.013539 0.492565 0.211784
0.111059 0.486864 0.206082
0.210205 0.481615 0.200833
0.314599 0.481615 0.200833
0.418994 0.481615 0.200833
0.521081 0.479307 0.198526
0.604177 0.477260 0.196478
0.722124 0.467141 0.186359
0.840071 0.457022 0.176240
0.006666 0.610114 0.204911
0.104186 0.604412 0.199209
0.208275 0.575912 0.198903
0.312670 0.575912 0.198903
0.417064 0.575912 0.198903
0.521459 0.575912 0.198903
0.604177 0.574435 0.196478
0.722124 0.568273 0.186359
0.840071 0.562111 0.176240
0.001205 0.717442 0.199450
0.098028 0.715020 0.193051
0.196532 0.712790 0.187160
0.300926 0.712790 0.187160
0.405321 0.712790 0.187160
0.509716 0.712790 0.187160
0.598503 0.712790 0.187160
0.722124 0.712302 0.186359
0.840071 0.706140 0.176240
0.000000 0.843782 0.193414
0.086285 0.851898 0.181308
0.184788 0.849668 0.175417
0.289183 0.849668 0.175417
0.393578 0.849668 0.175417
0.497972 0.849668 0.175417
0.591352 0.849668 0.175417
0.715461 0.849668 0.175417
0.839570 0.849668 0.175417
0.000000 0.968918 0.189528
0.074541 0.988777 0.169564
0.173045 0.986547 0.163674
0.277440 0.986547 0.163674
0.381834 0.986547 0.163674
0.486229 0.986547 0.163674
0.584201 0.986547 0.163674
0.708310 0.986547 0.163674
0.832419 0.986547 0.163674
0.023327 0.023327 0.325165
0.126549 0.023327 0.325165
0.230943 0.023327 0.325165
0.334776 0.022765 0.324603
0.433404 0.016998 0.318836
0.532032 0.011231 0.313070
0.608829 0.010523 0.312362
0.726776 0.000404 0.302243
0.835009 0.000000 0.294975
0.023327 0.138901 0.325165
0.120847 0.133199 0.319463
0.224559 0.132517 0.318781
0.328392 0.131955 0.318219
0.427020 0.126188 0.312452
0.525648 0.120421 0.306686
0.606117 0.118933 0.305197
0.724064 0.108814 0.295078
0.842011 0.098694 0.284959
0.023327 0.260052 0.325165
0.120847 0.254350 0.319463
0.219475 0.248583 0.313697
0.321699 0.246413 0.311527
0.420327 0.240647 0.305760
0.518955 0.234880 0.299993
0.603274 0.232573 0.297686
0.721221 0.222454 0.287567
0.839168 0.212335 0.277448
0.020231 0.378107 0.322070
0.117751 0.372405 0.316368
0.216379 0.366638 0.310601
0.315569 0.361434 0.305396
0.416731 0.358200 0.302163
0.515359 0.352434 0.296396
0.601746 0.349687 0.293650
0.719693 0.339568 0.283530
0.837640 0.329449 0.273411
0.013539 0.492565 0.315377
0.111059 0.486864 0.309675
0.209687 0.481097 0.303909
0.308877 0.475892 0.298704
0.413271 0.475892 0.298704
0.515359 0.473585 0.296396
0.601746 0.470838 0.293650
0.719693 0.460719 0.283530
0.837640 0.450599 0.273411
0.006666 0.610114 0.308504
0.104186 0.604412 0.302802
0.207694 0.575692 0.301916
0.306247 0.573481 0.296075
0.410642 0.573481 0.296075
0.515037 0.573481 0.296075
0.601746 0.572004 0.293650
0.719693 0.565842 0.283530
0.837640 0.559680 0.273411
0.001205 0.717442 0.303043
0.098028 0.715020 0.296644
0.195951 0.712570 0.290172
0.294504 0.710359 0.284331
0.398899 0.710359 0.284331
0.503293 0.710359 0.284331
0.596072 0.710359 0.284331
0.719693 0.709871 0.283530
0.837640 0.703709 0.273411
0.000000 0.843782 0.294483
0.086285 0.851898 0.284901
0.184207 0.849449 0.278429
0.282761 0.847237 0.272588
0.387155 0.847237 0.272588
0.491550 0.847237 0.272588
0.588921 0.847237 0.272588
0.713030 0.847237 0.272588
0.837139 0.847237 0.272588
0.000000 0.968918 0.288567
0.074541 0.988777 0.273158
0.172464 0.986327 0.266686
0.271018 0.984116 0.260845
0.375412 0.984116 0.260845
0.452162 0.984116 0.260845
0.581770 0.984116 0.260845
0.705879 0.984116 0.260845
0.829988 0.984116 0.260845
0.017604 0.017604 0.423036
0.120826 0.017604 0.423036
0.225221 0.017604 0.423036
0.329615 0.017604 0.423036
0.433404 0.016998 0.422430
0.532032 0.011231 0.416663
0.608829 0.010523 0.415955
0.726776 0.000404 0.405836
0.835009 0.000000 0.396212
0.017604 0.133178 0.423036
0.115124 0.127477 0.417334
0.218837 0.126794 0.416652
0.323231 0.126794 0.416652
0.427020 0.126188 0.416045
0.525648 0.120421 0.410279
0.606117 0.118933 0.408790
0.724064 0.108814 0.398671
0.842011 0.098694 0.388552
0.017604 0.254329 0.423036
0.115124 0.248627 0.417334
0.213752 0.242861 0.411567
0.316539 0.241253 0.409959
0.420327 0.240647 0.409353
0.518955 0.234880 0.403587
0.603274 0.232573 0.401279
0.721221 0.222454 0.391160
0.839168 0.212335 0.381041
0.017604 0.375480 0.423036
0.115124 0.369778 0.417334
0.213752 0.364011 0.411567
0.312380 0.358245 0.405801
0.413635 0.355105 0.402661
0.512263 0.349338 0.396894
0.600431 0.346213 0.393769
0.718378 0.336094 0.383650
0.836325 0.325975 0.373531
0.013539 0.492565 0.418971
0.111059 0.486864 0.413269
0.209687 0.481097 0.407502
0.308315 0.475330 0.401735
0.407549 0.470170 0.396575
0.509636 0.467862 0.394267
0.599315 0.464415 0.390821
0.717262 0.454296 0.380702
0.835209 0.444177 0.370582
0.006666 0.610114 0.412098
0.104186 0.604412 0.406396
0.207694 0.575692 0.405509
0.305617 0.573242 0.399037
0.404220 0.571050 0.393246
0.508614 0.571050 0.393246
0.599315 0.569573 0.390821
0.717262 0.563411 0.380702
0.835209 0.557249 0.370582
0.001205 0.717442 0.406637
0.098028 0.715020 0.400238
0.195951 0.712570 0.393766
0.293873 0.710120 0.387294
0.392477 0.707928 0.381502
0.496871 0.707928 0.381502
0.593641 0.707928 0.381502
0.717262 0.707440 0.380702
0.835209 0.701278 0.370582
0.000000 0.843782 0.395551
0.086285 0.851898 0.388494
0.184207 0.849449 0.382022
0.282130 0.846999 0.375551
0.380733 0.844806 0.369759
0.456882 0.844806 0.369759
0.586490 0.844806 0.369759
0.710599 0.844806 0.369759
0.834708 0.844806 0.369759
0.000000 0.968918 0.387605
0.074541 0.988777 0.376751
0.172464 0.986327 0.370279
0.270387 0.983877 0.363807
0.368990 0.981685 0.358016
0.449731 0.981685 0.358016
0.579339 0.981685 0.358016
0.703448 0.981685 0.358016
0.827557 0.981685 0.358016
0.011882 0.011882 0.520907
0.115104 0.011882 0.520907
0.219498 0.011882 0.520907
0.323893 0.011882 0.520907
0.428288 0.011882 0.520907
0.532032 0.011231 0.520256
0.608829 0.010523 0.519548
0.726776 0.000404 0.509429
0.835009 0.000000 0.497450
0.011882 0.127456 0.520907
0.109402 0.121754 0.515205
0.213114 0.121072 0.514523
0.317509 0.121072 0.514523
0.421903 0.121072 0.514523
0.525648 0.120421 0.513872
0.606117 0.118933 0.512383
0.724064 0.108814 0.502264
0.842011 0.098694 0.492145
0.011882 0.248607 0.520907
0.109402 0.242905 0.515205
0.208030 0.237138 0.509438
0.310817 0.235530 0.507830
0.415211 0.235530 0.507830
0.518955 0.234880 0.507180
0.603274 0.232573 0.504873
0.721221 0.222454 0.494754
0.839168 0.212335 0.484635
0.011882 0.369758 0.520907
0.109402 0.364056 0.515205
0.208030 0.358289 0.509438
0.306658 0.352522 0.503671
0.408519 0.349989 0.501138
0.512263 0.349338 0.500487
0.600431 0.346213 0.497362
0.718378 0.336094 0.487243
0.836325 0.325975 0.477124
0.011882 0.490908 0.520907
0.109402 0.485206 0.515205
0.208030 0.479440 0.509438
0.306658 0.473673 0.503671
0.405286 0.467906 0.497905
0.505571 0.463797 0.493795
0.597588 0.459853 0.489851
0.715535 0.449734 0.479732
0.833482 0.439615 0.441428
0.006666 0.610114 0.515691
0.104186 0.604412 0.509989
0.207694 0.575692 0.509102
0.305617 0.573242 0.502630
0.403539 0.570792 0.496159
0.502192 0.568619 0.490417
0.596884 0.567142 0.487992
0.714831 0.560980 0.477873
0.837517 0.559557 0.445463
0.001205 0.717442 0.510230
0.098028 0.715020 0.503831
0.195951 0.712570 0.497359
0.293873 0.710120 0.490887
0.391796 0.707670 0.484415
0.464595 0.708490 0.481666
0.591210 0.705497 0.478673
0.714831 0.705009 0.477873
0.837517 0.703586 0.445463
0.000000 0.843782 0.496620
0.086285 0.851898 0.492088
0.184207 0.849449 0.485616
0.282130 0.846999 0.479144
0.380053 0.844549 0.442396
0.459134 0.847058 0.444905
0.588742 0.847058 0.444905
0.712850 0.847058 0.444905
0.836959 0.847058 0.444905
0.000000 0.968918 0.486643
0.074541 0.988777 0.480344
0.172464 0.986327 0.473872
0.270387 0.983877 0.437695
0.368310 0.981427 0.435245
0.451178 0.983131 0.436949
0.580785 0.983131 0.436949
0.704894 0.983131 0.436949
0.829003 0.983131 0.436949
0.005990 0.005990 0.621678
0.109212 0.005990 0.621678
0.213606 0.005990 0.621678
0.318001 0.005990 0.621678
0.422396 0.005990 0.621678
0.526790 0.005990 0.621678
0.605782 0.007476 0.623164
0.726776 0.000404 0.587715
0.835009 0.000000 0.577823
0.005990 0.121564 0.621678
0.108565 0.120917 0.592197
0.212194 0.120152 0.591907
0.316589 0.120152 0.591907
0.420983 0.120152 0.591907
0.525378 0.120152 0.591907
0.606117 0.118933 0.591165
0.724064 0.108814 0.585003
0.842011 0.098694 0.578841
0.005990 0.242715 0.621678
0.108565 0.242068 0.592197
0.206488 0.235596 0.589748
0.309078 0.233792 0.589064
0.413473 0.233792 0.589064
0.517867 0.233792 0.589064
0.603274 0.232573 0.588322
0.721221 0.222454 0.582160
0.839168 0.212335 0.575998
0.005990 0.363866 0.621678
0.108565 0.363219 0.592197
0.206488 0.356747 0.589748
0.304411 0.350275 0.587298
0.405962 0.347432 0.586221
0.510357 0.347432 0.586221
0.600431 0.346213 0.585479
0.718378 0.336094 0.579317
0.836325 0.325975 0.573155
0.005990 0.485016 0.621678
0.108565 0.484370 0.592197
0.206488 0.477898 0.589748
0.304411 0.471426 0.587298
0.402334 0.464954 0.584848
0.502846 0.461072 0.583378
0.597588 0.459853 0.582636
0.715535 0.449734 0.576474
0.833482 0.439615 0.570312
0.005990 0.609438 0.621678
0.105656 0.605882 0.589288
0.206488 0.574957 0.589748
0.304411 0.572508 0.587298
0.402334 0.570058 0.584848
0.500256 0.567608 0.582398
0.596708 0.566966 0.581756
0.713962 0.560110 0.574901
0.831215 0.553255 0.568045
0.001205 0.717442 0.588203
0.098028 0.715020 0.585781
0.195951 0.712570 0.583331
0.293873 0.710120 0.580881
0.391796 0.707670 0.578431
0.466304 0.710199 0.580960
0.589578 0.703865 0.574626
0.713145 0.703323 0.574084
0.830398 0.696467 0.567228
0.000000 0.843782 0.577173
0.086285 0.851898 0.578630
0.184207 0.849449 0.576180
0.282130 0.846999 0.573730
0.380053 0.844549 0.571280
0.458348 0.846272 0.573004
0.581622 0.839939 0.566670
0.705731 0.839939 0.566670
0.829840 0.839939 0.566670
0.000000 0.968918 0.569968
0.074541 0.988777 0.571479
0.172464 0.986327 0.569029
0.270387 0.983877 0.566579
0.368310 0.981427 0.564129
0.450392 0.982345 0.565047
0.573666 0.976012 0.558714
0.697775 0.976012 0.558714
0.821884 0.976012 0.558714
0.001701 0.001701 0.711661
0.104923 0.001701 0.711661
0.209318 0.001701 0.711661
0.313712 0.001701 0.711661
0.418107 0.001701 0.711661
0.522502 0.001701 0.711661
0.603457 0.001701 0.711661
0.726776 0.000404 0.710872
0.835009 0.000000 0.698179
0.001701 0.117275 0.711661
0.098524 0.110876 0.709239
0.202153 0.110110 0.708949
0.306547 0.110110 0.708949
0.410942 0.110110 0.708949
0.515337 0.110110 0.708949
0.600745 0.110110 0.708949
0.724064 0.108814 0.708159
0.842011 0.098694 0.701998
0.001701 0.238426 0.711661
0.098524 0.232027 0.709239
0.196447 0.225555 0.706789
0.299037 0.223750 0.706106
0.403431 0.223750 0.706106
0.507826 0.223750 0.706106
0.597902 0.223750 0.706106
0.721221 0.222454 0.705316
0.839168 0.212335 0.699155
0.001701 0.359577 0.711661
0.098524 0.353178 0.709239
0.196447 0.346706 0.706789
0.294369 0.340234 0.704339
0.395921 0.337391 0.703263
0.500315 0.337391 0.703263
0.595059 0.337391 0.703263
0.718378 0.336094 0.702473
0.836325 0.325975 0.696312
0.001701 0.480728 0.711661
0.098524 0.474328 0.709239
0.196447 0.467857 0.706789
0.294369 0.461385 0.704339
0.392292 0.454913 0.701890
0.462608 0.451031 0.700420
0.592216 0.451031 0.700420
0.715535 0.449734 0.699630
0.833482 0.439615 0.693469
0.001701 0.605149 0.711661
0.098524 0.571292 0.709239
0.196447 0.568843 0.706789
0.294369 0.566393 0.704339
0.392292 0.563943 0.701890
0.466640 0.566505 0.704452
0.590731 0.560989 0.698935
0.713962 0.560110 0.698057
0.831215 0.553255 0.691201
0.001205 0.717442 0.711359
0.098028 0.715020 0.708937
0.195951 0.712570 0.706487
0.293873 0.710120 0.704037
0.391796 0.707670 0.701588
0.466304 0.710199 0.704116
0.588752 0.703039 0.696956
0.706341 0.696520 0.690437
0.823595 0.689664 0.683581
0.000000 0.843782 0.697328
0.086285 0.851898 0.701786
0.184207 0.849449 0.699336
0.282130 0.846999 0.696886
0.380053 0.844549 0.694437
0.458348 0.846272 0.696160
0.580796 0.839113 0.689000
0.698928 0.833135 0.683023
0.823037 0.833135 0.683023
0.000000 0.968918 0.687709
0.074541 0.988777 0.694635
0.172464 0.986327 0.692185
0.270387 0.983877 0.689736
0.368310 0.981427 0.687286
0.450392 0.982345 0.688204
0.572840 0.975186 0.681044
0.690972 0.969209 0.675067
0.815081 0.969209 0.675067
0.000000 0.000000 0.820362
0.101165 0.000000 0.820362
0.203479 0.000000 0.820362
0.305793 0.000000 0.820362
0.408108 0.000000 0.820362
0.510422 0.000000 0.820362
0.593613 0.000000 0.820362
0.715248 0.000000 0.820362
0.835009 0.000000 0.818534
0.000000 0.113271 0.820362
0.088482 0.100835 0.826281
0.192111 0.100069 0.825991
0.296506 0.100069 0.825991
0.400901 0.100069 0.825991
0.505295 0.100069 0.825991
0.594630 0.100069 0.825991
0.718739 0.100069 0.825991
0.842011 0.098694 0.825154
0.000000 0.232007 0.820362
0.088482 0.221985 0.826281
0.186405 0.215514 0.823831
0.288995 0.213709 0.823148
0.393390 0.213709 0.823148
0.497785 0.213709 0.823148
0.591787 0.213709 0.823148
0.715896 0.213709 0.823148
0.839168 0.212335 0.822311
0.000000 0.350744 0.820362
0.088482 0.343136 0.826281
0.186405 0.336664 0.823831
0.284328 0.330193 0.821381
0.385879 0.327349 0.820305
0.490274 0.327349 0.820305
0.588944 0.327349 0.820305
0.713053 0.327349 0.820305
0.836325 0.325975 0.819468
0.000000 0.469480 0.820362
0.088482 0.464287 0.826281
0.186405 0.457815 0.823831
0.284328 0.451343 0.821381
0.382251 0.444871 0.818931
0.456494 0.440989 0.817462
0.586101 0.440989 0.817462
0.710210 0.440989 0.817462
0.833482 0.439615 0.816625
0.000000 0.564463 0.820362
0.088482 0.565178 0.826281
0.186405 0.562728 0.823831
0.284328 0.560278 0.821381
0.382251 0.557829 0.818931
0.459837 0.559702 0.820805
0.583928 0.554186 0.815289
0.708037 0.554186 0.815289
0.831215 0.553255 0.814357
0.000000 0.705622 0.820362
0.088482 0.709207 0.826281
0.186405 0.706757 0.823831
0.284328 0.704308 0.821381
0.382251 0.701858 0.818931
0.459837 0.703732 0.820805
0.582285 0.696572 0.813646
0.700081 0.690259 0.807332
0.823259 0.689328 0.806401
0.000000 0.843782 0.817483
0.086285 0.851898 0.824942
0.184207 0.849449 0.822492
0.282130 0.846999 0.820043
0.380053 0.844549 0.817593
0.458348 0.846272 0.819316
0.580796 0.839113 0.812157
0.698049 0.832257 0.805301
0.816234 0.826332 0.799376
0.000000 0.968918 0.805450
0.074541 0.988777 0.817791
0.172464 0.986327 0.815342
0.270387 0.983877 0.812892
0.368310 0.981427 0.810442
0.450392 0.982345 0.811360
0.572840 0.975186 0.804200
0.690093 0.968330 0.797345
0.808278 0.962406 0.791420
