docs/luts/fuji_recipes/Classic_VM_K14.cube
TITLE "Fujifilm Recipe: VM K14 (Classic)"
# FilmSim=Classic HL=-1 SH=0 Col=-4 WB=Auto WBR=0 WBB=-2
LUT_3D_SIZE 5
DOMAIN_MIN 0.0 0.0 0.0
DOMAIN_MAX 1.0 1.0 1.0
0.000000 0.000000 0.000000
0.149346 0.098654 0.098654
0.298691 0.197309 0.197309
0.442524 0.292862 0.292862
0.581356 0.385367 0.385367
0.098151 0.148584 0.098151
0.149346 0.149087 0.098654
0.298691 0.247742 0.197309
0.442524 0.343295 0.292862
0.581356 0.435799 0.385367
0.196394 0.297306 0.196394
0.247085 0.297306 0.196394
0.298691 0.298221 0.197309
0.442524 0.393774 0.292862
0.581356 0.486279 0.385367
0.291618 0.440656 0.291618
0.342309 0.440656 0.291618
0.393000 0.440656 0.291618
0.442524 0.441893 0.292862
0.581356 0.533844 0.385367
0.383735 0.578908 0.383735
0.434427 0.578908 0.383735
0.485118 0.578908 0.383735
0.532853 0.578908 0.383735
0.581356 0.580529 0.385367
0.092266 0.092266 0.139675
0.149346 0.098654 0.146063
0.298691 0.197309 0.244717
0.442524 0.292862 0.340271
0.581356 0.385367 0.432775
0.098151 0.148584 0.145560
0.241612 0.241353 0.238329
0.390957 0.340008 0.336984
0.533588 0.434885 0.431861
0.672420 0.527389 0.524365
0.196394 0.297306 0.243802
0.339351 0.389572 0.336068
0.390957 0.390487 0.336984
0.533588 0.485364 0.431861
0.672420 0.577447 0.524365
0.291618 0.440656 0.339026
0.433898 0.531720 0.430616
0.484590 0.531720 0.430616
0.533588 0.532957 0.431861
0.672420 0.624908 0.524365
0.383735 0.578908 0.431144
0.526016 0.669972 0.522734
0.576267 0.669972 0.522734
0.623917 0.669972 0.522734
0.672420 0.671593 0.524365
0.184806 0.184806 0.279764
0.235497 0.184806 0.279764
0.298691 0.197309 0.292267
0.442524 0.292862 0.387820
0.581356 0.385367 0.480325
0.184806 0.235239 0.279764
0.333648 0.333390 0.377915
0.396843 0.345893 0.390418
0.539396 0.440727 0.485252
0.678229 0.533231 0.577659
0.196394 0.297306 0.291352
0.345739 0.395960 0.390006
0.483497 0.483027 0.477073
0.624872 0.576780 0.571183
0.762993 0.668020 0.662423
0.291618 0.440656 0.386576
0.440240 0.538025 0.484507
0.575995 0.623013 0.569956
0.624872 0.624241 0.571183
0.762993 0.715481 0.662423
0.383735 0.578908 0.478693
0.532358 0.676277 0.576534
0.666853 0.760557 0.660814
0.714502 0.760557 0.660814
0.762993 0.762166 0.662423
0.275405 0.275405 0.416324
0.326096 0.275405 0.416324
0.376788 0.275405 0.416324
0.442524 0.292862 0.433677
0.581356 0.385367 0.525628
0.275405 0.325838 0.416324
0.423528 0.423270 0.513197
0.474220 0.423270 0.513197
0.539396 0.440727 0.530549
0.678229 0.533231 0.622500
0.275405 0.376317 0.416324
0.424028 0.474249 0.513693
0.570896 0.570454 0.609699
0.635765 0.587673 0.626917
0.773885 0.678912 0.718157
0.291618 0.440656 0.432440
0.440240 0.538025 0.529808
0.587747 0.634766 0.626550
0.712142 0.711511 0.703294
0.850262 0.802750 0.794534
0.383735 0.578908 0.524006
0.532358 0.676277 0.621375
0.678606 0.772310 0.717408
0.801772 0.847826 0.792925
0.850262 0.849435 0.794534
0.362176 0.362176 0.546551
0.412867 0.362176 0.546551
0.463558 0.362176 0.546551
0.511423 0.362176 0.546551
0.581356 0.385367 0.569603
0.362176 0.412609 0.546551
0.510299 0.510041 0.643424
0.560646 0.510041 0.643424
0.608296 0.510041 0.643424
0.678229 0.533231 0.666476
0.362176 0.463088 0.546551
0.510799 0.560700 0.643920
0.656481 0.656039 0.739259
0.704131 0.656039 0.739259
0.773885 0.678912 0.762132
0.362176 0.510792 0.546551
0.510799 0.608161 0.643920
0.657341 0.704360 0.740119
0.796498 0.795867 0.831626
0.866253 0.818741 0.854500
0.383735 0.578908 0.567982
0.532358 0.676277 0.665350
0.678606 0.772310 0.761383
0.818990 0.865045 0.854119
0.935847 0.935020 0.924094
