docs/luts/fuji_recipes/Classic_RR_Dramatic_Classic_Chrome.cube
TITLE "Fujifilm Recipe: RR Dramatic Classic Chrome (Classic)"
# FilmSim=Classic HL=3 SH=3 Col=0 WB=Auto WBR=-1 WBB=1
LUT_3D_SIZE 9
DOMAIN_MIN 0.0 0.0 0.0
DOMAIN_MAX 1.0 1.0 1.0
0.000000 0.000000 0.000000
0.105281 0.016431 0.016431
0.206513 0.032230 0.032230
0.307744 0.048029 0.048029
0.411514 0.064225 0.064225
0.590508 0.079769 0.079769
0.717270 0.095313 0.095313
0.844032 0.110858 0.110858
0.873536 0.114476 0.114476
0.016755 0.107356 0.016755
0.105605 0.107356 0.016755
0.206513 0.122831 0.032230
0.307744 0.138630 0.048029
0.411514 0.154825 0.064225
0.590508 0.170370 0.079769
0.717270 0.185914 0.095313
0.844032 0.201459 0.110858
0.873536 0.205076 0.114476
0.032891 0.210749 0.032891
0.121741 0.210749 0.032891
0.207174 0.210749 0.032891
0.307744 0.225887 0.048029
0.411514 0.242082 0.064225
0.590508 0.257627 0.079769
0.717270 0.273171 0.095313
0.844032 0.288715 0.110858
0.873536 0.292333 0.114476
0.049028 0.314143 0.049028
0.137878 0.314143 0.049028
0.223310 0.314143 0.049028
0.308743 0.314143 0.049028
0.411514 0.329339 0.064225
0.590508 0.344884 0.079769
0.717270 0.360428 0.095313
0.844032 0.375972 0.110858
0.873536 0.379590 0.114476
0.065539 0.419936 0.065539
0.154389 0.419936 0.065539
0.239822 0.419936 0.065539
0.325254 0.419936 0.065539
0.412829 0.419936 0.065539
0.590508 0.434166 0.079769
0.717270 0.512359 0.095313
0.844032 0.532143 0.110858
0.873536 0.536747 0.114476
0.081415 0.603934 0.081415
0.170265 0.603934 0.081415
0.255698 0.603934 0.081415
0.341130 0.603934 0.081415
0.428705 0.603934 0.081415
0.592603 0.603934 0.081415
0.717270 0.621622 0.095313
0.844032 0.641406 0.110858
0.873536 0.646010 0.114476
0.097292 0.733403 0.097292
0.186142 0.733403 0.097292
0.271574 0.733403 0.097292
0.357007 0.733403 0.097292
0.505831 0.733403 0.097292
0.612809 0.733403 0.097292
0.719788 0.733403 0.097292
0.844032 0.750669 0.110858
0.873536 0.755273 0.114476
0.113168 0.862872 0.113168
0.202018 0.862872 0.113168
0.287450 0.862872 0.113168
0.372883 0.862872 0.113168
0.526037 0.862872 0.113168
0.633015 0.862872 0.113168
0.739994 0.862872 0.113168
0.846973 0.862872 0.113168
0.873536 0.864536 0.114476
0.116863 0.893006 0.116863
0.205713 0.893006 0.116863
0.291146 0.893006 0.116863
0.376578 0.893006 0.116863
0.530740 0.893006 0.116863
0.637718 0.893006 0.116863
0.744697 0.893006 0.116863
0.851676 0.893006 0.116863
0.876574 0.893006 0.116863
0.016974 0.016974 0.108760
0.105824 0.016974 0.108760
0.206513 0.032230 0.124017
0.307744 0.048029 0.139816
0.411514 0.064225 0.156011
0.590508 0.079769 0.171555
0.717270 0.095313 0.187100
0.844032 0.110858 0.202644
0.873536 0.114476 0.206262
0.016974 0.107575 0.108760
0.122255 0.124006 0.125192
0.223268 0.139586 0.140771
0.324499 0.155385 0.156571
0.428269 0.171580 0.172766
0.611832 0.187125 0.188310
0.738594 0.202669 0.203855
0.865357 0.218213 0.219399
0.894860 0.221831 0.223017
0.032891 0.210749 0.124678
0.138172 0.227180 0.141109
0.224148 0.227723 0.141652
0.324719 0.242861 0.156790
0.428488 0.259057 0.172985
0.612111 0.274601 0.188529
0.738873 0.290145 0.204074
0.865636 0.305690 0.219618
0.895139 0.309308 0.223236
0.049028 0.314143 0.140814
0.154309 0.330574 0.157245
0.240285 0.331117 0.157788
0.325717 0.331117 0.157788
0.428488 0.346314 0.172985
0.612111 0.361858 0.188529
0.738873 0.377402 0.204074
0.865636 0.392947 0.219618
0.895139 0.396565 0.223236
0.065539 0.419936 0.157325
0.170820 0.436367 0.173757
0.256796 0.436910 0.174300
0.342228 0.436910 0.174300
0.429803 0.436910 0.174300
0.612111 0.514179 0.188529
0.738873 0.533962 0.204074
0.865636 0.553746 0.219618
0.895139 0.558351 0.223236
0.081415 0.603934 0.173202
0.186696 0.624846 0.189633
0.272672 0.625537 0.190176
0.358105 0.625537 0.190176
0.507228 0.625537 0.190176
0.614206 0.625537 0.190176
0.738873 0.643225 0.204074
0.865636 0.663009 0.219618
0.895139 0.667614 0.223236
0.097292 0.733403 0.189078
0.202573 0.754315 0.205509
0.288548 0.755006 0.206052
0.373981 0.755006 0.206052
0.527434 0.755006 0.206052
0.634413 0.755006 0.206052
0.741391 0.755006 0.206052
0.865636 0.772272 0.219618
0.895139 0.776877 0.223236
0.113168 0.862872 0.204954
0.218449 0.883785 0.221385
0.304425 0.884476 0.221928
0.389857 0.884476 0.221928
0.547640 0.884476 0.221928
0.654619 0.884476 0.221928
0.761597 0.884476 0.221928
0.868576 0.884476 0.221928
0.895139 0.886140 0.223236
0.116863 0.893006 0.208649
0.222144 0.913918 0.225081
0.308120 0.914609 0.225624
0.393552 0.914609 0.225624
0.552343 0.914609 0.225624
0.659322 0.914609 0.225624
0.766300 0.914609 0.225624
0.873279 0.914609 0.225624
0.898178 0.914609 0.225624
0.033374 0.033374 0.213841
0.122224 0.033374 0.213841
0.207656 0.033374 0.213841
0.307744 0.048029 0.228497
0.411514 0.064225 0.244692
0.590508 0.079769 0.260236
0.717270 0.095313 0.275781
0.844032 0.110858 0.291325
0.873536 0.114476 0.294943
0.033374 0.123975 0.213841
0.138655 0.140406 0.230272
0.224411 0.140730 0.230596
0.324499 0.155385 0.245252
0.428269 0.171580 0.261447
0.611832 0.187125 0.276991
0.738594 0.202669 0.292536
0.865357 0.218213 0.308080
0.894860 0.221831 0.311698
0.033374 0.211232 0.213841
0.138655 0.227663 0.230272
0.239887 0.243462 0.246072
0.340636 0.258779 0.261388
0.505607 0.274974 0.277584
0.632369 0.290518 0.293128
0.759132 0.306063 0.308672
0.885894 0.321607 0.324217
0.915398 0.325225 0.327834
0.049028 0.314143 0.229495
0.154309 0.330574 0.245926
0.255541 0.346373 0.261726
0.342117 0.347517 0.262869
0.506221 0.362714 0.278066
0.632984 0.378258 0.293610
0.759746 0.393802 0.309155
0.886508 0.409347 0.324699
0.916012 0.412964 0.328317
0.065539 0.419936 0.246006
0.170820 0.436367 0.262438
0.272052 0.515485 0.278237
0.358628 0.516940 0.279381
0.507894 0.516940 0.279381
0.632984 0.535051 0.293610
0.759746 0.554835 0.309155
0.886508 0.574619 0.324699
0.916012 0.579223 0.328317
0.081415 0.603934 0.261883
0.186696 0.624846 0.278314
0.287928 0.644954 0.294113
0.374504 0.646410 0.295257
0.528100 0.646410 0.295257
0.635079 0.646410 0.295257
0.759746 0.664098 0.309155
0.886508 0.683882 0.324699
0.916012 0.688486 0.328317
0.097292 0.733403 0.277759
0.202573 0.754315 0.294190
0.303804 0.774423 0.309989
0.390381 0.775879 0.311133
0.548307 0.775879 0.311133
0.655285 0.775879 0.311133
0.762264 0.775879 0.311133
0.886508 0.793145 0.324699
0.916012 0.797749 0.328317
0.113168 0.862872 0.293635
0.218449 0.883785 0.310066
0.319681 0.903893 0.325866
0.406257 0.905348 0.327009
0.568513 0.905348 0.327009
0.675491 0.905348 0.327009
0.782470 0.905348 0.327009
0.889449 0.905348 0.327009
0.916012 0.907013 0.328317
0.116863 0.893006 0.297331
0.222144 0.913918 0.313762
0.323376 0.934026 0.329561
0.409952 0.935482 0.330705
0.573216 0.935482 0.330705
0.680194 0.935482 0.330705
0.787173 0.935482 0.330705
0.894152 0.935482 0.330705
0.919050 0.935482 0.330705
0.049774 0.049774 0.318922
0.138624 0.049774 0.318922
0.224056 0.049774 0.318922
0.309489 0.049774 0.318922
0.411514 0.064225 0.333373
0.590508 0.079769 0.348917
0.717270 0.095313 0.364462
0.844032 0.110858 0.380006
0.873536 0.114476 0.383624
0.049774 0.140375 0.318922
0.155055 0.156806 0.335353
0.240811 0.157130 0.335677
0.326244 0.157130 0.335677
0.428269 0.171580 0.350128
0.611832 0.187125 0.365672
0.738594 0.202669 0.381217
0.865357 0.218213 0.396761
0.894860 0.221831 0.400379
0.049774 0.227632 0.318922
0.155055 0.244063 0.335353
0.256287 0.259862 0.351153
0.342380 0.260523 0.351814
0.505607 0.274974 0.366265
0.632369 0.290518 0.381809
0.759132 0.306063 0.397353
0.885894 0.321607 0.412898
0.915398 0.325225 0.416516
0.049774 0.314889 0.318922
0.155055 0.331320 0.335353
0.256287 0.347119 0.351153
0.357518 0.362918 0.366952
0.526145 0.378367 0.382401
0.652907 0.393912 0.397946
0.779669 0.409456 0.413490
0.906432 0.425001 0.429034
0.935935 0.428618 0.432652
0.065539 0.419936 0.334688
0.170820 0.436367 0.351119
0.272052 0.515485 0.366918
0.373284 0.535593 0.382717
0.528767 0.537813 0.384462
0.653856 0.555924 0.398691
0.780619 0.575708 0.414236
0.907381 0.595491 0.429780
0.936884 0.600096 0.433398
0.081415 0.603934 0.350564
0.186696 0.624846 0.366995
0.287928 0.644954 0.382794
0.389160 0.665062 0.398593
0.548973 0.667282 0.400338
0.655952 0.667282 0.400338
0.780619 0.684971 0.414236
0.907381 0.704754 0.429780
0.936884 0.709359 0.433398
0.097292 0.733403 0.366440
0.202573 0.754315 0.382871
0.303804 0.774423 0.398670
0.405036 0.794531 0.414470
0.569179 0.796752 0.416214
0.676158 0.796752 0.416214
0.783137 0.796752 0.416214
0.907381 0.814018 0.429780
0.936884 0.818622 0.433398
0.113168 0.862872 0.382316
0.218449 0.883785 0.398748
0.319681 0.903893 0.414547
0.420912 0.924001 0.430346
0.589386 0.926221 0.432090
0.696364 0.926221 0.432090
0.803343 0.926221 0.432090
0.910321 0.926221 0.432090
0.936884 0.927885 0.433398
0.116863 0.893006 0.386012
0.222144 0.913918 0.402443
0.323376 0.934026 0.418242
0.424608 0.954134 0.434041
0.594088 0.956354 0.435786
0.701067 0.956354 0.435786
0.808046 0.956354 0.435786
0.915024 0.956354 0.435786
0.939923 0.956354 0.435786
0.066532 0.066532 0.426299
0.155382 0.066532 0.426299
0.240815 0.066532 0.426299
0.326247 0.066532 0.426299
0.413822 0.066532 0.426299
0.590508 0.079769 0.439536
0.717270 0.095313 0.519193
0.844032 0.110858 0.538977
0.873536 0.114476 0.543581
0.066532 0.157133 0.426299
0.171813 0.173564 0.503475
0.257569 0.173888 0.503887
0.343002 0.173888 0.503887
0.430577 0.173888 0.503887
0.611832 0.187125 0.520734
0.738594 0.202669 0.540517
0.865357 0.218213 0.560301
0.894860 0.221831 0.564906
0.066532 0.244390 0.426299
0.171813 0.260821 0.503475
0.273045 0.276620 0.523583
0.359139 0.277281 0.524424
0.508544 0.277281 0.524424
0.632369 0.290518 0.541271
0.759132 0.306063 0.561055
0.885894 0.321607 0.580839
0.915398 0.325225 0.585443
0.066532 0.331647 0.426299
0.171813 0.348078 0.503475
0.273045 0.363877 0.523583
0.374277 0.379676 0.543691
0.529081 0.380675 0.544962
0.652907 0.393912 0.561809
0.779669 0.409456 0.581592
0.906432 0.425001 0.601376
0.935935 0.428618 0.605981
0.066532 0.420929 0.426299
0.171813 0.437360 0.503475
0.273045 0.516749 0.523583
0.374277 0.536857 0.543691
0.548423 0.557469 0.564303
0.673921 0.575989 0.582823
0.800683 0.595772 0.602607
0.927446 0.615556 0.622390
0.956949 0.620161 0.626995
0.081415 0.603934 0.501505
0.186696 0.624846 0.522417
0.287928 0.644954 0.542525
0.389160 0.665062 0.562633
0.567365 0.685674 0.583245
0.677280 0.688611 0.586182
0.801947 0.706299 0.603870
0.928710 0.726083 0.623654
0.958213 0.730688 0.628259
0.097292 0.733403 0.521711
0.202573 0.754315 0.542623
0.303804 0.774423 0.562731
0.405036 0.794531 0.582839
0.587571 0.815144 0.603451
0.697487 0.818080 0.606388
0.804465 0.818080 0.606388
0.928710 0.835346 0.623654
0.958213 0.839951 0.628259
0.113168 0.862872 0.541917
0.218449 0.883785 0.562829
0.319681 0.903893 0.582937
0.420912 0.924001 0.603046
0.607777 0.944613 0.623658
0.717693 0.947550 0.626594
0.824671 0.947550 0.626594
0.931650 0.947550 0.626594
0.958213 0.949214 0.628259
0.116863 0.893006 0.546620
0.222144 0.913918 0.567532
0.323376 0.934026 0.587640
0.424608 0.954134 0.607748
0.612480 0.974746 0.628361
0.722396 0.977683 0.631297
0.829374 0.977683 0.631297
0.936353 0.977683 0.631297
0.961252 0.977683 0.631297
0.082668 0.082668 0.614145
0.171517 0.082668 0.614145
0.256950 0.082668 0.614145
0.342383 0.082668 0.614145
0.429957 0.082668 0.614145
0.594197 0.082668 0.614145
0.717270 0.095313 0.630239
0.844032 0.110858 0.650023
0.873536 0.114476 0.654628
0.082668 0.173268 0.614145
0.187949 0.189699 0.635057
0.273705 0.190023 0.635469
0.359137 0.190023 0.635469
0.508542 0.190023 0.635469
0.615521 0.190023 0.635469
0.738594 0.202669 0.651564
0.865357 0.218213 0.671348
0.894860 0.221831 0.675952
0.082668 0.260525 0.614145
0.187949 0.276956 0.635057
0.289180 0.292756 0.655165
0.375274 0.293417 0.656007
0.529080 0.293417 0.656007
0.636059 0.293417 0.656007
0.759132 0.306063 0.672101
0.885894 0.321607 0.691885
0.915398 0.325225 0.696490
0.082668 0.347782 0.614145
0.187949 0.364213 0.635057
0.289180 0.380013 0.655165
0.390412 0.395812 0.675273
0.549617 0.396810 0.676544
0.656596 0.396810 0.676544
0.779669 0.409456 0.692639
0.906432 0.425001 0.712422
0.935935 0.428618 0.717027
0.082668 0.437065 0.614145
0.187949 0.517176 0.635057
0.289180 0.537284 0.655165
0.390412 0.557393 0.675273
0.568959 0.578005 0.695885
0.677610 0.579678 0.697558
0.800683 0.595772 0.713653
0.927446 0.615556 0.733437
0.956949 0.620161 0.738041
0.082668 0.605527 0.614145
0.187949 0.626440 0.635057
0.289180 0.646548 0.655165
0.390412 0.666656 0.675273
0.568959 0.687268 0.695885
0.695721 0.707052 0.715669
0.820890 0.725242 0.733859
0.947652 0.745025 0.753643
0.977155 0.749630 0.758247
0.097292 0.733403 0.632757
0.202573 0.754315 0.653670
0.303804 0.774423 0.673778
0.405036 0.794531 0.693886
0.587571 0.815144 0.714498
0.714333 0.834927 0.734282
0.825001 0.838616 0.737971
0.949246 0.855882 0.755236
0.978749 0.860487 0.759841
0.113168 0.862872 0.652963
0.218449 0.883785 0.673876
0.319681 0.903893 0.693984
0.420912 0.924001 0.714092
0.607777 0.944613 0.734704
0.734540 0.964397 0.754488
0.845207 0.968086 0.758177
0.952186 0.968086 0.758177
0.978749 0.969750 0.759841
0.116863 0.893006 0.657666
0.222144 0.913918 0.678579
0.323376 0.934026 0.698687
0.424608 0.954134 0.718795
0.612480 0.974746 0.739407
0.739243 0.994530 0.759191
0.849910 0.998219 0.762880
0.956889 0.998219 0.762880
0.981788 0.998219 0.762880
0.098803 0.098803 0.745727
0.187653 0.098803 0.745727
0.273085 0.098803 0.745727
0.358518 0.098803 0.745727
0.507754 0.098803 0.745727
0.614733 0.098803 0.745727
0.721711 0.098803 0.745727
0.844032 0.110858 0.761070
0.873536 0.114476 0.765674
0.098803 0.189404 0.745727
0.204084 0.205835 0.766639
0.289840 0.206159 0.767052
0.375273 0.206159 0.767052
0.529078 0.206159 0.767052
0.636057 0.206159 0.767052
0.743036 0.206159 0.767052
0.865357 0.218213 0.782394
0.894860 0.221831 0.786999
0.098803 0.276661 0.745727
0.204084 0.293092 0.766639
0.305316 0.308891 0.786747
0.391409 0.309552 0.787589
0.549616 0.309552 0.787589
0.656595 0.309552 0.787589
0.763573 0.309552 0.787589
0.885894 0.321607 0.802931
0.915398 0.325225 0.807536
0.098803 0.363918 0.745727
0.204084 0.380349 0.766639
0.305316 0.396148 0.786747
0.406547 0.411947 0.806856
0.570153 0.412946 0.808126
0.677132 0.412946 0.808126
0.784111 0.412946 0.808126
0.906432 0.425001 0.823469
0.935935 0.428618 0.828073
0.098803 0.516800 0.745727
0.204084 0.537712 0.766639
0.305316 0.557820 0.786747
0.406547 0.577928 0.806856
0.589495 0.598541 0.827468
0.698146 0.600214 0.829141
0.805125 0.600214 0.829141
0.927446 0.615556 0.844483
0.956949 0.620161 0.849088
0.098803 0.626063 0.745727
0.204084 0.646976 0.766639
0.305316 0.667084 0.786747
0.406547 0.687192 0.806856
0.589495 0.707804 0.827468
0.716257 0.727588 0.847251
0.825331 0.729683 0.849347
0.947652 0.745025 0.864689
0.977155 0.749630 0.869294
0.098803 0.735326 0.745727
0.204084 0.756239 0.766639
0.305316 0.776347 0.786747
0.406547 0.796455 0.806856
0.589495 0.817067 0.827468
0.716257 0.836851 0.847251
0.843019 0.856634 0.867035
0.967858 0.874495 0.884895
0.997362 0.879099 0.889500
0.113168 0.862872 0.764010
0.218449 0.883785 0.784922
0.319681 0.903893 0.805030
0.420912 0.924001 0.825138
0.607777 0.944613 0.845750
0.734540 0.964397 0.865534
0.861302 0.984180 0.885318
0.972722 0.988622 0.889759
0.999285 0.990286 0.891423
0.116863 0.893006 0.768713
0.222144 0.913918 0.789625
0.323376 0.934026 0.809733
0.424608 0.954134 0.829841
0.612480 0.974746 0.850453
0.739243 0.994530 0.870237
0.866005 1.000000 0.890021
0.977425 1.000000 0.894462
1.000000 1.000000 0.894462
0.114938 0.114938 0.877309
0.203788 0.114938 0.877309
0.289221 0.114938 0.877309
0.374653 0.114938 0.877309
0.528290 0.114938 0.877309
0.635269 0.114938 0.877309
0.742247 0.114938 0.877309
0.849226 0.114938 0.877309
0.874125 0.114938 0.877309
0.114938 0.205539 0.877309
0.220219 0.221970 0.898222
0.305976 0.222294 0.898634
0.391408 0.222294 0.898634
0.549614 0.222294 0.898634
0.656593 0.222294 0.898634
0.763572 0.222294 0.898634
0.870550 0.222294 0.898634
0.895449 0.222294 0.898634
0.114938 0.292796 0.877309
0.220219 0.309227 0.898222
0.321451 0.325026 0.918330
0.407545 0.325688 0.919171
0.570152 0.325688 0.919171
0.677130 0.325688 0.919171
0.784109 0.325688 0.919171
0.891088 0.325688 0.919171
0.915987 0.325688 0.919171
0.114938 0.380053 0.877309
0.220219 0.396484 0.898222
0.321451 0.412283 0.918330
0.422683 0.428083 0.938438
0.590689 0.429081 0.939709
0.697668 0.429081 0.939709
0.804647 0.429081 0.939709
0.911625 0.429081 0.939709
0.936524 0.429081 0.939709
0.114938 0.537336 0.877309
0.220219 0.558248 0.898222
0.321451 0.578356 0.918330
0.422683 0.598464 0.938438
0.610031 0.619077 0.959050
0.718682 0.620750 0.960723
0.825661 0.620750 0.960723
0.932639 0.620750 0.960723
0.957538 0.620750 0.960723
0.114938 0.646599 0.877309
0.220219 0.667512 0.898222
0.321451 0.687620 0.918330
0.422683 0.707728 0.938438
0.610031 0.728340 0.959050
0.736793 0.748123 0.978834
0.845867 0.750219 0.980929
0.952845 0.750219 0.980929
0.977744 0.750219 0.980929
0.114938 0.755862 0.877309
0.220219 0.776775 0.898222
0.321451 0.796883 0.918330
0.422683 0.816991 0.938438
0.610031 0.837603 0.959050
0.736793 0.857387 0.978834
0.863555 0.877170 0.998617
0.973052 0.879688 1.000000
0.997951 0.879688 1.000000
0.114938 0.865125 0.877309
0.220219 0.886038 0.898222
0.321451 0.906146 0.918330
0.422683 0.926254 0.938438
0.610031 0.946866 0.959050
0.736793 0.966650 0.978834
0.863555 0.986433 0.998617
0.990318 1.000000 1.000000
1.000000 1.000000 1.000000
0.116863 0.893006 0.879759
0.222144 0.913918 0.900671
0.323376 0.934026 0.920780
0.424608 0.954134 0.940888
0.612480 0.974746 0.961500
0.739243 0.994530 0.981283
0.866005 1.000000 1.000000
0.992767 1.000000 1.000000
1.000000 1.000000 1.000000
0.115832 0.115832 0.884594
0.204682 0.115832 0.884594
0.290114 0.115832 0.884594
0.375547 0.115832 0.884594
0.529427 0.115832 0.884594
0.636405 0.115832 0.884594
0.743384 0.115832 0.884594
0.850363 0.115832 0.884594
0.875262 0.115832 0.884594
0.115832 0.206432 0.884594
0.221113 0.222864 0.905506
0.306869 0.223187 0.905919
0.392302 0.223187 0.905919
0.550751 0.223187 0.905919
0.657730 0.223187 0.905919
0.764709 0.223187 0.905919
0.871687 0.223187 0.905919
0.896586 0.223187 0.905919
0.115832 0.293689 0.884594
0.221113 0.310121 0.905506
0.322344 0.325920 0.925614
0.408438 0.326581 0.926456
0.571289 0.326581 0.926456
0.678267 0.326581 0.926456
0.785246 0.326581 0.926456
0.892225 0.326581 0.926456
0.917123 0.326581 0.926456
0.115832 0.380946 0.884594
0.221113 0.397378 0.905506
0.322344 0.413177 0.925614
0.423576 0.428976 0.945723
0.591826 0.429974 0.946993
0.698805 0.429974 0.946993
0.805783 0.429974 0.946993
0.912762 0.429974 0.946993
0.937661 0.429974 0.946993
0.115832 0.538473 0.884594
0.221113 0.559385 0.905506
0.322344 0.579493 0.925614
0.423576 0.599601 0.945723
0.611167 0.620214 0.966335
0.719819 0.621886 0.968008
0.826798 0.621886 0.968008
0.933776 0.621886 0.968008
0.958675 0.621886 0.968008
0.115832 0.647736 0.884594
0.221113 0.668648 0.905506
0.322344 0.688756 0.925614
0.423576 0.708865 0.945723
0.611167 0.729477 0.966335
0.737930 0.749260 0.986118
0.847004 0.751356 0.988214
0.953982 0.751356 0.988214
0.978881 0.751356 0.988214
0.115832 0.756999 0.884594
0.221113 0.777912 0.905506
0.322344 0.798020 0.925614
0.423576 0.818128 0.945723
0.611167 0.838740 0.966335
0.737930 0.858524 0.986118
0.864692 0.878307 1.000000
0.974189 0.880825 1.000000
0.999087 0.880825 1.000000
0.115832 0.866262 0.884594
0.221113 0.887175 0.905506
0.322344 0.907283 0.925614
0.423576 0.927391 0.945723
0.611167 0.948003 0.966335
0.737930 0.967787 0.986118
0.864692 0.987570 1.000000
0.991454 1.000000 1.000000
1.000000 1.000000 1.000000
0.116863 0.893006 0.885907
0.222144 0.913918 0.906819
0.323376 0.934026 0.926927
0.424608 0.954134 0.947035
0.612480 0.974746 0.967647
0.739243 0.994530 0.987431
0.866005 1.000000 1.000000
0.992767 1.000000 1.000000
1.000000 1.000000 1.000000
