docs/luts/fuji_recipes/Classic_RR_Kodachrome_Vintage.cube
TITLE "Fujifilm Recipe: RR Kodachrome Vintage (Classic)"
# FilmSim=Classic HL=4 SH=-2 Col=4 WB=Auto WBR=2 WBB=-4
LUT_3D_SIZE 9
DOMAIN_MIN 0.0 0.0 0.0
DOMAIN_MAX 1.0 1.0 1.0
0.080000 0.080000 0.080000
0.197408 0.066696 0.066696
0.320220 0.052779 0.052779
0.443031 0.038862 0.038862
0.565843 0.024945 0.024945
0.640027 0.024299 0.024299
0.793737 0.001904 0.001904
0.926955 0.000000 0.000000
1.000000 0.058269 0.058269
0.067409 0.191113 0.067409
0.197408 0.190400 0.066696
0.320220 0.176483 0.052779
0.443031 0.162566 0.038862
0.565843 0.148650 0.024945
0.640027 0.148004 0.024299
0.793737 0.125608 0.001904
0.926955 0.118467 0.000000
1.000000 0.160098 0.058269
0.054210 0.307588 0.054210
0.184923 0.307588 0.054210
0.320220 0.306157 0.052779
0.443031 0.292240 0.038862
0.565843 0.278323 0.024945
0.640027 0.277677 0.024299
0.793737 0.255281 0.001904
0.926955 0.242649 0.000000
1.000000 0.266839 0.058269
0.041012 0.424063 0.041012
0.171724 0.424063 0.041012
0.308452 0.424063 0.041012
0.443031 0.421913 0.038862
0.565843 0.407996 0.024945
0.640027 0.407350 0.024299
0.793737 0.384955 0.001904
0.926955 0.366832 0.000000
1.000000 0.373581 0.058269
0.027813 0.540537 0.027813
0.158525 0.540537 0.027813
0.295254 0.540537 0.027813
0.431982 0.540537 0.027813
0.565843 0.537670 0.024945
0.640027 0.537024 0.024299
0.793737 0.514628 0.001904
0.926955 0.491015 0.000000
1.000000 0.480323 0.058269
0.014258 0.660156 0.014258
0.144970 0.660156 0.014258
0.281699 0.660156 0.014258
0.418427 0.660156 0.014258
0.555155 0.660156 0.014258
0.633712 0.663883 0.017984
0.793737 0.580419 0.001904
0.926955 0.560235 0.000000
1.000000 0.545164 0.058269
0.008830 0.746202 0.008830
0.139542 0.746202 0.008830
0.276270 0.746202 0.008830
0.412999 0.746202 0.008830
0.549727 0.746202 0.008830
0.629040 0.746202 0.008830
0.793737 0.741283 0.001904
0.926955 0.714288 0.000000
1.000000 0.677580 0.058269
0.000000 0.879570 0.000000
0.127125 0.879570 0.000000
0.260101 0.879570 0.000000
0.393077 0.879570 0.000000
0.526052 0.879570 0.000000
0.609174 0.879570 0.000000
0.774135 0.879570 0.000000
0.926955 0.868341 0.000000
1.000000 0.809997 0.058269
0.004109 1.000000 0.004109
0.125608 1.000000 0.004109
0.252699 1.000000 0.004109
0.379790 1.000000 0.004109
0.506881 1.000000 0.004109
0.592045 1.000000 0.004109
0.749706 1.000000 0.004109
0.907366 1.000000 0.004109
1.000000 0.942414 0.058269
0.068821 0.068821 0.178652
0.197408 0.066696 0.176527
0.320220 0.052779 0.162610
0.443031 0.038862 0.148694
0.565843 0.024945 0.134777
0.640027 0.024299 0.134131
0.793737 0.001904 0.111735
0.926955 0.000000 0.105181
1.000000 0.058269 0.148678
0.067409 0.191113 0.177240
0.186229 0.179221 0.165348
0.309040 0.165304 0.151431
0.431852 0.151387 0.137514
0.554664 0.137471 0.123598
0.633037 0.135716 0.121843
0.786747 0.113320 0.099447
0.940457 0.090924 0.077051
1.000000 0.160183 0.148823
0.054210 0.307588 0.164042
0.173744 0.296409 0.152863
0.309040 0.294977 0.151431
0.431852 0.281061 0.137514
0.554664 0.267144 0.123598
0.633037 0.265389 0.121843
0.786747 0.242993 0.099447
0.940457 0.220598 0.077051
1.000000 0.266362 0.148823
0.041012 0.424063 0.150843
0.160545 0.412883 0.139664
0.297273 0.412883 0.139664
0.431852 0.410734 0.137514
0.554664 0.396817 0.123598
0.633037 0.395062 0.121843
0.786747 0.372667 0.099447
0.940457 0.350271 0.077051
1.000000 0.372542 0.148823
0.027813 0.540537 0.137644
0.147346 0.529358 0.126465
0.284075 0.529358 0.126465
0.420803 0.529358 0.126465
0.554664 0.526491 0.123598
0.633037 0.524736 0.121843
0.786747 0.502340 0.099447
0.940457 0.479944 0.077051
1.000000 0.478721 0.148823
0.014258 0.660156 0.124089
0.133791 0.648977 0.112910
0.270520 0.648977 0.112910
0.407248 0.648977 0.112910
0.543976 0.648977 0.112910
0.633037 0.589335 0.121843
0.786747 0.573429 0.099447
0.940457 0.557524 0.077051
1.000000 0.547559 0.148823
0.008830 0.746202 0.118661
0.127254 0.739212 0.106373
0.263982 0.739212 0.106373
0.400711 0.739212 0.106373
0.537439 0.739212 0.106373
0.622050 0.739212 0.106373
0.786747 0.734293 0.099447
0.940457 0.718388 0.077051
1.000000 0.679278 0.148823
0.000000 0.879570 0.106817
0.106014 0.884991 0.085133
0.242742 0.884991 0.085133
0.379470 0.884991 0.085133
0.516199 0.884991 0.085133
0.606965 0.884991 0.085133
0.776581 0.884991 0.085133
0.940457 0.879252 0.077051
1.000000 0.810998 0.148823
0.004109 1.000000 0.106199
0.114215 1.000000 0.094663
0.242241 1.000000 0.094663
0.370266 1.000000 0.094663
0.498292 1.000000 0.094663
0.589044 1.000000 0.094663
0.747865 1.000000 0.094663
0.906685 1.000000 0.094663
1.000000 0.942717 0.148823
0.057043 0.057043 0.282592
0.187755 0.057043 0.282592
0.320220 0.052779 0.278328
0.443031 0.038862 0.264411
0.565843 0.024945 0.250495
0.640027 0.024299 0.249849
0.793737 0.001904 0.227453
0.926955 0.000000 0.215999
1.000000 0.058269 0.243932
0.057043 0.180747 0.282592
0.175164 0.168156 0.270001
0.307628 0.163892 0.265737
0.430440 0.149975 0.251820
0.553252 0.136059 0.237903
0.632154 0.134164 0.236008
0.785864 0.111768 0.213613
0.939574 0.089372 0.191217
1.000000 0.160261 0.243592
0.054210 0.307588 0.279759
0.171618 0.294283 0.266455
0.297262 0.283199 0.255371
0.420074 0.269282 0.241454
0.542885 0.255366 0.227537
0.625673 0.252442 0.224614
0.779383 0.230047 0.202218
0.933093 0.207651 0.179822
1.000000 0.266860 0.244230
0.041012 0.424063 0.266561
0.158420 0.410758 0.253256
0.285495 0.401105 0.243603
0.420074 0.398956 0.241454
0.542885 0.385039 0.227537
0.625673 0.382116 0.224614
0.779383 0.359720 0.202218
0.933093 0.337324 0.179822
1.000000 0.372311 0.244230
0.027813 0.540537 0.253362
0.145221 0.527233 0.240058
0.272296 0.517580 0.230405
0.409025 0.517580 0.230405
0.542885 0.514712 0.227537
0.625673 0.511789 0.224614
0.779383 0.489393 0.202218
0.933093 0.466998 0.179822
1.000000 0.477761 0.244230
0.014258 0.660156 0.239807
0.131666 0.646852 0.226503
0.272276 0.586069 0.230384
0.409004 0.586069 0.230384
0.545732 0.586069 0.230384
0.625673 0.581971 0.224614
0.779383 0.566065 0.202218
0.933093 0.550160 0.179822
1.000000 0.550666 0.244230
0.008830 0.746202 0.234379
0.124918 0.737884 0.219754
0.251036 0.731848 0.209144
0.387764 0.731848 0.209144
0.524492 0.731848 0.209144
0.614686 0.731848 0.209144
0.779383 0.726929 0.202218
0.933093 0.711024 0.179822
1.000000 0.681481 0.244230
0.000000 0.879570 0.219359
0.103678 0.883662 0.198514
0.229795 0.877627 0.187904
0.366524 0.877627 0.187904
0.503252 0.877627 0.187904
0.599601 0.877627 0.187904
0.769217 0.877627 0.187904
0.933093 0.871888 0.179822
1.000000 0.812296 0.244230
0.004109 1.000000 0.213760
0.111879 1.000000 0.200819
0.229672 1.000000 0.190070
0.358930 1.000000 0.190070
0.488188 1.000000 0.190070
0.585090 1.000000 0.190070
0.745439 1.000000 0.190070
0.905787 1.000000 0.190070
1.000000 0.943110 0.244230
0.045264 0.045264 0.386531
0.175977 0.045264 0.386531
0.312705 0.045264 0.386531
0.443031 0.038862 0.380129
0.565843 0.024945 0.366212
0.640027 0.024299 0.365566
0.793737 0.001904 0.343171
0.926955 0.000000 0.326817
1.000000 0.058269 0.339186
0.045264 0.168969 0.386531
0.163386 0.156378 0.373940
0.300114 0.156378 0.373940
0.430440 0.149975 0.367538
0.553252 0.136059 0.353621
0.632154 0.134164 0.351726
0.785864 0.111768 0.329330
0.939574 0.089372 0.306935
1.000000 0.160261 0.338274
0.045264 0.298642 0.386531
0.162672 0.285338 0.373227
0.286915 0.272852 0.360742
0.417241 0.266450 0.354339
0.540053 0.252533 0.340422
0.623902 0.249329 0.337218
0.777612 0.226933 0.314822
0.931322 0.204537 0.292427
1.000000 0.267174 0.338509
0.041012 0.424063 0.382278
0.158420 0.410758 0.368974
0.281231 0.396841 0.355057
0.408296 0.387178 0.345393
0.531107 0.373261 0.331477
0.618309 0.369169 0.327385
0.772019 0.346773 0.304989
0.925729 0.324378 0.282594
1.000000 0.373318 0.339637
0.027813 0.540537 0.369080
0.145221 0.527233 0.355775
0.268032 0.513316 0.341859
0.397246 0.505802 0.334344
0.531107 0.502934 0.331477
0.618309 0.498842 0.327385
0.772019 0.476447 0.304989
0.925729 0.454051 0.282594
1.000000 0.477843 0.339637
0.014258 0.660156 0.355525
0.131666 0.646852 0.342220
0.267589 0.583404 0.341415
0.396057 0.578705 0.333155
0.532786 0.578705 0.333155
0.618309 0.574607 0.327385
0.772019 0.558701 0.304989
0.925729 0.542795 0.282594
1.000000 0.554608 0.339637
0.008830 0.746202 0.350096
0.124918 0.737884 0.335472
0.246349 0.729182 0.320175
0.374817 0.724484 0.311915
0.511546 0.724484 0.311915
0.607322 0.724484 0.311915
0.772019 0.719565 0.304989
0.925729 0.703659 0.282594
1.000000 0.684275 0.339637
0.000000 0.879570 0.331901
0.103678 0.883662 0.314232
0.225109 0.874961 0.298935
0.353577 0.870263 0.290675
0.490305 0.870263 0.290675
0.592237 0.870263 0.290675
0.761853 0.870263 0.290675
0.925729 0.864523 0.282594
1.000000 0.813942 0.339637
0.004109 1.000000 0.321321
0.111879 1.000000 0.309341
0.224609 1.000000 0.294686
0.345676 1.000000 0.285477
0.411443 1.000000 0.285477
0.579970 1.000000 0.285477
0.742297 1.000000 0.285477
0.904624 1.000000 0.285477
1.000000 0.943609 0.339637
0.033486 0.033486 0.490471
0.164199 0.033486 0.490471
0.300927 0.033486 0.490471
0.437655 0.033486 0.490471
0.565843 0.024945 0.481930
0.640027 0.024299 0.481284
0.793737 0.001904 0.458888
0.926955 0.000000 0.437635
1.000000 0.058269 0.434440
0.033486 0.157191 0.490471
0.151608 0.144600 0.477880
0.288336 0.144600 0.477880
0.425064 0.144600 0.477880
0.553252 0.136059 0.469339
0.632154 0.134164 0.467444
0.785864 0.111768 0.445048
0.939574 0.089372 0.422652
1.000000 0.160261 0.432955
0.033486 0.286864 0.490471
0.150894 0.273560 0.477167
0.275137 0.261074 0.464681
0.411866 0.261074 0.464681
0.540053 0.252533 0.456140
0.623902 0.249329 0.452936
0.777612 0.226933 0.430540
0.931322 0.204537 0.408144
1.000000 0.267174 0.432431
0.033486 0.416537 0.490471
0.150894 0.403233 0.477167
0.273706 0.389316 0.463250
0.398667 0.377549 0.451482
0.526854 0.369008 0.442942
0.615650 0.364494 0.438428
0.769360 0.342098 0.416032
0.923070 0.319703 0.393636
1.000000 0.374087 0.433456
0.027813 0.540537 0.484798
0.145221 0.527233 0.471493
0.268032 0.513316 0.457576
0.390844 0.499399 0.443660
0.519329 0.491156 0.435416
0.610945 0.485896 0.430156
0.764655 0.463500 0.407760
0.918365 0.441104 0.385365
1.000000 0.428440 0.437451
0.014258 0.660156 0.471243
0.131666 0.646852 0.457938
0.267589 0.583404 0.457133
0.389020 0.574702 0.441835
0.519839 0.571341 0.435926
0.610945 0.567243 0.430156
0.764655 0.551337 0.407760
0.918365 0.535431 0.385365
1.000000 0.559775 0.435044
0.008830 0.746202 0.465814
0.124918 0.737884 0.451190
0.246349 0.729182 0.435893
0.367780 0.720481 0.420595
0.498599 0.717120 0.414686
0.599958 0.717120 0.414686
0.764655 0.712201 0.407760
0.918365 0.696295 0.385365
1.000000 0.687938 0.435044
0.000000 0.879570 0.444443
0.103678 0.883662 0.429950
0.225109 0.874961 0.414652
0.346540 0.866260 0.399355
0.408779 0.862899 0.393446
0.584873 0.862899 0.393446
0.754489 0.862899 0.393446
0.918365 0.857159 0.385365
1.000000 0.816101 0.435044
0.004109 1.000000 0.428883
0.111879 1.000000 0.417864
0.224609 1.000000 0.404528
0.337338 1.000000 0.388302
0.401785 1.000000 0.380884
0.573078 1.000000 0.380884
0.738068 1.000000 0.380884
0.903059 1.000000 0.380884
1.000000 0.944264 0.435044
0.021708 0.021708 0.594410
0.152420 0.021708 0.594410
0.289149 0.021708 0.594410
0.425877 0.021708 0.594410
0.562605 0.021708 0.594410
0.640027 0.024299 0.597002
0.793737 0.001904 0.574606
0.926955 0.000000 0.548453
1.000000 0.058269 0.529694
0.021708 0.145412 0.594410
0.139829 0.132821 0.581819
0.276558 0.132821 0.581819
0.413286 0.132821 0.581819
0.550014 0.132821 0.581819
0.632154 0.134164 0.583162
0.785864 0.111768 0.560766
0.939574 0.089372 0.538370
1.000000 0.160261 0.472383
0.021708 0.275086 0.594410
0.139116 0.261781 0.581106
0.263359 0.249296 0.568621
0.400087 0.249296 0.568621
0.536816 0.249296 0.568621
0.623902 0.249329 0.568653
0.777612 0.226933 0.546258
0.931322 0.204537 0.456098
1.000000 0.267174 0.476619
0.021708 0.404759 0.594410
0.139116 0.391455 0.581106
0.261928 0.377538 0.567189
0.386889 0.365771 0.555422
0.523617 0.365771 0.555422
0.615650 0.364494 0.554145
0.769360 0.342098 0.463752
0.923070 0.319703 0.447846
1.000000 0.374087 0.482197
0.021708 0.534432 0.594410
0.139116 0.521128 0.581106
0.261928 0.507211 0.567189
0.384739 0.493294 0.553273
0.510418 0.482245 0.542223
0.609125 0.481387 0.473133
0.761477 0.457633 0.455869
0.914818 0.434868 0.439594
1.000000 0.443553 0.501961
0.014258 0.660156 0.586960
0.131666 0.646852 0.573656
0.267589 0.583404 0.572850
0.389020 0.574702 0.557553
0.518140 0.573691 0.481401
0.617256 0.573554 0.481264
0.769608 0.556290 0.464000
0.921960 0.539026 0.446736
1.000000 0.574802 0.503783
0.008830 0.746202 0.581532
0.124918 0.737884 0.566908
0.246349 0.729182 0.551610
0.367780 0.720481 0.536313
0.495612 0.718181 0.465027
0.605331 0.722493 0.469339
0.769608 0.717154 0.464000
0.921960 0.699890 0.446736
1.000000 0.698590 0.503783
0.000000 0.879570 0.556985
0.103678 0.883662 0.545668
0.225109 0.874961 0.530370
0.346540 0.866260 0.452242
0.416945 0.871066 0.457047
0.588957 0.866984 0.452966
0.758573 0.866984 0.452966
0.921960 0.860754 0.446736
1.000000 0.822378 0.503783
0.004109 1.000000 0.536444
0.111879 1.000000 0.526387
0.224609 1.000000 0.454310
0.337338 1.000000 0.445274
0.416128 1.000000 0.454201
0.578630 1.000000 0.448067
0.741475 1.000000 0.448067
0.904320 1.000000 0.448067
1.000000 0.946166 0.503783
0.022531 0.022531 0.652162
0.153244 0.022531 0.652162
0.289972 0.022531 0.652162
0.426700 0.022531 0.652162
0.563429 0.022531 0.652162
0.638771 0.022531 0.652162
0.793737 0.001904 0.637511
0.926955 0.000000 0.614910
1.000000 0.058269 0.592160
0.022531 0.146236 0.652162
0.139403 0.132395 0.644289
0.276132 0.132395 0.644289
0.412860 0.132395 0.644289
0.549588 0.132395 0.644289
0.630898 0.132395 0.644289
0.785864 0.111768 0.629639
0.939574 0.089372 0.613733
1.000000 0.160261 0.594610
0.022531 0.275909 0.652162
0.138619 0.261285 0.643843
0.261624 0.247561 0.636037
0.398352 0.247561 0.636037
0.535080 0.247561 0.636037
0.622646 0.247561 0.636037
0.777612 0.226933 0.621387
0.931322 0.204537 0.605481
1.000000 0.267174 0.597865
0.022531 0.405582 0.652162
0.138619 0.390958 0.643843
0.260050 0.375661 0.635142
0.383844 0.362726 0.627785
0.520572 0.362726 0.627785
0.614394 0.362726 0.627785
0.769360 0.342098 0.613135
0.923070 0.319703 0.597229
1.000000 0.374087 0.602151
0.022531 0.535256 0.652162
0.138619 0.520631 0.643843
0.260050 0.505334 0.635142
0.381481 0.490037 0.626441
0.506064 0.477891 0.619533
0.606142 0.477891 0.619533
0.761108 0.457264 0.604883
0.914818 0.434868 0.588977
1.000000 0.443553 0.617336
0.019126 0.665025 0.648757
0.138619 0.586751 0.643843
0.260050 0.578050 0.635142
0.381481 0.569348 0.626441
0.502912 0.560647 0.617740
0.606499 0.562798 0.619890
0.760214 0.546897 0.603989
0.912566 0.529632 0.586725
1.000000 0.577286 0.620963
0.008830 0.746202 0.642430
0.124918 0.737884 0.634112
0.246349 0.729182 0.625411
0.367780 0.720481 0.616710
0.489211 0.711780 0.608009
0.591489 0.708651 0.604880
0.754403 0.701949 0.598178
0.906755 0.684685 0.580914
1.000000 0.701768 0.622756
0.000000 0.879570 0.622198
0.103678 0.883662 0.619027
0.225109 0.874961 0.610326
0.346540 0.866260 0.601625
0.416945 0.871066 0.606430
0.575116 0.853142 0.588507
0.743369 0.851779 0.587144
0.906755 0.845549 0.580914
1.000000 0.824251 0.622756
0.004109 1.000000 0.604492
0.111879 1.000000 0.600957
0.224609 1.000000 0.596107
0.337338 1.000000 0.589419
0.416128 1.000000 0.596027
0.558742 0.997633 0.572133
0.726995 0.996270 0.570770
0.896611 0.996270 0.570770
1.000000 0.946734 0.622756
0.003577 0.003577 0.782252
0.134289 0.003577 0.782252
0.271018 0.003577 0.782252
0.407746 0.003577 0.782252
0.544474 0.003577 0.782252
0.625309 0.003577 0.782252
0.793737 0.001904 0.781063
0.926955 0.000000 0.752384
1.000000 0.058269 0.710326
0.003577 0.127281 0.782252
0.120449 0.113441 0.774379
0.257178 0.113441 0.774379
0.393906 0.113441 0.774379
0.530634 0.113441 0.774379
0.617437 0.113441 0.774379
0.785864 0.111768 0.773191
0.939574 0.089372 0.757285
1.000000 0.160261 0.712066
0.003577 0.256955 0.782252
0.119665 0.242330 0.773933
0.242670 0.228607 0.766127
0.379398 0.228607 0.766127
0.516126 0.228607 0.766127
0.609185 0.228607 0.766127
0.777612 0.226933 0.764939
0.931322 0.204537 0.749033
1.000000 0.267174 0.714378
0.003577 0.386628 0.782252
0.119665 0.372004 0.773933
0.241096 0.356706 0.765232
0.364890 0.343772 0.757875
0.501618 0.343772 0.757875
0.600932 0.343772 0.757875
0.769360 0.342098 0.756686
0.923070 0.319703 0.740781
1.000000 0.374087 0.717422
0.003577 0.516301 0.782252
0.119665 0.501677 0.773933
0.241096 0.486380 0.765232
0.362527 0.471082 0.756531
0.487110 0.458937 0.749623
0.592680 0.458937 0.749623
0.761108 0.457264 0.748434
0.914818 0.434868 0.732528
1.000000 0.443553 0.728208
0.003577 0.581607 0.782252
0.119665 0.573289 0.773933
0.241096 0.564588 0.765232
0.362527 0.555887 0.756531
0.483958 0.547186 0.747830
0.591888 0.548187 0.748831
0.760214 0.546897 0.747541
0.912566 0.529632 0.730277
1.000000 0.577286 0.730784
0.003577 0.742471 0.782252
0.119665 0.734153 0.773933
0.241096 0.725452 0.765232
0.362527 0.716751 0.756531
0.483958 0.708050 0.747830
0.587440 0.704602 0.744383
0.743841 0.691387 0.731167
0.896193 0.674123 0.713903
1.000000 0.705403 0.735323
0.000000 0.879570 0.761809
0.103678 0.883662 0.762579
0.225109 0.874961 0.753877
0.346540 0.866260 0.745176
0.416945 0.871066 0.749982
0.575116 0.853142 0.732058
0.728757 0.837168 0.716084
0.892144 0.830938 0.709854
1.000000 0.827549 0.737085
0.004109 1.000000 0.737925
0.111879 1.000000 0.735583
0.224609 1.000000 0.732369
0.337338 1.000000 0.727938
0.416128 1.000000 0.732316
0.558742 0.997633 0.715685
0.712384 0.981658 0.699711
0.882000 0.981658 0.699711
1.000000 0.947733 0.737085
0.000000 0.000000 0.896964
0.126379 0.000000 0.896964
0.258575 0.000000 0.896964
0.390771 0.000000 0.896964
0.522966 0.000000 0.896964
0.606432 0.000000 0.896964
0.770425 0.000000 0.896964
0.926955 0.000000 0.889857
1.000000 0.058269 0.828492
0.000000 0.119604 0.896964
0.101495 0.094487 0.904469
0.238223 0.094487 0.904469
0.374952 0.094487 0.904469
0.511680 0.094487 0.904469
0.603975 0.094487 0.904469
0.773591 0.094487 0.904469
0.939574 0.089372 0.900837
1.000000 0.160261 0.829522
0.000000 0.244978 0.896964
0.100711 0.223376 0.904023
0.223715 0.209652 0.896217
0.360444 0.209652 0.896217
0.497172 0.209652 0.896217
0.595723 0.209652 0.896217
0.765339 0.209652 0.896217
0.931322 0.204537 0.892584
1.000000 0.267174 0.830891
0.000000 0.370353 0.896964
0.100711 0.353050 0.904023
0.222142 0.337752 0.895322
0.345936 0.324818 0.887965
0.482664 0.324818 0.887965
0.587471 0.324818 0.887965
0.757087 0.324818 0.887965
0.923070 0.319703 0.884332
1.000000 0.374087 0.832693
0.000000 0.495727 0.896964
0.100711 0.482723 0.904023
0.222142 0.467426 0.895322
0.343573 0.452128 0.886621
0.410839 0.447697 0.887427
0.579219 0.439983 0.879713
0.748835 0.439983 0.879713
0.914818 0.434868 0.876080
1.000000 0.443553 0.839079
0.000000 0.564179 0.896964
0.100711 0.559827 0.904023
0.222142 0.551126 0.895322
0.343573 0.542425 0.886621
0.414658 0.547051 0.891247
0.577277 0.533575 0.877771
0.746893 0.533575 0.877771
0.912566 0.529632 0.873828
1.000000 0.577286 0.840604
0.000000 0.719710 0.896964
0.100711 0.720691 0.904023
0.222142 0.711990 0.895322
0.343573 0.703289 0.886621
0.414658 0.707915 0.891247
0.572829 0.689991 0.873323
0.730520 0.678066 0.861398
0.896193 0.674123 0.857455
1.000000 0.705403 0.843292
0.000000 0.875241 0.896964
0.100711 0.881555 0.904023
0.222142 0.872854 0.895322
0.343573 0.864153 0.886621
0.414658 0.868779 0.891247
0.572829 0.850855 0.873323
0.725181 0.833591 0.856059
0.879819 0.818614 0.841081
1.000000 0.833520 0.849725
0.004109 1.000000 0.871359
0.111879 1.000000 0.870209
0.224609 1.000000 0.868632
0.337338 1.000000 0.866456
0.416128 1.000000 0.868605
0.558742 0.997633 0.859236
0.711094 0.980368 0.841972
0.867389 0.967047 0.828651
1.000000 0.950110 0.851415
