docs/luts/fuji_recipes/Classic_RR_Faded_Color.cube
TITLE "Fujifilm Recipe: RR Faded Color (Classic)"
# FilmSim=Classic HL=3 SH=4 Col=4 WB=Auto WBR=0 WBB=0
LUT_3D_SIZE 5
DOMAIN_MIN 0.0 0.0 0.0
DOMAIN_MAX 1.0 1.0 1.0
0.000000 0.000000 0.000000
0.196337 0.000000 0.000000
0.391020 0.000000 0.000000
0.697352 0.000000 0.000000
0.850688 0.000000 0.000000
0.000000 0.195356 0.000000
0.196337 0.195356 0.000000
0.391020 0.195356 0.000000
0.697352 0.183946 0.000000
0.850688 0.183948 0.000000
0.000000 0.389263 0.000000
0.196337 0.389263 0.000000
0.391020 0.389263 0.000000
0.697352 0.457384 0.000000
0.850688 0.464165 0.000000
0.000000 0.694069 0.000000
0.184887 0.694069 0.000000
0.459484 0.694069 0.000000
0.697352 0.694153 0.000000
0.850688 0.700936 0.000000
0.000000 0.845286 0.000000
0.184563 0.845286 0.000000
0.465416 0.845286 0.000000
0.702784 0.845286 0.000000
0.850688 0.846876 0.000000
0.000000 0.000000 0.193375
0.196337 0.000000 0.193375
0.391020 0.000000 0.193375
0.697352 0.000000 0.182081
0.850688 0.000000 0.182083
0.000000 0.195356 0.193375
0.234185 0.232718 0.229758
0.579456 0.133301 0.130286
0.937021 0.003318 0.000000
1.000000 0.132134 0.129747
0.000000 0.389263 0.193375
0.135502 0.576644 0.130990
0.579456 0.575889 0.130286
0.937021 0.509942 0.000000
1.000000 0.505210 0.129747
0.000000 0.694069 0.182098
0.006471 0.932454 0.001509
0.515047 0.932454 0.001509
0.937021 0.931327 0.000000
1.000000 0.808302 0.129747
0.000000 0.845286 0.181779
0.127958 1.000000 0.124345
0.506997 1.000000 0.124345
0.815058 1.000000 0.124345
1.000000 0.995120 0.129747
0.000000 0.000000 0.385718
0.196337 0.000000 0.385718
0.391020 0.000000 0.385718
0.697352 0.000000 0.452933
0.850688 0.000000 0.459714
0.000000 0.195356 0.385718
0.136577 0.135079 0.571207
0.579704 0.132946 0.568929
0.939929 0.000000 0.502124
1.000000 0.132604 0.499868
0.000000 0.389263 0.385718
0.134972 0.577010 0.569799
0.561742 0.558241 0.551175
0.916008 0.444186 0.435435
1.000000 0.539918 0.534620
0.000000 0.694069 0.452827
0.002011 0.936301 0.503341
0.450478 0.910796 0.437415
0.916008 0.909717 0.435435
1.000000 0.821750 0.534620
0.000000 0.845286 0.458771
0.128619 1.000000 0.498881
0.537127 1.000000 0.529030
0.826361 1.000000 0.529030
1.000000 0.995463 0.534620
0.000000 0.000000 0.687444
0.184922 0.000000 0.687444
0.459273 0.000000 0.687444
0.697352 0.000000 0.687697
0.850688 0.000000 0.694481
0.000000 0.183998 0.687444
0.013309 0.011680 0.919019
0.516857 0.011680 0.919019
0.939929 0.000000 0.922635
1.000000 0.132604 0.800181
0.000000 0.457066 0.687444
0.011873 0.513058 0.920268
0.453590 0.449281 0.899164
0.914814 0.443386 0.895847
1.000000 0.541148 0.814562
0.000000 0.694069 0.687612
0.002011 0.936301 0.924714
0.449293 0.909025 0.896372
0.862834 0.857755 0.847507
1.000000 0.862757 0.855845
0.000000 0.845286 0.693145
0.128619 1.000000 0.802749
0.538792 1.000000 0.815283
0.865427 1.000000 0.855090
1.000000 1.000000 0.855845
0.000000 0.000000 0.835935
0.184273 0.000000 0.835935
0.464329 0.000000 0.835935
0.701324 0.000000 0.835935
0.850688 0.000000 0.839184
0.000000 0.183352 0.835935
0.117529 0.116303 1.000000
0.505356 0.116303 1.000000
0.820820 0.116303 1.000000
1.000000 0.132604 0.985285
0.000000 0.462131 0.835935
0.117719 0.502580 1.000000
0.527075 0.524277 1.000000
0.828687 0.524277 1.000000
1.000000 0.541148 0.986344
0.000000 0.698135 0.835935
0.117719 0.816630 1.000000
0.527512 0.824790 1.000000
0.865182 0.861757 1.000000
1.000000 0.864035 1.000000
0.000000 0.845286 0.837607
0.128619 1.000000 0.990045
0.538792 1.000000 0.990677
0.867339 1.000000 1.000000
1.000000 1.000000 1.000000
