docs/luts/fuji_recipes/Classic_RR_Bleach_Bypass_1_2.cube
TITLE "Fujifilm Recipe: RR Bleach Bypass 1/2 (Classic)"
# FilmSim=Classic HL=3 SH=4 Col=2 WB=Auto WBR=-1 WBB=3
LUT_3D_SIZE 5
DOMAIN_MIN 0.0 0.0 0.0
DOMAIN_MAX 1.0 1.0 1.0
0.000000 0.000000 0.000000
0.191691 0.000000 0.000000
0.381979 0.000000 0.000000
0.678931 0.000000 0.000000
0.825559 0.000000 0.000000
0.000000 0.195623 0.000000
0.191691 0.195623 0.000000
0.381979 0.195623 0.000000
0.678931 0.184043 0.000000
0.825559 0.183389 0.000000
0.000000 0.389797 0.000000
0.191691 0.389797 0.000000
0.381979 0.389797 0.000000
0.678931 0.456796 0.000000
0.825559 0.461759 0.000000
0.000000 0.694069 0.000000
0.180265 0.694069 0.000000
0.447476 0.694069 0.000000
0.679316 0.694069 0.000000
0.825559 0.697811 0.000000
0.000000 0.845286 0.000000
0.179949 0.845286 0.000000
0.453429 0.845286 0.000000
0.684863 0.845286 0.000000
0.827513 0.845286 0.000000
0.000000 0.000000 0.208200
0.191691 0.000000 0.208200
0.381979 0.000000 0.208200
0.678931 0.000000 0.195875
0.825559 0.000000 0.195179
0.000000 0.195623 0.208200
0.227962 0.232603 0.247447
0.530003 0.185173 0.200654
0.830843 0.118825 0.135467
1.000000 0.101974 0.118176
0.000000 0.389797 0.208200
0.178927 0.540582 0.199184
0.530950 0.543816 0.199128
0.844447 0.520811 0.123073
1.000000 0.501708 0.120098
0.000000 0.694069 0.195790
0.101325 0.857682 0.123695
0.504172 0.876331 0.106111
0.854066 0.876331 0.106111
1.000000 0.825026 0.120098
0.000000 0.845286 0.195447
0.121536 1.000000 0.141662
0.494008 1.000000 0.145327
0.792851 1.000000 0.145327
0.977050 1.000000 0.145327
0.000000 0.000000 0.483031
0.181824 0.000000 0.483031
0.362318 0.000000 0.483031
0.678931 0.000000 0.487929
0.825559 0.000000 0.492781
0.000000 0.185554 0.483031
0.174444 0.179245 0.576540
0.524162 0.179206 0.577360
0.830843 0.118825 0.562197
1.000000 0.101974 0.542685
0.000000 0.369733 0.483031
0.174444 0.536141 0.576540
0.545672 0.557975 0.597032
0.843523 0.508344 0.555320
1.000000 0.509447 0.551278
0.000000 0.694069 0.488397
0.101325 0.857682 0.561327
0.488909 0.864286 0.551201
0.839765 0.862074 0.551071
1.000000 0.829204 0.555082
0.000000 0.845286 0.494278
0.121536 1.000000 0.544154
0.521183 1.000000 0.571097
0.808590 1.000000 0.581192
0.978793 1.000000 0.581192
0.000000 0.000000 0.742010
0.180036 0.000000 0.742010
0.449067 0.000000 0.742010
0.680613 0.000000 0.742010
0.825559 0.000000 0.744388
0.000000 0.183730 0.742010
0.046936 0.052816 0.959328
0.492963 0.052512 0.959334
0.861588 0.052512 0.959334
1.000000 0.101974 0.888453
0.000000 0.458856 0.742010
0.046936 0.508517 0.959328
0.472719 0.488006 0.930160
0.833691 0.487775 0.929464
1.000000 0.509447 0.890549
0.000000 0.695347 0.742010
0.046936 0.885035 0.959328
0.472719 0.857293 0.930160
0.825879 0.847663 0.916649
1.000000 0.856695 0.908944
0.000000 0.845286 0.746231
0.121536 1.000000 0.871359
0.521183 1.000000 0.878963
0.844566 1.000000 0.910377
1.000000 1.000000 0.922548
0.000000 0.000000 0.835935
0.179666 0.000000 0.835935
0.452361 0.000000 0.835935
0.683431 0.000000 0.835935
0.825856 0.000000 0.835935
0.000000 0.183352 0.835935
0.110636 0.115548 1.000000
0.489426 0.116303 1.000000
0.797002 0.116303 1.000000
0.986584 0.116303 1.000000
0.000000 0.462131 0.835935
0.110636 0.501834 1.000000
0.509903 0.522385 1.000000
0.805915 0.524277 1.000000
0.987173 0.524277 1.000000
0.000000 0.698135 0.835935
0.110636 0.816355 1.000000
0.509903 0.823931 1.000000
0.843043 0.858836 1.000000
0.998941 0.861757 1.000000
0.000000 0.845286 0.837607
0.121536 1.000000 0.990028
0.521183 1.000000 0.990617
0.844566 1.000000 1.000000
1.000000 1.000000 1.000000
