docs/luts/fuji_recipes/Classic_RR_Kodacolor.cube
TITLE "Fujifilm Recipe: RR Kodacolor (Classic)"
# FilmSim=Classic HL=-1 SH=2 Col=-2 WB=6300K WBR=-1 WBB=-4
LUT_3D_SIZE 9
DOMAIN_MIN 0.0 0.0 0.0
DOMAIN_MAX 1.0 1.0 1.0
0.000000 0.000000 0.000000
0.110774 0.040227 0.040227
0.212633 0.077216 0.077216
0.314491 0.114205 0.114205
0.451114 0.159023 0.159023
0.553436 0.195878 0.195878
0.655758 0.232733 0.232733
0.688615 0.244567 0.244567
0.688615 0.244567 0.244567
0.039512 0.108807 0.039512
0.110774 0.109521 0.040227
0.212633 0.146510 0.077216
0.314491 0.183499 0.114205
0.451114 0.228318 0.159023
0.553436 0.265173 0.195878
0.655758 0.302028 0.232733
0.688615 0.313862 0.244567
0.688615 0.313862 0.244567
0.076237 0.209938 0.076237
0.146785 0.209938 0.076237
0.212633 0.210917 0.077216
0.314491 0.247906 0.114205
0.451114 0.292725 0.159023
0.553436 0.329579 0.195878
0.655758 0.366434 0.232733
0.688615 0.378269 0.244567
0.688615 0.378269 0.244567
0.112962 0.311070 0.112962
0.183510 0.311070 0.112962
0.248379 0.311070 0.112962
0.314491 0.312312 0.114205
0.451114 0.357131 0.159023
0.553436 0.393986 0.195878
0.655758 0.430841 0.232733
0.688615 0.442675 0.244567
0.688615 0.442675 0.244567
0.157523 0.446947 0.157523
0.228070 0.446947 0.157523
0.292940 0.446947 0.157523
0.357809 0.446947 0.157523
0.451114 0.448458 0.159023
0.553436 0.485570 0.195878
0.655758 0.522681 0.232733
0.688615 0.534598 0.244567
0.688615 0.534598 0.244567
0.194114 0.548539 0.194114
0.264662 0.548539 0.194114
0.329531 0.548539 0.194114
0.394401 0.548539 0.194114
0.486449 0.548539 0.194114
0.553436 0.550315 0.195878
0.655758 0.587427 0.232733
0.688615 0.599343 0.244567
0.688615 0.599343 0.244567
0.230706 0.650131 0.230706
0.301254 0.650131 0.230706
0.366123 0.650131 0.230706
0.430993 0.650131 0.230706
0.523296 0.650131 0.230706
0.588507 0.650131 0.230706
0.655758 0.652172 0.232733
0.688615 0.664089 0.244567
0.688615 0.664089 0.244567
0.249556 0.702464 0.249556
0.320103 0.702464 0.249556
0.384973 0.702464 0.249556
0.449842 0.702464 0.249556
0.542276 0.702464 0.249556
0.607487 0.702464 0.249556
0.672698 0.702464 0.249556
0.693638 0.702464 0.249556
0.693638 0.702464 0.249556
0.249556 0.702464 0.249556
0.320103 0.702464 0.249556
0.384973 0.702464 0.249556
0.449842 0.702464 0.249556
0.542276 0.702464 0.249556
0.607487 0.702464 0.249556
0.672698 0.702464 0.249556
0.693638 0.702464 0.249556
0.693638 0.702464 0.249556
0.033825 0.033825 0.093144
0.110774 0.040227 0.099546
0.212633 0.077216 0.136535
0.314491 0.114205 0.173524
0.451114 0.159023 0.218343
0.553436 0.195878 0.255198
0.655758 0.232733 0.292053
0.688615 0.244567 0.303887
0.688615 0.244567 0.303887
0.039512 0.108807 0.098832
0.144598 0.143346 0.133371
0.246457 0.180335 0.170360
0.348316 0.217324 0.207349
0.485244 0.262210 0.252235
0.587566 0.299064 0.289090
0.689888 0.335919 0.325945
0.722745 0.347754 0.337779
0.722745 0.347754 0.337779
0.076237 0.209938 0.135557
0.180609 0.243763 0.169382
0.246457 0.244741 0.170360
0.348316 0.281730 0.207349
0.485244 0.326616 0.252235
0.587566 0.363471 0.289090
0.689888 0.400326 0.325945
0.722745 0.412160 0.337779
0.722745 0.412160 0.337779
0.112962 0.311070 0.172282
0.217334 0.344895 0.206107
0.282204 0.344895 0.206107
0.348316 0.346137 0.207349
0.485244 0.391023 0.252235
0.587566 0.427878 0.289090
0.689888 0.464733 0.325945
0.722745 0.476567 0.337779
0.722745 0.476567 0.337779
0.157523 0.446947 0.216843
0.261962 0.481077 0.250734
0.326831 0.481077 0.250734
0.391701 0.481077 0.250734
0.485244 0.482588 0.252235
0.587566 0.519700 0.289090
0.689888 0.556811 0.325945
0.722745 0.568728 0.337779
0.722745 0.568728 0.337779
0.194114 0.548539 0.253434
0.298553 0.582669 0.287326
0.363423 0.582669 0.287326
0.428293 0.582669 0.287326
0.520579 0.582669 0.287326
0.587566 0.584445 0.289090
0.689888 0.621557 0.325945
0.722745 0.633473 0.337779
0.722745 0.633473 0.337779
0.230706 0.650131 0.290026
0.335145 0.684261 0.323918
0.400015 0.684261 0.323918
0.464885 0.684261 0.323918
0.557426 0.684261 0.323918
0.622637 0.684261 0.323918
0.689888 0.686302 0.325945
0.722745 0.698219 0.337779
0.722745 0.698219 0.337779
0.249556 0.702464 0.308875
0.353995 0.736594 0.342767
0.418864 0.736594 0.342767
0.483734 0.736594 0.342767
0.576406 0.736594 0.342767
0.641617 0.736594 0.342767
0.706828 0.736594 0.342767
0.727768 0.736594 0.342767
0.727768 0.736594 0.342767
0.249556 0.702464 0.308875
0.353995 0.736594 0.342767
0.418864 0.736594 0.342767
0.483734 0.736594 0.342767
0.576406 0.736594 0.342767
0.641617 0.736594 0.342767
0.706828 0.736594 0.342767
0.727768 0.736594 0.342767
0.727768 0.736594 0.342767
0.065683 0.065683 0.180875
0.136230 0.065683 0.180875
0.212633 0.077216 0.192407
0.314491 0.114205 0.229396
0.451114 0.159023 0.274215
0.553436 0.195878 0.311070
0.655758 0.232733 0.347925
0.688615 0.244567 0.359759
0.688615 0.244567 0.359759
0.065683 0.134977 0.180875
0.175742 0.174490 0.220387
0.252145 0.186022 0.231919
0.354003 0.223011 0.268908
0.490983 0.267908 0.313806
0.593305 0.304763 0.350661
0.695627 0.341618 0.387515
0.728484 0.353452 0.399350
0.728484 0.353452 0.399350
0.076237 0.209938 0.191429
0.187011 0.250165 0.231655
0.278316 0.276600 0.258090
0.380174 0.313589 0.295079
0.517390 0.358538 0.340029
0.619712 0.395393 0.376883
0.722035 0.432248 0.413738
0.754891 0.444082 0.425573
0.754891 0.444082 0.425573
0.112962 0.311070 0.228154
0.223736 0.351297 0.268381
0.314062 0.376753 0.293837
0.380174 0.377996 0.295079
0.517390 0.422945 0.340029
0.619712 0.459799 0.376883
0.722035 0.496654 0.413738
0.754891 0.534124 0.425573
0.754891 0.534124 0.425573
0.157523 0.446947 0.272714
0.268376 0.487537 0.313021
0.358753 0.513223 0.338528
0.423623 0.513223 0.338528
0.517390 0.514735 0.340029
0.619712 0.551846 0.376883
0.722035 0.588958 0.413738
0.754891 0.600874 0.425573
0.754891 0.600874 0.425573
0.194114 0.548539 0.309306
0.304968 0.589129 0.349613
0.395345 0.614815 0.375120
0.460214 0.614815 0.375120
0.552726 0.614815 0.375120
0.619712 0.616592 0.376883
0.722035 0.653703 0.413738
0.754891 0.665620 0.425573
0.754891 0.665620 0.425573
0.230706 0.650131 0.345898
0.341560 0.690721 0.386204
0.431937 0.716408 0.411711
0.496806 0.716408 0.411711
0.589572 0.716408 0.411711
0.654783 0.716408 0.411711
0.722035 0.718448 0.413738
0.754891 0.730365 0.425573
0.754891 0.730365 0.425573
0.249556 0.702464 0.364747
0.360409 0.743054 0.405054
0.450786 0.768740 0.430561
0.541373 0.768740 0.430561
0.608553 0.768740 0.430561
0.673764 0.768740 0.430561
0.738974 0.768740 0.430561
0.759914 0.768740 0.430561
0.759914 0.768740 0.430561
0.249556 0.702464 0.364747
0.360409 0.743054 0.405054
0.450786 0.768740 0.430561
0.541373 0.768740 0.430561
0.608553 0.768740 0.430561
0.673764 0.768740 0.430561
0.738974 0.768740 0.430561
0.759914 0.768740 0.430561
0.759914 0.768740 0.430561
0.097541 0.097541 0.268605
0.168089 0.097541 0.268605
0.232959 0.097541 0.268605
0.314491 0.114205 0.285268
0.451114 0.159023 0.330087
0.553436 0.195878 0.366942
0.655758 0.232733 0.403797
0.688615 0.244567 0.415631
0.688615 0.244567 0.415631
0.097541 0.166836 0.268605
0.207601 0.206348 0.308117
0.272471 0.206348 0.308117
0.354003 0.223011 0.324780
0.490983 0.267908 0.369678
0.593305 0.304763 0.406532
0.695627 0.341618 0.443387
0.728484 0.353452 0.455222
0.728484 0.353452 0.455222
0.097541 0.231243 0.268605
0.208315 0.271469 0.308832
0.309196 0.307480 0.344842
0.390728 0.324143 0.361505
0.528040 0.369113 0.406476
0.630362 0.405968 0.443330
0.732684 0.442823 0.480185
0.765541 0.454657 0.492020
0.765541 0.454657 0.492020
0.112962 0.311070 0.284026
0.223736 0.351297 0.324252
0.325595 0.388286 0.361242
0.412033 0.409854 0.382810
0.549537 0.454866 0.427822
0.651859 0.491721 0.464677
0.754181 0.554353 0.501532
0.787037 0.566270 0.513366
0.787037 0.566270 0.513366
0.157523 0.446947 0.328586
0.268376 0.487537 0.368893
0.370308 0.524860 0.405955
0.455544 0.545370 0.426321
0.549537 0.546881 0.427822
0.651859 0.583992 0.464677
0.754181 0.621104 0.501532
0.787037 0.633021 0.513366
0.787037 0.633021 0.513366
0.194114 0.548539 0.365178
0.304968 0.589129 0.405484
0.406900 0.626452 0.442547
0.492136 0.646962 0.462913
0.584872 0.646962 0.462913
0.651859 0.648738 0.464677
0.754181 0.685849 0.501532
0.787037 0.697766 0.513366
0.787037 0.697766 0.513366
0.230706 0.650131 0.401770
0.341560 0.690721 0.442076
0.443492 0.728044 0.479139
0.554538 0.748554 0.499505
0.621718 0.748554 0.499505
0.686929 0.748554 0.499505
0.754181 0.750595 0.501532
0.787037 0.762511 0.513366
0.787037 0.762511 0.513366
0.249556 0.702464 0.420619
0.360409 0.743054 0.460926
0.462341 0.780377 0.497988
0.573519 0.800886 0.518354
0.640699 0.800886 0.518354
0.705910 0.800886 0.518354
0.771121 0.800886 0.518354
0.792060 0.800886 0.518354
0.792060 0.800886 0.518354
0.249556 0.702464 0.420619
0.360409 0.743054 0.460926
0.462341 0.780377 0.497988
0.573519 0.800886 0.518354
0.640699 0.800886 0.518354
0.705910 0.800886 0.518354
0.771121 0.800886 0.518354
0.792060 0.800886 0.518354
0.792060 0.800886 0.518354
0.130254 0.130254 0.358687
0.200801 0.130254 0.358687
0.265671 0.130254 0.358687
0.330541 0.130254 0.358687
0.451114 0.159023 0.387457
0.553436 0.195878 0.424312
0.655758 0.232733 0.486915
0.688615 0.244567 0.498832
0.688615 0.244567 0.498832
0.130254 0.199548 0.358687
0.240313 0.239060 0.398199
0.305183 0.239060 0.398199
0.370053 0.239060 0.398199
0.490983 0.267908 0.427047
0.593305 0.304763 0.489673
0.695627 0.341618 0.526784
0.728484 0.353452 0.538701
0.728484 0.353452 0.538701
0.130254 0.263955 0.358687
0.241028 0.304182 0.398914
0.349114 0.347398 0.467752
0.413984 0.347398 0.467752
0.528040 0.369113 0.489618
0.630362 0.405968 0.526729
0.732684 0.442823 0.563841
0.765541 0.454657 0.575758
0.765541 0.454657 0.575758
0.130254 0.328362 0.358687
0.241028 0.368588 0.398914
0.350095 0.412785 0.468740
0.450782 0.448603 0.504809
0.565097 0.470318 0.526675
0.674627 0.540010 0.570995
0.777021 0.577193 0.608178
0.809901 0.589133 0.620118
0.809901 0.589133 0.620118
0.157523 0.446947 0.385956
0.268376 0.487537 0.426262
0.370308 0.524860 0.489094
0.472240 0.562183 0.526417
0.589900 0.587245 0.551479
0.692295 0.624428 0.588662
0.794689 0.661612 0.625846
0.827569 0.673552 0.637786
0.827569 0.673552 0.637786
0.194114 0.548539 0.422548
0.304968 0.589129 0.488617
0.406900 0.626452 0.525941
0.541726 0.670996 0.570484
0.625304 0.687394 0.586883
0.692295 0.689174 0.588662
0.794689 0.726357 0.625846
0.827569 0.738297 0.637786
0.827569 0.738297 0.637786
0.230706 0.650131 0.484874
0.341560 0.690721 0.525464
0.443492 0.728044 0.562787
0.578644 0.772660 0.607403
0.662222 0.789058 0.623801
0.727433 0.789058 0.623801
0.794689 0.791103 0.625846
0.827569 0.803043 0.637786
0.827569 0.803043 0.637786
0.249556 0.702464 0.503855
0.360409 0.743054 0.544445
0.462341 0.780377 0.581768
0.597661 0.825029 0.626420
0.681240 0.841427 0.642818
0.746451 0.841427 0.642818
0.811662 0.841427 0.642818
0.832601 0.841427 0.642818
0.832601 0.841427 0.642818
0.249556 0.702464 0.503855
0.360409 0.743054 0.544445
0.462341 0.780377 0.581768
0.597661 0.825029 0.626420
0.681240 0.841427 0.642818
0.746451 0.841427 0.642818
0.811662 0.841427 0.642818
0.832601 0.841427 0.642818
0.832601 0.841427 0.642818
0.169052 0.169052 0.478956
0.239599 0.169052 0.478956
0.304469 0.169052 0.478956
0.369338 0.169052 0.478956
0.461212 0.169052 0.478956
0.553436 0.195878 0.505969
0.655758 0.232733 0.543081
0.688615 0.244567 0.554998
0.688615 0.244567 0.554998
0.169052 0.238346 0.478956
0.279190 0.277937 0.518825
0.344059 0.277937 0.518825
0.408929 0.277937 0.518825
0.501081 0.277937 0.518825
0.593305 0.304763 0.545838
0.695627 0.341618 0.582950
0.728484 0.353452 0.594867
0.728484 0.353452 0.594867
0.169052 0.302753 0.478956
0.279905 0.343059 0.519546
0.380857 0.379141 0.555882
0.445727 0.379141 0.555882
0.538138 0.379141 0.555882
0.630362 0.405968 0.582895
0.732684 0.442823 0.620007
0.765541 0.454657 0.631923
0.765541 0.454657 0.631923
0.169052 0.367160 0.478956
0.279905 0.407466 0.519546
0.381837 0.444528 0.556869
0.482525 0.480346 0.592939
0.575195 0.480346 0.592939
0.674627 0.540010 0.627160
0.777021 0.577193 0.664344
0.809901 0.589133 0.676284
0.809901 0.589133 0.676284
0.169052 0.458556 0.478956
0.279905 0.499146 0.519546
0.381837 0.536470 0.556869
0.483769 0.573793 0.594192
0.620412 0.617756 0.638156
0.712689 0.644822 0.665222
0.815083 0.682006 0.702405
0.847963 0.693946 0.714345
0.847963 0.693946 0.714345
0.194114 0.548539 0.504193
0.304968 0.589129 0.544783
0.406900 0.626452 0.582106
0.541726 0.670996 0.626650
0.647212 0.709302 0.664957
0.724321 0.721200 0.676854
0.826715 0.758383 0.714037
0.859595 0.770323 0.725977
0.859595 0.770323 0.725977
0.230706 0.650131 0.541040
0.341560 0.690721 0.581630
0.443492 0.728044 0.618953
0.578644 0.772660 0.663568
0.684131 0.810966 0.701875
0.759459 0.821084 0.711993
0.826715 0.823129 0.714037
0.859595 0.835069 0.725977
0.859595 0.835069 0.725977
0.249556 0.702464 0.560020
0.360409 0.743054 0.600610
0.462341 0.780377 0.637933
0.597661 0.825029 0.682586
0.703148 0.863336 0.720892
0.778477 0.873453 0.731010
0.843688 0.873453 0.731010
0.864627 0.873453 0.731010
0.864627 0.873453 0.731010
0.249556 0.702464 0.560020
0.360409 0.743054 0.600610
0.462341 0.780377 0.637933
0.597661 0.825029 0.682586
0.703148 0.863336 0.720892
0.778477 0.873453 0.731010
0.843688 0.873453 0.731010
0.864627 0.873453 0.731010
0.864627 0.873453 0.731010
0.200795 0.200795 0.567086
0.271342 0.200795 0.567086
0.336212 0.200795 0.567086
0.401081 0.200795 0.567086
0.493176 0.200795 0.567086
0.558387 0.200795 0.567086
0.655758 0.232733 0.599247
0.688615 0.244567 0.611163
0.688615 0.244567 0.611163
0.200795 0.270089 0.567086
0.310932 0.309680 0.606955
0.375802 0.309680 0.606955
0.440672 0.309680 0.606955
0.533045 0.309680 0.606955
0.598256 0.309680 0.606955
0.695627 0.341618 0.639116
0.728484 0.353452 0.651032
0.728484 0.353452 0.651032
0.200795 0.334496 0.567086
0.311648 0.374802 0.607676
0.412600 0.410884 0.644012
0.477470 0.410884 0.644012
0.570102 0.410884 0.644012
0.635313 0.410884 0.644012
0.732684 0.442823 0.676172
0.765541 0.454657 0.688089
0.765541 0.454657 0.688089
0.200795 0.398903 0.567086
0.311648 0.439209 0.607676
0.413580 0.476271 0.644999
0.547196 0.544970 0.688286
0.614376 0.544970 0.688286
0.679587 0.544970 0.688286
0.777021 0.577193 0.720510
0.809901 0.589133 0.732450
0.809901 0.589133 0.732450
0.200795 0.490520 0.567086
0.311648 0.531110 0.607676
0.413580 0.568433 0.644999
0.548466 0.612990 0.689556
0.652438 0.649783 0.726348
0.717649 0.649783 0.726348
0.815083 0.682006 0.758571
0.847963 0.693946 0.770511
0.847963 0.693946 0.770511
0.200795 0.555266 0.567086
0.311648 0.595856 0.607676
0.413580 0.633179 0.644999
0.548466 0.677736 0.689556
0.653952 0.716042 0.727862
0.754567 0.751446 0.763266
0.852001 0.783670 0.795489
0.884881 0.795609 0.807429
0.884881 0.795609 0.807429
0.230706 0.650131 0.597206
0.341560 0.690721 0.637796
0.443492 0.728044 0.675119
0.578644 0.772660 0.719734
0.684131 0.810966 0.758041
0.786525 0.848150 0.795224
0.858741 0.855155 0.802229
0.891621 0.867095 0.814169
0.891621 0.867095 0.814169
0.249556 0.702464 0.616186
0.360409 0.743054 0.656776
0.462341 0.780377 0.694099
0.597661 0.825029 0.738752
0.703148 0.863336 0.777058
0.805543 0.900519 0.814242
0.875714 0.905479 0.819202
0.896653 0.905479 0.819202
0.896653 0.905479 0.819202
0.249556 0.702464 0.616186
0.360409 0.743054 0.656776
0.462341 0.780377 0.694099
0.597661 0.825029 0.738752
0.703148 0.863336 0.777058
0.805543 0.900519 0.814242
0.875714 0.905479 0.819202
0.896653 0.905479 0.819202
0.896653 0.905479 0.819202
0.217146 0.217146 0.612483
0.287694 0.217146 0.612483
0.352563 0.217146 0.612483
0.417433 0.217146 0.612483
0.509641 0.217146 0.612483
0.574852 0.217146 0.612483
0.655758 0.232733 0.628179
0.688615 0.244567 0.640096
0.688615 0.244567 0.640096
0.217146 0.286441 0.612483
0.327284 0.326031 0.652353
0.392154 0.326031 0.652353
0.457023 0.326031 0.652353
0.549510 0.326031 0.652353
0.614721 0.326031 0.652353
0.695627 0.341618 0.668048
0.728484 0.353452 0.679965
0.728484 0.353452 0.679965
0.217146 0.350847 0.612483
0.328000 0.391154 0.653073
0.428952 0.427236 0.689409
0.493821 0.427236 0.689409
0.586567 0.427236 0.689409
0.651778 0.427236 0.689409
0.732684 0.442823 0.705105
0.765541 0.454657 0.717022
0.765541 0.454657 0.717022
0.217146 0.415254 0.612483
0.328000 0.455560 0.653073
0.429932 0.492623 0.690397
0.563694 0.561468 0.733716
0.630874 0.561468 0.733716
0.696085 0.561468 0.733716
0.777021 0.577193 0.749442
0.809901 0.589133 0.761382
0.809901 0.589133 0.761382
0.217146 0.506986 0.612483
0.328000 0.547576 0.653073
0.429932 0.584899 0.690397
0.564963 0.629488 0.734985
0.668935 0.666280 0.771778
0.734146 0.666280 0.771778
0.815083 0.682006 0.787504
0.847963 0.693946 0.799444
0.847963 0.693946 0.799444
0.217146 0.571731 0.612483
0.328000 0.612321 0.653073
0.429932 0.649644 0.690397
0.564963 0.694233 0.734985
0.670450 0.732540 0.773292
0.771065 0.767944 0.808696
0.852001 0.783670 0.824422
0.884881 0.795609 0.836362
0.884881 0.795609 0.836362
0.230706 0.650131 0.626138
0.341560 0.690721 0.666728
0.443492 0.728044 0.704051
0.578644 0.772660 0.748666
0.684131 0.810966 0.786973
0.786525 0.848150 0.824157
0.875238 0.871652 0.847659
0.908118 0.883592 0.859599
0.908118 0.883592 0.859599
0.249556 0.702464 0.645119
0.360409 0.743054 0.685708
0.462341 0.780377 0.723032
0.597661 0.825029 0.767684
0.703148 0.863336 0.805990
0.805543 0.900519 0.843174
0.892211 0.921977 0.864632
0.913151 0.921977 0.864632
0.913151 0.921977 0.864632
0.249556 0.702464 0.645119
0.360409 0.743054 0.685708
0.462341 0.780377 0.723032
0.597661 0.825029 0.767684
0.703148 0.863336 0.805990
0.805543 0.900519 0.843174
0.892211 0.921977 0.864632
0.913151 0.921977 0.864632
0.913151 0.921977 0.864632
0.217146 0.217146 0.612483
0.287694 0.217146 0.612483
0.352563 0.217146 0.612483
0.417433 0.217146 0.612483
0.509641 0.217146 0.612483
0.574852 0.217146 0.612483
0.655758 0.232733 0.628179
0.688615 0.244567 0.640096
0.688615 0.244567 0.640096
0.217146 0.286441 0.612483
0.327284 0.326031 0.652353
0.392154 0.326031 0.652353
0.457023 0.326031 0.652353
0.549510 0.326031 0.652353
0.614721 0.326031 0.652353
0.695627 0.341618 0.668048
0.728484 0.353452 0.679965
0.728484 0.353452 0.679965
0.217146 0.350847 0.612483
0.328000 0.391154 0.653073
0.428952 0.427236 0.689409
0.493821 0.427236 0.689409
0.586567 0.427236 0.689409
0.651778 0.427236 0.689409
0.732684 0.442823 0.705105
0.765541 0.454657 0.717022
0.765541 0.454657 0.717022
0.217146 0.415254 0.612483
0.328000 0.455560 0.653073
0.429932 0.492623 0.690397
0.563694 0.561468 0.733716
0.630874 0.561468 0.733716
0.696085 0.561468 0.733716
0.777021 0.577193 0.749442
0.809901 0.589133 0.761382
0.809901 0.589133 0.761382
0.217146 0.506986 0.612483
0.328000 0.547576 0.653073
0.429932 0.584899 0.690397
0.564963 0.629488 0.734985
0.668935 0.666280 0.771778
0.734146 0.666280 0.771778
0.815083 0.682006 0.787504
0.847963 0.693946 0.799444
0.847963 0.693946 0.799444
0.217146 0.571731 0.612483
0.328000 0.612321 0.653073
0.429932 0.649644 0.690397
0.564963 0.694233 0.734985
0.670450 0.732540 0.773292
0.771065 0.767944 0.808696
0.852001 0.783670 0.824422
0.884881 0.795609 0.836362
0.884881 0.795609 0.836362
0.230706 0.650131 0.626138
0.341560 0.690721 0.666728
0.443492 0.728044 0.704051
0.578644 0.772660 0.748666
0.684131 0.810966 0.786973
0.786525 0.848150 0.824157
0.875238 0.871652 0.847659
0.908118 0.883592 0.859599
0.908118 0.883592 0.859599
0.249556 0.702464 0.645119
0.360409 0.743054 0.685708
0.462341 0.780377 0.723032
0.597661 0.825029 0.767684
0.703148 0.863336 0.805990
0.805543 0.900519 0.843174
0.892211 0.921977 0.864632
0.913151 0.921977 0.864632
0.913151 0.921977 0.864632
0.249556 0.702464 0.645119
0.360409 0.743054 0.685708
0.462341 0.780377 0.723032
0.597661 0.825029 0.767684
0.703148 0.863336 0.805990
0.805543 0.900519 0.843174
0.892211 0.921977 0.864632
0.913151 0.921977 0.864632
0.913151 0.921977 0.864632
