docs/luts/fuji_recipes/Classic_RR_Agfacolor_Vintage.cube
TITLE "Fujifilm Recipe: RR Agfacolor Vintage (Classic)"
# FilmSim=Classic HL=2 SH=1 Col=-4 WB=Auto WBR=-3 WBB=-4
LUT_3D_SIZE 33
DOMAIN_MIN 0.0 0.0 0.0
DOMAIN_MAX 1.0 1.0 1.0
0.000000 0.000000 0.000000
0.013188 0.008712 0.008712
0.027488 0.018158 0.018158
0.042559 0.028113 0.028113
0.057629 0.038069 0.038069
0.072700 0.048024 0.048024
0.087770 0.057979 0.057979
0.102840 0.067934 0.067934
0.117911 0.077889 0.077889
0.132981 0.087844 0.087844
0.148051 0.097799 0.097799
0.163122 0.107755 0.107755
0.178192 0.117710 0.117710
0.193262 0.127665 0.127665
0.208333 0.137620 0.137620
0.223403 0.147575 0.147575
0.238474 0.157530 0.157530
0.253544 0.167485 0.167485
0.268614 0.177441 0.177441
0.283685 0.187396 0.187396
0.300874 0.198751 0.198751
0.315701 0.208545 0.208545
0.330528 0.218340 0.218340
0.359441 0.236057 0.236057
0.375972 0.246810 0.246810
0.392503 0.257563 0.257563
0.409034 0.268316 0.268316
0.425566 0.279069 0.279069
0.442097 0.289822 0.289822
0.458628 0.300575 0.300575
0.475159 0.311328 0.311328
0.491690 0.322081 0.322081
0.508221 0.332834 0.332834
0.009324 0.014115 0.009324
0.013800 0.014115 0.009324
0.027488 0.022949 0.018158
0.042559 0.032904 0.028113
0.057629 0.042859 0.038069
0.072700 0.052815 0.048024
0.087770 0.062770 0.057979
0.102840 0.072725 0.067934
0.117911 0.082680 0.077889
0.132981 0.092635 0.087844
0.148051 0.102590 0.097799
0.163122 0.112545 0.107755
0.178192 0.122501 0.117710
0.193262 0.132456 0.127665
0.208333 0.142411 0.137620
0.223403 0.152366 0.147575
0.238474 0.162321 0.157530
0.253544 0.172276 0.167485
0.268614 0.182231 0.177441
0.283685 0.192187 0.187396
0.300874 0.203541 0.198751
0.315701 0.213336 0.208545
0.330528 0.223130 0.218340
0.359441 0.240848 0.236057
0.375972 0.251601 0.246810
0.392503 0.262354 0.257563
0.409034 0.273107 0.268316
0.425566 0.283860 0.279069
0.442097 0.294613 0.289822
0.458628 0.305366 0.300575
0.475159 0.316119 0.311328
0.491690 0.326872 0.322081
0.508221 0.337625 0.332834
0.019461 0.029461 0.019461
0.023938 0.029461 0.019461
0.028792 0.029461 0.019461
0.042559 0.038113 0.028113
0.057629 0.048068 0.038069
0.072700 0.058023 0.048024
0.087770 0.067979 0.057979
0.102840 0.077934 0.067934
0.117911 0.087889 0.077889
0.132981 0.097844 0.087844
0.148051 0.107799 0.097799
0.163122 0.117754 0.107755
0.178192 0.127710 0.117710
0.193262 0.137665 0.127665
0.208333 0.147620 0.137620
0.223403 0.157575 0.147575
0.238474 0.167530 0.157530
0.253544 0.177485 0.167485
0.268614 0.187440 0.177441
0.283685 0.197396 0.187396
0.300874 0.208750 0.198751
0.315701 0.218545 0.208545
0.330528 0.228339 0.218340
0.359441 0.246057 0.236057
0.375972 0.256810 0.246810
0.392503 0.267563 0.257563
0.409034 0.278316 0.268316
0.425566 0.289069 0.279069
0.442097 0.299822 0.289822
0.458628 0.310575 0.300575
0.475159 0.321328 0.311328
0.491690 0.332081 0.322081
0.508221 0.342834 0.332834
0.030179 0.045685 0.030179
0.034655 0.045685 0.030179
0.039509 0.045685 0.030179
0.044624 0.045685 0.030179
0.057629 0.053575 0.038069
0.072700 0.063530 0.048024
0.087770 0.073485 0.057979
0.102840 0.083441 0.067934
0.117911 0.093396 0.077889
0.132981 0.103351 0.087844
0.148051 0.113306 0.097799
0.163122 0.123261 0.107755
0.178192 0.133216 0.117710
0.193262 0.143172 0.127665
0.208333 0.153127 0.137620
0.223403 0.163082 0.147575
0.238474 0.173037 0.157530
0.253544 0.182992 0.167485
0.268614 0.192947 0.177441
0.283685 0.202902 0.187396
0.300874 0.214257 0.198751
0.315701 0.224052 0.208545
0.330528 0.233846 0.218340
0.359441 0.251564 0.236057
0.375972 0.262317 0.246810
0.392503 0.273070 0.257563
0.409034 0.283823 0.268316
0.425566 0.294576 0.279069
0.442097 0.305329 0.289822
0.458628 0.316082 0.300575
0.475159 0.326835 0.311328
0.491690 0.337588 0.322081
0.508221 0.348341 0.332834
0.040896 0.061910 0.040896
0.045372 0.061910 0.040896
0.050226 0.061910 0.040896
0.055342 0.061910 0.040896
0.060457 0.061910 0.040896
0.072700 0.069037 0.048024
0.087770 0.078992 0.057979
0.102840 0.088947 0.067934
0.117911 0.098903 0.077889
0.132981 0.108858 0.087844
0.148051 0.118813 0.097799
0.163122 0.128768 0.107755
0.178192 0.138723 0.117710
0.193262 0.148678 0.127665
0.208333 0.158634 0.137620
0.223403 0.168589 0.147575
0.238474 0.178544 0.157530
0.253544 0.188499 0.167485
0.268614 0.198454 0.177441
0.283685 0.208409 0.187396
0.300874 0.219764 0.198751
0.315701 0.229559 0.208545
0.330528 0.239353 0.218340
0.359441 0.257071 0.236057
0.375972 0.267824 0.246810
0.392503 0.278577 0.257563
0.409034 0.289330 0.268316
0.425566 0.300083 0.279069
0.442097 0.310836 0.289822
0.458628 0.321589 0.300575
0.475159 0.332342 0.311328
0.491690 0.343095 0.322081
0.508221 0.353848 0.332834
0.051613 0.078134 0.051613
0.056090 0.078134 0.051613
0.060944 0.078134 0.051613
0.066059 0.078134 0.051613
0.071174 0.078134 0.051613
0.076289 0.078134 0.051613
0.087770 0.084499 0.057979
0.102840 0.094454 0.067934
0.117911 0.104409 0.077889
0.132981 0.114365 0.087844
0.148051 0.124320 0.097799
0.163122 0.134275 0.107755
0.178192 0.144230 0.117710
0.193262 0.154185 0.127665
0.208333 0.164140 0.137620
0.223403 0.174096 0.147575
0.238474 0.184051 0.157530
0.253544 0.194006 0.167485
0.268614 0.203961 0.177441
0.283685 0.213916 0.187396
0.300874 0.225271 0.198751
0.315701 0.235065 0.208545
0.330528 0.244860 0.218340
0.359441 0.262578 0.236057
0.375972 0.273331 0.246810
0.392503 0.284084 0.257563
0.409034 0.294837 0.268316
0.425566 0.305590 0.279069
0.442097 0.316343 0.289822
0.458628 0.327096 0.300575
0.475159 0.337849 0.311328
0.491690 0.348602 0.322081
0.508221 0.359355 0.332834
0.062331 0.094358 0.062331
0.066807 0.094358 0.062331
0.071661 0.094358 0.062331
0.076776 0.094358 0.062331
0.081891 0.094358 0.062331
0.087007 0.094358 0.062331
0.092122 0.094358 0.062331
0.102840 0.099961 0.067934
0.117911 0.109916 0.077889
0.132981 0.119871 0.087844
0.148051 0.129827 0.097799
0.163122 0.139782 0.107755
0.178192 0.149737 0.117710
0.193262 0.159692 0.127665
0.208333 0.169647 0.137620
0.223403 0.179602 0.147575
0.238474 0.189558 0.157530
0.253544 0.199513 0.167485
0.268614 0.209468 0.177441
0.283685 0.219423 0.187396
0.300874 0.230778 0.198751
0.315701 0.240572 0.208545
0.330528 0.250367 0.218340
0.359441 0.268085 0.236057
0.375972 0.278838 0.246810
0.392503 0.289591 0.257563
0.409034 0.300344 0.268316
0.425566 0.311097 0.279069
0.442097 0.321850 0.289822
0.458628 0.332603 0.300575
0.475159 0.343355 0.311328
0.491690 0.354108 0.322081
0.508221 0.364861 0.332834
0.073048 0.110582 0.073048
0.077524 0.110582 0.073048
0.082378 0.110582 0.073048
0.087494 0.110582 0.073048
0.092609 0.110582 0.073048
0.097724 0.110582 0.073048
0.102839 0.110582 0.073048
0.107954 0.110582 0.073048
0.117911 0.115423 0.077889
0.132981 0.125378 0.087844
0.148051 0.135333 0.097799
0.163122 0.145289 0.107755
0.178192 0.155244 0.117710
0.193262 0.165199 0.127665
0.208333 0.175154 0.137620
0.223403 0.185109 0.147575
0.238474 0.195064 0.157530
0.253544 0.205020 0.167485
0.268614 0.214975 0.177441
0.283685 0.224930 0.187396
0.300874 0.236285 0.198751
0.315701 0.246079 0.208545
0.330528 0.255874 0.218340
0.359441 0.273591 0.236057
0.375972 0.284344 0.246810
0.392503 0.295097 0.257563
0.409034 0.305850 0.268316
0.425566 0.316603 0.279069
0.442097 0.327356 0.289822
0.458628 0.338109 0.300575
0.475159 0.348862 0.311328
0.491690 0.359615 0.322081
0.508221 0.370368 0.332834
0.083766 0.126806 0.083766
0.088242 0.126806 0.083766
0.093096 0.126806 0.083766
0.098211 0.126806 0.083766
0.103326 0.126806 0.083766
0.108441 0.126806 0.083766
0.113557 0.126806 0.083766
0.118672 0.126806 0.083766
0.123787 0.126806 0.083766
0.132981 0.130885 0.087844
0.148051 0.140840 0.097799
0.163122 0.150796 0.107755
0.178192 0.160751 0.117710
0.193262 0.170706 0.127665
0.208333 0.180661 0.137620
0.223403 0.190616 0.147575
0.238474 0.200571 0.157530
0.253544 0.210526 0.167485
0.268614 0.220482 0.177441
0.283685 0.230437 0.187396
0.300874 0.241791 0.198751
0.315701 0.251586 0.208545
0.330528 0.261381 0.218340
0.359441 0.279098 0.236057
0.375972 0.289851 0.246810
0.392503 0.300604 0.257563
0.409034 0.311357 0.268316
0.425566 0.322110 0.279069
0.442097 0.332863 0.289822
0.458628 0.343616 0.300575
0.475159 0.354369 0.311328
0.491690 0.365122 0.322081
0.508221 0.375875 0.332834
0.094483 0.143031 0.094483
0.098959 0.143031 0.094483
0.103813 0.143031 0.094483
0.108928 0.143031 0.094483
0.114043 0.143031 0.094483
0.119159 0.143031 0.094483
0.124274 0.143031 0.094483
0.129389 0.143031 0.094483
0.134504 0.143031 0.094483
0.139620 0.143031 0.094483
0.148051 0.146347 0.097799
0.163122 0.156302 0.107755
0.178192 0.166258 0.117710
0.193262 0.176213 0.127665
0.208333 0.186168 0.137620
0.223403 0.196123 0.147575
0.238474 0.206078 0.157530
0.253544 0.216033 0.167485
0.268614 0.225988 0.177441
0.283685 0.235944 0.187396
0.300874 0.247298 0.198751
0.315701 0.257093 0.208545
0.330528 0.266887 0.218340
0.359441 0.284605 0.236057
0.375972 0.295358 0.246810
0.392503 0.306111 0.257563
0.409034 0.316864 0.268316
0.425566 0.327617 0.279069
0.442097 0.338370 0.289822
0.458628 0.349123 0.300575
0.475159 0.359876 0.311328
0.491690 0.370629 0.322081
0.508221 0.381382 0.332834
0.105200 0.159255 0.105200
0.109676 0.159255 0.105200
0.114530 0.159255 0.105200
0.119646 0.159255 0.105200
0.124761 0.159255 0.105200
0.129876 0.159255 0.105200
0.134991 0.159255 0.105200
0.140106 0.159255 0.105200
0.145222 0.159255 0.105200
0.150337 0.159255 0.105200
0.155452 0.159255 0.105200
0.163122 0.161809 0.107755
0.178192 0.171764 0.117710
0.193262 0.181720 0.127665
0.208333 0.191675 0.137620
0.223403 0.201630 0.147575
0.238474 0.211585 0.157530
0.253544 0.221540 0.167485
0.268614 0.231495 0.177441
0.283685 0.241450 0.187396
0.300874 0.252805 0.198751
0.315701 0.262600 0.208545
0.330528 0.272394 0.218340
0.359441 0.290112 0.236057
0.375972 0.300865 0.246810
0.392503 0.311618 0.257563
0.409034 0.322371 0.268316
0.425566 0.333124 0.279069
0.442097 0.343877 0.289822
0.458628 0.354630 0.300575
0.475159 0.365383 0.311328
0.491690 0.376136 0.322081
0.508221 0.386889 0.332834
0.115918 0.175479 0.115918
0.120394 0.175479 0.115918
0.125248 0.175479 0.115918
0.130363 0.175479 0.115918
0.135478 0.175479 0.115918
0.140593 0.175479 0.115918
0.145709 0.175479 0.115918
0.150824 0.175479 0.115918
0.155939 0.175479 0.115918
0.161054 0.175479 0.115918
0.166169 0.175479 0.115918
0.171285 0.175479 0.115918
0.178192 0.177271 0.117710
0.193262 0.187226 0.127665
0.208333 0.197182 0.137620
0.223403 0.207137 0.147575
0.238474 0.217092 0.157530
0.253544 0.227047 0.167485
0.268614 0.237002 0.177441
0.283685 0.246957 0.187396
0.300874 0.258312 0.198751
0.315701 0.268107 0.208545
0.330528 0.277901 0.218340
0.359441 0.295619 0.236057
0.375972 0.306372 0.246810
0.392503 0.317125 0.257563
0.409034 0.327878 0.268316
0.425566 0.338631 0.279069
0.442097 0.349384 0.289822
0.458628 0.360137 0.300575
0.475159 0.370890 0.311328
0.491690 0.381643 0.322081
0.508221 0.392396 0.332834
0.126635 0.191703 0.126635
0.131111 0.191703 0.126635
0.135965 0.191703 0.126635
0.141080 0.191703 0.126635
0.146196 0.191703 0.126635
0.151311 0.191703 0.126635
0.156426 0.191703 0.126635
0.161541 0.191703 0.126635
0.166656 0.191703 0.126635
0.171772 0.191703 0.126635
0.176887 0.191703 0.126635
0.182002 0.191703 0.126635
0.187117 0.191703 0.126635
0.193262 0.192733 0.127665
0.208333 0.202688 0.137620
0.223403 0.212644 0.147575
0.238474 0.222599 0.157530
0.253544 0.232554 0.167485
0.268614 0.242509 0.177441
0.283685 0.252464 0.187396
0.300874 0.263819 0.198751
0.315701 0.273613 0.208545
0.330528 0.283408 0.218340
0.359441 0.301126 0.236057
0.375972 0.311879 0.246810
0.392503 0.322632 0.257563
0.409034 0.333385 0.268316
0.425566 0.344138 0.279069
0.442097 0.354891 0.289822
0.458628 0.365644 0.300575
0.475159 0.376397 0.311328
0.491690 0.387150 0.322081
0.508221 0.397903 0.332834
0.137352 0.207927 0.137352
0.141829 0.207927 0.137352
0.146682 0.207927 0.137352
0.151798 0.207927 0.137352
0.156913 0.207927 0.137352
0.162028 0.207927 0.137352
0.167143 0.207927 0.137352
0.172259 0.207927 0.137352
0.177374 0.207927 0.137352
0.182489 0.207927 0.137352
0.187604 0.207927 0.137352
0.192719 0.207927 0.137352
0.197835 0.207927 0.137352
0.202950 0.207927 0.137352
0.208333 0.208195 0.137620
0.223403 0.218150 0.147575
0.238474 0.228106 0.157530
0.253544 0.238061 0.167485
0.268614 0.248016 0.177441
0.283685 0.257971 0.187396
0.300874 0.269326 0.198751
0.315701 0.279120 0.208545
0.330528 0.288915 0.218340
0.359441 0.306633 0.236057
0.375972 0.317386 0.246810
0.392503 0.328139 0.257563
0.409034 0.338892 0.268316
0.425566 0.349644 0.279069
0.442097 0.360397 0.289822
0.458628 0.371150 0.300575
0.475159 0.381903 0.311328
0.491690 0.392656 0.322081
0.508221 0.403409 0.332834
0.148070 0.224152 0.148070
0.152546 0.224152 0.148070
0.157400 0.224152 0.148070
0.162515 0.224152 0.148070
0.167630 0.224152 0.148070
0.172745 0.224152 0.148070
0.177861 0.224152 0.148070
0.182976 0.224152 0.148070
0.188091 0.224152 0.148070
0.193206 0.224152 0.148070
0.198322 0.224152 0.148070
0.203437 0.224152 0.148070
0.208552 0.224152 0.148070
0.213667 0.224152 0.148070
0.218782 0.224152 0.148070
0.223898 0.224152 0.148070
0.238474 0.233612 0.157530
0.253544 0.243568 0.167485
0.268614 0.253523 0.177441
0.283685 0.263478 0.187396
0.300874 0.274833 0.198751
0.315701 0.284627 0.208545
0.330528 0.294422 0.218340
0.359441 0.312139 0.236057
0.375972 0.322892 0.246810
0.392503 0.333645 0.257563
0.409034 0.344398 0.268316
0.425566 0.355151 0.279069
0.442097 0.365904 0.289822
0.458628 0.376657 0.300575
0.475159 0.387410 0.311328
0.491690 0.398163 0.322081
0.508221 0.408916 0.332834
0.158787 0.240376 0.158787
0.163263 0.240376 0.158787
0.168117 0.240376 0.158787
0.173232 0.240376 0.158787
0.178348 0.240376 0.158787
0.183463 0.240376 0.158787
0.188578 0.240376 0.158787
0.193693 0.240376 0.158787
0.198808 0.240376 0.158787
0.203924 0.240376 0.158787
0.209039 0.240376 0.158787
0.214154 0.240376 0.158787
0.219269 0.240376 0.158787
0.224385 0.240376 0.158787
0.229500 0.240376 0.158787
0.234615 0.240376 0.158787
0.239730 0.240376 0.158787
0.253544 0.249074 0.167485
0.268614 0.259030 0.177441
0.283685 0.268985 0.187396
0.300874 0.280339 0.198751
0.315701 0.290134 0.208545
0.330528 0.299929 0.218340
0.359441 0.317646 0.236057
0.375972 0.328399 0.246810
0.392503 0.339152 0.257563
0.409034 0.349905 0.268316
0.425566 0.360658 0.279069
0.442097 0.371411 0.289822
0.458628 0.382164 0.300575
0.475159 0.392917 0.311328
0.491690 0.403670 0.322081
0.508221 0.414423 0.332834
0.169504 0.256600 0.169504
0.173981 0.256600 0.169504
0.178835 0.256600 0.169504
0.183950 0.256600 0.169504
0.189065 0.256600 0.169504
0.194180 0.256600 0.169504
0.199295 0.256600 0.169504
0.204411 0.256600 0.169504
0.209526 0.256600 0.169504
0.214641 0.256600 0.169504
0.219756 0.256600 0.169504
0.224871 0.256600 0.169504
0.229987 0.256600 0.169504
0.235102 0.256600 0.169504
0.240217 0.256600 0.169504
0.245332 0.256600 0.169504
0.250448 0.256600 0.169504
0.255563 0.256600 0.169504
0.268614 0.264536 0.177441
0.283685 0.274492 0.187396
0.300874 0.285846 0.198751
0.315701 0.295641 0.208545
0.330528 0.305435 0.218340
0.359441 0.323153 0.236057
0.375972 0.333906 0.246810
0.392503 0.344659 0.257563
0.409034 0.355412 0.268316
0.425566 0.366165 0.279069
0.442097 0.376918 0.289822
0.458628 0.387671 0.300575
0.475159 0.398424 0.311328
0.491690 0.409177 0.322081
0.508221 0.419930 0.332834
0.180222 0.272824 0.180222
0.184698 0.272824 0.180222
0.189552 0.272824 0.180222
0.194667 0.272824 0.180222
0.199782 0.272824 0.180222
0.204897 0.272824 0.180222
0.210013 0.272824 0.180222
0.215128 0.272824 0.180222
0.220243 0.272824 0.180222
0.225358 0.272824 0.180222
0.230474 0.272824 0.180222
0.235589 0.272824 0.180222
0.240704 0.272824 0.180222
0.245819 0.272824 0.180222
0.250934 0.272824 0.180222
0.256050 0.272824 0.180222
0.261165 0.272824 0.180222
0.266280 0.272824 0.180222
0.271395 0.272824 0.180222
0.283685 0.279998 0.187396
0.300874 0.291353 0.198751
0.315701 0.301148 0.208545
0.330528 0.310942 0.218340
0.359441 0.328660 0.236057
0.375972 0.339413 0.246810
0.392503 0.350166 0.257563
0.409034 0.360919 0.268316
0.425566 0.371672 0.279069
0.442097 0.382425 0.289822
0.458628 0.393178 0.300575
0.475159 0.403931 0.311328
0.491690 0.414684 0.322081
0.508221 0.425437 0.332834
0.192442 0.291324 0.192442
0.196918 0.291324 0.192442
0.201772 0.291324 0.192442
0.206887 0.291324 0.192442
0.212003 0.291324 0.192442
0.217118 0.291324 0.192442
0.222233 0.291324 0.192442
0.227348 0.291324 0.192442
0.232463 0.291324 0.192442
0.237579 0.291324 0.192442
0.242694 0.291324 0.192442
0.247809 0.291324 0.192442
0.252924 0.291324 0.192442
0.258040 0.291324 0.192442
0.263155 0.291324 0.192442
0.268270 0.291324 0.192442
0.273385 0.291324 0.192442
0.278500 0.291324 0.192442
0.283616 0.291324 0.192442
0.288731 0.291324 0.192442
0.300874 0.297632 0.198751
0.315701 0.307427 0.208545
0.330528 0.317221 0.218340
0.359441 0.334939 0.236057
0.375972 0.345692 0.246810
0.392503 0.356445 0.257563
0.409034 0.367198 0.268316
0.425566 0.377951 0.279069
0.442097 0.388704 0.289822
0.458628 0.399457 0.300575
0.475159 0.410210 0.311328
0.491690 0.420963 0.322081
0.508221 0.431716 0.332834
0.202987 0.307286 0.202987
0.207463 0.307286 0.202987
0.212317 0.307286 0.202987
0.217432 0.307286 0.202987
0.222547 0.307286 0.202987
0.227662 0.307286 0.202987
0.232778 0.307286 0.202987
0.237893 0.307286 0.202987
0.243008 0.307286 0.202987
0.248123 0.307286 0.202987
0.253238 0.307286 0.202987
0.258354 0.307286 0.202987
0.263469 0.307286 0.202987
0.268584 0.307286 0.202987
0.273699 0.307286 0.202987
0.278814 0.307286 0.202987
0.283930 0.307286 0.202987
0.289045 0.307286 0.202987
0.294160 0.307286 0.202987
0.299275 0.307286 0.202987
0.305110 0.307286 0.202987
0.315701 0.312845 0.208545
0.330528 0.322639 0.218340
0.359441 0.340357 0.236057
0.375972 0.351110 0.246810
0.392503 0.361863 0.257563
0.409034 0.372616 0.268316
0.425566 0.383369 0.279069
0.442097 0.394122 0.289822
0.458628 0.404875 0.300575
0.475159 0.415628 0.311328
0.491690 0.426381 0.322081
0.508221 0.437134 0.332834
0.213531 0.323249 0.213531
0.218007 0.323249 0.213531
0.222861 0.323249 0.213531
0.227976 0.323249 0.213531
0.233092 0.323249 0.213531
0.238207 0.323249 0.213531
0.243322 0.323249 0.213531
0.248437 0.323249 0.213531
0.253552 0.323249 0.213531
0.258668 0.323249 0.213531
0.263783 0.323249 0.213531
0.268898 0.323249 0.213531
0.274013 0.323249 0.213531
0.279129 0.323249 0.213531
0.284244 0.323249 0.213531
0.289359 0.323249 0.213531
0.294474 0.323249 0.213531
0.299589 0.323249 0.213531
0.304705 0.323249 0.213531
0.309820 0.323249 0.213531
0.315654 0.323249 0.213531
0.320687 0.323249 0.213531
0.330528 0.328057 0.218340
0.359441 0.345775 0.236057
0.375972 0.356528 0.246810
0.392503 0.367281 0.257563
0.409034 0.378034 0.268316
0.425566 0.394477 0.279069
0.442097 0.405346 0.289822
0.458628 0.416216 0.300575
0.475159 0.427085 0.311328
0.491690 0.437954 0.322081
0.508221 0.448824 0.332834
0.231601 0.352591 0.231601
0.236078 0.352591 0.231601
0.240932 0.352591 0.231601
0.246047 0.352591 0.231601
0.251162 0.352591 0.231601
0.256277 0.352591 0.231601
0.261392 0.352591 0.231601
0.266508 0.352591 0.231601
0.271623 0.352591 0.231601
0.276738 0.352591 0.231601
0.281853 0.352591 0.231601
0.286969 0.352591 0.231601
0.292084 0.352591 0.231601
0.297199 0.352591 0.231601
0.302314 0.352591 0.231601
0.307429 0.352591 0.231601
0.312545 0.352591 0.231601
0.317660 0.352591 0.231601
0.322775 0.352591 0.231601
0.327890 0.352591 0.231601
0.333725 0.352591 0.231601
0.338757 0.352591 0.231601
0.343790 0.352591 0.231601
0.359441 0.357095 0.236057
0.375972 0.367964 0.246810
0.392503 0.378834 0.257563
0.409034 0.389703 0.268316
0.425566 0.400572 0.279069
0.442097 0.411442 0.289822
0.458628 0.422311 0.300575
0.475159 0.433180 0.311328
0.491690 0.444050 0.322081
0.508221 0.454919 0.332834
0.243178 0.370388 0.243178
0.247654 0.370388 0.243178
0.252508 0.370388 0.243178
0.257623 0.370388 0.243178
0.262738 0.370388 0.243178
0.267854 0.370388 0.243178
0.272969 0.370388 0.243178
0.278084 0.370388 0.243178
0.283199 0.370388 0.243178
0.288314 0.370388 0.243178
0.293430 0.370388 0.243178
0.298545 0.370388 0.243178
0.303660 0.370388 0.243178
0.308775 0.370388 0.243178
0.313890 0.370388 0.243178
0.319006 0.370388 0.243178
0.324121 0.370388 0.243178
0.329236 0.370388 0.243178
0.334351 0.370388 0.243178
0.339467 0.370388 0.243178
0.345301 0.370388 0.243178
0.350334 0.370388 0.243178
0.360977 0.370388 0.243178
0.366638 0.370388 0.243178
0.375972 0.374060 0.246810
0.392503 0.384929 0.257563
0.409034 0.395798 0.268316
0.425566 0.406668 0.279069
0.442097 0.417537 0.289822
0.458628 0.428406 0.300575
0.475159 0.439275 0.311328
0.491690 0.450145 0.322081
0.508221 0.461014 0.332834
0.254754 0.388184 0.254754
0.259230 0.388184 0.254754
0.264084 0.388184 0.254754
0.269199 0.388184 0.254754
0.274315 0.388184 0.254754
0.279430 0.388184 0.254754
0.284545 0.388184 0.254754
0.289660 0.388184 0.254754
0.294775 0.388184 0.254754
0.299891 0.388184 0.254754
0.305006 0.388184 0.254754
0.310121 0.388184 0.254754
0.315236 0.388184 0.254754
0.320352 0.388184 0.254754
0.325467 0.388184 0.254754
0.330582 0.388184 0.254754
0.335697 0.388184 0.254754
0.340812 0.388184 0.254754
0.345928 0.388184 0.254754
0.351043 0.388184 0.254754
0.356877 0.388184 0.254754
0.361910 0.388184 0.254754
0.372678 0.388184 0.254754
0.378340 0.388184 0.254754
0.384002 0.388184 0.254754
0.392503 0.391024 0.257563
0.409034 0.401893 0.268316
0.425566 0.412763 0.279069
0.442097 0.423632 0.289822
0.458628 0.434501 0.300575
0.475159 0.445371 0.311328
0.491690 0.456240 0.322081
0.508221 0.467109 0.332834
0.266330 0.405981 0.266330
0.270807 0.405981 0.266330
0.275660 0.405981 0.266330
0.280776 0.405981 0.266330
0.285891 0.405981 0.266330
0.291006 0.405981 0.266330
0.296121 0.405981 0.266330
0.301237 0.405981 0.266330
0.306352 0.405981 0.266330
0.311467 0.405981 0.266330
0.316582 0.405981 0.266330
0.321697 0.405981 0.266330
0.326813 0.405981 0.266330
0.331928 0.405981 0.266330
0.337043 0.405981 0.266330
0.342158 0.405981 0.266330
0.347273 0.405981 0.266330
0.352389 0.405981 0.266330
0.357504 0.405981 0.266330
0.362619 0.405981 0.266330
0.368453 0.405981 0.266330
0.373486 0.405981 0.266330
0.384380 0.405981 0.266330
0.390042 0.405981 0.266330
0.395703 0.405981 0.266330
0.401365 0.405981 0.266330
0.409034 0.407989 0.268316
0.425566 0.418858 0.279069
0.442097 0.429727 0.289822
0.458628 0.440597 0.300575
0.475159 0.451466 0.311328
0.491690 0.462335 0.322081
0.508221 0.473205 0.332834
0.277907 0.423778 0.277907
0.282383 0.423778 0.277907
0.287237 0.423778 0.277907
0.292352 0.423778 0.277907
0.297467 0.423778 0.277907
0.302582 0.423778 0.277907
0.307698 0.423778 0.277907
0.312813 0.423778 0.277907
0.317928 0.423778 0.277907
0.323043 0.423778 0.277907
0.328158 0.423778 0.277907
0.333274 0.423778 0.277907
0.338389 0.423778 0.277907
0.343504 0.423778 0.277907
0.348619 0.423778 0.277907
0.353735 0.423778 0.277907
0.358850 0.423778 0.277907
0.363965 0.423778 0.277907
0.369080 0.423778 0.277907
0.374195 0.423778 0.277907
0.380030 0.423778 0.277907
0.385062 0.423778 0.277907
0.396081 0.423778 0.277907
0.401743 0.423778 0.277907
0.407405 0.423778 0.277907
0.413067 0.423778 0.277907
0.418728 0.423778 0.277907
0.425566 0.424953 0.279069
0.442097 0.435823 0.289822
0.458628 0.446692 0.300575
0.475159 0.457561 0.311328
0.491690 0.468431 0.322081
0.508221 0.479300 0.332834
0.289483 0.441575 0.289483
0.293959 0.441575 0.289483
0.298813 0.441575 0.289483
0.303928 0.441575 0.289483
0.309043 0.441575 0.289483
0.314159 0.441575 0.289483
0.319274 0.441575 0.289483
0.324389 0.441575 0.289483
0.329504 0.441575 0.289483
0.334619 0.441575 0.289483
0.339735 0.441575 0.289483
0.344850 0.441575 0.289483
0.349965 0.441575 0.289483
0.355080 0.441575 0.289483
0.360196 0.441575 0.289483
0.365311 0.441575 0.289483
0.370426 0.441575 0.289483
0.375541 0.441575 0.289483
0.380656 0.441575 0.289483
0.385772 0.441575 0.289483
0.391606 0.441575 0.289483
0.396639 0.441575 0.289483
0.407783 0.441575 0.289483
0.413445 0.441575 0.289483
