docs/luts/fuji_recipes/Classic_HF_Muted_Color.cube
TITLE "Fujifilm Recipe: HF Muted Color (Classic)"
# FilmSim=Classic HL=2 SH=0 Col=-2 WB=Auto WBR=0 WBB=0
LUT_3D_SIZE 33
DOMAIN_MIN 0.0 0.0 0.0
DOMAIN_MAX 1.0 1.0 1.0
0.000000 0.000000 0.000000
0.022742 0.008258 0.008258
0.045483 0.016517 0.016517
0.068225 0.024775 0.024775
0.090966 0.033034 0.033034
0.113708 0.041292 0.041292
0.136450 0.049550 0.049550
0.159191 0.057809 0.057809
0.181933 0.066067 0.066067
0.204674 0.074326 0.074326
0.227416 0.082584 0.082584
0.250158 0.090842 0.090842
0.272899 0.099101 0.099101
0.295641 0.107359 0.107359
0.318382 0.115618 0.115618
0.341124 0.123876 0.123876
0.363866 0.132134 0.132134
0.389175 0.141325 0.141325
0.411550 0.149450 0.149450
0.434688 0.157743 0.157743
0.458794 0.166248 0.166248
0.482899 0.174754 0.174754
0.507005 0.183259 0.183259
0.531110 0.191764 0.191764
0.555216 0.200269 0.200269
0.579321 0.208774 0.208774
0.603427 0.217279 0.217279
0.627532 0.225784 0.225784
0.651638 0.234289 0.234289
0.675743 0.242794 0.242794
0.699849 0.251300 0.251300
0.723954 0.259805 0.259805
0.748060 0.268310 0.268310
0.008176 0.022514 0.008176
0.022742 0.022597 0.008258
0.045483 0.030855 0.016517
0.068225 0.039114 0.024775
0.090966 0.047372 0.033034
0.113708 0.055630 0.041292
0.136450 0.063889 0.049550
0.159191 0.072147 0.057809
0.181933 0.080406 0.066067
0.204674 0.088664 0.074326
0.227416 0.096922 0.082584
0.250158 0.105181 0.090842
0.272899 0.113439 0.099101
0.295641 0.121698 0.107359
0.318382 0.129956 0.115618
0.341124 0.138214 0.123876
0.363866 0.146473 0.132134
0.389175 0.155664 0.141325
0.411550 0.163789 0.149450
0.434688 0.172082 0.157743
0.458794 0.180587 0.166248
0.482899 0.189092 0.174754
0.507005 0.197597 0.183259
0.531110 0.206102 0.191764
0.555216 0.214607 0.200269
0.579321 0.223112 0.208774
0.603427 0.231617 0.217279
0.627532 0.240123 0.225784
0.651638 0.248628 0.234289
0.675743 0.257133 0.242794
0.699849 0.265638 0.251300
0.723954 0.274143 0.259805
0.748060 0.282648 0.268310
0.016387 0.045126 0.016387
0.030870 0.045126 0.016387
0.045483 0.045256 0.016517
0.068225 0.053514 0.024775
0.090966 0.061772 0.033034
0.113708 0.070031 0.041292
0.136450 0.078289 0.049550
0.159191 0.086548 0.057809
0.181933 0.094806 0.066067
0.204674 0.103064 0.074326
0.227416 0.111323 0.082584
0.250158 0.119581 0.090842
0.272899 0.127840 0.099101
0.295641 0.136098 0.107359
0.318382 0.144356 0.115618
0.341124 0.152615 0.123876
0.363866 0.160873 0.132134
0.389175 0.170064 0.141325
0.411550 0.178189 0.149450
0.434688 0.186482 0.157743
0.458794 0.194987 0.166248
0.482899 0.203492 0.174754
0.507005 0.211997 0.183259
0.531110 0.220503 0.191764
0.555216 0.229008 0.200269
0.579321 0.237513 0.208774
0.603427 0.246018 0.217279
0.627532 0.254523 0.225784
0.651638 0.263028 0.234289
0.675743 0.271533 0.242794
0.699849 0.280038 0.251300
0.723954 0.288543 0.259805
0.748060 0.297049 0.268310
0.024611 0.067772 0.024611
0.039094 0.067772 0.024611
0.053577 0.067772 0.024611
0.068225 0.067937 0.024775
0.090966 0.076195 0.033034
0.113708 0.084454 0.041292
0.136450 0.092712 0.049550
0.159191 0.100970 0.057809
0.181933 0.109229 0.066067
0.204674 0.117487 0.074326
0.227416 0.125746 0.082584
0.250158 0.134004 0.090842
0.272899 0.142262 0.099101
0.295641 0.150521 0.107359
0.318382 0.158779 0.115618
0.341124 0.167038 0.123876
0.363866 0.175296 0.132134
0.389175 0.184487 0.141325
0.411550 0.192612 0.149450
0.434688 0.200905 0.157743
0.458794 0.209410 0.166248
0.482899 0.217915 0.174754
0.507005 0.226420 0.183259
0.531110 0.234925 0.191764
0.555216 0.243430 0.200269
0.579321 0.251935 0.208774
0.603427 0.260441 0.217279
0.627532 0.268946 0.225784
0.651638 0.277451 0.234289
0.675743 0.285956 0.242794
0.699849 0.294461 0.251300
0.723954 0.302966 0.259805
0.748060 0.311471 0.268310
0.032835 0.090419 0.032835
0.047318 0.090419 0.032835
0.061801 0.090419 0.032835
0.076284 0.090419 0.032835
0.090966 0.090618 0.033034
0.113708 0.098876 0.041292
0.136450 0.107135 0.049550
0.159191 0.115393 0.057809
0.181933 0.123651 0.066067
0.204674 0.131910 0.074326
0.227416 0.140168 0.082584
0.250158 0.148427 0.090842
0.272899 0.156685 0.099101
0.295641 0.164943 0.107359
0.318382 0.173202 0.115618
0.341124 0.181460 0.123876
0.363866 0.189719 0.132134
0.389175 0.198909 0.141325
0.411550 0.207035 0.149450
0.434688 0.215328 0.157743
0.458794 0.223833 0.166248
0.482899 0.232338 0.174754
0.507005 0.240843 0.183259
0.531110 0.249348 0.191764
0.555216 0.257853 0.200269
0.579321 0.266358 0.208774
0.603427 0.274863 0.217279
0.627532 0.283368 0.225784
0.651638 0.291873 0.234289
0.675743 0.300379 0.242794
0.699849 0.308884 0.251300
0.723954 0.317389 0.259805
0.748060 0.325894 0.268310
0.041059 0.113066 0.041059
0.055542 0.113066 0.041059
0.070025 0.113066 0.041059
0.084508 0.113066 0.041059
0.098992 0.113066 0.041059
0.113708 0.113299 0.041292
0.136450 0.121557 0.049550
0.159191 0.129816 0.057809
0.181933 0.138074 0.066067
0.204674 0.146332 0.074326
0.227416 0.154591 0.082584
0.250158 0.162849 0.090842
0.272899 0.171108 0.099101
0.295641 0.179366 0.107359
0.318382 0.187624 0.115618
0.341124 0.195883 0.123876
0.363866 0.204141 0.132134
0.389175 0.213332 0.141325
0.411550 0.221457 0.149450
0.434688 0.229750 0.157743
0.458794 0.238255 0.166248
0.482899 0.246760 0.174754
0.507005 0.255266 0.183259
0.531110 0.263771 0.191764
0.555216 0.272276 0.200269
0.579321 0.280781 0.208774
0.603427 0.289286 0.217279
0.627532 0.297791 0.225784
0.651638 0.306296 0.234289
0.675743 0.314801 0.242794
0.699849 0.323306 0.251300
0.723954 0.331811 0.259805
0.748060 0.340317 0.268310
0.049283 0.135712 0.049283
0.063766 0.135712 0.049283
0.078249 0.135712 0.049283
0.092732 0.135712 0.049283
0.107215 0.135712 0.049283
0.121699 0.135712 0.049283
0.136450 0.135980 0.049550
0.159191 0.144238 0.057809
0.181933 0.152497 0.066067
0.204674 0.160755 0.074326
0.227416 0.169014 0.082584
0.250158 0.177272 0.090842
0.272899 0.185530 0.099101
0.295641 0.193789 0.107359
0.318382 0.202047 0.115618
0.341124 0.210306 0.123876
0.363866 0.218564 0.132134
0.389175 0.227755 0.141325
0.411550 0.235880 0.149450
0.434688 0.244173 0.157743
0.458794 0.252678 0.166248
0.482899 0.261183 0.174754
0.507005 0.269688 0.183259
0.531110 0.278193 0.191764
0.555216 0.286698 0.200269
0.579321 0.295204 0.208774
0.603427 0.303709 0.217279
0.627532 0.312214 0.225784
0.651638 0.320719 0.234289
0.675743 0.329224 0.242794
0.699849 0.337729 0.251300
0.723954 0.346234 0.259805
0.748060 0.354739 0.268310
0.057506 0.158359 0.057506
0.071990 0.158359 0.057506
0.086473 0.158359 0.057506
0.100956 0.158359 0.057506
0.115439 0.158359 0.057506
0.129922 0.158359 0.057506
0.144406 0.158359 0.057506
0.159191 0.158661 0.057809
0.181933 0.166919 0.066067
0.204674 0.175178 0.074326
0.227416 0.183436 0.082584
0.250158 0.191695 0.090842
0.272899 0.199953 0.099101
0.295641 0.208211 0.107359
0.318382 0.216470 0.115618
0.341124 0.224728 0.123876
0.363866 0.232987 0.132134
0.389175 0.242177 0.141325
0.411550 0.250303 0.149450
0.434688 0.258596 0.157743
0.458794 0.267101 0.166248
0.482899 0.275606 0.174754
0.507005 0.284111 0.183259
0.531110 0.292616 0.191764
0.555216 0.301121 0.200269
0.579321 0.309626 0.208774
0.603427 0.318131 0.217279
0.627532 0.326636 0.225784
0.651638 0.335142 0.234289
0.675743 0.343647 0.242794
0.699849 0.352152 0.251300
0.723954 0.360657 0.259805
0.748060 0.369162 0.268310
0.065730 0.181005 0.065730
0.080214 0.181005 0.065730
0.094697 0.181005 0.065730
0.109180 0.181005 0.065730
0.123663 0.181005 0.065730
0.138146 0.181005 0.065730
0.152630 0.181005 0.065730
0.167113 0.181005 0.065730
0.181933 0.181342 0.066067
0.204674 0.189600 0.074326
0.227416 0.197859 0.082584
0.250158 0.206117 0.090842
0.272899 0.214376 0.099101
0.295641 0.222634 0.107359
0.318382 0.230892 0.115618
0.341124 0.239151 0.123876
0.363866 0.247409 0.132134
0.389175 0.256600 0.141325
0.411550 0.264725 0.149450
0.434688 0.273018 0.157743
0.458794 0.281523 0.166248
0.482899 0.290028 0.174754
0.507005 0.298534 0.183259
0.531110 0.307039 0.191764
0.555216 0.315544 0.200269
0.579321 0.324049 0.208774
0.603427 0.332554 0.217279
0.627532 0.341059 0.225784
0.651638 0.349564 0.234289
0.675743 0.358069 0.242794
0.699849 0.366574 0.251300
0.723954 0.375080 0.259805
0.748060 0.383585 0.268310
0.073954 0.203652 0.073954
0.088437 0.203652 0.073954
0.102921 0.203652 0.073954
0.117404 0.203652 0.073954
0.131887 0.203652 0.073954
0.146370 0.203652 0.073954
0.160853 0.203652 0.073954
0.175337 0.203652 0.073954
0.189820 0.203652 0.073954
0.204674 0.204023 0.074326
0.227416 0.212282 0.082584
0.250158 0.220540 0.090842
0.272899 0.228798 0.099101
0.295641 0.237057 0.107359
0.318382 0.245315 0.115618
0.341124 0.253574 0.123876
0.363866 0.261832 0.132134
0.389175 0.271023 0.141325
0.411550 0.279148 0.149450
0.434688 0.287441 0.157743
0.458794 0.295946 0.166248
0.482899 0.304451 0.174754
0.507005 0.312956 0.183259
0.531110 0.321461 0.191764
0.555216 0.329966 0.200269
0.579321 0.338472 0.208774
0.603427 0.346977 0.217279
0.627532 0.355482 0.225784
0.651638 0.363987 0.234289
0.675743 0.372492 0.242794
0.699849 0.380997 0.251300
0.723954 0.389502 0.259805
0.748060 0.398007 0.268310
0.082178 0.226298 0.082178
0.096661 0.226298 0.082178
0.111145 0.226298 0.082178
0.125628 0.226298 0.082178
0.140111 0.226298 0.082178
0.154594 0.226298 0.082178
0.169077 0.226298 0.082178
0.183561 0.226298 0.082178
0.198044 0.226298 0.082178
0.212527 0.226298 0.082178
0.227416 0.226704 0.082584
0.250158 0.234963 0.090842
0.272899 0.243221 0.099101
0.295641 0.251479 0.107359
0.318382 0.259738 0.115618
0.341124 0.267996 0.123876
0.363866 0.276255 0.132134
0.389175 0.285445 0.141325
0.411550 0.293571 0.149450
0.434688 0.301864 0.157743
0.458794 0.310369 0.166248
0.482899 0.318874 0.174754
0.507005 0.327379 0.183259
0.531110 0.335884 0.191764
0.555216 0.344389 0.200269
0.579321 0.352894 0.208774
0.603427 0.361399 0.217279
0.627532 0.369904 0.225784
0.651638 0.378410 0.234289
0.675743 0.386915 0.242794
0.699849 0.395420 0.251300
0.723954 0.403925 0.259805
0.748060 0.412430 0.268310
0.090402 0.248945 0.090402
0.104885 0.248945 0.090402
0.119368 0.248945 0.090402
0.133852 0.248945 0.090402
0.148335 0.248945 0.090402
0.162818 0.248945 0.090402
0.177301 0.248945 0.090402
0.191784 0.248945 0.090402
0.206268 0.248945 0.090402
0.220751 0.248945 0.090402
0.235234 0.248945 0.090402
0.250158 0.249385 0.090842
0.272899 0.257644 0.099101
0.295641 0.265902 0.107359
0.318382 0.274161 0.115618
0.341124 0.282419 0.123876
0.363866 0.290677 0.132134
0.389175 0.299868 0.141325
0.411550 0.307993 0.149450
0.434688 0.316286 0.157743
0.458794 0.324791 0.166248
0.482899 0.333296 0.174754
0.507005 0.341802 0.183259
0.531110 0.350307 0.191764
0.555216 0.358812 0.200269
0.579321 0.367317 0.208774
0.603427 0.375822 0.217279
0.627532 0.384327 0.225784
0.651638 0.392832 0.234289
0.675743 0.401337 0.242794
0.699849 0.409842 0.251300
0.723954 0.418348 0.259805
0.748060 0.426853 0.268310
0.098626 0.271592 0.098626
0.113109 0.271592 0.098626
0.127592 0.271592 0.098626
0.142076 0.271592 0.098626
0.156559 0.271592 0.098626
0.171042 0.271592 0.098626
0.185525 0.271592 0.098626
0.200008 0.271592 0.098626
0.214492 0.271592 0.098626
0.228975 0.271592 0.098626
0.243458 0.271592 0.098626
0.257941 0.271592 0.098626
0.272899 0.272066 0.099101
0.295641 0.280325 0.107359
0.318382 0.288583 0.115618
0.341124 0.296842 0.123876
0.363866 0.305100 0.132134
0.389175 0.314291 0.141325
0.411550 0.322416 0.149450
0.434688 0.330709 0.157743
0.458794 0.339214 0.166248
0.482899 0.347719 0.174754
0.507005 0.356224 0.183259
0.531110 0.364729 0.191764
0.555216 0.373234 0.200269
0.579321 0.381740 0.208774
0.603427 0.390245 0.217279
0.627532 0.398750 0.225784
0.651638 0.407255 0.234289
0.675743 0.415760 0.242794
0.699849 0.424265 0.251300
0.723954 0.432770 0.259805
0.748060 0.441275 0.268310
0.106850 0.294238 0.106850
0.121333 0.294238 0.106850
0.135816 0.294238 0.106850
0.150299 0.294238 0.106850
0.164783 0.294238 0.106850
0.179266 0.294238 0.106850
0.193749 0.294238 0.106850
0.208232 0.294238 0.106850
0.222715 0.294238 0.106850
0.237199 0.294238 0.106850
0.251682 0.294238 0.106850
0.266165 0.294238 0.106850
0.280648 0.294238 0.106850
0.295641 0.294747 0.107359
0.318382 0.303006 0.115618
0.341124 0.311264 0.123876
0.363866 0.319523 0.132134
0.389175 0.328713 0.141325
0.411550 0.336839 0.149450
0.434688 0.345132 0.157743
0.458794 0.353637 0.166248
0.482899 0.362142 0.174754
0.507005 0.370647 0.183259
0.531110 0.379152 0.191764
0.555216 0.387657 0.200269
0.579321 0.396162 0.208774
0.603427 0.404667 0.217279
0.627532 0.413172 0.225784
0.651638 0.421678 0.234289
0.675743 0.430183 0.242794
0.699849 0.438688 0.251300
0.723954 0.447193 0.259805
0.748060 0.455698 0.268310
0.115074 0.316885 0.115074
0.129557 0.316885 0.115074
0.144040 0.316885 0.115074
0.158523 0.316885 0.115074
0.173007 0.316885 0.115074
0.187490 0.316885 0.115074
0.201973 0.316885 0.115074
0.216456 0.316885 0.115074
0.230939 0.316885 0.115074
0.245423 0.316885 0.115074
0.259906 0.316885 0.115074
0.274389 0.316885 0.115074
0.288872 0.316885 0.115074
0.303355 0.316885 0.115074
0.318382 0.317429 0.115618
0.341124 0.325687 0.123876
0.363866 0.333945 0.132134
0.389175 0.343136 0.141325
0.411550 0.351261 0.149450
0.434688 0.359554 0.157743
0.458794 0.368059 0.166248
0.482899 0.376564 0.174754
0.507005 0.385070 0.183259
0.531110 0.393575 0.191764
0.555216 0.402080 0.200269
0.579321 0.410585 0.208774
0.603427 0.419090 0.217279
0.627532 0.427595 0.225784
0.651638 0.436100 0.234289
0.675743 0.444605 0.242794
0.699849 0.453110 0.251300
0.723954 0.461616 0.259805
0.748060 0.470121 0.268310
0.123298 0.339531 0.123298
0.137781 0.339531 0.123298
0.152264 0.339531 0.123298
0.166747 0.339531 0.123298
0.181230 0.339531 0.123298
0.195714 0.339531 0.123298
0.210197 0.339531 0.123298
0.224680 0.339531 0.123298
0.239163 0.339531 0.123298
0.253646 0.339531 0.123298
0.268130 0.339531 0.123298
0.282613 0.339531 0.123298
0.297096 0.339531 0.123298
0.311579 0.339531 0.123298
0.326062 0.339531 0.123298
0.341124 0.340110 0.123876
0.363866 0.348368 0.132134
0.389175 0.357559 0.141325
0.411550 0.365684 0.149450
0.434688 0.373977 0.157743
0.458794 0.382482 0.166248
0.482899 0.390987 0.174754
0.507005 0.399492 0.183259
0.531110 0.407997 0.191764
0.555216 0.416502 0.200269
0.579321 0.425008 0.208774
0.603427 0.433513 0.217279
0.627532 0.442018 0.225784
0.651638 0.450523 0.234289
0.675743 0.459028 0.242794
0.699849 0.467533 0.251300
0.723954 0.476038 0.259805
0.748060 0.484543 0.268310
0.131521 0.362178 0.131521
0.146005 0.362178 0.131521
0.160488 0.362178 0.131521
0.174971 0.362178 0.131521
0.189454 0.362178 0.131521
0.203937 0.362178 0.131521
0.218421 0.362178 0.131521
0.232904 0.362178 0.131521
0.247387 0.362178 0.131521
0.261870 0.362178 0.131521
0.276353 0.362178 0.131521
0.290837 0.362178 0.131521
0.305320 0.362178 0.131521
0.319803 0.362178 0.131521
0.334286 0.362178 0.131521
0.348769 0.362178 0.131521
0.363866 0.362791 0.132134
0.389175 0.371982 0.141325
0.411550 0.380107 0.149450
0.434688 0.388400 0.157743
0.458794 0.396905 0.166248
0.482899 0.405410 0.174754
0.507005 0.413915 0.183259
0.531110 0.422420 0.191764
0.555216 0.430925 0.200269
0.579321 0.439430 0.208774
0.603427 0.447935 0.217279
0.627532 0.456440 0.225784
0.651638 0.464946 0.234289
0.675743 0.473451 0.242794
0.699849 0.481956 0.251300
0.723954 0.490461 0.259805
0.748060 0.498966 0.268310
0.140688 0.387421 0.140688
0.155171 0.387421 0.140688
0.169655 0.387421 0.140688
0.184138 0.387421 0.140688
0.198621 0.387421 0.140688
0.213104 0.387421 0.140688
0.227587 0.387421 0.140688
0.242071 0.387421 0.140688
0.256554 0.387421 0.140688
0.271037 0.387421 0.140688
0.285520 0.387421 0.140688
0.300003 0.387421 0.140688
0.314487 0.387421 0.140688
0.328970 0.387421 0.140688
0.343453 0.387421 0.140688
0.357936 0.387421 0.140688
0.372419 0.387421 0.140688
0.389175 0.388058 0.141325
0.411550 0.396183 0.149450
0.434688 0.404476 0.157743
0.458794 0.412981 0.166248
0.482899 0.421486 0.174754
0.507005 0.429991 0.183259
0.531110 0.438496 0.191764
0.555216 0.447001 0.200269
0.579321 0.455506 0.208774
0.603427 0.464012 0.217279
0.627532 0.472517 0.225784
0.651638 0.481146 0.234289
0.675743 0.489862 0.242794
0.699849 0.498578 0.251300
0.723954 0.507294 0.259805
0.748060 0.516010 0.268310
0.148779 0.409702 0.148779
0.163263 0.409702 0.148779
0.177746 0.409702 0.148779
0.192229 0.409702 0.148779
0.206712 0.409702 0.148779
0.221195 0.409702 0.148779
0.235679 0.409702 0.148779
0.250162 0.409702 0.148779
0.264645 0.409702 0.148779
0.279128 0.409702 0.148779
0.293611 0.409702 0.148779
0.308095 0.409702 0.148779
0.322578 0.409702 0.148779
0.337061 0.409702 0.148779
0.351544 0.409702 0.148779
0.366027 0.409702 0.148779
0.380511 0.409702 0.148779
0.396629 0.409702 0.148779
0.411550 0.410373 0.149450
0.434688 0.418666 0.157743
0.458794 0.427171 0.166248
0.482899 0.435676 0.174754
0.507005 0.444181 0.183259
0.531110 0.452892 0.191764
0.555216 0.461608 0.200269
0.579321 0.470324 0.208774
0.603427 0.479040 0.217279
0.627532 0.487756 0.225784
0.651638 0.496471 0.234289
0.675743 0.505187 0.242794
0.699849 0.513903 0.251300
0.723954 0.522619 0.259805
0.748060 0.531335 0.268310
0.157005 0.432597 0.157005
0.171489 0.432597 0.157005
0.185972 0.432597 0.157005
0.200455 0.432597 0.157005
0.214938 0.432597 0.157005
0.229421 0.432597 0.157005
0.243905 0.432597 0.157005
0.258388 0.432597 0.157005
0.272871 0.432597 0.157005
0.287354 0.432597 0.157005
0.301837 0.432597 0.157005
0.316321 0.432597 0.157005
0.330804 0.432597 0.157005
0.345287 0.432597 0.157005
0.359770 0.432597 0.157005
0.374253 0.432597 0.157005
0.388737 0.432597 0.157005
0.404855 0.432597 0.157005
0.419105 0.432597 0.157005
0.434688 0.433353 0.157743
0.458794 0.442069 0.166248
0.482899 0.450785 0.174754
0.507005 0.459501 0.183259
0.531110 0.468217 0.191764
0.555216 0.476933 0.200269
0.579321 0.485649 0.208774
0.603427 0.494365 0.217279
0.627532 0.503081 0.225784
0.651638 0.511797 0.234289
0.675743 0.520513 0.242794
0.699849 0.529229 0.251300
0.723954 0.537944 0.259805
0.748060 0.546660 0.268310
0.165475 0.456602 0.165475
0.179958 0.456602 0.165475
0.194441 0.456602 0.165475
0.208925 0.456602 0.165475
0.223408 0.456602 0.165475
0.237891 0.456602 0.165475
0.252374 0.456602 0.165475
0.266857 0.456602 0.165475
0.281341 0.456602 0.165475
0.295824 0.456602 0.165475
0.310307 0.456602 0.165475
0.324790 0.456602 0.165475
0.339273 0.456602 0.165475
0.353757 0.456602 0.165475
0.368240 0.456602 0.165475
0.382723 0.456602 0.165475
0.397206 0.456602 0.165475
0.413325 0.456602 0.165475
0.427574 0.456602 0.165475
0.442612 0.456602 0.165475
0.458794 0.457395 0.166248
0.482899 0.466110 0.174754
0.507005 0.474826 0.183259
0.531110 0.483542 0.191764
0.555216 0.492258 0.200269
0.579321 0.500974 0.208774
0.603427 0.509690 0.217279
0.627532 0.518406 0.225784
0.651638 0.527122 0.234289
0.675743 0.535838 0.242794
0.699849 0.544554 0.251300
0.723954 0.553270 0.259805
0.748060 0.561986 0.268310
0.173945 0.480607 0.173945
0.188428 0.480607 0.173945
0.202911 0.480607 0.173945
0.217394 0.480607 0.173945
0.231877 0.480607 0.173945
0.246361 0.480607 0.173945
0.260844 0.480607 0.173945
0.275327 0.480607 0.173945
0.289810 0.480607 0.173945
0.304293 0.480607 0.173945
0.318777 0.480607 0.173945
0.333260 0.480607 0.173945
0.347743 0.480607 0.173945
0.362226 0.480607 0.173945
0.376709 0.480607 0.173945
0.391193 0.480607 0.173945
0.405676 0.480607 0.173945
0.421794 0.480607 0.173945
0.436044 0.480607 0.173945
0.451291 0.480607 0.173945
0.466681 0.480607 0.173945
0.482899 0.481436 0.174754
0.507005 0.490152 0.183259
0.531110 0.498868 0.191764
0.555216 0.507584 0.200269
0.579321 0.516299 0.208774
0.603427 0.525015 0.217279
0.627532 0.533731 0.225784
0.651638 0.542447 0.234289
0.675743 0.551163 0.242794
0.699849 0.559879 0.251300
0.723954 0.568595 0.259805
0.748060 0.577311 0.268310
0.182414 0.504612 0.182414
0.196897 0.504612 0.182414
0.211381 0.504612 0.182414
0.225864 0.504612 0.182414
0.240347 0.504612 0.182414
0.254830 0.504612 0.182414
0.269313 0.504612 0.182414
0.283797 0.504612 0.182414
0.298280 0.504612 0.182414
0.312763 0.504612 0.182414
0.327246 0.504612 0.182414
0.341729 0.504612 0.182414
0.356213 0.504612 0.182414
0.370696 0.504612 0.182414
0.385179 0.504612 0.182414
0.399662 0.504612 0.182414
0.414145 0.504612 0.182414
0.430264 0.504612 0.182414
0.444581 0.504612 0.182414
0.459971 0.504612 0.182414
0.475360 0.504612 0.182414
0.490750 0.504612 0.182414
0.507005 0.505477 0.183259
0.531110 0.514193 0.191764
0.555216 0.522909 0.200269
0.579321 0.531625 0.208774
0.603427 0.540341 0.217279
0.627532 0.549057 0.225784
0.651638 0.557772 0.234289
0.675743 0.566488 0.242794
0.699849 0.575204 0.251300
0.723954 0.583920 0.259805
0.748060 0.592636 0.268310
0.190884 0.528616 0.190884
0.205367 0.528616 0.190884
0.219850 0.528616 0.190884
0.234333 0.528616 0.190884
0.248817 0.528616 0.190884
0.263300 0.528616 0.190884
0.277783 0.528616 0.190884
0.292266 0.528616 0.190884
0.306749 0.528616 0.190884
0.321233 0.528616 0.190884
0.335716 0.528616 0.190884
0.350199 0.528616 0.190884
0.364682 0.528616 0.190884
0.379165 0.528616 0.190884
0.393649 0.528616 0.190884
0.408132 0.528616 0.190884
0.422615 0.528616 0.190884
0.438733 0.528616 0.190884
0.453261 0.528616 0.190884
0.468650 0.528616 0.190884
0.484040 0.528616 0.190884
0.499429 0.528616 0.190884
0.514819 0.528616 0.190884
0.531110 0.529518 0.191764
0.555216 0.538234 0.200269
0.579321 0.546950 0.208774
0.603427 0.555666 0.217279
0.627532 0.564382 0.225784
0.651638 0.573098 0.234289
0.675743 0.581814 0.242794
0.699849 0.590530 0.251300
0.723954 0.599245 0.259805
0.748060 0.607961 0.268310
0.199353 0.552621 0.199353
0.213837 0.552621 0.199353
0.228320 0.552621 0.199353
0.242803 0.552621 0.199353
0.257286 0.552621 0.199353
0.271769 0.552621 0.199353
0.286253 0.552621 0.199353
0.300736 0.552621 0.199353
0.315219 0.552621 0.199353
0.329702 0.552621 0.199353
0.344185 0.552621 0.199353
0.358669 0.552621 0.199353
0.373152 0.552621 0.199353
0.387635 0.552621 0.199353
0.402118 0.552621 0.199353
0.416601 0.552621 0.199353
0.431085 0.552621 0.199353
0.447203 0.552621 0.199353
0.461940 0.552621 0.199353
0.477330 0.552621 0.199353
0.492719 0.552621 0.199353
0.508109 0.552621 0.199353
0.523499 0.552621 0.199353
0.538888 0.552621 0.199353
0.555216 0.553559 0.200269
0.579321 0.562275 0.208774
0.603427 0.570991 0.217279
0.627532 0.579707 0.225784
0.651638 0.588423 0.234289
0.675743 0.597139 0.242794
0.699849 0.605855 0.251300
0.723954 0.614571 0.259805
0.748060 0.623287 0.268310
0.207823 0.576626 0.207823
0.222306 0.576626 0.207823
0.236789 0.576626 0.207823
0.251272 0.576626 0.207823
0.265756 0.576626 0.207823
0.280239 0.576626 0.207823
0.294722 0.576626 0.207823
0.309205 0.576626 0.207823
0.323688 0.576626 0.207823
0.338172 0.576626 0.207823
0.352655 0.576626 0.207823
0.367138 0.576626 0.207823
0.381621 0.576626 0.207823
0.396104 0.576626 0.207823
0.410588 0.576626 0.207823
0.425071 0.576626 0.207823
0.439554 0.576626 0.207823
0.455672 0.576626 0.207823
0.470620 0.576626 0.207823
0.486009 0.576626 0.207823
0.501399 0.576626 0.207823
0.516788 0.576626 0.207823
0.532178 0.576626 0.207823
0.547568 0.576626 0.207823
0.562957 0.576626 0.207823
0.579321 0.577600 0.208774
0.603427 0.586316 0.217279
0.627532 0.595032 0.225784
0.651638 0.603748 0.234289
0.675743 0.612464 0.242794
0.699849 0.621180 0.251300
0.723954 0.629896 0.259805
0.748060 0.638612 0.268310
0.216292 0.600631 0.216292
0.230776 0.600631 0.216292
0.245259 0.600631 0.216292
0.259742 0.600631 0.216292
0.274225 0.600631 0.216292
0.288708 0.600631 0.216292
0.303192 0.600631 0.216292
0.317675 0.600631 0.216292
0.332158 0.600631 0.216292
0.346641 0.600631 0.216292
0.361124 0.600631 0.216292
0.375608 0.600631 0.216292
0.390091 0.600631 0.216292
0.404574 0.600631 0.216292
0.419057 0.600631 0.216292
0.433540 0.600631 0.216292
0.448024 0.600631 0.216292
0.464142 0.600631 0.216292
0.479299 0.600631 0.216292
0.494689 0.600631 0.216292
0.510078 0.600631 0.216292
0.525468 0.600631 0.216292
0.540858 0.600631 0.216292
0.556247 0.600631 0.216292
