docs/luts/fuji_recipes/Classic_RR_Kodachrome_Vintage.cube
TITLE "Fujifilm Recipe: RR Kodachrome Vintage (Classic)"
# FilmSim=Classic HL=4 SH=-2 Col=4 WB=Auto WBR=2 WBB=-4
LUT_3D_SIZE 33
DOMAIN_MIN 0.0 0.0 0.0
DOMAIN_MAX 1.0 1.0 1.0
0.080000 0.080000 0.080000
0.106868 0.076955 0.076955
0.136002 0.073654 0.073654
0.166705 0.070175 0.070175
0.197408 0.066696 0.066696
0.228111 0.063216 0.063216
0.258814 0.059737 0.059737
0.289517 0.056258 0.056258
0.320220 0.052779 0.052779
0.350922 0.049300 0.049300
0.381625 0.045820 0.045820
0.412328 0.042341 0.042341
0.443031 0.038862 0.038862
0.473734 0.035383 0.035383
0.504437 0.031904 0.031904
0.535140 0.028424 0.028424
0.565843 0.024945 0.024945
0.600665 0.020999 0.020999
0.630873 0.017576 0.017576
0.661081 0.014153 0.014153
0.640027 0.024299 0.024299
0.678454 0.018700 0.018700
0.716882 0.013102 0.013102
0.755309 0.007503 0.007503
0.793737 0.001904 0.001904
0.828469 0.000000 0.000000
0.861298 0.000000 0.000000
0.894126 0.000000 0.000000
0.926955 0.000000 0.000000
0.959783 0.000000 0.000000
0.992612 0.000000 0.000000
1.000000 0.025441 0.025441
1.000000 0.058269 0.058269
0.077129 0.105332 0.077129
0.106868 0.105158 0.076955
0.136002 0.101857 0.073654
0.166705 0.098378 0.070175
0.197408 0.094899 0.066696
0.228111 0.091419 0.063216
0.258814 0.087940 0.059737
0.289517 0.084461 0.056258
0.320220 0.080982 0.052779
0.350922 0.077503 0.049300
0.381625 0.074023 0.045820
0.412328 0.070544 0.042341
0.443031 0.067065 0.038862
0.473734 0.063586 0.035383
0.504437 0.060107 0.031904
0.535140 0.056628 0.028424
0.565843 0.053148 0.024945
0.600665 0.049202 0.020999
0.630873 0.045779 0.017576
0.661081 0.042356 0.014153
0.640027 0.052502 0.024299
0.678454 0.046903 0.018700
0.716882 0.041305 0.013102
0.755309 0.035706 0.007503
0.793737 0.030107 0.001904
0.828469 0.027954 0.000000
0.861298 0.027607 0.000000
0.894126 0.027294 0.000000
0.926955 0.027009 0.000000
0.959783 0.026749 0.000000
0.992612 0.026510 0.000000
1.000000 0.050427 0.025441
1.000000 0.081485 0.058269
0.074008 0.132876 0.074008
0.103921 0.132876 0.074008
0.136002 0.132522 0.073654
0.166705 0.129043 0.070175
0.197408 0.125563 0.066696
0.228111 0.122084 0.063216
0.258814 0.118605 0.059737
0.289517 0.115126 0.056258
0.320220 0.111647 0.052779
0.350922 0.108167 0.049300
0.381625 0.104688 0.045820
0.412328 0.101209 0.042341
0.443031 0.097730 0.038862
0.473734 0.094251 0.035383
0.504437 0.090771 0.031904
0.535140 0.087292 0.028424
0.565843 0.083813 0.024945
0.600665 0.079867 0.020999
0.630873 0.076444 0.017576
0.661081 0.073021 0.014153
0.640027 0.083167 0.024299
0.678454 0.077568 0.018700
0.716882 0.071969 0.013102
0.755309 0.066370 0.007503
0.793737 0.060771 0.001904
0.828469 0.058347 0.000000
0.861298 0.057624 0.000000
0.894126 0.056970 0.000000
0.926955 0.056375 0.000000
0.959783 0.055832 0.000000
0.992612 0.055335 0.000000
1.000000 0.077594 0.025441
1.000000 0.106727 0.058269
0.070709 0.161995 0.070709
0.100621 0.161995 0.070709
0.133057 0.161995 0.070709
0.166705 0.161461 0.070175
0.197408 0.157982 0.066696
0.228111 0.154502 0.063216
0.258814 0.151023 0.059737
0.289517 0.147544 0.056258
0.320220 0.144065 0.052779
0.350922 0.140586 0.049300
0.381625 0.137107 0.045820
0.412328 0.133627 0.042341
0.443031 0.130148 0.038862
0.473734 0.126669 0.035383
0.504437 0.123190 0.031904
0.535140 0.119711 0.028424
0.565843 0.116231 0.024945
0.600665 0.112285 0.020999
0.630873 0.108862 0.017576
0.661081 0.105439 0.014153
0.640027 0.115585 0.024299
0.678454 0.109987 0.018700
0.716882 0.104388 0.013102
0.755309 0.098789 0.007503
0.793737 0.093190 0.001904
0.828469 0.090479 0.000000
0.861298 0.089358 0.000000
0.894126 0.088343 0.000000
0.926955 0.087421 0.000000
0.959783 0.086579 0.000000
0.992612 0.085807 0.000000
1.000000 0.106315 0.025441
1.000000 0.133412 0.058269
0.067409 0.191113 0.067409
0.097321 0.191113 0.067409
0.129757 0.191113 0.067409
0.163939 0.191113 0.067409
0.197408 0.190400 0.066696
0.228111 0.186921 0.063216
0.258814 0.183442 0.059737
0.289517 0.179962 0.056258
0.320220 0.176483 0.052779
0.350922 0.173004 0.049300
0.381625 0.169525 0.045820
0.412328 0.166046 0.042341
0.443031 0.162566 0.038862
0.473734 0.159087 0.035383
0.504437 0.155608 0.031904
0.535140 0.152129 0.028424
0.565843 0.148650 0.024945
0.600665 0.144704 0.020999
0.630873 0.141281 0.017576
0.661081 0.137858 0.014153
0.640027 0.148004 0.024299
0.678454 0.142405 0.018700
0.716882 0.136806 0.013102
0.755309 0.131207 0.007503
0.793737 0.125608 0.001904
0.828469 0.122611 0.000000
0.861298 0.121091 0.000000
0.894126 0.119716 0.000000
0.926955 0.118467 0.000000
0.959783 0.117326 0.000000
0.992612 0.116280 0.000000
1.000000 0.135036 0.025441
1.000000 0.160098 0.058269
0.064109 0.220232 0.064109
0.094022 0.220232 0.064109
0.126457 0.220232 0.064109
0.160640 0.220232 0.064109
0.194822 0.220232 0.064109
0.228111 0.219339 0.063216
0.258814 0.215860 0.059737
0.289517 0.212381 0.056258
0.320220 0.208902 0.052779
0.350922 0.205422 0.049300
0.381625 0.201943 0.045820
0.412328 0.198464 0.042341
0.443031 0.194985 0.038862
0.473734 0.191506 0.035383
0.504437 0.188026 0.031904
0.535140 0.184547 0.028424
0.565843 0.181068 0.024945
0.600665 0.177122 0.020999
0.630873 0.173699 0.017576
0.661081 0.170276 0.014153
0.640027 0.180422 0.024299
0.678454 0.174823 0.018700
0.716882 0.169224 0.013102
0.755309 0.163625 0.007503
0.793737 0.158026 0.001904
0.828469 0.154742 0.000000
0.861298 0.152825 0.000000
0.894126 0.151089 0.000000
0.926955 0.149512 0.000000
0.959783 0.148072 0.000000
0.992612 0.146752 0.000000
1.000000 0.163757 0.025441
1.000000 0.186783 0.058269
0.060810 0.249351 0.060810
0.090722 0.249351 0.060810
0.123158 0.249351 0.060810
0.157340 0.249351 0.060810
0.191522 0.249351 0.060810
0.225704 0.249351 0.060810
0.258814 0.248278 0.059737
0.289517 0.244799 0.056258
0.320220 0.241320 0.052779
0.350922 0.237841 0.049300
0.381625 0.234362 0.045820
0.412328 0.230882 0.042341
0.443031 0.227403 0.038862
0.473734 0.223924 0.035383
0.504437 0.220445 0.031904
0.535140 0.216966 0.028424
0.565843 0.213486 0.024945
0.600665 0.209540 0.020999
0.630873 0.206117 0.017576
0.661081 0.202694 0.014153
0.640027 0.212840 0.024299
0.678454 0.207242 0.018700
0.716882 0.201643 0.013102
0.755309 0.196044 0.007503
0.793737 0.190445 0.001904
0.828469 0.186874 0.000000
0.861298 0.184558 0.000000
0.894126 0.182463 0.000000
0.926955 0.180558 0.000000
0.959783 0.178819 0.000000
0.992612 0.177225 0.000000
1.000000 0.192478 0.025441
1.000000 0.213469 0.058269
0.057510 0.278469 0.057510
0.087422 0.278469 0.057510
0.119858 0.278469 0.057510
0.154040 0.278469 0.057510
0.188222 0.278469 0.057510
0.222404 0.278469 0.057510
0.256586 0.278469 0.057510
0.289517 0.277217 0.056258
0.320220 0.273738 0.052779
0.350922 0.270259 0.049300
0.381625 0.266780 0.045820
0.412328 0.263301 0.042341
0.443031 0.259821 0.038862
0.473734 0.256342 0.035383
0.504437 0.252863 0.031904
0.535140 0.249384 0.028424
0.565843 0.245905 0.024945
0.600665 0.241959 0.020999
0.630873 0.238536 0.017576
0.661081 0.235113 0.014153
0.640027 0.245259 0.024299
0.678454 0.239660 0.018700
0.716882 0.234061 0.013102
0.755309 0.228462 0.007503
0.793737 0.222863 0.001904
0.828469 0.219006 0.000000
0.861298 0.216291 0.000000
0.894126 0.213836 0.000000
0.926955 0.211604 0.000000
0.959783 0.209566 0.000000
0.992612 0.207698 0.000000
1.000000 0.221199 0.025441
1.000000 0.240154 0.058269
0.054210 0.307588 0.054210
0.084123 0.307588 0.054210
0.116558 0.307588 0.054210
0.150741 0.307588 0.054210
0.184923 0.307588 0.054210
0.219105 0.307588 0.054210
0.253287 0.307588 0.054210
0.287469 0.307588 0.054210
0.320220 0.306157 0.052779
0.350922 0.302677 0.049300
0.381625 0.299198 0.045820
0.412328 0.295719 0.042341
0.443031 0.292240 0.038862
0.473734 0.288761 0.035383
0.504437 0.285281 0.031904
0.535140 0.281802 0.028424
0.565843 0.278323 0.024945
0.600665 0.274377 0.020999
0.630873 0.270954 0.017576
0.661081 0.267531 0.014153
0.640027 0.277677 0.024299
0.678454 0.272078 0.018700
0.716882 0.266479 0.013102
0.755309 0.260880 0.007503
0.793737 0.255281 0.001904
0.828469 0.251137 0.000000
0.861298 0.248025 0.000000
0.894126 0.245209 0.000000
0.926955 0.242649 0.000000
0.959783 0.240312 0.000000
0.992612 0.238170 0.000000
1.000000 0.249920 0.025441
1.000000 0.266839 0.058269
0.050911 0.336707 0.050911
0.080823 0.336707 0.050911
0.113259 0.336707 0.050911
0.147441 0.336707 0.050911
0.181623 0.336707 0.050911
0.215805 0.336707 0.050911
0.249987 0.336707 0.050911
0.284169 0.336707 0.050911
0.318351 0.336707 0.050911
0.350922 0.335096 0.049300
0.381625 0.331616 0.045820
0.412328 0.328137 0.042341
0.443031 0.324658 0.038862
0.473734 0.321179 0.035383
0.504437 0.317700 0.031904
0.535140 0.314221 0.028424
0.565843 0.310741 0.024945
0.600665 0.306795 0.020999
0.630873 0.303372 0.017576
0.661081 0.299949 0.014153
0.640027 0.310095 0.024299
0.678454 0.304496 0.018700
0.716882 0.298898 0.013102
0.755309 0.293299 0.007503
0.793737 0.287700 0.001904
0.828469 0.283269 0.000000
0.861298 0.279758 0.000000
0.894126 0.276582 0.000000
0.926955 0.273695 0.000000
0.959783 0.271059 0.000000
0.992612 0.268643 0.000000
1.000000 0.278641 0.025441
1.000000 0.293525 0.058269
0.047611 0.365825 0.047611
0.077523 0.365825 0.047611
0.109959 0.365825 0.047611
0.144141 0.365825 0.047611
0.178323 0.365825 0.047611
0.212505 0.365825 0.047611
0.246687 0.365825 0.047611
0.280870 0.365825 0.047611
0.315052 0.365825 0.047611
0.349234 0.365825 0.047611
0.381625 0.364035 0.045820
0.412328 0.360556 0.042341
0.443031 0.357076 0.038862
0.473734 0.353597 0.035383
0.504437 0.350118 0.031904
0.535140 0.346639 0.028424
0.565843 0.343160 0.024945
0.600665 0.339214 0.020999
0.630873 0.335791 0.017576
0.661081 0.332368 0.014153
0.640027 0.342514 0.024299
0.678454 0.336915 0.018700
0.716882 0.331316 0.013102
0.755309 0.325717 0.007503
0.793737 0.320118 0.001904
0.828469 0.315401 0.000000
0.861298 0.311492 0.000000
0.894126 0.307955 0.000000
0.926955 0.304741 0.000000
0.959783 0.301806 0.000000
0.992612 0.299115 0.000000
1.000000 0.307362 0.025441
1.000000 0.320210 0.058269
0.044311 0.394944 0.044311
0.074224 0.394944 0.044311
0.106659 0.394944 0.044311
0.140842 0.394944 0.044311
0.175024 0.394944 0.044311
0.209206 0.394944 0.044311
0.243388 0.394944 0.044311
0.277570 0.394944 0.044311
0.311752 0.394944 0.044311
0.345934 0.394944 0.044311
0.380116 0.394944 0.044311
0.412328 0.392974 0.042341
0.443031 0.389495 0.038862
0.473734 0.386016 0.035383
0.504437 0.382536 0.031904
0.535140 0.379057 0.028424
0.565843 0.375578 0.024945
0.600665 0.371632 0.020999
0.630873 0.368209 0.017576
0.661081 0.364786 0.014153
0.640027 0.374932 0.024299
0.678454 0.369333 0.018700
0.716882 0.363734 0.013102
0.755309 0.358135 0.007503
0.793737 0.352536 0.001904
0.828469 0.347532 0.000000
0.861298 0.343225 0.000000
0.894126 0.339329 0.000000
0.926955 0.335786 0.000000
0.959783 0.332552 0.000000
0.992612 0.329588 0.000000
1.000000 0.336083 0.025441
1.000000 0.346896 0.058269
0.041012 0.424063 0.041012
0.070924 0.424063 0.041012
0.103360 0.424063 0.041012
0.137542 0.424063 0.041012
0.171724 0.424063 0.041012
0.205906 0.424063 0.041012
0.240088 0.424063 0.041012
0.274270 0.424063 0.041012
0.308452 0.424063 0.041012
0.342634 0.424063 0.041012
0.376816 0.424063 0.041012
0.410999 0.424063 0.041012
0.443031 0.421913 0.038862
0.473734 0.418434 0.035383
0.504437 0.414955 0.031904
0.535140 0.411476 0.028424
0.565843 0.407996 0.024945
0.600665 0.404050 0.020999
0.630873 0.400627 0.017576
0.661081 0.397204 0.014153
0.640027 0.407350 0.024299
0.678454 0.401751 0.018700
0.716882 0.396153 0.013102
0.755309 0.390554 0.007503
0.793737 0.384955 0.001904
0.828469 0.379664 0.000000
0.861298 0.374959 0.000000
0.894126 0.370702 0.000000
0.926955 0.366832 0.000000
0.959783 0.363299 0.000000
0.992612 0.360061 0.000000
1.000000 0.364804 0.025441
1.000000 0.373581 0.058269
0.037712 0.453181 0.037712
0.067624 0.453181 0.037712
0.100060 0.453181 0.037712
0.134242 0.453181 0.037712
0.168424 0.453181 0.037712
0.202606 0.453181 0.037712
0.236788 0.453181 0.037712
0.270971 0.453181 0.037712
0.305153 0.453181 0.037712
0.339335 0.453181 0.037712
0.373517 0.453181 0.037712
0.407699 0.453181 0.037712
0.441881 0.453181 0.037712
0.473734 0.450852 0.035383
0.504437 0.447373 0.031904
0.535140 0.443894 0.028424
0.565843 0.440415 0.024945
0.600665 0.436469 0.020999
0.630873 0.433046 0.017576
0.661081 0.429622 0.014153
0.640027 0.439769 0.024299
0.678454 0.434170 0.018700
0.716882 0.428571 0.013102
0.755309 0.422972 0.007503
0.793737 0.417373 0.001904
0.828469 0.411796 0.000000
0.861298 0.406692 0.000000
0.894126 0.402075 0.000000
0.926955 0.397878 0.000000
0.959783 0.394046 0.000000
0.992612 0.390533 0.000000
1.000000 0.393525 0.025441
1.000000 0.400267 0.058269
0.034412 0.482300 0.034412
0.064325 0.482300 0.034412
0.096760 0.482300 0.034412
0.130943 0.482300 0.034412
0.165125 0.482300 0.034412
0.199307 0.482300 0.034412
0.233489 0.482300 0.034412
0.267671 0.482300 0.034412
0.301853 0.482300 0.034412
0.336035 0.482300 0.034412
0.370217 0.482300 0.034412
0.404399 0.482300 0.034412
0.438581 0.482300 0.034412
0.472763 0.482300 0.034412
0.504437 0.479791 0.031904
0.535140 0.476312 0.028424
0.565843 0.472833 0.024945
0.600665 0.468887 0.020999
0.630873 0.465464 0.017576
0.661081 0.462041 0.014153
0.640027 0.472187 0.024299
0.678454 0.466588 0.018700
0.716882 0.460989 0.013102
0.755309 0.455390 0.007503
0.793737 0.449791 0.001904
0.828469 0.443928 0.000000
0.861298 0.438426 0.000000
0.894126 0.433448 0.000000
0.926955 0.428923 0.000000
0.959783 0.424792 0.000000
0.992612 0.421006 0.000000
1.000000 0.422246 0.025441
1.000000 0.426952 0.058269
0.031113 0.511419 0.031113
0.061025 0.511419 0.031113
0.093461 0.511419 0.031113
0.127643 0.511419 0.031113
0.161825 0.511419 0.031113
0.196007 0.511419 0.031113
0.230189 0.511419 0.031113
0.264371 0.511419 0.031113
0.298553 0.511419 0.031113
0.332735 0.511419 0.031113
0.366917 0.511419 0.031113
0.401100 0.511419 0.031113
0.435282 0.511419 0.031113
0.469464 0.511419 0.031113
0.503646 0.511419 0.031113
0.535140 0.508730 0.028424
0.565843 0.505251 0.024945
0.600665 0.501305 0.020999
0.630873 0.497882 0.017576
0.661081 0.494459 0.014153
0.640027 0.504605 0.024299
0.678454 0.499006 0.018700
0.716882 0.493407 0.013102
0.755309 0.487809 0.007503
0.793737 0.482210 0.001904
0.828469 0.476059 0.000000
0.861298 0.470159 0.000000
0.894126 0.464821 0.000000
0.926955 0.459969 0.000000
0.959783 0.455539 0.000000
0.992612 0.451478 0.000000
1.000000 0.450967 0.025441
1.000000 0.453638 0.058269
0.027813 0.540537 0.027813
0.057725 0.540537 0.027813
0.090161 0.540537 0.027813
0.124343 0.540537 0.027813
0.158525 0.540537 0.027813
0.192707 0.540537 0.027813
0.226889 0.540537 0.027813
0.261072 0.540537 0.027813
0.295254 0.540537 0.027813
0.329436 0.540537 0.027813
0.363618 0.540537 0.027813
0.397800 0.540537 0.027813
0.431982 0.540537 0.027813
0.466164 0.540537 0.027813
0.500346 0.540537 0.027813
0.534528 0.540537 0.027813
0.565843 0.537670 0.024945
0.600665 0.533724 0.020999
0.630873 0.530301 0.017576
0.661081 0.526877 0.014153
0.640027 0.537024 0.024299
0.678454 0.531425 0.018700
0.716882 0.525826 0.013102
0.755309 0.520227 0.007503
0.793737 0.514628 0.001904
0.828469 0.508191 0.000000
0.861298 0.501893 0.000000
0.894126 0.496195 0.000000
0.926955 0.491015 0.000000
0.959783 0.486286 0.000000
0.992612 0.481951 0.000000
1.000000 0.479688 0.025441
1.000000 0.480323 0.058269
0.024513 0.569656 0.024513
0.054426 0.569656 0.024513
0.086861 0.569656 0.024513
0.121044 0.569656 0.024513
0.155226 0.569656 0.024513
0.189408 0.569656 0.024513
0.223590 0.569656 0.024513
0.257772 0.569656 0.024513
0.291954 0.569656 0.024513
0.326136 0.569656 0.024513
0.360318 0.569656 0.024513
0.394500 0.569656 0.024513
0.428682 0.569656 0.024513
0.462864 0.569656 0.024513
0.497046 0.569656 0.024513
0.531229 0.569656 0.024513
0.565411 0.569656 0.024513
0.600665 0.566142 0.020999
0.630873 0.562719 0.017576
0.661081 0.559296 0.014153
0.640027 0.569442 0.024299
0.678454 0.563843 0.018700
0.716882 0.558244 0.013102
0.755309 0.552645 0.007503
0.793737 0.547046 0.001904
0.828469 0.540323 0.000000
0.861298 0.533626 0.000000
0.894126 0.527568 0.000000
0.926955 0.522060 0.000000
0.959783 0.517032 0.000000
0.992612 0.512424 0.000000
1.000000 0.508409 0.025441
1.000000 0.507008 0.058269
0.020751 0.602858 0.020751
0.050663 0.602858 0.020751
0.083099 0.602858 0.020751
0.117281 0.602858 0.020751
0.151463 0.602858 0.020751
0.185645 0.602858 0.020751
0.219827 0.602858 0.020751
0.254009 0.602858 0.020751
0.288192 0.602858 0.020751
0.322374 0.602858 0.020751
0.356556 0.602858 0.020751
0.390738 0.602858 0.020751
0.424920 0.602858 0.020751
0.459102 0.602858 0.020751
0.493284 0.602858 0.020751
0.527466 0.602858 0.020751
0.561648 0.602858 0.020751
0.600417 0.602858 0.020751
0.630873 0.599683 0.017576
0.661081 0.596260 0.014153
0.640027 0.606407 0.024299
0.678454 0.600808 0.018700
0.716882 0.595209 0.013102
0.755309 0.589610 0.007503
0.793737 0.584011 0.001904
0.828469 0.576960 0.000000
0.861298 0.569810 0.000000
0.894126 0.563341 0.000000
0.926955 0.557460 0.000000
0.959783 0.552091 0.000000
0.992612 0.547170 0.000000
1.000000 0.541158 0.025441
1.000000 0.537436 0.058269
0.017504 0.631507 0.017504
0.047417 0.631507 0.017504
0.079853 0.631507 0.017504
0.114035 0.631507 0.017504
0.148217 0.631507 0.017504
0.182399 0.631507 0.017504
0.216581 0.631507 0.017504
0.250763 0.631507 0.017504
0.284945 0.631507 0.017504
0.319127 0.631507 0.017504
0.353309 0.631507 0.017504
0.387491 0.631507 0.017504
0.421673 0.631507 0.017504
0.455856 0.631507 0.017504
0.490038 0.631507 0.017504
0.524220 0.631507 0.017504
0.558402 0.631507 0.017504
0.597170 0.631507 0.017504
0.630801 0.631507 0.017504
0.661081 0.628156 0.014153
0.640027 0.638302 0.024299
0.678454 0.632703 0.018700
0.716882 0.627104 0.013102
0.755309 0.621505 0.007503
0.793737 0.615906 0.001904
0.828469 0.608574 0.000000
0.861298 0.601031 0.000000
0.894126 0.594208 0.000000
0.926955 0.588005 0.000000
0.959783 0.518236 0.000000
0.992612 0.515142 0.000000
1.000000 0.512408 0.025441
1.000000 0.512060 0.058269
0.014258 0.660156 0.014258
0.044170 0.660156 0.014258
0.076606 0.660156 0.014258
0.110788 0.660156 0.014258
0.144970 0.660156 0.014258
0.179152 0.660156 0.014258
0.213334 0.660156 0.014258
0.247517 0.660156 0.014258
0.281699 0.660156 0.014258
0.315881 0.660156 0.014258
0.350063 0.660156 0.014258
0.384245 0.660156 0.014258
0.418427 0.660156 0.014258
0.452609 0.660156 0.014258
0.486791 0.660156 0.014258
0.520973 0.660156 0.014258
0.555155 0.660156 0.014258
0.593924 0.660156 0.014258
0.627554 0.660156 0.014258
0.661081 0.660051 0.014153
0.633712 0.663883 0.017984
0.678454 0.664599 0.018700
0.716882 0.659000 0.013102
0.755309 0.653401 0.007503
0.793737 0.580419 0.001904
0.828469 0.575008 0.000000
0.861298 0.569470 0.000000
0.894126 0.564575 0.000000
0.926955 0.560235 0.000000
0.959783 0.556378 0.000000
0.992612 0.552944 0.000000
1.000000 0.548037 0.025441
1.000000 0.545164 0.058269
0.024760 0.636868 0.024760
0.054672 0.636868 0.024760
0.087108 0.636868 0.024760
0.121290 0.636868 0.024760
0.155472 0.636868 0.024760
0.189654 0.636868 0.024760
0.223836 0.636868 0.024760
0.258018 0.636868 0.024760
0.292200 0.636868 0.024760
0.326382 0.636868 0.024760
0.360565 0.636868 0.024760
0.394747 0.636868 0.024760
0.428929 0.636868 0.024760
0.463111 0.636868 0.024760
0.497293 0.636868 0.024760
0.531475 0.636868 0.024760
0.565657 0.636868 0.024760
0.604425 0.636868 0.024760
0.637807 0.636619 0.024511
0.664399 0.629580 0.017472
0.640027 0.636541 0.024299
0.678454 0.632564 0.018700
0.716882 0.628588 0.013102
0.755309 0.624611 0.007503
0.793737 0.620635 0.001904
0.828469 0.614869 0.000000
0.861298 0.608836 0.000000
0.894126 0.603494 0.000000
0.926955 0.598748 0.000000
0.959783 0.594520 0.000000
0.992612 0.590746 0.000000
1.000000 0.583667 0.025441
1.000000 0.578268 0.058269
0.019450 0.673312 0.019450
0.049362 0.673312 0.019450
0.081798 0.673312 0.019450
0.115980 0.673312 0.019450
0.150162 0.673312 0.019450
0.184344 0.673312 0.019450
0.218526 0.673312 0.019450
0.252708 0.673312 0.019450
0.286890 0.673312 0.019450
0.321072 0.673312 0.019450
0.355254 0.673312 0.019450
0.389437 0.673312 0.019450
0.423619 0.673312 0.019450
0.457801 0.673312 0.019450
0.491983 0.673312 0.019450
0.526165 0.673312 0.019450
0.560347 0.673312 0.019450
0.599115 0.673312 0.019450
0.632746 0.673312 0.019450
0.666377 0.673312 0.019450
0.636582 0.673312 0.019450
0.678454 0.672780 0.018700
0.716882 0.668804 0.013102
0.755309 0.664827 0.007503
0.793737 0.660851 0.001904
0.828469 0.654729 0.000000
0.861298 0.648203 0.000000
0.894126 0.642414 0.000000
0.926955 0.637261 0.000000
0.959783 0.632663 0.000000
0.992612 0.628548 0.000000
1.000000 0.619296 0.025441
1.000000 0.611372 0.058269
0.014140 0.709757 0.014140
0.044052 0.709757 0.014140
0.076488 0.709757 0.014140
0.110670 0.709757 0.014140
0.144852 0.709757 0.014140
0.179034 0.709757 0.014140
0.213216 0.709757 0.014140
0.247398 0.709757 0.014140
0.281580 0.709757 0.014140
0.315762 0.709757 0.014140
0.349944 0.709757 0.014140
0.384127 0.709757 0.014140
0.418309 0.709757 0.014140
0.452491 0.709757 0.014140
0.486673 0.709757 0.014140
0.520855 0.709757 0.014140
0.555037 0.709757 0.014140
0.593805 0.709757 0.014140
0.627436 0.709757 0.014140
0.661067 0.709757 0.014140
0.632811 0.709757 0.014140
0.675215 0.709757 0.014140
0.716882 0.709020 0.013102
0.755309 0.705043 0.007503
0.793737 0.701067 0.001904
0.828469 0.694590 0.000000
0.861298 0.687569 0.000000
0.894126 0.681333 0.000000
0.926955 0.675775 0.000000
0.959783 0.670805 0.000000
0.992612 0.666351 0.000000
1.000000 0.654925 0.025441
1.000000 0.644476 0.058269
0.008830 0.746202 0.008830
0.038742 0.746202 0.008830
0.071178 0.746202 0.008830
0.105360 0.746202 0.008830
0.139542 0.746202 0.008830
0.173724 0.746202 0.008830
0.207906 0.746202 0.008830
0.242088 0.746202 0.008830
0.276270 0.746202 0.008830
0.310452 0.746202 0.008830
0.344634 0.746202 0.008830
0.378817 0.746202 0.008830
0.412999 0.746202 0.008830
0.447181 0.746202 0.008830
0.481363 0.746202 0.008830
0.515545 0.746202 0.008830
0.549727 0.746202 0.008830
0.588495 0.746202 0.008830
0.622126 0.746202 0.008830
0.655757 0.746202 0.008830
0.629040 0.746202 0.008830
0.671444 0.746202 0.008830
0.713848 0.746202 0.008830
0.755309 0.745259 0.007503
0.793737 0.741283 0.001904
0.828469 0.734450 0.000000
0.861298 0.726936 0.000000
0.894126 0.720253 0.000000
0.926955 0.714288 0.000000
0.959783 0.708947 0.000000
0.992612 0.704153 0.000000
1.000000 0.690554 0.025441
1.000000 0.677580 0.058269
0.003520 0.782647 0.003520
0.033432 0.782647 0.003520
0.065868 0.782647 0.003520
0.100050 0.782647 0.003520
0.134232 0.782647 0.003520
0.168414 0.782647 0.003520
0.202596 0.782647 0.003520
0.236778 0.782647 0.003520
0.270960 0.782647 0.003520
0.305142 0.782647 0.003520
0.339324 0.782647 0.003520
0.373507 0.782647 0.003520
0.407689 0.782647 0.003520
0.441871 0.782647 0.003520
0.476053 0.782647 0.003520
0.510235 0.782647 0.003520
0.544417 0.782647 0.003520
0.583185 0.782647 0.003520
0.616816 0.782647 0.003520
0.582864 0.782647 0.003520
0.625268 0.782647 0.003520
0.667672 0.782647 0.003520
0.710076 0.782647 0.003520
0.752480 0.782647 0.003520
0.793737 0.781499 0.001904
0.828469 0.774310 0.000000
0.861298 0.766302 0.000000
0.894126 0.759172 0.000000
0.926955 0.752801 0.000000
0.959783 0.747090 0.000000
0.992612 0.741955 0.000000
1.000000 0.726184 0.025441
1.000000 0.710685 0.058269
0.000000 0.817301 0.000000
0.029782 0.817301 0.000000
0.062076 0.817301 0.000000
0.096109 0.817301 0.000000
0.130142 0.817301 0.000000
0.164175 0.817301 0.000000
0.198208 0.817301 0.000000
0.232241 0.817301 0.000000
0.266274 0.817301 0.000000
0.300307 0.817301 0.000000
0.334340 0.817301 0.000000
0.368373 0.817301 0.000000
0.402406 0.817301 0.000000
0.436439 0.817301 0.000000
0.470472 0.817301 0.000000
0.504505 0.817301 0.000000
0.538538 0.817301 0.000000
0.577137 0.817301 0.000000
0.610621 0.817301 0.000000
0.578349 0.817301 0.000000
0.620568 0.817301 0.000000
0.662787 0.817301 0.000000
0.705006 0.817301 0.000000
0.747225 0.817301 0.000000
