docs/luts/fuji_recipes/Classic_VM_Classic_Chrome.cube
TITLE "Fujifilm Recipe: VM Classic Chrome (Classic)"
# FilmSim=Classic HL=1 SH=2 Col=2 WB=Auto WBR=0 WBB=-1
LUT_3D_SIZE 33
DOMAIN_MIN 0.0 0.0 0.0
DOMAIN_MAX 1.0 1.0 1.0
0.000000 0.000000 0.000000
0.028417 0.000103 0.000103
0.056835 0.000205 0.000205
0.085252 0.000308 0.000308
0.113669 0.000411 0.000411
0.142087 0.000513 0.000513
0.170504 0.000616 0.000616
0.198921 0.000719 0.000719
0.227339 0.000821 0.000821
0.255756 0.000924 0.000924
0.284173 0.001027 0.001027
0.312591 0.001129 0.001129
0.341008 0.001232 0.001232
0.369425 0.001335 0.001335
0.397843 0.001437 0.001437
0.426260 0.001540 0.001540
0.454677 0.001643 0.001643
0.486303 0.001757 0.001757
0.514262 0.001858 0.001858
0.585578 0.000000 0.000000
0.616804 0.000000 0.000000
0.648029 0.000000 0.000000
0.679255 0.000000 0.000000
0.710481 0.000000 0.000000
0.741707 0.000000 0.000000
0.772933 0.000000 0.000000
0.804159 0.000000 0.000000
0.835385 0.000000 0.000000
0.866611 0.000000 0.000000
0.897837 0.000000 0.000000
0.929063 0.000000 0.000000
0.960288 0.000000 0.000000
0.991514 0.000000 0.000000
0.000102 0.028133 0.000102
0.028417 0.028134 0.000103
0.056835 0.028237 0.000205
0.085252 0.028340 0.000308
0.113669 0.028442 0.000411
0.142087 0.028545 0.000513
0.170504 0.028648 0.000616
0.198921 0.028750 0.000719
0.227339 0.028853 0.000821
0.255756 0.028956 0.000924
0.284173 0.029058 0.001027
0.312591 0.029161 0.001129
0.341008 0.029264 0.001232
0.369425 0.029366 0.001335
0.397843 0.029469 0.001437
0.426260 0.029572 0.001540
0.454677 0.029674 0.001643
0.486303 0.029789 0.001757
0.514262 0.029890 0.001858
0.585578 0.027515 0.000000
0.616804 0.027500 0.000000
0.648029 0.027486 0.000000
0.679255 0.027473 0.000000
0.710481 0.027462 0.000000
0.741707 0.027451 0.000000
0.772933 0.027442 0.000000
0.804159 0.027433 0.000000
0.835385 0.027425 0.000000
0.866611 0.027417 0.000000
0.897837 0.027410 0.000000
0.929063 0.027403 0.000000
0.960288 0.027397 0.000000
0.991514 0.027391 0.000000
0.000204 0.056388 0.000204
0.028518 0.056388 0.000204
0.056835 0.056390 0.000205
0.085252 0.056492 0.000308
0.113669 0.056595 0.000411
0.142087 0.056698 0.000513
0.170504 0.056800 0.000616
0.198921 0.056903 0.000719
0.227339 0.057006 0.000821
0.255756 0.057108 0.000924
0.284173 0.057211 0.001027
0.312591 0.057314 0.001129
0.341008 0.057416 0.001232
0.369425 0.057519 0.001335
0.397843 0.057622 0.001437
0.426260 0.057724 0.001540
0.454677 0.057827 0.001643
0.486303 0.057941 0.001757
0.514262 0.058042 0.001858
0.585578 0.055150 0.000000
0.616804 0.055119 0.000000
0.648029 0.055091 0.000000
0.679255 0.055066 0.000000
0.710481 0.055043 0.000000
0.741707 0.055022 0.000000
0.772933 0.055002 0.000000
0.804159 0.054985 0.000000
0.835385 0.054968 0.000000
0.866611 0.054953 0.000000
0.897837 0.054938 0.000000
0.929063 0.054925 0.000000
0.960288 0.054913 0.000000
0.991514 0.054901 0.000000
0.000306 0.084687 0.000306
0.028621 0.084687 0.000306
0.056935 0.084687 0.000306
0.085252 0.084689 0.000308
0.113669 0.084791 0.000411
0.142087 0.084894 0.000513
0.170504 0.084997 0.000616
0.198921 0.085099 0.000719
0.227339 0.085202 0.000821
0.255756 0.085305 0.000924
0.284173 0.085407 0.001027
0.312591 0.085510 0.001129
0.341008 0.085613 0.001232
0.369425 0.085715 0.001335
0.397843 0.085818 0.001437
0.426260 0.085921 0.001540
0.454677 0.086023 0.001643
0.486303 0.086138 0.001757
0.514262 0.086239 0.001858
0.585578 0.082827 0.000000
0.616804 0.082781 0.000000
0.648029 0.082739 0.000000
0.679255 0.082701 0.000000
0.710481 0.082666 0.000000
0.741707 0.082635 0.000000
0.772933 0.082605 0.000000
0.804159 0.082579 0.000000
0.835385 0.082554 0.000000
0.866611 0.082531 0.000000
0.897837 0.082510 0.000000
0.929063 0.082490 0.000000
0.960288 0.082471 0.000000
0.991514 0.082454 0.000000
0.000408 0.112985 0.000408
0.028723 0.112985 0.000408
0.057038 0.112985 0.000408
0.085352 0.112985 0.000408
0.113669 0.112988 0.000411
0.142087 0.113090 0.000513
0.170504 0.113193 0.000616
0.198921 0.113296 0.000719
0.227339 0.113398 0.000821
0.255756 0.113501 0.000924
0.284173 0.113604 0.001027
0.312591 0.113706 0.001129
0.341008 0.113809 0.001232
0.369425 0.113912 0.001335
0.397843 0.114014 0.001437
0.426260 0.114117 0.001540
0.454677 0.114220 0.001643
0.486303 0.114334 0.001757
0.514262 0.114435 0.001858
0.585578 0.110504 0.000000
0.616804 0.110442 0.000000
0.648029 0.110386 0.000000
0.679255 0.110336 0.000000
0.710481 0.110290 0.000000
0.741707 0.110247 0.000000
0.772933 0.110209 0.000000
0.804159 0.110173 0.000000
0.835385 0.110140 0.000000
0.866611 0.110109 0.000000
0.897837 0.110081 0.000000
0.929063 0.110054 0.000000
0.960288 0.110029 0.000000
0.991514 0.110006 0.000000
0.000510 0.141284 0.000510
0.028825 0.141284 0.000510
0.057140 0.141284 0.000510
0.085454 0.141284 0.000510
0.113769 0.141284 0.000510
0.142087 0.141287 0.000513
0.170504 0.141389 0.000616
0.198921 0.141492 0.000719
0.227339 0.141595 0.000821
0.255756 0.141697 0.000924
0.284173 0.141800 0.001027
0.312591 0.141903 0.001129
0.341008 0.142005 0.001232
0.369425 0.142108 0.001335
0.397843 0.142211 0.001437
0.426260 0.142313 0.001540
0.454677 0.142416 0.001643
0.486303 0.142530 0.001757
0.514262 0.142631 0.001858
0.585578 0.138181 0.000000
0.616804 0.138104 0.000000
0.648029 0.138034 0.000000
0.679255 0.137971 0.000000
0.710481 0.137913 0.000000
0.741707 0.137860 0.000000
0.772933 0.137812 0.000000
0.804159 0.137767 0.000000
0.835385 0.137726 0.000000
0.866611 0.137687 0.000000
0.897837 0.137652 0.000000
0.929063 0.137618 0.000000
0.960288 0.137587 0.000000
0.991514 0.137558 0.000000
0.000613 0.169582 0.000613
0.028927 0.169582 0.000613
0.057242 0.169582 0.000613
0.085557 0.169582 0.000613
0.113871 0.169582 0.000613
0.142186 0.169582 0.000613
0.170504 0.169586 0.000616
0.198921 0.169688 0.000719
0.227339 0.169791 0.000821
0.255756 0.169894 0.000924
0.284173 0.169996 0.001027
0.312591 0.170099 0.001129
0.341008 0.170202 0.001232
0.369425 0.170304 0.001335
0.397843 0.170407 0.001437
0.426260 0.170510 0.001540
0.454677 0.170612 0.001643
0.486303 0.170727 0.001757
0.514262 0.170828 0.001858
0.585578 0.165858 0.000000
0.616804 0.165766 0.000000
0.648029 0.165682 0.000000
0.679255 0.165606 0.000000
0.710481 0.165536 0.000000
0.741707 0.165473 0.000000
0.772933 0.165415 0.000000
0.804159 0.165361 0.000000
0.835385 0.165311 0.000000
0.866611 0.165265 0.000000
0.897837 0.165223 0.000000
0.929063 0.165183 0.000000
0.960288 0.165145 0.000000
0.991514 0.165111 0.000000
0.000715 0.197881 0.000715
0.029030 0.197881 0.000715
0.057344 0.197881 0.000715
0.085659 0.197881 0.000715
0.113974 0.197881 0.000715
0.142288 0.197881 0.000715
0.170603 0.197881 0.000715
0.198921 0.197885 0.000719
0.227339 0.197987 0.000821
0.255756 0.198090 0.000924
0.284173 0.198193 0.001027
0.312591 0.198295 0.001129
0.341008 0.198398 0.001232
0.369425 0.198501 0.001335
0.397843 0.198603 0.001437
0.426260 0.198706 0.001540
0.454677 0.198809 0.001643
0.486303 0.198923 0.001757
0.514262 0.199024 0.001858
0.585578 0.193535 0.000000
0.616804 0.193427 0.000000
0.648029 0.193329 0.000000
0.679255 0.193241 0.000000
0.710481 0.193160 0.000000
0.741707 0.193086 0.000000
0.772933 0.193018 0.000000
0.804159 0.192955 0.000000
0.835385 0.192897 0.000000
0.866611 0.192844 0.000000
0.897837 0.192794 0.000000
0.929063 0.192747 0.000000
0.960288 0.192704 0.000000
0.991514 0.192663 0.000000
0.000817 0.226180 0.000817
0.029132 0.226180 0.000817
0.057447 0.226180 0.000817
0.085761 0.226180 0.000817
0.114076 0.226180 0.000817
0.142390 0.226180 0.000817
0.170705 0.226180 0.000817
0.199020 0.226180 0.000817
0.227339 0.226184 0.000821
0.255756 0.226286 0.000924
0.284173 0.226389 0.001027
0.312591 0.226492 0.001129
0.341008 0.226594 0.001232
0.369425 0.226697 0.001335
0.397843 0.226800 0.001437
0.426260 0.226902 0.001540
0.454677 0.227005 0.001643
0.486303 0.227119 0.001757
0.514262 0.227220 0.001858
0.585578 0.221213 0.000000
0.616804 0.221089 0.000000
0.648029 0.220977 0.000000
0.679255 0.220876 0.000000
0.710481 0.220783 0.000000
0.741707 0.220699 0.000000
0.772933 0.220621 0.000000
0.804159 0.220549 0.000000
0.835385 0.220483 0.000000
0.866611 0.220422 0.000000
0.897837 0.220365 0.000000
0.929063 0.220312 0.000000
0.960288 0.220262 0.000000
0.991514 0.220215 0.000000
0.000919 0.254478 0.000919
0.029234 0.254478 0.000919
0.057549 0.254478 0.000919
0.085863 0.254478 0.000919
0.114178 0.254478 0.000919
0.142493 0.254478 0.000919
0.170807 0.254478 0.000919
0.199122 0.254478 0.000919
0.227437 0.254478 0.000919
0.255756 0.254483 0.000924
0.284173 0.254585 0.001027
0.312591 0.254688 0.001129
0.341008 0.254791 0.001232
0.369425 0.254893 0.001335
0.397843 0.254996 0.001437
0.426260 0.255099 0.001540
0.454677 0.255201 0.001643
0.486303 0.255316 0.001757
0.514262 0.255417 0.001858
0.585578 0.248890 0.000000
0.616804 0.248750 0.000000
0.648029 0.248625 0.000000
0.679255 0.248511 0.000000
0.710481 0.248407 0.000000
0.741707 0.248311 0.000000
0.772933 0.248224 0.000000
0.804159 0.248144 0.000000
0.835385 0.248069 0.000000
0.866611 0.248000 0.000000
0.897837 0.247936 0.000000
0.929063 0.247876 0.000000
0.960288 0.247820 0.000000
0.991514 0.247768 0.000000
0.001022 0.282777 0.001022
0.029336 0.282777 0.001022
0.057651 0.282777 0.001022
0.085966 0.282777 0.001022
0.114280 0.282777 0.001022
0.142595 0.282777 0.001022
0.170910 0.282777 0.001022
0.199224 0.282777 0.001022
0.227539 0.282777 0.001022
0.255854 0.282777 0.001022
0.284173 0.282782 0.001027
0.312591 0.282884 0.001129
0.341008 0.282987 0.001232
0.369425 0.283090 0.001335
0.397843 0.283192 0.001437
0.426260 0.283295 0.001540
0.454677 0.283398 0.001643
0.486303 0.283512 0.001757
0.514262 0.283613 0.001858
0.585578 0.276567 0.000000
0.616804 0.276412 0.000000
0.648029 0.276272 0.000000
0.679255 0.276146 0.000000
0.710481 0.276030 0.000000
0.741707 0.275924 0.000000
0.772933 0.275827 0.000000
0.804159 0.275738 0.000000
0.835385 0.275655 0.000000
0.866611 0.275578 0.000000
0.897837 0.275507 0.000000
0.929063 0.275440 0.000000
0.960288 0.275378 0.000000
0.991514 0.275320 0.000000
0.001124 0.311075 0.001124
0.029439 0.311075 0.001124
0.057753 0.311075 0.001124
0.086068 0.311075 0.001124
0.114383 0.311075 0.001124
0.142697 0.311075 0.001124
0.171012 0.311075 0.001124
0.199327 0.311075 0.001124
0.227641 0.311075 0.001124
0.255956 0.311075 0.001124
0.284270 0.311075 0.001124
0.312591 0.311081 0.001129
0.341008 0.311183 0.001232
0.369425 0.311286 0.001335
0.397843 0.311389 0.001437
0.426260 0.311491 0.001540
0.454677 0.311594 0.001643
0.486303 0.311708 0.001757
0.514262 0.311809 0.001858
0.585578 0.304244 0.000000
0.616804 0.304074 0.000000
0.648029 0.303920 0.000000
0.679255 0.303781 0.000000
0.710481 0.303653 0.000000
0.741707 0.303537 0.000000
0.772933 0.303430 0.000000
0.804159 0.303332 0.000000
0.835385 0.303241 0.000000
0.866611 0.303156 0.000000
0.897837 0.303078 0.000000
0.929063 0.303005 0.000000
0.960288 0.302936 0.000000
0.991514 0.302872 0.000000
0.001226 0.339374 0.001226
0.029541 0.339374 0.001226
0.057855 0.339374 0.001226
0.086170 0.339374 0.001226
0.114485 0.339374 0.001226
0.142799 0.339374 0.001226
0.171114 0.339374 0.001226
0.199429 0.339374 0.001226
0.227743 0.339374 0.001226
0.256058 0.339374 0.001226
0.284373 0.339374 0.001226
0.312687 0.339374 0.001226
0.341008 0.339380 0.001232
0.369425 0.339482 0.001335
0.397843 0.339585 0.001437
0.426260 0.339688 0.001540
0.454677 0.339790 0.001643
0.486303 0.339905 0.001757
0.514262 0.340006 0.001858
0.585578 0.331921 0.000000
0.616804 0.331735 0.000000
0.648029 0.331568 0.000000
0.679255 0.331415 0.000000
0.710481 0.331277 0.000000
0.741707 0.331150 0.000000
0.772933 0.331033 0.000000
0.804159 0.330926 0.000000
0.835385 0.330827 0.000000
0.866611 0.330735 0.000000
0.897837 0.330649 0.000000
0.929063 0.330569 0.000000
0.960288 0.330494 0.000000
0.991514 0.330425 0.000000
0.001328 0.367672 0.001328
0.029643 0.367672 0.001328
0.057958 0.367672 0.001328
0.086272 0.367672 0.001328
0.114587 0.367672 0.001328
0.142902 0.367672 0.001328
0.171216 0.367672 0.001328
0.199531 0.367672 0.001328
0.227846 0.367672 0.001328
0.256160 0.367672 0.001328
0.284475 0.367672 0.001328
0.312790 0.367672 0.001328
0.341104 0.367672 0.001328
0.369425 0.367679 0.001335
0.397843 0.367781 0.001437
0.426260 0.367884 0.001540
0.454677 0.367987 0.001643
0.486303 0.368101 0.001757
0.514262 0.368202 0.001858
0.585578 0.359598 0.000000
0.616804 0.359397 0.000000
0.648029 0.359215 0.000000
0.679255 0.359050 0.000000
0.710481 0.358900 0.000000
0.741707 0.358763 0.000000
0.772933 0.358637 0.000000
0.804159 0.358520 0.000000
0.835385 0.358413 0.000000
0.866611 0.358313 0.000000
0.897837 0.358220 0.000000
0.929063 0.358134 0.000000
0.960288 0.358053 0.000000
0.991514 0.357977 0.000000
0.001431 0.395971 0.001431
0.029745 0.395971 0.001431
0.058060 0.395971 0.001431
0.086375 0.395971 0.001431
0.114689 0.395971 0.001431
0.143004 0.395971 0.001431
0.171319 0.395971 0.001431
0.199633 0.395971 0.001431
0.227948 0.395971 0.001431
0.256263 0.395971 0.001431
0.284577 0.395971 0.001431
0.312892 0.395971 0.001431
0.341207 0.395971 0.001431
0.369521 0.395971 0.001431
0.397843 0.395978 0.001437
0.426260 0.396080 0.001540
0.454677 0.396183 0.001643
0.486303 0.396297 0.001757
0.514262 0.396398 0.001858
0.585578 0.387275 0.000000
0.616804 0.387059 0.000000
0.648029 0.386863 0.000000
0.679255 0.386685 0.000000
0.710481 0.386524 0.000000
0.741707 0.386376 0.000000
0.772933 0.386240 0.000000
0.804159 0.386114 0.000000
0.835385 0.385998 0.000000
0.866611 0.385891 0.000000
0.897837 0.385791 0.000000
0.929063 0.385698 0.000000
0.960288 0.385611 0.000000
0.991514 0.385529 0.000000
0.001533 0.424270 0.001533
0.029848 0.424270 0.001533
0.058162 0.424270 0.001533
0.086477 0.424270 0.001533
0.114792 0.424270 0.001533
0.143106 0.424270 0.001533
0.171421 0.424270 0.001533
0.199735 0.424270 0.001533
0.228050 0.424270 0.001533
0.256365 0.424270 0.001533
0.284679 0.424270 0.001533
0.312994 0.424270 0.001533
0.341309 0.424270 0.001533
0.369623 0.424270 0.001533
0.397938 0.424270 0.001533
0.426260 0.424277 0.001540
0.454677 0.424379 0.001643
0.486303 0.424494 0.001757
0.514262 0.424595 0.001858
0.585578 0.414952 0.000000
0.616804 0.414720 0.000000
0.648029 0.414511 0.000000
0.679255 0.414320 0.000000
0.710481 0.414147 0.000000
0.741707 0.413988 0.000000
0.772933 0.413843 0.000000
0.804159 0.413708 0.000000
0.835385 0.413584 0.000000
0.866611 0.413469 0.000000
0.897837 0.413362 0.000000
0.929063 0.413262 0.000000
0.960288 0.413169 0.000000
0.991514 0.413082 0.000000
0.001635 0.452568 0.001635
0.029950 0.452568 0.001635
0.058264 0.452568 0.001635
0.086579 0.452568 0.001635
0.114894 0.452568 0.001635
0.143208 0.452568 0.001635
0.171523 0.452568 0.001635
0.199838 0.452568 0.001635
0.228152 0.452568 0.001635
0.256467 0.452568 0.001635
0.284782 0.452568 0.001635
0.313096 0.452568 0.001635
0.341411 0.452568 0.001635
0.369726 0.452568 0.001635
0.398040 0.452568 0.001635
0.426355 0.452568 0.001635
0.454677 0.452576 0.001643
0.486303 0.452690 0.001757
0.514262 0.452791 0.001858
0.585578 0.442630 0.000000
0.616804 0.442382 0.000000
0.648029 0.442158 0.000000
0.679255 0.441955 0.000000
0.710481 0.441770 0.000000
0.741707 0.441601 0.000000
0.772933 0.441446 0.000000
0.804159 0.441303 0.000000
0.835385 0.441170 0.000000
0.866611 0.441047 0.000000
0.897837 0.440933 0.000000
0.929063 0.440827 0.000000
0.960288 0.440727 0.000000
0.991514 0.440634 0.000000
0.001749 0.484111 0.001749
0.030064 0.484111 0.001749
0.058378 0.484111 0.001749
0.086693 0.484111 0.001749
0.115008 0.484111 0.001749
0.143322 0.484111 0.001749
0.171637 0.484111 0.001749
0.199952 0.484111 0.001749
0.228266 0.484111 0.001749
0.256581 0.484111 0.001749
0.284896 0.484111 0.001749
0.313210 0.484111 0.001749
0.341525 0.484111 0.001749
0.369840 0.484111 0.001749
0.398154 0.484111 0.001749
0.426469 0.484111 0.001749
0.454784 0.484111 0.001749
0.486303 0.484119 0.001757
0.514262 0.484220 0.001858
0.585578 0.473480 0.000000
0.616804 0.473215 0.000000
0.648029 0.472976 0.000000
0.679255 0.472759 0.000000
0.710481 0.472561 0.000000
0.741707 0.472380 0.000000
0.772933 0.472214 0.000000
0.804159 0.472060 0.000000
0.835385 0.471919 0.000000
0.866611 0.525383 0.000000
0.897837 0.525904 0.000000
0.929063 0.526433 0.000000
0.960288 0.526971 0.000000
0.991514 0.527517 0.000000
0.001850 0.511953 0.001850
0.030164 0.511953 0.001850
0.058479 0.511953 0.001850
0.086794 0.511953 0.001850
0.115108 0.511953 0.001850
0.143423 0.511953 0.001850
0.171738 0.511953 0.001850
0.200052 0.511953 0.001850
0.228367 0.511953 0.001850
0.256682 0.511953 0.001850
0.284996 0.511953 0.001850
0.313311 0.511953 0.001850
0.341626 0.511953 0.001850
0.369940 0.511953 0.001850
0.398255 0.511953 0.001850
0.426570 0.511953 0.001850
0.454884 0.511953 0.001850
0.486396 0.511953 0.001850
0.514262 0.511962 0.001858
0.585578 0.500711 0.000000
0.616804 0.500430 0.000000
0.648029 0.500177 0.000000
0.679255 0.499948 0.000000
0.710481 0.553675 0.000000
0.741707 0.554121 0.000000
0.772933 0.554584 0.000000
0.804159 0.555062 0.000000
0.835385 0.555552 0.000000
0.866611 0.556055 0.000000
0.897837 0.556568 0.000000
0.929063 0.557091 0.000000
0.960288 0.557622 0.000000
0.991514 0.558160 0.000000
0.000000 0.582869 0.000000
0.027795 0.582869 0.000000
0.055589 0.582869 0.000000
0.083384 0.582869 0.000000
0.111179 0.582869 0.000000
0.138974 0.582869 0.000000
0.166768 0.582869 0.000000
0.194563 0.582869 0.000000
0.222358 0.582869 0.000000
0.250152 0.582869 0.000000
0.277947 0.582869 0.000000
0.305742 0.582869 0.000000
0.333536 0.582869 0.000000
0.361331 0.582869 0.000000
0.389126 0.582869 0.000000
0.416921 0.582869 0.000000
0.444715 0.582869 0.000000
0.475648 0.582869 0.000000
0.502994 0.582869 0.000000
0.585578 0.582896 0.000000
0.616804 0.583229 0.000000
0.648029 0.583593 0.000000
0.679255 0.583984 0.000000
0.710481 0.584398 0.000000
0.741707 0.584832 0.000000
0.772933 0.585284 0.000000
0.804159 0.585752 0.000000
0.835385 0.586234 0.000000
0.866611 0.586728 0.000000
0.897837 0.587233 0.000000
0.929063 0.587748 0.000000
0.960288 0.588272 0.000000
0.991514 0.588804 0.000000
0.000000 0.613964 0.000000
0.027779 0.613964 0.000000
0.055558 0.613964 0.000000
0.083337 0.613964 0.000000
0.111116 0.613964 0.000000
0.138895 0.613964 0.000000
0.166674 0.613964 0.000000
0.194453 0.613964 0.000000
0.222233 0.613964 0.000000
0.250012 0.613964 0.000000
0.277791 0.613964 0.000000
0.305570 0.613964 0.000000
0.333349 0.613964 0.000000
0.361128 0.613964 0.000000
0.388907 0.613964 0.000000
0.416686 0.613964 0.000000
0.444465 0.613964 0.000000
0.475380 0.613964 0.000000
0.502711 0.613964 0.000000
0.585878 0.613964 0.000000
0.616804 0.613994 0.000000
0.648029 0.614343 0.000000
0.679255 0.614720 0.000000
0.710481 0.615121 0.000000
0.741707 0.615543 0.000000
0.772933 0.615984 0.000000
0.804159 0.616442 0.000000
0.835385 0.616915 0.000000
0.866611 0.617400 0.000000
0.897837 0.617897 0.000000
0.929063 0.618405 0.000000
0.960288 0.618922 0.000000
0.991514 0.619448 0.000000
0.000000 0.645060 0.000000
0.027765 0.645060 0.000000
0.055530 0.645060 0.000000
0.083295 0.645060 0.000000
0.111060 0.645060 0.000000
0.138825 0.645060 0.000000
0.166590 0.645060 0.000000
0.194355 0.645060 0.000000
0.222120 0.645060 0.000000
0.249885 0.645060 0.000000
0.277649 0.645060 0.000000
0.305414 0.645060 0.000000
0.333179 0.645060 0.000000
0.360944 0.645060 0.000000
0.388709 0.645060 0.000000
0.416474 0.645060 0.000000
0.444239 0.645060 0.000000
0.475139 0.645060 0.000000
0.502456 0.645060 0.000000
0.586236 0.645060 0.000000
0.617116 0.645060 0.000000
0.648029 0.645093 0.000000
0.679255 0.645455 0.000000
0.710481 0.645843 0.000000
0.741707 0.646254 0.000000
0.772933 0.646685 0.000000
0.804159 0.647132 0.000000
0.835385 0.647596 0.000000
0.866611 0.648073 0.000000
0.897837 0.648562 0.000000
0.929063 0.649062 0.000000
0.960288 0.649572 0.000000
0.991514 0.650092 0.000000
0.000000 0.676155 0.000000
0.027752 0.676155 0.000000
0.055504 0.676155 0.000000
0.083256 0.676155 0.000000
0.111009 0.676155 0.000000
0.138761 0.676155 0.000000
0.166513 0.676155 0.000000
0.194265 0.676155 0.000000
0.222017 0.676155 0.000000
0.249769 0.676155 0.000000
0.277521 0.676155 0.000000
0.305274 0.676155 0.000000
0.333026 0.676155 0.000000
0.360778 0.676155 0.000000
0.388530 0.676155 0.000000
0.416282 0.676155 0.000000
0.444034 0.676155 0.000000
0.474920 0.676155 0.000000
0.555756 0.676155 0.000000
0.586622 0.676155 0.000000
0.617488 0.676155 0.000000
0.648354 0.676155 0.000000
0.679255 0.676191 0.000000
0.710481 0.676566 0.000000
0.741707 0.676965 0.000000
0.772933 0.677385 0.000000
0.804159 0.677823 0.000000
0.835385 0.678277 0.000000
0.866611 0.678745 0.000000
0.897837 0.679226 0.000000
0.929063 0.679719 0.000000
0.960288 0.680223 0.000000
0.991514 0.680735 0.000000
0.000000 0.707250 0.000000
0.027740 0.707250 0.000000
0.055481 0.707250 0.000000
0.083221 0.707250 0.000000
0.110962 0.707250 0.000000
0.138702 0.707250 0.000000
0.166443 0.707250 0.000000
0.194183 0.707250 0.000000
0.221924 0.707250 0.000000
0.249664 0.707250 0.000000
0.277405 0.707250 0.000000
0.305145 0.707250 0.000000
0.332886 0.707250 0.000000
0.360626 0.707250 0.000000
0.388367 0.707250 0.000000
0.416107 0.707250 0.000000
0.443848 0.707250 0.000000
0.474720 0.707250 0.000000
0.556178 0.707250 0.000000
0.587031 0.707250 0.000000
0.617884 0.707250 0.000000
0.648737 0.707250 0.000000
0.679590 0.707250 0.000000
0.710481 0.707289 0.000000
0.741707 0.707676 0.000000
0.772933 0.708085 0.000000
0.804159 0.708513 0.000000
0.835385 0.708958 0.000000
0.866611 0.709418 0.000000
0.897837 0.709891 0.000000
0.929063 0.710376 0.000000
0.960288 0.710873 0.000000
0.991514 0.711379 0.000000
0.000000 0.738346 0.000000
0.027730 0.738346 0.000000
0.055460 0.738346 0.000000
0.083189 0.738346 0.000000
0.110919 0.738346 0.000000
0.138649 0.738346 0.000000
0.166379 0.738346 0.000000
0.194109 0.738346 0.000000
0.221838 0.738346 0.000000
0.249568 0.738346 0.000000
0.277298 0.738346 0.000000
0.305028 0.738346 0.000000
0.332758 0.738346 0.000000
0.360487 0.738346 0.000000
0.388217 0.738346 0.000000
0.415947 0.738346 0.000000
0.443677 0.738346 0.000000
0.474537 0.738346 0.000000
0.556619 0.738346 0.000000
0.587460 0.738346 0.000000
0.618301 0.738346 0.000000
0.649142 0.738346 0.000000
0.679984 0.738346 0.000000
0.710825 0.738346 0.000000
0.741707 0.738387 0.000000
0.772933 0.738785 0.000000
0.804159 0.739203 0.000000
0.835385 0.739639 0.000000
0.866611 0.740090 0.000000
0.897837 0.740556 0.000000
0.929063 0.741034 0.000000
0.960288 0.741523 0.000000
0.991514 0.742023 0.000000
0.000000 0.769441 0.000000
0.027720 0.769441 0.000000
0.055440 0.769441 0.000000
0.083160 0.769441 0.000000
0.110880 0.769441 0.000000
0.138600 0.769441 0.000000
0.166320 0.769441 0.000000
0.194040 0.769441 0.000000
0.221760 0.769441 0.000000
0.249480 0.769441 0.000000
0.277200 0.769441 0.000000
0.304920 0.769441 0.000000
0.332640 0.769441 0.000000
0.360360 0.769441 0.000000
0.388080 0.769441 0.000000
0.415800 0.769441 0.000000
0.443520 0.769441 0.000000
0.474370 0.769441 0.000000
0.557077 0.769441 0.000000
0.587907 0.769441 0.000000
0.618738 0.769441 0.000000
0.649568 0.769441 0.000000
0.680398 0.769441 0.000000
0.711228 0.769441 0.000000
0.742059 0.769441 0.000000
0.772933 0.769486 0.000000
0.804159 0.769894 0.000000
0.835385 0.770320 0.000000
0.866611 0.770763 0.000000
0.897837 0.771220 0.000000
0.929063 0.771691 0.000000
0.960288 0.772173 0.000000
0.991514 0.772667 0.000000
0.000000 0.800537 0.000000
0.027711 0.800537 0.000000
0.055422 0.800537 0.000000
0.083133 0.800537 0.000000
0.110844 0.800537 0.000000
0.138555 0.800537 0.000000
0.166266 0.800537 0.000000
0.193977 0.800537 0.000000
0.221688 0.800537 0.000000
0.249399 0.800537 0.000000
0.277110 0.800537 0.000000
0.304821 0.800537 0.000000
0.332531 0.800537 0.000000
0.360242 0.800537 0.000000
0.387953 0.800537 0.000000
0.415664 0.800537 0.000000
0.443375 0.800537 0.000000
0.474215 0.800537 0.000000
0.557550 0.800537 0.000000
0.588371 0.800537 0.000000
0.619191 0.800537 0.000000
0.650011 0.800537 0.000000
0.680831 0.800537 0.000000
0.711651 0.800537 0.000000
