docs/luts/fuji_recipes/Classic_ER_Bleach_Bypass.cube
TITLE "Fujifilm Recipe: ER Bleach Bypass (Classic)"
# FilmSim=Classic HL=1 SH=4 Col=-4 WB=Auto WBR=0 WBB=0
LUT_3D_SIZE 9
DOMAIN_MIN 0.0 0.0 0.0
DOMAIN_MAX 1.0 1.0 1.0
0.000000 0.000000 0.000000
0.062725 0.041435 0.041435
0.125450 0.082870 0.082870
0.188175 0.124305 0.124305
0.250901 0.165739 0.165739
0.370705 0.239381 0.239381
0.445927 0.287745 0.287745
0.521148 0.336110 0.336110
0.596369 0.384475 0.384475
0.041186 0.062348 0.041186
0.062725 0.062597 0.041435
0.125450 0.104032 0.082870
0.188175 0.145467 0.124305
0.250901 0.186902 0.165739
0.370705 0.260543 0.239381
0.445927 0.308908 0.287745
0.521148 0.357272 0.336110
0.596369 0.405637 0.384475
0.082447 0.124811 0.082447
0.103738 0.124811 0.082447
0.125450 0.125233 0.082870
0.188175 0.166668 0.124305
0.250901 0.208103 0.165739
0.370705 0.281744 0.239381
0.445927 0.330109 0.287745
0.521148 0.378474 0.336110
0.596369 0.426838 0.384475
0.123709 0.187274 0.123709
0.144999 0.187274 0.123709
0.166290 0.187274 0.123709
0.188175 0.187869 0.124305
0.250901 0.229304 0.165739
0.370705 0.302946 0.239381
0.445927 0.351310 0.287745
0.521148 0.399675 0.336110
0.596369 0.448040 0.384475
0.164971 0.249737 0.164971
0.186261 0.249737 0.164971
0.207551 0.249737 0.164971
0.228842 0.249737 0.164971
0.250901 0.250506 0.165739
0.370705 0.324147 0.239381
0.445927 0.372512 0.287745
0.521148 0.420876 0.336110
0.596369 0.469241 0.384475
0.238281 0.368995 0.238281
0.259572 0.368995 0.238281
0.280862 0.368995 0.238281
0.302152 0.368995 0.238281
0.323442 0.368995 0.238281
0.370705 0.370116 0.239381
0.445927 0.419403 0.287745
0.521148 0.468690 0.336110
0.596369 0.517977 0.384475
0.286444 0.443902 0.286444
0.307734 0.443902 0.286444
0.329024 0.443902 0.286444
0.350315 0.443902 0.286444
0.371605 0.443902 0.286444
0.418666 0.443902 0.286444
0.445927 0.445229 0.287745
0.521148 0.494516 0.336110
0.596369 0.543803 0.384475
0.334606 0.518809 0.334606
0.355897 0.518809 0.334606
0.377187 0.518809 0.334606
0.398477 0.518809 0.334606
0.419768 0.518809 0.334606
0.467747 0.518809 0.334606
0.493681 0.518809 0.334606
0.521148 0.520342 0.336110
0.596369 0.569629 0.384475
0.382769 0.593716 0.382769
0.404059 0.593716 0.382769
0.425350 0.593716 0.382769
0.446640 0.593716 0.382769
0.467930 0.593716 0.382769
0.516828 0.593716 0.382769
0.542762 0.593716 0.382769
0.568697 0.593716 0.382769
0.596369 0.595454 0.384475
0.040682 0.040682 0.061586
0.062725 0.041435 0.062339
0.125450 0.082870 0.103773
0.188175 0.124305 0.145208
0.250901 0.165739 0.186643
0.370705 0.239381 0.260284
0.445927 0.287745 0.308649
0.521148 0.336110 0.357014
0.596369 0.384475 0.405378
0.041186 0.062348 0.062089
0.103408 0.103279 0.103021
0.166133 0.144714 0.144456
0.228858 0.186149 0.185891
0.291583 0.227584 0.227325
0.413491 0.302409 0.302150
0.488713 0.350773 0.350515
0.563934 0.399138 0.398880
0.639155 0.447503 0.447244
0.082447 0.124811 0.103351
0.144420 0.165493 0.144033
0.166133 0.165916 0.144456
0.228858 0.207350 0.185891
0.291583 0.248785 0.227325
0.413491 0.323610 0.302150
0.488713 0.371975 0.350515
0.563934 0.420339 0.398880
0.639155 0.468704 0.447244
0.123709 0.187274 0.144613
0.185682 0.227956 0.185295
0.206972 0.227956 0.185295
0.228858 0.228552 0.185891
0.291583 0.269987 0.227325
0.413491 0.344811 0.302150
0.488713 0.393176 0.350515
0.563934 0.441541 0.398880
0.639155 0.489905 0.447244
0.164971 0.249737 0.185874
0.226943 0.290419 0.226557
0.248234 0.290419 0.226557
0.269524 0.290419 0.226557
0.291583 0.291188 0.227325
0.413491 0.366013 0.302150
0.488713 0.414377 0.350515
0.563934 0.462742 0.398880
0.639155 0.534079 0.447244
0.238281 0.368995 0.259185
0.301437 0.411781 0.301051
0.322728 0.411781 0.301051
0.344018 0.411781 0.301051
0.365308 0.411781 0.301051
0.413491 0.412902 0.302150
0.488713 0.462189 0.350515
0.563934 0.511476 0.398880
0.639155 0.560763 0.447244
0.286444 0.443902 0.307347
0.349600 0.486688 0.349213
0.370890 0.486688 0.349213
0.392181 0.486688 0.349213
0.413471 0.486688 0.349213
0.461452 0.486688 0.349213
0.488713 0.488015 0.350515
0.563934 0.537302 0.398880
0.639155 0.586589 0.447244
0.334606 0.518809 0.355510
0.397762 0.561595 0.397376
0.419053 0.561595 0.397376
0.440343 0.561595 0.397376
0.461633 0.561595 0.397376
0.510533 0.561595 0.397376
0.536467 0.561595 0.397376
0.563934 0.563128 0.398880
0.639155 0.612415 0.447244
0.382769 0.593716 0.403673
0.445925 0.636502 0.445538
0.467215 0.636502 0.445538
0.488506 0.636502 0.445538
0.532830 0.636502 0.445538
0.559614 0.636502 0.445538
0.585548 0.636502 0.445538
0.611483 0.636502 0.445538
0.639155 0.638241 0.447244
0.081595 0.081595 0.123520
0.102885 0.081595 0.123520
0.125450 0.082870 0.124795
0.188175 0.124305 0.166230
0.250901 0.165739 0.207665
0.370705 0.239381 0.281306
0.445927 0.287745 0.329671
0.521148 0.336110 0.378036
0.596369 0.384475 0.426400
0.081595 0.102757 0.123520
0.144071 0.143942 0.164706
0.166636 0.145217 0.165981
0.229361 0.186652 0.207416
0.292086 0.228087 0.248850
0.414021 0.302926 0.323690
0.489242 0.351291 0.372054
0.564463 0.399656 0.420419
0.639685 0.448021 0.468784
0.082447 0.124811 0.124373
0.145172 0.166246 0.165808
0.207045 0.206828 0.206390
0.269770 0.248263 0.247825
0.332495 0.289698 0.289260
0.456519 0.365712 0.365274
0.531741 0.414077 0.413639
0.606962 0.462442 0.462004
0.682183 0.510807 0.510368
0.123709 0.187274 0.165634
0.186434 0.228709 0.207069
0.247884 0.268868 0.247229
0.269770 0.269464 0.247825
0.332495 0.310899 0.289260
0.456519 0.386914 0.365274
0.531741 0.435278 0.413639
0.606962 0.483643 0.462004
0.682183 0.532008 0.510368
0.164971 0.249737 0.206896
0.227696 0.291172 0.248331
0.289146 0.331331 0.288491
0.310436 0.331331 0.288491
0.332495 0.332100 0.289260
0.456519 0.408115 0.365274
0.531741 0.456480 0.413639
0.606962 0.527820 0.462004
0.682183 0.577107 0.510368
0.238281 0.368995 0.280207
0.302212 0.412573 0.322847
0.364830 0.454809 0.364175
0.386120 0.454809 0.364175
0.407411 0.454809 0.364175
0.456519 0.455930 0.365274
0.531741 0.505217 0.413639
0.606962 0.554504 0.462004
0.682183 0.603791 0.510368
0.286444 0.443902 0.328369
0.350374 0.487480 0.371009
0.412993 0.529716 0.412337
0.434283 0.529716 0.412337
0.455573 0.529716 0.412337
0.504480 0.529716 0.412337
0.531741 0.531043 0.413639
0.606962 0.580330 0.462004
0.682183 0.629617 0.510368
0.334606 0.518809 0.376532
0.398537 0.562387 0.419172
0.461155 0.604623 0.460500
0.482445 0.604623 0.460500
0.526777 0.604623 0.460500
0.553561 0.604623 0.460500
0.579495 0.604623 0.460500
0.606962 0.606156 0.462004
0.682183 0.655443 0.510368
0.382769 0.593716 0.424694
0.446699 0.637294 0.467335
0.509318 0.679530 0.508663
0.530608 0.679530 0.508663
0.575858 0.679530 0.508663
0.602642 0.679530 0.508663
0.628577 0.679530 0.508663
0.654511 0.679530 0.508663
0.682183 0.681269 0.510368
0.122507 0.122507 0.185454
0.143797 0.122507 0.185454
0.165088 0.122507 0.185454
0.188175 0.124305 0.187252
0.250901 0.165739 0.228687
0.370705 0.239381 0.302328
0.445927 0.287745 0.350693
0.521148 0.336110 0.399057
0.596369 0.384475 0.447422
0.122507 0.143669 0.185454
0.184983 0.184855 0.226640
0.206273 0.184855 0.226640
0.229361 0.186652 0.228437
0.292086 0.228087 0.269872
0.414021 0.302926 0.344712
0.489242 0.351291 0.393076
0.564463 0.399656 0.441441
0.639685 0.448021 0.489806
0.122507 0.164871 0.185454
0.185232 0.206305 0.226889
0.247535 0.247318 0.267901
0.270623 0.249115 0.269699
0.333348 0.290550 0.311134
0.457416 0.366590 0.387173
0.532637 0.414954 0.435538
0.607859 0.463319 0.483903
0.683080 0.511684 0.532268
0.123709 0.187274 0.186656
0.186434 0.228709 0.228091
0.249159 0.270143 0.269526
0.310682 0.310376 0.309759
0.373408 0.351811 0.351194
0.499548 0.429016 0.428399
0.574769 0.477381 0.476763
0.649990 0.525746 0.525128
0.725211 0.574110 0.573493
0.164971 0.249737 0.227918
0.227696 0.291172 0.269353
0.290421 0.332606 0.310788
0.351349 0.372244 0.350425
0.373408 0.373013 0.351194
0.499548 0.450217 0.428399
0.574769 0.521561 0.476763
0.649990 0.570848 0.525128
0.725211 0.620135 0.573493
0.238281 0.368995 0.301229
0.302212 0.412573 0.343869
0.366142 0.456150 0.386509
0.428223 0.497837 0.427299
0.449513 0.497837 0.427299
0.499548 0.498958 0.428399
0.574769 0.548245 0.476763
0.649990 0.597532 0.525128
0.725211 0.646819 0.573493
0.286444 0.443902 0.349391
0.350374 0.487480 0.392031
0.414305 0.531057 0.434671
0.476385 0.572744 0.475462
0.520724 0.572744 0.475462
0.547508 0.572744 0.475462
0.574769 0.574071 0.476763
0.649990 0.623358 0.525128
0.725211 0.672645 0.573493
0.334606 0.518809 0.397554
0.398537 0.562387 0.440194
0.462467 0.605964 0.482834
0.524548 0.647651 0.523624
0.569805 0.647651 0.523624
0.596589 0.647651 0.523624
0.622523 0.647651 0.523624
0.649990 0.649184 0.525128
0.725211 0.698471 0.573493
0.382769 0.593716 0.445716
0.446699 0.637294 0.488356
0.510630 0.680871 0.530997
0.572710 0.722558 0.571787
0.618886 0.722558 0.571787
0.645670 0.722558 0.571787
0.671605 0.722558 0.571787
0.697539 0.722558 0.571787
0.725211 0.724297 0.573493
0.163419 0.163419 0.247388
0.184710 0.163419 0.247388
0.206000 0.163419 0.247388
0.227290 0.163419 0.247388
0.250901 0.165739 0.249708
0.370705 0.239381 0.323350
0.445927 0.287745 0.371715
0.521148 0.336110 0.420079
0.596369 0.384475 0.468444
0.163419 0.184581 0.247388
0.225895 0.225767 0.288574
0.247185 0.225767 0.288574
0.268476 0.225767 0.288574
0.292086 0.228087 0.290894
0.414021 0.302926 0.365733
0.489242 0.351291 0.414098
0.564463 0.399656 0.462463
0.639685 0.448021 0.533621
0.163419 0.205783 0.247388
0.226144 0.247218 0.288823
0.288447 0.288230 0.329836
0.309737 0.288230 0.329836
0.333348 0.290550 0.332156
0.457416 0.366590 0.408195
0.532637 0.414954 0.456560
0.607859 0.463319 0.527730
0.683080 0.511684 0.577017
0.163419 0.226984 0.247388
0.226144 0.268419 0.288823
0.288870 0.309854 0.330258
0.350999 0.350693 0.371097
0.374610 0.353013 0.373417
0.500812 0.430253 0.450657
0.576033 0.478618 0.521838
0.651254 0.526982 0.571125
0.726475 0.575347 0.620412
0.164971 0.249737 0.248940
0.227696 0.291172 0.290375
0.290421 0.332606 0.331809
0.353146 0.374041 0.373244
0.414320 0.413925 0.413128
0.571880 0.544606 0.543619
0.648287 0.595079 0.594092
0.724694 0.645552 0.644565
0.801101 0.696025 0.695038
0.238281 0.368995 0.322250
0.302212 0.412573 0.364890
0.366142 0.456150 0.407531
0.430073 0.499728 0.450171
0.543948 0.570143 0.542472
0.571880 0.571290 0.543619
0.648287 0.621763 0.594092
0.724694 0.672236 0.644565
0.801101 0.722709 0.695038
0.286444 0.443902 0.370413
0.350374 0.487480 0.413053
0.414305 0.531057 0.455693
0.478235 0.574635 0.521138
0.594210 0.646231 0.592734
0.620994 0.646231 0.592734
0.648287 0.647589 0.594092
0.724694 0.698062 0.644565
0.801101 0.748535 0.695038
0.334606 0.518809 0.418576
0.398537 0.562387 0.461216
0.462467 0.605964 0.526642
0.526398 0.649542 0.570219
0.644472 0.722319 0.642996
0.671256 0.722319 0.642996
0.697191 0.722319 0.642996
0.724694 0.723888 0.644565
0.801101 0.774361 0.695038
0.382769 0.593716 0.466738
0.446699 0.637294 0.532145
0.510630 0.680871 0.575723
0.574560 0.724449 0.619300
0.694734 0.798406 0.693258
0.721518 0.798406 0.693258
0.747453 0.798406 0.693258
0.773387 0.798406 0.693258
0.801101 0.800187 0.695038
0.236063 0.236063 0.365545
0.257353 0.236063 0.365545
0.278643 0.236063 0.365545
0.299934 0.236063 0.365545
0.321224 0.236063 0.365545
0.370705 0.239381 0.368926
0.445927 0.287745 0.418213
0.521148 0.336110 0.467500
0.596369 0.384475 0.516787
0.236063 0.257225 0.365545
0.299737 0.299608 0.408860
0.321027 0.299608 0.408860
0.342317 0.299608 0.408860
0.363607 0.299608 0.408860
0.414021 0.302926 0.412241
0.489242 0.351291 0.461528
0.564463 0.399656 0.510815
0.639685 0.448021 0.560102
0.236063 0.278426 0.365545
0.299993 0.321066 0.409122
0.363489 0.363272 0.452256
0.384779 0.363272 0.452256
0.406069 0.363272 0.452256
0.457416 0.366590 0.455637
0.532637 0.414954 0.504924
0.607859 0.463319 0.554211
0.683080 0.511684 0.603498
0.236063 0.299628 0.365545
0.299993 0.342268 0.409122
0.363924 0.384908 0.452700
0.427241 0.426935 0.495651
0.448531 0.426935 0.495651
0.500812 0.430253 0.499032
0.576033 0.478618 0.548319
0.651254 0.526982 0.597606
0.726475 0.575347 0.646893
0.236063 0.320829 0.365545
0.299993 0.363469 0.409122
0.363924 0.406109 0.452700
0.427854 0.448749 0.496277
0.543553 0.543064 0.568559
0.573800 0.546527 0.572021
0.650208 0.597000 0.622494
0.726615 0.647473 0.672967
0.803022 0.697945 0.723440
0.238281 0.368995 0.367806
0.302212 0.412573 0.411383
0.366142 0.456150 0.454961
0.430073 0.499728 0.498538
0.546820 0.573015 0.571826
0.623417 0.622828 0.621638
0.699824 0.673301 0.672111
0.776232 0.723773 0.722584
0.852639 0.774246 0.773057
0.286444 0.443902 0.416887
0.350374 0.487480 0.460464
0.414305 0.531057 0.504042
0.478235 0.574635 0.547619
0.597082 0.649103 0.622088
0.672532 0.697768 0.670753
0.699824 0.699127 0.672111
0.776232 0.749599 0.722584
0.852639 0.800072 0.773057
0.334606 0.518809 0.465968
0.398537 0.562387 0.509545
0.462467 0.605964 0.553123
0.526398 0.649542 0.596700
0.647344 0.725191 0.672350
0.722794 0.773856 0.721015
0.748728 0.773856 0.721015
0.776232 0.775425 0.722584
0.852639 0.825898 0.773057
0.382769 0.593716 0.515049
0.446699 0.637294 0.558626
0.510630 0.680871 0.602204
0.574560 0.724449 0.645782
0.697606 0.801279 0.722612
0.773056 0.849944 0.771277
0.798990 0.849944 0.771277
0.824924 0.849944 0.771277
0.852639 0.851724 0.773057
0.283817 0.283817 0.439817
0.305108 0.283817 0.439817
0.326398 0.283817 0.439817
0.347688 0.283817 0.439817
0.368979 0.283817 0.439817
0.415989 0.283817 0.439817
0.445927 0.287745 0.443820
0.521148 0.336110 0.493107
0.596369 0.384475 0.542394
0.283817 0.304980 0.439817
0.347491 0.347363 0.483133
0.368782 0.347363 0.483133
0.390072 0.347363 0.483133
0.411362 0.347363 0.483133
0.459305 0.347363 0.483133
0.489242 0.351291 0.487136
0.564463 0.399656 0.536423
0.639685 0.448021 0.585710
0.283817 0.326181 0.439817
0.347748 0.368821 0.483395
0.411244 0.411026 0.526528
0.432534 0.411026 0.526528
0.453824 0.411026 0.526528
0.502700 0.411026 0.526528
0.532637 0.414954 0.530531
0.607859 0.463319 0.579818
0.683080 0.511684 0.629105
0.283817 0.347382 0.439817
0.347748 0.390022 0.483395
0.411678 0.432663 0.526973
0.474996 0.474690 0.569924
0.519311 0.474690 0.569924
0.546096 0.474690 0.569924
0.576033 0.478618 0.573927
0.651254 0.526982 0.623214
0.726475 0.575347 0.672501
0.283817 0.368584 0.439817
0.347748 0.411224 0.483395
0.411678 0.453864 0.526973
0.475609 0.519448 0.570550
0.593390 0.592900 0.644002
0.620174 0.592900 0.644002
0.650208 0.597000 0.648101
0.726615 0.647473 0.698574
0.803022 0.697945 0.749047
0.283817 0.415400 0.439817
0.347748 0.458977 0.483395
0.411678 0.502555 0.526973
0.475609 0.546133 0.570550
0.594341 0.620536 0.644954
0.672106 0.671517 0.695934
0.702140 0.675616 0.700033
0.778547 0.726089 0.750506
0.854954 0.776562 0.800979
0.286444 0.443902 0.442494
0.350374 0.487480 0.486071
0.414305 0.531057 0.529649
0.478235 0.574635 0.573227
0.597082 0.649103 0.647695
0.675995 0.701231 0.699823
0.749661 0.748963 0.747555
0.826068 0.799436 0.798027
0.902475 0.849909 0.848500
0.334606 0.518809 0.491575
0.398537 0.562387 0.535153
0.462467 0.605964 0.578730
0.526398 0.649542 0.622308
0.647344 0.725191 0.697957
0.726256 0.777319 0.750084
0.798564 0.823692 0.796458
0.826068 0.825262 0.798027
0.902475 0.875734 0.848500
0.382769 0.593716 0.540656
0.446699 0.637294 0.584234
0.510630 0.680871 0.627811
0.574560 0.724449 0.671389
0.697606 0.801279 0.748219
0.776518 0.853407 0.800346
0.848826 0.899780 0.846720
0.874761 0.899780 0.846720
0.902475 0.901560 0.848500
0.331572 0.331572 0.514090
0.352863 0.331572 0.514090
0.374153 0.331572 0.514090
0.395443 0.331572 0.514090
0.416733 0.331572 0.514090
0.464655 0.331572 0.514090
0.490589 0.331572 0.514090
0.521148 0.336110 0.518715
0.596369 0.384475 0.568002
0.331572 0.352734 0.514090
0.395246 0.395118 0.557405
0.416536 0.395118 0.557405
0.437827 0.395118 0.557405
0.459117 0.395118 0.557405
0.507970 0.395118 0.557405
0.533905 0.395118 0.557405
0.564463 0.399656 0.562030
0.639685 0.448021 0.611317
0.331572 0.373936 0.514090
0.395503 0.416576 0.557668
0.458998 0.458781 0.600801
0.480289 0.458781 0.600801
0.524581 0.458781 0.600801
0.551366 0.458781 0.600801
0.577300 0.458781 0.600801
0.607859 0.463319 0.605425
0.683080 0.511684 0.654712
0.331572 0.395137 0.514090
0.395503 0.437777 0.557668
0.459433 0.480417 0.601245
0.522751 0.522444 0.644196
0.567977 0.522444 0.644196
0.594761 0.522444 0.644196
0.620695 0.522444 0.644196
0.651254 0.526982 0.648821
0.726475 0.575347 0.698108
0.331572 0.416338 0.514090
0.395503 0.458979 0.557668
0.459433 0.524536 0.601245
0.523363 0.568114 0.644823
0.643226 0.642737 0.719446
0.670010 0.642737 0.719446
0.695945 0.642737 0.719446
0.726615 0.647473 0.724181
0.803022 0.697945 0.774654
0.331572 0.464065 0.514090
0.395503 0.507643 0.557668
0.459433 0.551220 0.601245
0.523363 0.594798 0.644823
0.644178 0.670373 0.720398
0.721943 0.721353 0.771378
0.747877 0.721353 0.771378
0.778547 0.726089 0.776114
0.854954 0.776562 0.826586
0.331572 0.489891 0.514090
0.395503 0.533469 0.557668
0.459433 0.577046 0.601245
0.523363 0.620624 0.644823
0.644178 0.696199 0.720398
0.723090 0.748326 0.772525
0.798139 0.797441 0.821640
0.828809 0.802177 0.826375
0.905216 0.852649 0.876848
0.334606 0.518809 0.517182
0.398537 0.562387 0.560760
0.462467 0.605964 0.604337
0.526398 0.649542 0.647915
0.647344 0.725191 0.723564
0.726256 0.777319 0.775692
0.802664 0.827792 0.826165
0.875904 0.875098 0.873471
0.952311 0.925571 0.923944
0.382769 0.593716 0.566263
0.446699 0.637294 0.609841
0.510630 0.680871 0.653418
0.574560 0.724449 0.696996
0.697606 0.801279 0.773826
0.776518 0.853407 0.825954
0.852926 0.903879 0.876427
0.924597 0.949617 0.922164
0.952311 0.951397 0.923944
0.379327 0.379327 0.588363
0.400617 0.379327 0.588363
0.421908 0.379327 0.588363
0.443198 0.379327 0.588363
0.464488 0.379327 0.588363
0.513320 0.379327 0.588363
0.539255 0.379327 0.588363
0.565189 0.379327 0.588363
0.596369 0.384475 0.593609
0.379327 0.400489 0.588363
0.443001 0.442873 0.631678
0.464291 0.442873 0.631678
0.485581 0.442873 0.631678
0.529851 0.442873 0.631678
0.556636 0.442873 0.631678
0.582570 0.442873 0.631678
0.608504 0.442873 0.631678
0.639685 0.448021 0.636924
0.379327 0.421690 0.588363
0.443257 0.464331 0.631940
0.506753 0.506536 0.675074
0.528043 0.506536 0.675074
0.573247 0.506536 0.675074
0.600031 0.506536 0.675074
0.625965 0.506536 0.675074
0.651900 0.506536 0.675074
0.683080 0.511684 0.680320
0.379327 0.442892 0.588363
0.443257 0.485532 0.631940
0.507188 0.528172 0.675518
0.570505 0.570199 0.718469
0.616642 0.570199 0.718469
0.643427 0.570199 0.718469
0.669361 0.570199 0.718469
0.695295 0.570199 0.718469
0.726475 0.575347 0.723715
0.379327 0.464093 0.588363
0.443257 0.529624 0.631940
0.507188 0.573202 0.675518
0.571118 0.616779 0.719095
0.693062 0.692573 0.794889
0.719847 0.692573 0.794889
0.745781 0.692573 0.794889
0.771715 0.692573 0.794889
0.803022 0.697945 0.800261
0.379327 0.512731 0.588363
0.443257 0.556308 0.631940
0.507188 0.599886 0.675518
0.571118 0.643463 0.719095
0.694014 0.720209 0.795841
0.771779 0.771189 0.846821
0.797713 0.771189 0.846821
0.823647 0.771189 0.846821
0.854954 0.776562 0.852194
0.379327 0.538557 0.588363
0.443257 0.582134 0.631940
0.507188 0.625712 0.675518
0.571118 0.669289 0.719095
0.694014 0.746035 0.795841
0.772926 0.798163 0.847969
0.847975 0.847277 0.897083
0.873909 0.847277 0.897083
0.905216 0.852649 0.902456
0.379327 0.564383 0.588363
0.443257 0.607960 0.631940
0.507188 0.651538 0.675518
0.571118 0.695115 0.719095
0.694014 0.771861 0.795841
0.772926 0.823989 0.847969
0.849333 0.874461 0.898442
0.924171 0.923365 0.947345
0.955478 0.928737 0.952717
0.382769 0.593716 0.591870
0.446699 0.637294 0.635448
0.510630 0.680871 0.679026
0.574560 0.724449 0.722603
0.697606 0.801279 0.799433
0.776518 0.853407 0.851561
0.852926 0.903879 0.902034
0.929333 0.954352 0.952507
0.998502 0.998502 0.997337
