docs/luts/fuji_recipes/Classic_DC_Classic_Chrome_I.cube
TITLE "Fujifilm Recipe: DC Classic Chrome I (Classic)"
# FilmSim=Classic HL=-1 SH=0 Col=2 WB=Auto WBR=0 WBB=0
LUT_3D_SIZE 9
DOMAIN_MIN 0.0 0.0 0.0
DOMAIN_MAX 1.0 1.0 1.0
0.000000 0.000000 0.000000
0.123554 0.000446 0.000446
0.247107 0.000893 0.000893
0.370661 0.001339 0.001339
0.494214 0.001786 0.001786
0.617068 0.002650 0.002650
0.731158 0.004229 0.004229
0.845247 0.005808 0.005808
0.959336 0.007387 0.007387
0.000444 0.122810 0.000444
0.123554 0.122813 0.000446
0.247107 0.123259 0.000893
0.370661 0.123706 0.001339
0.494214 0.124152 0.001786
0.617068 0.125016 0.002650
0.731158 0.126595 0.004229
0.845247 0.128174 0.005808
0.959336 0.129753 0.007387
0.000888 0.245847 0.000888
0.123995 0.245847 0.000888
0.247107 0.245852 0.000893
0.370661 0.246298 0.001339
0.494214 0.246745 0.001786
0.617068 0.247609 0.002650
0.731158 0.249188 0.004229
0.845247 0.250767 0.005808
0.959336 0.252346 0.007387
0.001333 0.368885 0.001333
0.124440 0.368885 0.001333
0.247547 0.368885 0.001333
0.370661 0.368891 0.001339
0.494214 0.369337 0.001786
0.617068 0.370202 0.002650
0.731158 0.371781 0.004229
0.845247 0.373360 0.005808
0.959336 0.374939 0.007387
0.001777 0.491922 0.001777
0.124885 0.491922 0.001777
0.247992 0.491922 0.001777
0.371099 0.491922 0.001777
0.494214 0.491930 0.001786
0.617068 0.492795 0.002650
0.731158 0.494373 0.004229
0.845247 0.495952 0.005808
0.959336 0.497531 0.007387
0.002614 0.614475 0.002614
0.125721 0.614475 0.002614
0.248828 0.614475 0.002614
0.371936 0.614475 0.002614
0.495043 0.614475 0.002614
0.617068 0.614480 0.002650
0.731158 0.614715 0.004229
0.845247 0.614950 0.005808
0.959336 0.615185 0.007387
0.004186 0.728087 0.004186
0.127294 0.728087 0.004186
0.250401 0.728087 0.004186
0.373508 0.728087 0.004186
0.496615 0.728087 0.004186
0.617297 0.728087 0.004186
0.731158 0.728094 0.004229
0.845247 0.728328 0.005808
0.959336 0.728563 0.007387
0.005759 0.841700 0.005759
0.128866 0.841700 0.005759
0.251973 0.841700 0.005759
0.375080 0.841700 0.005759
0.498187 0.841700 0.005759
0.617531 0.841700 0.005759
0.731385 0.841700 0.005759
0.845247 0.841707 0.005808
0.959336 0.841942 0.007387
0.007331 0.955312 0.007331
0.130438 0.955312 0.007331
0.253545 0.955312 0.007331
0.376653 0.955312 0.007331
0.499760 0.955312 0.007331
0.617765 0.955312 0.007331
0.731619 0.955312 0.007331
0.845474 0.955312 0.007331
0.959336 0.955320 0.007387
0.000438 0.000438 0.121310
0.123554 0.000446 0.121318
0.247107 0.000893 0.121764
0.370661 0.001339 0.122211
0.494214 0.001786 0.122657
0.617068 0.002650 0.123521
0.731158 0.004229 0.125100
0.845247 0.005808 0.126679
0.959336 0.007387 0.128258
0.000444 0.122810 0.121315
0.123992 0.123251 0.121756
0.247545 0.123697 0.122203
0.371099 0.124144 0.122649
0.494653 0.124590 0.123095
0.616343 0.125632 0.124137
0.730432 0.127211 0.125716
0.844521 0.128790 0.127295
0.958611 0.130369 0.128874
0.000888 0.245847 0.121760
0.124434 0.246286 0.122198
0.247545 0.246290 0.122203
0.371099 0.246737 0.122649
0.494653 0.247183 0.123095
0.616343 0.248225 0.124137
0.730432 0.249804 0.125716
0.844521 0.251383 0.127295
0.958611 0.252962 0.128874
0.001333 0.368885 0.122204
0.124878 0.369323 0.122643
0.247985 0.369323 0.122643
0.371099 0.369329 0.122649
0.494653 0.369776 0.123095
0.616343 0.370818 0.124137
0.730432 0.372397 0.125716
0.844521 0.373975 0.127295
0.958611 0.375554 0.128874
0.001777 0.491922 0.122649
0.125323 0.492360 0.123087
0.248430 0.492360 0.123087
0.371537 0.492360 0.123087
0.494653 0.492369 0.123095
0.616343 0.493410 0.124137
0.730432 0.494989 0.125716
0.844521 0.496568 0.127295
0.958611 0.497313 0.128874
0.002614 0.614475 0.123486
0.126337 0.613749 0.124101
0.249444 0.613749 0.124101
0.372551 0.613749 0.124101
0.495659 0.613749 0.124101
0.616343 0.613755 0.124137
0.730432 0.613990 0.125716
0.844521 0.614225 0.127295
0.958611 0.614460 0.128874
0.004186 0.728087 0.125058
0.127909 0.727362 0.125674
0.251017 0.727362 0.125674
0.374124 0.727362 0.125674
0.497231 0.727362 0.125674
0.616572 0.727362 0.125674
0.730432 0.727368 0.125716
0.844521 0.727603 0.127295
0.958611 0.727838 0.128874
0.005759 0.841700 0.126630
0.129482 0.840974 0.127246
0.252589 0.840974 0.127246
0.375696 0.840974 0.127246
0.498803 0.840974 0.127246
0.616806 0.840974 0.127246
0.730660 0.840974 0.127246
0.844521 0.840982 0.127295
0.958611 0.841217 0.128874
0.007331 0.955312 0.128203
0.131054 0.954587 0.128818
0.254161 0.954587 0.128818
0.377268 0.954587 0.128818
0.499452 0.954587 0.128818
0.617040 0.954587 0.128818
0.730894 0.954587 0.128818
0.844748 0.954587 0.128818
0.958611 0.954595 0.128874
0.000879 0.000879 0.243305
0.123986 0.000879 0.243305
0.247107 0.000893 0.243319
0.370661 0.001339 0.243765
0.494214 0.001786 0.244212
0.617068 0.002650 0.245076
0.731158 0.004229 0.246655
0.845247 0.005808 0.248234
0.959336 0.007387 0.249813
0.000879 0.123245 0.243305
0.124430 0.123689 0.243749
0.247551 0.123703 0.243763
0.371105 0.124149 0.244209
0.494658 0.124596 0.244656
0.616334 0.125640 0.245700
0.730423 0.127219 0.247279
0.844512 0.128798 0.248857
0.958602 0.130377 0.250436
0.000888 0.245847 0.243314
0.124442 0.246294 0.243761
0.247986 0.246731 0.244198
0.371540 0.247177 0.244645
0.495093 0.247624 0.245091
0.615613 0.248844 0.246311
0.729703 0.250423 0.247890
0.843792 0.252002 0.249469
0.957881 0.253581 0.251048
0.001333 0.368885 0.243759
0.124886 0.369331 0.244205
0.248426 0.369764 0.244638
0.371540 0.369770 0.244645
0.495093 0.370217 0.245091
0.615613 0.371437 0.246311
0.729703 0.373016 0.247890
0.843792 0.374595 0.249469
0.957881 0.376174 0.251048
0.001777 0.491922 0.244204
0.125331 0.492368 0.244650
0.248871 0.492801 0.245083
0.371978 0.492801 0.245083
0.495093 0.492809 0.245091
0.615613 0.494030 0.246311
0.729703 0.495609 0.247890
0.843792 0.496349 0.249469
0.957881 0.496584 0.251048
0.002614 0.614475 0.245040
0.126348 0.613736 0.245667
0.250064 0.613020 0.246275
0.373171 0.613020 0.246275
0.496278 0.613020 0.246275
0.615613 0.613025 0.246311
0.729703 0.613260 0.247890
0.843792 0.613495 0.249469
0.957881 0.613730 0.251048
0.004186 0.728087 0.246613
0.127921 0.727348 0.247240
0.251636 0.726632 0.247848
0.374743 0.726632 0.247848
0.497850 0.726632 0.247848
0.615842 0.726632 0.247848
0.729703 0.726639 0.247890
0.843792 0.726874 0.249469
0.957881 0.727109 0.251048
0.005759 0.841700 0.248185
0.129493 0.840961 0.248812
0.253208 0.840245 0.249420
0.376315 0.840245 0.249420
0.498489 0.840245 0.249420
0.616076 0.840245 0.249420
0.729930 0.840245 0.249420
0.843792 0.840252 0.249469
0.957881 0.840487 0.251048
0.007331 0.955312 0.249757
0.131065 0.954573 0.250384
0.254780 0.953857 0.250992
0.377888 0.953857 0.250992
0.498723 0.953857 0.250992
0.616310 0.953857 0.250992
0.730164 0.953857 0.250992
0.844019 0.953857 0.250992
0.957881 0.953866 0.251048
0.001320 0.001320 0.365301
0.124427 0.001320 0.365301
0.247534 0.001320 0.365301
0.370661 0.001339 0.365320
0.494214 0.001786 0.365767
0.617068 0.002650 0.366631
0.731158 0.004229 0.368210
0.845247 0.005808 0.369789
0.959336 0.007387 0.371368
0.001320 0.123686 0.365301
0.124871 0.124130 0.365744
0.247978 0.124130 0.365744
0.371105 0.124149 0.365764
0.494658 0.124596 0.366210
0.616334 0.125640 0.367254
0.730423 0.127219 0.368833
0.844512 0.128798 0.370412
0.958602 0.130377 0.371991
0.001320 0.246279 0.365301
0.124873 0.246725 0.365747
0.248422 0.247167 0.366189
0.371549 0.247187 0.366208
0.495103 0.247633 0.366655
0.615598 0.248857 0.367879
0.729688 0.250436 0.369458
0.843777 0.252015 0.371037
0.957866 0.253594 0.372616
0.001333 0.368885 0.365314
0.124886 0.369331 0.365760
0.248440 0.369777 0.366207
0.371981 0.370211 0.366640
0.495534 0.370657 0.367086
0.614884 0.372056 0.368485
0.728973 0.373635 0.370064
0.843063 0.375214 0.371643
0.957152 0.376793 0.373222
0.001777 0.491922 0.365758
0.125331 0.492368 0.366205
0.248885 0.492815 0.366651
0.372419 0.493242 0.367078
0.495534 0.493250 0.367086
0.614884 0.494649 0.368485
0.728973 0.495385 0.370064
0.843063 0.495620 0.371643
0.957152 0.495855 0.373222
0.002614 0.614475 0.366595
0.126348 0.613736 0.367222
0.250083 0.612997 0.367849
0.373790 0.612290 0.368449
0.496897 0.612290 0.368449
0.614884 0.612296 0.368485
0.728973 0.612531 0.370064
0.843063 0.612766 0.371643
0.957152 0.613001 0.373222
0.004186 0.728087 0.368167
0.127921 0.727348 0.368794
0.251655 0.726610 0.369422
0.375362 0.725903 0.370022
0.497525 0.725903 0.370022
0.615113 0.725903 0.370022
0.728973 0.725909 0.370064
0.843063 0.726144 0.371643
0.957152 0.726379 0.373222
0.005759 0.841700 0.369740
0.129493 0.840961 0.370367
0.253227 0.840222 0.370994
0.376935 0.839515 0.371594
0.497759 0.839515 0.371594
0.615347 0.839515 0.371594
0.729201 0.839515 0.371594
0.843063 0.839523 0.371643
0.957152 0.839758 0.373222
0.007331 0.955312 0.371312
0.131065 0.954573 0.371939
0.254800 0.953835 0.372566
0.378507 0.953128 0.373166
0.497993 0.953128 0.373166
0.615581 0.953128 0.373166
0.729435 0.953128 0.373166
0.843289 0.953128 0.373166
0.957152 0.953136 0.373222
0.001761 0.001761 0.487296
0.124868 0.001761 0.487296
0.247975 0.001761 0.487296
0.371082 0.001761 0.487296
0.494214 0.001786 0.487321
0.617068 0.002650 0.488186
0.731158 0.004229 0.489764
0.845247 0.005808 0.491343
0.959336 0.007387 0.492922
0.001761 0.124127 0.487296
0.125312 0.124571 0.487740
0.248419 0.124571 0.487740
0.371526 0.124571 0.487740
0.494658 0.124596 0.487765
0.616334 0.125640 0.488809
0.730423 0.127219 0.490388
0.844512 0.128798 0.491967
0.958602 0.130377 0.492972
0.001761 0.246720 0.487296
0.125314 0.247166 0.487743
0.248863 0.247608 0.488184
0.371970 0.247608 0.488184
0.495103 0.247633 0.488209
0.615598 0.248857 0.489434
0.729688 0.250436 0.491012
0.843777 0.252015 0.492001
0.957866 0.253594 0.492236
0.001761 0.369312 0.487296
0.125314 0.369759 0.487743
0.248868 0.370205 0.488189
0.372415 0.370645 0.488629
0.495547 0.370670 0.488654
0.614863 0.372074 0.490058
0.728952 0.373653 0.491031
0.843041 0.375232 0.491266
0.957130 0.376811 0.491501
0.001777 0.491922 0.487313
0.125331 0.492368 0.487759
0.248885 0.492815 0.488206
0.372438 0.493261 0.488652
0.495975 0.493691 0.489082
0.614230 0.494496 0.490163
0.728497 0.494909 0.490576
0.842764 0.495321 0.490989
0.957032 0.495734 0.491402
0.002614 0.614475 0.488150
0.126348 0.613736 0.488777
0.250083 0.612997 0.489404
0.373817 0.612258 0.490031
0.496634 0.611632 0.490154
0.614230 0.611642 0.490163
0.728497 0.612055 0.490576
0.842764 0.612468 0.490989
0.957032 0.612880 0.491402
0.004186 0.728087 0.489722
0.127921 0.727348 0.490349
0.251655 0.726610 0.490976
0.375390 0.725871 0.491014
0.497045 0.725422 0.490565
0.614632 0.725422 0.490565
0.728497 0.725433 0.490576
0.842764 0.725846 0.490989
0.957032 0.726259 0.491402
0.005759 0.841700 0.491294
0.129493 0.840961 0.491921
0.253227 0.840222 0.491986
0.376962 0.839483 0.491248
0.497456 0.839212 0.490976
0.615043 0.839212 0.490976
0.728897 0.839212 0.490976
0.842764 0.839225 0.490989
0.957032 0.839637 0.491402
0.007331 0.955312 0.492867
0.131065 0.954573 0.492959
0.254800 0.953835 0.492220
0.378534 0.953096 0.491482
0.497867 0.953001 0.491387
0.615454 0.953001 0.491387
0.729308 0.953001 0.491387
0.843163 0.953001 0.491387
0.957032 0.953016 0.491402
0.002542 0.002542 0.609241
0.125649 0.002542 0.609241
0.248756 0.002542 0.609241
0.371863 0.002542 0.609241
0.494970 0.002542 0.609241
0.617068 0.002650 0.609257
0.731158 0.004229 0.609492
0.845247 0.005808 0.609727
0.959336 0.007387 0.609962
0.002542 0.124908 0.609241
0.126272 0.125531 0.608507
0.249379 0.125531 0.608507
0.372487 0.125531 0.608507
0.495594 0.125531 0.608507
0.616334 0.125640 0.608523
0.730423 0.127219 0.608758
0.844512 0.128798 0.608993
0.958602 0.130377 0.609228
0.002542 0.247501 0.609241
0.126276 0.248128 0.608502
0.250004 0.248749 0.607771
0.373111 0.248749 0.607771
0.496218 0.248749 0.607771
0.615598 0.248857 0.607787
0.729688 0.250436 0.608022
0.843777 0.252015 0.608257
0.957866 0.253594 0.608492
0.002542 0.370093 0.609241
0.126276 0.370721 0.608502
0.250010 0.371348 0.607764
0.373736 0.371966 0.607035
0.496843 0.371966 0.607035
0.614863 0.372074 0.607052
0.728952 0.373653 0.607287
0.843041 0.375232 0.607522
0.957130 0.376811 0.607757
0.002542 0.492686 0.609241
0.126276 0.493313 0.608502
0.250010 0.493941 0.607764
0.373745 0.494568 0.607025
0.496630 0.494483 0.606407
0.614246 0.494511 0.606435
0.728513 0.494924 0.606848
0.842780 0.495337 0.607261
0.957047 0.495750 0.607673
0.002614 0.614475 0.609252
0.126348 0.613736 0.608513
0.250083 0.612997 0.607774
0.373817 0.612258 0.607036
0.496657 0.611656 0.606433
0.614652 0.612063 0.606841
0.728919 0.612476 0.607254
0.843186 0.612889 0.607666
0.957453 0.613302 0.608079
0.004186 0.728087 0.609486
0.127921 0.727348 0.608747
0.251655 0.726610 0.608008
0.375390 0.725871 0.607270
0.497068 0.725446 0.606844
0.615053 0.725844 0.607242
0.728919 0.725855 0.607254
0.843186 0.726268 0.607666
0.957453 0.726680 0.608079
0.005759 0.841700 0.609720
0.129493 0.840961 0.608981
0.253227 0.840222 0.608242
0.376962 0.839483 0.607504
0.497479 0.839235 0.607256
0.615465 0.839633 0.607654
0.729319 0.839633 0.607654
0.843186 0.839646 0.607666
0.957453 0.840059 0.608079
0.007331 0.955312 0.609954
0.131065 0.954573 0.609215
0.254800 0.953835 0.608476
0.378534 0.953096 0.607738
0.497890 0.953025 0.607667
0.615876 0.953423 0.608065
0.729730 0.953423 0.608065
0.843584 0.953423 0.608065
0.957453 0.953438 0.608079
0.004101 0.004101 0.721892
0.127208 0.004101 0.721892
0.250315 0.004101 0.721892
0.373422 0.004101 0.721892
0.496529 0.004101 0.721892
0.617284 0.004101 0.721892
0.731158 0.004229 0.721911
0.845247 0.005808 0.722146
0.959336 0.007387 0.722381
0.004101 0.126467 0.721892
0.127831 0.127090 0.721157
0.250938 0.127090 0.721157
0.374046 0.127090 0.721157
0.497153 0.127090 0.721157
0.616550 0.127090 0.721157
0.730423 0.127219 0.721176
0.844512 0.128798 0.721411
0.958602 0.130377 0.721646
0.004101 0.249060 0.721892
0.127835 0.249687 0.721153
0.251563 0.250308 0.720422
0.374670 0.250308 0.720422
0.497777 0.250308 0.720422
0.615814 0.250308 0.720422
0.729688 0.250436 0.720441
0.843777 0.252015 0.720676
0.957866 0.253594 0.720911
0.004101 0.371653 0.721892
0.127835 0.372280 0.721153
0.251569 0.372907 0.720414
0.375295 0.373525 0.719686
0.497491 0.373525 0.719686
0.615078 0.373525 0.719686
0.728952 0.373653 0.719705
0.843041 0.375232 0.719940
0.957130 0.376811 0.720175
0.004101 0.494245 0.721892
0.127835 0.494872 0.721153
0.251569 0.495500 0.720414
0.375304 0.495333 0.719675
0.497038 0.494891 0.719233
0.614625 0.494891 0.719233
0.728513 0.494924 0.719266
0.842780 0.495337 0.719679
0.957047 0.495750 0.720092
0.004101 0.614696 0.721892
0.127835 0.613957 0.721153
0.251569 0.613218 0.720414
0.375304 0.612480 0.719675
0.497046 0.612045 0.719240
0.615050 0.612462 0.719657
0.728938 0.612495 0.719691
0.843205 0.612908 0.720104
0.957472 0.613321 0.720517
0.004186 0.728087 0.721904
0.127921 0.727348 0.721166
0.251655 0.726610 0.720427
0.375390 0.725871 0.719688
0.497068 0.725446 0.719263
0.615082 0.725872 0.719689
0.729326 0.726262 0.720080
0.843594 0.726675 0.720493
0.957861 0.727088 0.720905
0.005759 0.841700 0.722138
0.129493 0.840961 0.721400
0.253227 0.840222 0.720661
0.376962 0.839483 0.719922
0.497479 0.839235 0.719674
0.615493 0.839662 0.720100
0.729726 0.840041 0.720480
0.843594 0.840054 0.720493
0.957861 0.840467 0.720905
0.007331 0.955312 0.722372
0.131065 0.954573 0.721634
0.254800 0.953835 0.720895
0.378534 0.953096 0.720156
0.497890 0.953025 0.720085
0.615904 0.953451 0.720512
0.730138 0.953831 0.720891
0.843992 0.953831 0.720891
0.957861 0.953845 0.720905
0.005660 0.005660 0.834542
0.128767 0.005660 0.834542
0.251874 0.005660 0.834542
0.374981 0.005660 0.834542
0.498088 0.005660 0.834542
0.617516 0.005660 0.834542
0.731370 0.005660 0.834542
0.845247 0.005808 0.834564
0.959336 0.007387 0.834799
0.005660 0.128026 0.834542
0.129390 0.128649 0.833808
0.252497 0.128649 0.833808
0.375605 0.128649 0.833808
0.498712 0.128649 0.833808
0.616782 0.128649 0.833808
0.730636 0.128649 0.833808
0.844512 0.128798 0.833830
0.958602 0.130377 0.834065
0.005660 0.250619 0.834542
0.129394 0.251246 0.833803
0.253122 0.251867 0.833072
0.376229 0.251867 0.833072
0.498459 0.251867 0.833072
0.616046 0.251867 0.833072
0.729900 0.251867 0.833072
0.843777 0.252015 0.833094
0.957866 0.253594 0.833329
0.005660 0.373212 0.834542
0.129394 0.373839 0.833803
0.253128 0.374466 0.833065
0.376854 0.375084 0.832336
0.497723 0.375084 0.832336
0.615310 0.375084 0.832336
0.729165 0.375084 0.832336
0.843041 0.375232 0.832358
0.957130 0.376811 0.832593
0.005660 0.495804 0.834542
0.129394 0.496431 0.833803
0.253128 0.496304 0.833065
0.376863 0.495565 0.832326
0.497446 0.495298 0.832059
0.615033 0.495298 0.832059
0.728887 0.495298 0.832059
0.842780 0.495337 0.832098
0.957047 0.495750 0.832510
0.005660 0.614928 0.834542
0.129394 0.614189 0.833803
0.253128 0.613450 0.833065
0.376863 0.612712 0.832326
0.497453 0.612452 0.832067
0.615458 0.612869 0.832484
0.729312 0.612869 0.832484
0.843205 0.612908 0.832522
0.957472 0.613321 0.832935
0.005660 0.728306 0.834542
0.129394 0.727568 0.833803
0.253128 0.726829 0.833065
0.376863 0.726090 0.832326
0.497453 0.725831 0.832067
0.615467 0.726257 0.832493
0.729723 0.726659 0.832895
0.843616 0.726698 0.832933
0.957883 0.727111 0.833346
0.005759 0.841700 0.834557
0.129493 0.840961 0.833818
0.253227 0.840222 0.833079
0.376962 0.839483 0.832341
0.497479 0.839235 0.832092
0.615493 0.839662 0.832519
0.729760 0.840074 0.832932
0.844001 0.840461 0.833319
0.958268 0.840874 0.833732
0.007331 0.955312 0.834791
0.131065 0.954573 0.834052
0.254800 0.953835 0.833313
0.378534 0.953096 0.832575
0.497890 0.953025 0.832504
0.615904 0.953451 0.832930
0.730171 0.953864 0.833343
0.844400 0.954238 0.833717
0.958268 0.954253 0.833732
0.007219 0.007219 0.947193
0.130326 0.007219 0.947193
0.253433 0.007219 0.947193
0.376540 0.007219 0.947193
0.499647 0.007219 0.947193
0.617748 0.007219 0.947193
0.731602 0.007219 0.947193
0.845457 0.007219 0.947193
0.959336 0.007387 0.947218
0.007219 0.129585 0.947193
0.130949 0.130208 0.946458
0.254056 0.130208 0.946458
0.377164 0.130208 0.946458
0.499427 0.130208 0.946458
0.617014 0.130208 0.946458
0.730868 0.130208 0.946458
0.844722 0.130208 0.946458
0.958602 0.130377 0.946483
0.007219 0.252178 0.947193
0.130953 0.252805 0.946454
0.254681 0.253426 0.945723
0.377788 0.253426 0.945723
0.498691 0.253426 0.945723
0.616278 0.253426 0.945723
0.730132 0.253426 0.945723
0.843987 0.253426 0.945723
0.957866 0.253594 0.945748
0.007219 0.374771 0.947193
0.130953 0.375398 0.946454
0.254687 0.376025 0.945715
0.378413 0.376643 0.944987
0.497955 0.376643 0.944987
0.615542 0.376643 0.944987
0.729397 0.376643 0.944987
0.843251 0.376643 0.944987
0.957130 0.376811 0.945012
0.007219 0.497363 0.947193
0.130953 0.497275 0.946454
0.254687 0.496536 0.945715
0.378422 0.495797 0.944976
0.497853 0.495706 0.944885
0.615440 0.495706 0.944885
0.729295 0.495706 0.944885
0.843149 0.495706 0.944885
0.957047 0.495750 0.944929
0.007219 0.615160 0.947193
0.130953 0.614421 0.946454
0.254687 0.613682 0.945715
0.378422 0.612944 0.944976
0.497861 0.612860 0.944893
0.615865 0.613277 0.945310
0.729720 0.613277 0.945310
0.843574 0.613277 0.945310
0.957472 0.613321 0.945354
0.007219 0.728538 0.947193
0.130953 0.727800 0.946454
0.254687 0.727061 0.945715
0.378422 0.726322 0.944976
0.497861 0.726238 0.944893
0.615875 0.726665 0.945319
0.730131 0.727067 0.945721
0.843985 0.727067 0.945721
0.957883 0.727111 0.945765
0.007219 0.841917 0.947193
0.130953 0.841178 0.946454
0.254687 0.840439 0.945715
0.378422 0.839701 0.944976
0.497861 0.839617 0.944893
0.615875 0.840043 0.945319
0.730142 0.840456 0.945732
0.844396 0.840856 0.946132
0.958294 0.840900 0.946176
0.007331 0.955312 0.947209
0.131065 0.954573 0.946471
0.254800 0.953835 0.945732
0.378534 0.953096 0.944993
0.497890 0.953025 0.944922
0.615904 0.953451 0.945348
0.730171 0.953864 0.945761
0.844438 0.954277 0.946174
0.958676 0.954660 0.946558
