docs/luts/fuji_recipes/Classic_RR_Dramatic_Classic_Chrome.cube
TITLE "Fujifilm Recipe: RR Dramatic Classic Chrome (Classic)"
# FilmSim=Classic HL=3 SH=3 Col=0 WB=Auto WBR=-1 WBB=1
LUT_3D_SIZE 33
DOMAIN_MIN 0.0 0.0 0.0
DOMAIN_MAX 1.0 1.0 1.0
0.000000 0.000000 0.000000
0.028920 0.004514 0.004514
0.054665 0.008532 0.008532
0.079973 0.012481 0.012481
0.105281 0.016431 0.016431
0.130589 0.020381 0.020381
0.155897 0.024331 0.024331
0.181205 0.028281 0.028281
0.206513 0.032230 0.032230
0.231821 0.036180 0.036180
0.257129 0.040130 0.040130
0.282436 0.044080 0.044080
0.307744 0.048029 0.048029
0.333052 0.051979 0.051979
0.358360 0.055929 0.055929
0.386614 0.060339 0.060339
0.411514 0.064225 0.064225
0.436414 0.068111 0.068111
0.527126 0.071997 0.071997
0.558817 0.075883 0.075883
0.590508 0.079769 0.079769
0.622198 0.083655 0.083655
0.653889 0.087541 0.087541
0.685579 0.091427 0.091427
0.717270 0.095313 0.095313
0.748961 0.099200 0.099200
0.780651 0.103086 0.103086
0.812342 0.106972 0.106972
0.844032 0.110858 0.110858
0.873536 0.114476 0.114476
0.873536 0.114476 0.114476
0.873536 0.114476 0.114476
0.873536 0.114476 0.114476
0.004583 0.029365 0.004583
0.028990 0.029365 0.004583
0.054665 0.033314 0.008532
0.079973 0.037264 0.012481
0.105281 0.041213 0.016431
0.130589 0.045163 0.020381
0.155897 0.049113 0.024331
0.181205 0.053063 0.028281
0.206513 0.057013 0.032230
0.231821 0.060962 0.036180
0.257129 0.064912 0.040130
0.282436 0.068862 0.044080
0.307744 0.072812 0.048029
0.333052 0.076762 0.051979
0.358360 0.080711 0.055929
0.386614 0.085121 0.060339
0.411514 0.089007 0.064225
0.436414 0.092893 0.068111
0.527126 0.096779 0.071997
0.558817 0.100665 0.075883
0.590508 0.104551 0.079769
0.622198 0.108438 0.083655
0.653889 0.112324 0.087541
0.685579 0.116210 0.091427
0.717270 0.120096 0.095313
0.748961 0.123982 0.099200
0.780651 0.127868 0.103086
0.812342 0.131754 0.106972
0.844032 0.135640 0.110858
0.873536 0.139258 0.114476
0.873536 0.139258 0.114476
0.873536 0.139258 0.114476
0.873536 0.139258 0.114476
0.008687 0.055659 0.008687
0.033093 0.055659 0.008687
0.054820 0.055659 0.008687
0.079973 0.059454 0.012481
0.105281 0.063403 0.016431
0.130589 0.067353 0.020381
0.155897 0.071303 0.024331
0.181205 0.075253 0.028281
0.206513 0.079203 0.032230
0.231821 0.083152 0.036180
0.257129 0.087102 0.040130
0.282436 0.091052 0.044080
0.307744 0.095002 0.048029
0.333052 0.098951 0.051979
0.358360 0.102901 0.055929
0.386614 0.107311 0.060339
0.411514 0.111197 0.064225
0.436414 0.115083 0.068111
0.527126 0.118969 0.071997
0.558817 0.122855 0.075883
0.590508 0.126741 0.079769
0.622198 0.130627 0.083655
0.653889 0.134513 0.087541
0.685579 0.138400 0.091427
0.717270 0.142286 0.095313
0.748961 0.146172 0.099200
0.780651 0.150058 0.103086
0.812342 0.153944 0.106972
0.844032 0.157830 0.110858
0.873536 0.161448 0.114476
0.873536 0.161448 0.114476
0.873536 0.161448 0.114476
0.873536 0.161448 0.114476
0.012721 0.081507 0.012721
0.037128 0.081507 0.012721
0.058854 0.081507 0.012721
0.080212 0.081507 0.012721
0.105281 0.085218 0.016431
0.130589 0.089167 0.020381
0.155897 0.093117 0.024331
0.181205 0.097067 0.028281
0.206513 0.101017 0.032230
0.231821 0.104967 0.036180
0.257129 0.108916 0.040130
0.282436 0.112866 0.044080
0.307744 0.116816 0.048029
0.333052 0.120766 0.051979
0.358360 0.124716 0.055929
0.386614 0.129125 0.060339
0.411514 0.133011 0.064225
0.436414 0.136897 0.068111
0.527126 0.140783 0.071997
0.558817 0.144669 0.075883
0.590508 0.148556 0.079769
0.622198 0.152442 0.083655
0.653889 0.156328 0.087541
0.685579 0.160214 0.091427
0.717270 0.164100 0.095313
0.748961 0.167986 0.099200
0.780651 0.171872 0.103086
0.812342 0.175758 0.106972
0.844032 0.179644 0.110858
0.873536 0.183262 0.114476
0.873536 0.183262 0.114476
0.873536 0.183262 0.114476
0.873536 0.183262 0.114476
0.016755 0.107356 0.016755
0.041162 0.107356 0.016755
0.062888 0.107356 0.016755
0.084247 0.107356 0.016755
0.105605 0.107356 0.016755
0.130589 0.110982 0.020381
0.155897 0.114931 0.024331
0.181205 0.118881 0.028281
0.206513 0.122831 0.032230
0.231821 0.126781 0.036180
0.257129 0.130731 0.040130
0.282436 0.134680 0.044080
0.307744 0.138630 0.048029
0.333052 0.142580 0.051979
0.358360 0.146530 0.055929
0.386614 0.150939 0.060339
0.411514 0.154825 0.064225
0.436414 0.158712 0.068111
0.527126 0.162598 0.071997
0.558817 0.166484 0.075883
0.590508 0.170370 0.079769
0.622198 0.174256 0.083655
0.653889 0.178142 0.087541
0.685579 0.182028 0.091427
0.717270 0.185914 0.095313
0.748961 0.189800 0.099200
0.780651 0.193686 0.103086
0.812342 0.197572 0.106972
0.844032 0.201459 0.110858
0.873536 0.205076 0.114476
0.873536 0.205076 0.114476
0.873536 0.205076 0.114476
0.873536 0.205076 0.114476
0.020789 0.133204 0.020789
0.045196 0.133204 0.020789
0.066923 0.133204 0.020789
0.088281 0.133204 0.020789
0.109639 0.133204 0.020789
0.130997 0.133204 0.020789
0.155897 0.136746 0.024331
0.181205 0.140695 0.028281
0.206513 0.144645 0.032230
0.231821 0.148595 0.036180
0.257129 0.152545 0.040130
0.282436 0.156495 0.044080
0.307744 0.160444 0.048029
0.333052 0.164394 0.051979
0.358360 0.168344 0.055929
0.386614 0.172754 0.060339
0.411514 0.176640 0.064225
0.436414 0.180526 0.068111
0.527126 0.184412 0.071997
0.558817 0.188298 0.075883
0.590508 0.192184 0.079769
0.622198 0.196070 0.083655
0.653889 0.199956 0.087541
0.685579 0.203842 0.091427
0.717270 0.207728 0.095313
0.748961 0.211614 0.099200
0.780651 0.215501 0.103086
0.812342 0.219387 0.106972
0.844032 0.223273 0.110858
0.873536 0.226891 0.114476
0.873536 0.226891 0.114476
0.873536 0.226891 0.114476
0.873536 0.226891 0.114476
0.024823 0.159052 0.024823
0.049230 0.159052 0.024823
0.070957 0.159052 0.024823
0.092315 0.159052 0.024823
0.113673 0.159052 0.024823
0.135031 0.159052 0.024823
0.156389 0.159052 0.024823
0.181205 0.162510 0.028281
0.206513 0.166459 0.032230
0.231821 0.170409 0.036180
0.257129 0.174359 0.040130
0.282436 0.178309 0.044080
0.307744 0.182259 0.048029
0.333052 0.186208 0.051979
0.358360 0.190158 0.055929
0.386614 0.194568 0.060339
0.411514 0.198454 0.064225
0.436414 0.202340 0.068111
0.527126 0.206226 0.071997
0.558817 0.210112 0.075883
0.590508 0.213998 0.079769
0.622198 0.217884 0.083655
0.653889 0.221770 0.087541
0.685579 0.225657 0.091427
0.717270 0.229543 0.095313
0.748961 0.233429 0.099200
0.780651 0.237315 0.103086
0.812342 0.241201 0.106972
0.844032 0.245087 0.110858
0.873536 0.248705 0.114476
0.873536 0.248705 0.114476
0.873536 0.248705 0.114476
0.873536 0.248705 0.114476
0.028857 0.184901 0.028857
0.053264 0.184901 0.028857
0.074991 0.184901 0.028857
0.096349 0.184901 0.028857
0.117707 0.184901 0.028857
0.139065 0.184901 0.028857
0.160423 0.184901 0.028857
0.181782 0.184901 0.028857
0.206513 0.188274 0.032230
0.231821 0.192224 0.036180
0.257129 0.196173 0.040130
0.282436 0.200123 0.044080
0.307744 0.204073 0.048029
0.333052 0.208023 0.051979
0.358360 0.211972 0.055929
0.386614 0.216382 0.060339
0.411514 0.220268 0.064225
0.436414 0.224154 0.068111
0.527126 0.228040 0.071997
0.558817 0.231926 0.075883
0.590508 0.235813 0.079769
0.622198 0.239699 0.083655
0.653889 0.243585 0.087541
0.685579 0.247471 0.091427
0.717270 0.251357 0.095313
0.748961 0.255243 0.099200
0.780651 0.259129 0.103086
0.812342 0.263015 0.106972
0.844032 0.266901 0.110858
0.873536 0.270519 0.114476
0.873536 0.270519 0.114476
0.873536 0.270519 0.114476
0.873536 0.270519 0.114476
0.032891 0.210749 0.032891
0.057298 0.210749 0.032891
0.079025 0.210749 0.032891
0.100383 0.210749 0.032891
0.121741 0.210749 0.032891
0.143099 0.210749 0.032891
0.164458 0.210749 0.032891
0.185816 0.210749 0.032891
0.207174 0.210749 0.032891
0.231821 0.214038 0.036180
0.257129 0.217988 0.040130
0.282436 0.221937 0.044080
0.307744 0.225887 0.048029
0.333052 0.229837 0.051979
0.358360 0.233787 0.055929
0.386614 0.238196 0.060339
0.411514 0.242082 0.064225
0.436414 0.245969 0.068111
0.527126 0.249855 0.071997
0.558817 0.253741 0.075883
0.590508 0.257627 0.079769
0.622198 0.261513 0.083655
0.653889 0.265399 0.087541
0.685579 0.269285 0.091427
0.717270 0.273171 0.095313
0.748961 0.277057 0.099200
0.780651 0.280943 0.103086
0.812342 0.284829 0.106972
0.844032 0.288715 0.110858
0.873536 0.292333 0.114476
0.873536 0.292333 0.114476
0.873536 0.292333 0.114476
0.873536 0.292333 0.114476
0.036926 0.236598 0.036926
0.061332 0.236598 0.036926
0.083059 0.236598 0.036926
0.104417 0.236598 0.036926
0.125775 0.236598 0.036926
0.147134 0.236598 0.036926
0.168492 0.236598 0.036926
0.189850 0.236598 0.036926
0.211208 0.236598 0.036926
0.232566 0.236598 0.036926
0.257129 0.239802 0.040130
0.282436 0.243752 0.044080
0.307744 0.247701 0.048029
0.333052 0.251651 0.051979
0.358360 0.255601 0.055929
0.386614 0.260011 0.060339
0.411514 0.263897 0.064225
0.436414 0.267783 0.068111
0.527126 0.271669 0.071997
0.558817 0.275555 0.075883
0.590508 0.279441 0.079769
0.622198 0.283327 0.083655
0.653889 0.287213 0.087541
0.685579 0.291099 0.091427
0.717270 0.294985 0.095313
0.748961 0.298871 0.099200
0.780651 0.302758 0.103086
0.812342 0.306644 0.106972
0.844032 0.310530 0.110858
0.873536 0.314148 0.114476
0.873536 0.314148 0.114476
0.873536 0.314148 0.114476
0.873536 0.314148 0.114476
0.040960 0.262446 0.040960
0.065367 0.262446 0.040960
0.087093 0.262446 0.040960
0.108451 0.262446 0.040960
0.129810 0.262446 0.040960
0.151168 0.262446 0.040960
0.172526 0.262446 0.040960
0.193884 0.262446 0.040960
0.215242 0.262446 0.040960
0.236600 0.262446 0.040960
0.257958 0.262446 0.040960
0.282436 0.265566 0.044080
0.307744 0.269516 0.048029
0.333052 0.273465 0.051979
0.358360 0.277415 0.055929
0.386614 0.281825 0.060339
0.411514 0.285711 0.064225
0.436414 0.289597 0.068111
0.527126 0.293483 0.071997
0.558817 0.297369 0.075883
0.590508 0.301255 0.079769
0.622198 0.305141 0.083655
0.653889 0.309027 0.087541
0.685579 0.312914 0.091427
0.717270 0.316800 0.095313
0.748961 0.320686 0.099200
0.780651 0.324572 0.103086
0.812342 0.328458 0.106972
0.844032 0.332344 0.110858
0.873536 0.335962 0.114476
0.873536 0.335962 0.114476
0.873536 0.335962 0.114476
0.873536 0.335962 0.114476
0.044994 0.288294 0.044994
0.069401 0.288294 0.044994
0.091127 0.288294 0.044994
0.112486 0.288294 0.044994
0.133844 0.288294 0.044994
0.155202 0.288294 0.044994
0.176560 0.288294 0.044994
0.197918 0.288294 0.044994
0.219276 0.288294 0.044994
0.240634 0.288294 0.044994
0.261993 0.288294 0.044994
0.283351 0.288294 0.044994
0.307744 0.291330 0.048029
0.333052 0.295280 0.051979
0.358360 0.299229 0.055929
0.386614 0.303639 0.060339
0.411514 0.307525 0.064225
0.436414 0.311411 0.068111
0.527126 0.315297 0.071997
0.558817 0.319183 0.075883
0.590508 0.323070 0.079769
0.622198 0.326956 0.083655
0.653889 0.330842 0.087541
0.685579 0.334728 0.091427
0.717270 0.338614 0.095313
0.748961 0.342500 0.099200
0.780651 0.346386 0.103086
0.812342 0.350272 0.106972
0.844032 0.354158 0.110858
0.873536 0.357776 0.114476
0.873536 0.357776 0.114476
0.873536 0.357776 0.114476
0.873536 0.357776 0.114476
0.049028 0.314143 0.049028
0.073435 0.314143 0.049028
0.095162 0.314143 0.049028
0.116520 0.314143 0.049028
0.137878 0.314143 0.049028
0.159236 0.314143 0.049028
0.180594 0.314143 0.049028
0.201952 0.314143 0.049028
0.223310 0.314143 0.049028
0.244669 0.314143 0.049028
0.266027 0.314143 0.049028
0.287385 0.314143 0.049028
0.308743 0.314143 0.049028
0.333052 0.317094 0.051979
0.358360 0.321044 0.055929
0.386614 0.325453 0.060339
0.411514 0.329339 0.064225
0.436414 0.333226 0.068111
0.527126 0.337112 0.071997
0.558817 0.340998 0.075883
0.590508 0.344884 0.079769
0.622198 0.348770 0.083655
0.653889 0.352656 0.087541
0.685579 0.356542 0.091427
0.717270 0.360428 0.095313
0.748961 0.364314 0.099200
0.780651 0.368200 0.103086
0.812342 0.372086 0.106972
0.844032 0.375972 0.110858
0.873536 0.379590 0.114476
0.873536 0.379590 0.114476
0.873536 0.379590 0.114476
0.873536 0.379590 0.114476
0.053062 0.339991 0.053062
0.077469 0.339991 0.053062
0.099196 0.339991 0.053062
0.120554 0.339991 0.053062
0.141912 0.339991 0.053062
0.163270 0.339991 0.053062
0.184628 0.339991 0.053062
0.205986 0.339991 0.053062
0.227345 0.339991 0.053062
0.248703 0.339991 0.053062
0.270061 0.339991 0.053062
0.291419 0.339991 0.053062
0.312777 0.339991 0.053062
0.334135 0.339991 0.053062
0.358360 0.342858 0.055929
0.386614 0.347268 0.060339
0.411514 0.351154 0.064225
0.436414 0.355040 0.068111
0.527126 0.358926 0.071997
0.558817 0.362812 0.075883
0.590508 0.366698 0.079769
0.622198 0.370584 0.083655
0.653889 0.374470 0.087541
0.685579 0.378356 0.091427
0.717270 0.382242 0.095313
0.748961 0.386128 0.099200
0.780651 0.390015 0.103086
0.812342 0.393901 0.106972
0.844032 0.397787 0.110858
0.873536 0.401405 0.114476
0.873536 0.401405 0.114476
0.873536 0.401405 0.114476
0.873536 0.401405 0.114476
0.057096 0.365839 0.057096
0.081503 0.365839 0.057096
0.103230 0.365839 0.057096
0.124588 0.365839 0.057096
0.145946 0.365839 0.057096
0.167304 0.365839 0.057096
0.188662 0.365839 0.057096
0.210021 0.365839 0.057096
0.231379 0.365839 0.057096
0.252737 0.365839 0.057096
0.274095 0.365839 0.057096
0.295453 0.365839 0.057096
0.316811 0.365839 0.057096
0.338169 0.365839 0.057096
0.359528 0.365839 0.057096
0.386614 0.369082 0.060339
0.411514 0.372968 0.064225
0.436414 0.376854 0.068111
0.527126 0.380740 0.071997
0.558817 0.384626 0.075883
0.590508 0.388512 0.079769
0.622198 0.392398 0.083655
0.653889 0.396284 0.087541
0.685579 0.400171 0.091427
0.717270 0.404057 0.095313
0.748961 0.407943 0.099200
0.780651 0.411829 0.103086
0.812342 0.415715 0.106972
0.844032 0.419601 0.110858
0.873536 0.423219 0.114476
0.873536 0.423219 0.114476
0.873536 0.423219 0.114476
0.873536 0.423219 0.114476
0.061570 0.394505 0.061570
0.085977 0.394505 0.061570
0.107704 0.394505 0.061570
0.129062 0.394505 0.061570
0.150420 0.394505 0.061570
0.171778 0.394505 0.061570
0.193136 0.394505 0.061570
0.214494 0.394505 0.061570
0.235852 0.394505 0.061570
0.257211 0.394505 0.061570
0.278569 0.394505 0.061570
0.299927 0.394505 0.061570
0.321285 0.394505 0.061570
0.342643 0.394505 0.061570
0.364001 0.394505 0.061570
0.387846 0.394505 0.061570
0.411514 0.397159 0.064225
0.436414 0.401045 0.068111
0.527126 0.404932 0.071997
0.558817 0.408818 0.075883
0.590508 0.412704 0.079769
0.622198 0.416590 0.083655
0.653889 0.420476 0.087541
0.685579 0.424362 0.091427
0.717270 0.428248 0.095313
0.748961 0.432134 0.099200
0.780651 0.436020 0.103086
0.812342 0.439906 0.106972
0.844032 0.504827 0.110858
0.873536 0.509431 0.114476
0.873536 0.509431 0.114476
0.873536 0.509431 0.114476
0.873536 0.509431 0.114476
0.065539 0.419936 0.065539
0.089946 0.419936 0.065539
0.111673 0.419936 0.065539
0.133031 0.419936 0.065539
0.154389 0.419936 0.065539
0.175747 0.419936 0.065539
0.197105 0.419936 0.065539
0.218463 0.419936 0.065539
0.239822 0.419936 0.065539
0.261180 0.419936 0.065539
0.282538 0.419936 0.065539
0.303896 0.419936 0.065539
0.325254 0.419936 0.065539
0.346612 0.419936 0.065539
0.367970 0.419936 0.065539
0.391815 0.419936 0.065539
0.412829 0.419936 0.065539
0.436414 0.422508 0.068111
0.527126 0.426394 0.071997
0.558817 0.430280 0.075883
0.590508 0.434166 0.079769
0.622198 0.438052 0.083655
0.653889 0.502467 0.087541
0.685579 0.507413 0.091427
0.717270 0.512359 0.095313
0.748961 0.517305 0.099200
0.780651 0.522251 0.103086
0.812342 0.527197 0.106972
0.844032 0.532143 0.110858
0.873536 0.536747 0.114476
0.873536 0.536747 0.114476
0.873536 0.536747 0.114476
0.873536 0.536747 0.114476
0.069508 0.506832 0.069508
0.093915 0.506832 0.069508
0.115642 0.506832 0.069508
0.137000 0.506832 0.069508
0.158358 0.506832 0.069508
0.179716 0.506832 0.069508
0.201074 0.506832 0.069508
0.222432 0.506832 0.069508
0.243791 0.506832 0.069508
0.265149 0.506832 0.069508
0.286507 0.506832 0.069508
0.307865 0.506832 0.069508
0.329223 0.506832 0.069508
0.350581 0.506832 0.069508
0.371939 0.506832 0.069508
0.395784 0.506832 0.069508
0.416798 0.506832 0.069508
0.437811 0.506832 0.069508
0.527126 0.509999 0.071997
0.558817 0.514945 0.075883
0.590508 0.519891 0.079769
0.622198 0.524837 0.083655
0.653889 0.529783 0.087541
0.685579 0.534729 0.091427
0.717270 0.539675 0.095313
0.748961 0.544621 0.099200
0.780651 0.549566 0.103086
0.812342 0.554512 0.106972
0.844032 0.559458 0.110858
0.873536 0.564063 0.114476
0.873536 0.564063 0.114476
0.873536 0.564063 0.114476
0.873536 0.564063 0.114476
0.073477 0.539199 0.073477
0.097884 0.539199 0.073477
0.119611 0.539199 0.073477
0.140969 0.539199 0.073477
0.162327 0.539199 0.073477
0.183685 0.539199 0.073477
0.205043 0.539199 0.073477
0.226402 0.539199 0.073477
0.247760 0.539199 0.073477
0.269118 0.539199 0.073477
0.290476 0.539199 0.073477
0.311834 0.539199 0.073477
0.333192 0.539199 0.073477
0.354550 0.539199 0.073477
0.375909 0.539199 0.073477
0.399753 0.539199 0.073477
0.420767 0.539199 0.073477
0.502266 0.539199 0.073477
0.529011 0.539199 0.073477
0.558817 0.542261 0.075883
0.590508 0.547207 0.079769
0.622198 0.552153 0.083655
0.653889 0.557098 0.087541
0.685579 0.562044 0.091427
0.717270 0.566990 0.095313
0.748961 0.571936 0.099200
0.780651 0.576882 0.103086
0.812342 0.581828 0.106972
0.844032 0.586774 0.110858
0.873536 0.591379 0.114476
0.873536 0.591379 0.114476
0.873536 0.591379 0.114476
0.873536 0.591379 0.114476
0.077446 0.571566 0.077446
0.101853 0.571566 0.077446
0.123580 0.571566 0.077446
0.144938 0.571566 0.077446
0.166296 0.571566 0.077446
0.187654 0.571566 0.077446
0.209012 0.571566 0.077446
0.230371 0.571566 0.077446
0.251729 0.571566 0.077446
0.273087 0.571566 0.077446
0.294445 0.571566 0.077446
0.315803 0.571566 0.077446
0.337161 0.571566 0.077446
0.358519 0.571566 0.077446
0.379878 0.571566 0.077446
0.403722 0.571566 0.077446
0.424736 0.571566 0.077446
0.507317 0.571566 0.077446
0.534062 0.571566 0.077446
0.560807 0.571566 0.077446
0.590508 0.574522 0.079769
0.622198 0.579468 0.083655
0.653889 0.584414 0.087541
0.685579 0.589360 0.091427
0.717270 0.594306 0.095313
0.748961 0.599252 0.099200
0.780651 0.604198 0.103086
0.812342 0.609144 0.106972
0.844032 0.614090 0.110858
0.873536 0.618694 0.114476
0.873536 0.618694 0.114476
0.873536 0.618694 0.114476
0.873536 0.618694 0.114476
0.081415 0.603934 0.081415
0.105822 0.603934 0.081415
0.127549 0.603934 0.081415
0.148907 0.603934 0.081415
0.170265 0.603934 0.081415
0.191623 0.603934 0.081415
0.212982 0.603934 0.081415
0.234340 0.603934 0.081415
0.255698 0.603934 0.081415
0.277056 0.603934 0.081415
0.298414 0.603934 0.081415
0.319772 0.603934 0.081415
0.341130 0.603934 0.081415
0.362489 0.603934 0.081415
0.383847 0.603934 0.081415
0.407691 0.603934 0.081415
0.428705 0.603934 0.081415
0.512369 0.603934 0.081415
0.539114 0.603934 0.081415
0.565858 0.603934 0.081415
0.592603 0.603934 0.081415
0.622198 0.606784 0.083655
0.653889 0.611730 0.087541
0.685579 0.616676 0.091427
0.717270 0.621622 0.095313
0.748961 0.626568 0.099200
0.780651 0.631514 0.103086
0.812342 0.636460 0.106972
0.844032 0.641406 0.110858
0.873536 0.646010 0.114476
0.873536 0.646010 0.114476
0.873536 0.646010 0.114476
0.873536 0.646010 0.114476
0.085385 0.636301 0.085385
0.109791 0.636301 0.085385
0.131518 0.636301 0.085385
0.152876 0.636301 0.085385
0.174234 0.636301 0.085385
0.195592 0.636301 0.085385
0.216951 0.636301 0.085385
0.238309 0.636301 0.085385
0.259667 0.636301 0.085385
0.281025 0.636301 0.085385
0.302383 0.636301 0.085385
0.323741 0.636301 0.085385
0.345099 0.636301 0.085385
0.366458 0.636301 0.085385
0.387816 0.636301 0.085385
0.411660 0.636301 0.085385
0.432674 0.636301 0.085385
0.517421 0.636301 0.085385
0.544165 0.636301 0.085385
0.570910 0.636301 0.085385
0.597655 0.636301 0.085385
0.624399 0.636301 0.085385
0.653889 0.639046 0.087541
0.685579 0.643992 0.091427
0.717270 0.648938 0.095313
0.748961 0.653884 0.099200
0.780651 0.658830 0.103086
0.812342 0.663775 0.106972
0.844032 0.668721 0.110858
0.873536 0.673326 0.114476
0.873536 0.673326 0.114476
0.873536 0.673326 0.114476
0.873536 0.673326 0.114476
0.089354 0.668668 0.089354
0.113760 0.668668 0.089354
0.135487 0.668668 0.089354
0.156845 0.668668 0.089354
0.178203 0.668668 0.089354
0.199562 0.668668 0.089354
0.220920 0.668668 0.089354
0.242278 0.668668 0.089354
0.263636 0.668668 0.089354
0.284994 0.668668 0.089354
0.306352 0.668668 0.089354
0.327710 0.668668 0.089354
0.349069 0.668668 0.089354
0.370427 0.668668 0.089354
0.391785 0.668668 0.089354
0.415629 0.668668 0.089354
0.436643 0.668668 0.089354
0.522472 0.668668 0.089354
0.549217 0.668668 0.089354
0.575961 0.668668 0.089354
0.602706 0.668668 0.089354
0.629451 0.668668 0.089354
0.656195 0.668668 0.089354
0.685579 0.671308 0.091427
0.717270 0.676253 0.095313
0.748961 0.681199 0.099200
0.780651 0.686145 0.103086
0.812342 0.691091 0.106972
0.844032 0.696037 0.110858
0.873536 0.700642 0.114476
0.873536 0.700642 0.114476
0.873536 0.700642 0.114476
0.873536 0.700642 0.114476
0.093323 0.701036 0.093323
0.117730 0.701036 0.093323
0.139456 0.701036 0.093323
0.160814 0.701036 0.093323
0.182172 0.701036 0.093323
0.203531 0.701036 0.093323
0.224889 0.701036 0.093323
0.246247 0.701036 0.093323
0.267605 0.701036 0.093323
0.288963 0.701036 0.093323
0.310321 0.701036 0.093323
0.331679 0.701036 0.093323
0.353038 0.701036 0.093323
0.374396 0.701036 0.093323
0.395754 0.701036 0.093323
0.419598 0.701036 0.093323
0.500779 0.701036 0.093323
0.527524 0.701036 0.093323
0.554268 0.701036 0.093323
0.581013 0.701036 0.093323
0.607758 0.701036 0.093323
0.634502 0.701036 0.093323
0.661247 0.701036 0.093323
0.687992 0.701036 0.093323
0.717270 0.703569 0.095313
0.748961 0.708515 0.099200
0.780651 0.713461 0.103086
0.812342 0.718407 0.106972
0.844032 0.723353 0.110858
0.873536 0.727958 0.114476
0.873536 0.727958 0.114476
0.873536 0.727958 0.114476
0.873536 0.727958 0.114476
0.097292 0.733403 0.097292
0.121699 0.733403 0.097292
0.143425 0.733403 0.097292
0.164783 0.733403 0.097292
0.186142 0.733403 0.097292
0.207500 0.733403 0.097292
0.228858 0.733403 0.097292
0.250216 0.733403 0.097292
0.271574 0.733403 0.097292
0.292932 0.733403 0.097292
0.314290 0.733403 0.097292
0.335649 0.733403 0.097292
0.357007 0.733403 0.097292
0.378365 0.733403 0.097292
0.399723 0.733403 0.097292
0.423568 0.733403 0.097292
0.505831 0.733403 0.097292
0.532575 0.733403 0.097292
0.559320 0.733403 0.097292
0.586065 0.733403 0.097292
0.612809 0.733403 0.097292
0.639554 0.733403 0.097292
0.666298 0.733403 0.097292
0.693043 0.733403 0.097292
0.719788 0.733403 0.097292
0.748961 0.735831 0.099200
0.780651 0.740777 0.103086
0.812342 0.745723 0.106972
0.844032 0.750669 0.110858
0.873536 0.755273 0.114476
0.873536 0.755273 0.114476
0.873536 0.755273 0.114476
0.873536 0.755273 0.114476
0.101261 0.765770 0.101261
0.125668 0.765770 0.101261
0.147394 0.765770 0.101261
0.168752 0.765770 0.101261
0.190111 0.765770 0.101261
0.211469 0.765770 0.101261
0.232827 0.765770 0.101261
0.254185 0.765770 0.101261
0.275543 0.765770 0.101261
0.296901 0.765770 0.101261
0.318259 0.765770 0.101261
0.339618 0.765770 0.101261
0.360976 0.765770 0.101261
0.382334 0.765770 0.101261
0.403692 0.765770 0.101261
0.427537 0.765770 0.101261
0.510882 0.765770 0.101261
0.537627 0.765770 0.101261
0.564371 0.765770 0.101261
0.591116 0.765770 0.101261
0.617861 0.765770 0.101261
0.644605 0.765770 0.101261
0.671350 0.765770 0.101261
0.698095 0.765770 0.101261
0.724839 0.765770 0.101261
0.751584 0.765770 0.101261
0.780651 0.768093 0.103086
0.812342 0.773039 0.106972
0.844032 0.777985 0.110858
0.873536 0.782589 0.114476
0.873536 0.782589 0.114476
0.873536 0.782589 0.114476
0.873536 0.782589 0.114476
0.105230 0.798138 0.105230
0.129637 0.798138 0.105230
0.151363 0.798138 0.105230
0.172722 0.798138 0.105230
0.194080 0.798138 0.105230
0.215438 0.798138 0.105230
0.236796 0.798138 0.105230
0.258154 0.798138 0.105230
0.279512 0.798138 0.105230
0.300870 0.798138 0.105230
0.322229 0.798138 0.105230
0.343587 0.798138 0.105230
0.364945 0.798138 0.105230
0.386303 0.798138 0.105230
0.407661 0.798138 0.105230
0.431506 0.798138 0.105230
0.515934 0.798138 0.105230
0.542678 0.798138 0.105230
0.569423 0.798138 0.105230
0.596168 0.798138 0.105230
0.622912 0.798138 0.105230
0.649657 0.798138 0.105230
0.676402 0.798138 0.105230
0.703146 0.798138 0.105230
