docs/luts/fuji_recipes/Classic_RR_Kodak_Porta_400.cube
TITLE "Fujifilm Recipe: RR Kodak Porta 400 (Classic)"
# FilmSim=Classic HL=-1 SH=2 Col=-2 WB=Auto WBR=2 WBB=-5
LUT_3D_SIZE 33
DOMAIN_MIN 0.0 0.0 0.0
DOMAIN_MAX 1.0 1.0 1.0
0.000000 0.000000 0.000000
0.041773 0.015169 0.015169
0.071595 0.025999 0.025999
0.100919 0.036648 0.036648
0.130243 0.047297 0.047297
0.159568 0.057946 0.057946
0.188892 0.068594 0.068594
0.218216 0.079243 0.079243
0.247541 0.089892 0.089892
0.276865 0.100541 0.100541
0.306189 0.111190 0.111190
0.338201 0.122814 0.122814
0.367052 0.133292 0.133292
0.428825 0.150995 0.150995
0.458283 0.161606 0.161606
0.487740 0.172216 0.172216
0.517198 0.182826 0.182826
0.546656 0.193436 0.193436
0.576114 0.204046 0.204046
0.605571 0.214657 0.214657
0.635029 0.225267 0.225267
0.664487 0.235877 0.235877
0.693945 0.246487 0.246487
0.705429 0.250624 0.250624
0.705429 0.250624 0.250624
0.705429 0.250624 0.250624
0.705429 0.250624 0.250624
0.705429 0.250624 0.250624
0.705429 0.250624 0.250624
0.705429 0.250624 0.250624
0.705429 0.250624 0.250624
0.705429 0.250624 0.250624
0.705429 0.250624 0.250624
0.014331 0.039464 0.014331
0.041773 0.040302 0.015169
0.071595 0.051132 0.025999
0.100919 0.061781 0.036648
0.130243 0.072430 0.047297
0.159568 0.083078 0.057946
0.188892 0.093727 0.068594
0.218216 0.104376 0.079243
0.247541 0.115025 0.089892
0.276865 0.125674 0.100541
0.306189 0.136323 0.111190
0.338201 0.147947 0.122814
0.367052 0.158424 0.133292
0.428825 0.176128 0.150995
0.458283 0.186738 0.161606
0.487740 0.197349 0.172216
0.517198 0.207959 0.182826
0.546656 0.218569 0.193436
0.576114 0.229179 0.204046
0.605571 0.239789 0.214657
0.635029 0.250400 0.225267
0.664487 0.261010 0.235877
0.693945 0.271620 0.246487
0.705429 0.275756 0.250624
0.705429 0.275756 0.250624
0.705429 0.275756 0.250624
0.705429 0.275756 0.250624
0.705429 0.275756 0.250624
0.705429 0.275756 0.250624
0.705429 0.275756 0.250624
0.705429 0.275756 0.250624
0.705429 0.275756 0.250624
0.705429 0.275756 0.250624
0.024602 0.067747 0.024602
0.051205 0.067747 0.024602
0.071595 0.069144 0.025999
0.100919 0.079793 0.036648
0.130243 0.090442 0.047297
0.159568 0.101091 0.057946
0.188892 0.111740 0.068594
0.218216 0.122388 0.079243
0.247541 0.133037 0.089892
0.276865 0.143686 0.100541
0.306189 0.154335 0.111190
0.338201 0.165960 0.122814
0.367052 0.176437 0.133292
0.428825 0.194141 0.150995
0.458283 0.204751 0.161606
0.487740 0.215361 0.172216
0.517198 0.225971 0.182826
0.546656 0.236581 0.193436
0.576114 0.247192 0.204046
0.605571 0.257802 0.214657
0.635029 0.268412 0.225267
0.664487 0.279022 0.235877
0.693945 0.289632 0.246487
0.705429 0.293769 0.250624
0.705429 0.293769 0.250624
0.705429 0.293769 0.250624
0.705429 0.293769 0.250624
0.705429 0.293769 0.250624
0.705429 0.293769 0.250624
0.705429 0.293769 0.250624
0.705429 0.293769 0.250624
0.705429 0.293769 0.250624
0.705429 0.293769 0.250624
0.034701 0.095558 0.034701
0.061305 0.095558 0.034701
0.080297 0.095558 0.034701
0.100919 0.097505 0.036648
0.130243 0.108154 0.047297
0.159568 0.118803 0.057946
0.188892 0.129451 0.068594
0.218216 0.140100 0.079243
0.247541 0.150749 0.089892
0.276865 0.161398 0.100541
0.306189 0.172047 0.111190
0.338201 0.183671 0.122814
0.367052 0.194149 0.133292
0.428825 0.211852 0.150995
0.458283 0.222463 0.161606
0.487740 0.233073 0.172216
0.517198 0.243683 0.182826
0.546656 0.254293 0.193436
0.576114 0.264903 0.204046
0.605571 0.275514 0.214657
0.635029 0.286124 0.225267
0.664487 0.296734 0.235877
0.693945 0.307344 0.246487
0.705429 0.311481 0.250624
0.705429 0.311481 0.250624
0.705429 0.311481 0.250624
0.705429 0.311481 0.250624
0.705429 0.311481 0.250624
0.705429 0.311481 0.250624
0.705429 0.311481 0.250624
0.705429 0.311481 0.250624
0.705429 0.311481 0.250624
0.705429 0.311481 0.250624
0.044800 0.123369 0.044800
0.071404 0.123369 0.044800
0.090396 0.123369 0.044800
0.109072 0.123369 0.044800
0.130243 0.125866 0.047297
0.159568 0.136514 0.057946
0.188892 0.147163 0.068594
0.218216 0.157812 0.079243
0.247541 0.168461 0.089892
0.276865 0.179110 0.100541
0.306189 0.189759 0.111190
0.338201 0.201383 0.122814
0.367052 0.211860 0.133292
0.428825 0.229564 0.150995
0.458283 0.240174 0.161606
0.487740 0.250785 0.172216
0.517198 0.261395 0.182826
0.546656 0.272005 0.193436
0.576114 0.282615 0.204046
0.605571 0.293225 0.214657
0.635029 0.303836 0.225267
0.664487 0.314446 0.235877
0.693945 0.325056 0.246487
0.705429 0.329192 0.250624
0.705429 0.329192 0.250624
0.705429 0.329192 0.250624
0.705429 0.329192 0.250624
0.705429 0.329192 0.250624
0.705429 0.329192 0.250624
0.705429 0.329192 0.250624
0.705429 0.329192 0.250624
0.705429 0.329192 0.250624
0.705429 0.329192 0.250624
0.054900 0.151180 0.054900
0.081503 0.151180 0.054900
0.100496 0.151180 0.054900
0.119171 0.151180 0.054900
0.137847 0.151180 0.054900
0.159568 0.154226 0.057946
0.188892 0.164875 0.068594
0.218216 0.175524 0.079243
0.247541 0.186173 0.089892
0.276865 0.196822 0.100541
0.306189 0.207470 0.111190
0.338201 0.219095 0.122814
0.367052 0.229572 0.133292
0.428825 0.247276 0.150995
0.458283 0.257886 0.161606
0.487740 0.268496 0.172216
0.517198 0.279107 0.182826
0.546656 0.289717 0.193436
0.576114 0.300327 0.204046
0.605571 0.310937 0.214657
0.635029 0.321547 0.225267
0.664487 0.332158 0.235877
0.693945 0.342768 0.246487
0.705429 0.346904 0.250624
0.705429 0.346904 0.250624
0.705429 0.346904 0.250624
0.705429 0.346904 0.250624
0.705429 0.346904 0.250624
0.705429 0.346904 0.250624
0.705429 0.346904 0.250624
0.705429 0.346904 0.250624
0.705429 0.346904 0.250624
0.705429 0.346904 0.250624
0.064999 0.178992 0.064999
0.091603 0.178992 0.064999
0.110595 0.178992 0.064999
0.129270 0.178992 0.064999
0.147946 0.178992 0.064999
0.166621 0.178992 0.064999
0.188892 0.182587 0.068594
0.218216 0.193236 0.079243
0.247541 0.203884 0.089892
0.276865 0.214533 0.100541
0.306189 0.225182 0.111190
0.338201 0.236807 0.122814
0.367052 0.247284 0.133292
0.428825 0.264988 0.150995
0.458283 0.275598 0.161606
0.487740 0.286208 0.172216
0.517198 0.296818 0.182826
0.546656 0.307429 0.193436
0.576114 0.318039 0.204046
0.605571 0.328649 0.214657
0.635029 0.339259 0.225267
0.664487 0.349869 0.235877
0.693945 0.360480 0.246487
0.705429 0.364616 0.250624
0.705429 0.364616 0.250624
0.705429 0.364616 0.250624
0.705429 0.364616 0.250624
0.705429 0.364616 0.250624
0.705429 0.364616 0.250624
0.705429 0.364616 0.250624
0.705429 0.364616 0.250624
0.705429 0.364616 0.250624
0.705429 0.364616 0.250624
0.075098 0.206803 0.075098
0.101702 0.206803 0.075098
0.120694 0.206803 0.075098
0.139370 0.206803 0.075098
0.158045 0.206803 0.075098
0.176721 0.206803 0.075098
0.195396 0.206803 0.075098
0.218216 0.210947 0.079243
0.247541 0.221596 0.089892
0.276865 0.232245 0.100541
0.306189 0.242894 0.111190
0.338201 0.254519 0.122814
0.367052 0.264996 0.133292
0.428825 0.282700 0.150995
0.458283 0.293310 0.161606
0.487740 0.303920 0.172216
0.517198 0.314530 0.182826
0.546656 0.325140 0.193436
0.576114 0.335751 0.204046
0.605571 0.346361 0.214657
0.635029 0.356971 0.225267
0.664487 0.367581 0.235877
0.693945 0.378191 0.246487
0.705429 0.382328 0.250624
0.705429 0.382328 0.250624
0.705429 0.382328 0.250624
0.705429 0.382328 0.250624
0.705429 0.382328 0.250624
0.705429 0.382328 0.250624
0.705429 0.382328 0.250624
0.705429 0.382328 0.250624
0.705429 0.382328 0.250624
0.705429 0.382328 0.250624
0.085198 0.234614 0.085198
0.111801 0.234614 0.085198
0.130794 0.234614 0.085198
0.149469 0.234614 0.085198
0.168145 0.234614 0.085198
0.186820 0.234614 0.085198
0.205495 0.234614 0.085198
0.224171 0.234614 0.085198
0.247541 0.239308 0.089892
0.276865 0.249957 0.100541
0.306189 0.260606 0.111190
0.338201 0.272231 0.122814
0.367052 0.282708 0.133292
0.428825 0.300411 0.150995
0.458283 0.311022 0.161606
0.487740 0.321632 0.172216
0.517198 0.332242 0.182826
0.546656 0.342852 0.193436
0.576114 0.353462 0.204046
0.605571 0.364073 0.214657
0.635029 0.374683 0.225267
0.664487 0.385293 0.235877
0.693945 0.395903 0.246487
0.705429 0.400040 0.250624
0.705429 0.400040 0.250624
0.705429 0.400040 0.250624
0.705429 0.400040 0.250624
0.705429 0.400040 0.250624
0.705429 0.400040 0.250624
0.705429 0.400040 0.250624
0.705429 0.400040 0.250624
0.705429 0.400040 0.250624
0.705429 0.400040 0.250624
0.095297 0.262425 0.095297
0.121901 0.262425 0.095297
0.140893 0.262425 0.095297
0.159569 0.262425 0.095297
0.178244 0.262425 0.095297
0.196919 0.262425 0.095297
0.215595 0.262425 0.095297
0.234270 0.262425 0.095297
0.252946 0.262425 0.095297
0.276865 0.267669 0.100541
0.306189 0.278318 0.111190
0.338201 0.289942 0.122814
0.367052 0.300419 0.133292
0.428825 0.318123 0.150995
0.458283 0.328733 0.161606
0.487740 0.339344 0.172216
0.517198 0.349954 0.182826
0.546656 0.360564 0.193436
0.576114 0.371174 0.204046
0.605571 0.381784 0.214657
0.635029 0.392395 0.225267
0.664487 0.403005 0.235877
0.693945 0.413615 0.246487
0.705429 0.417751 0.250624
0.705429 0.417751 0.250624
0.705429 0.417751 0.250624
0.705429 0.417751 0.250624
0.705429 0.417751 0.250624
0.705429 0.417751 0.250624
0.705429 0.417751 0.250624
0.705429 0.417751 0.250624
0.705429 0.417751 0.250624
0.705429 0.417751 0.250624
0.105397 0.290236 0.105397
0.132000 0.290236 0.105397
0.150992 0.290236 0.105397
0.169668 0.290236 0.105397
0.188343 0.290236 0.105397
0.207019 0.290236 0.105397
0.225694 0.290236 0.105397
0.244370 0.290236 0.105397
0.263045 0.290236 0.105397
0.281721 0.290236 0.105397
0.306189 0.296029 0.111190
0.338201 0.307654 0.122814
0.367052 0.318131 0.133292
0.428825 0.335835 0.150995
0.458283 0.346445 0.161606
0.487740 0.357055 0.172216
0.517198 0.367666 0.182826
0.546656 0.378276 0.193436
0.576114 0.388886 0.204046
0.605571 0.399496 0.214657
0.635029 0.410106 0.225267
0.664487 0.420717 0.235877
0.693945 0.431327 0.246487
0.705429 0.435463 0.250624
0.705429 0.435463 0.250624
0.705429 0.435463 0.250624
0.705429 0.435463 0.250624
0.705429 0.435463 0.250624
0.705429 0.435463 0.250624
0.705429 0.435463 0.250624
0.705429 0.435463 0.250624
0.705429 0.435463 0.250624
0.705429 0.435463 0.250624
0.115496 0.318047 0.115496
0.142099 0.318047 0.115496
0.161092 0.318047 0.115496
0.179767 0.318047 0.115496
0.198443 0.318047 0.115496
0.217118 0.318047 0.115496
0.235794 0.318047 0.115496
0.254469 0.318047 0.115496
0.273144 0.318047 0.115496
0.291820 0.318047 0.115496
0.310495 0.318047 0.115496
0.338201 0.325366 0.122814
0.367052 0.335843 0.133292
0.428825 0.353547 0.150995
0.458283 0.364157 0.161606
0.487740 0.374767 0.172216
0.517198 0.385377 0.182826
0.546656 0.395988 0.193436
0.576114 0.406598 0.204046
0.605571 0.417208 0.214657
0.635029 0.427818 0.225267
0.664487 0.438428 0.235877
0.693945 0.449039 0.246487
0.705429 0.453175 0.250624
0.705429 0.453175 0.250624
0.705429 0.453175 0.250624
0.705429 0.453175 0.250624
0.705429 0.453175 0.250624
0.705429 0.453175 0.250624
0.705429 0.453175 0.250624
0.705429 0.453175 0.250624
0.705429 0.453175 0.250624
0.705429 0.453175 0.250624
0.126511 0.348379 0.126511
0.153114 0.348379 0.126511
0.172107 0.348379 0.126511
0.190782 0.348379 0.126511
0.209457 0.348379 0.126511
0.228133 0.348379 0.126511
0.246808 0.348379 0.126511
0.265484 0.348379 0.126511
0.284159 0.348379 0.126511
0.302835 0.348379 0.126511
0.321510 0.348379 0.126511
0.341897 0.348379 0.126511
0.367052 0.355160 0.133292
0.428825 0.372864 0.150995
0.458283 0.383474 0.161606
0.487740 0.394084 0.172216
0.517198 0.404694 0.182826
0.546656 0.415305 0.193436
0.576114 0.425915 0.204046
0.605571 0.436525 0.214657
0.635029 0.447135 0.225267
0.664487 0.483373 0.235877
0.693945 0.494057 0.246487
0.705429 0.498223 0.250624
0.705429 0.498223 0.250624
0.705429 0.498223 0.250624
0.705429 0.498223 0.250624
0.705429 0.498223 0.250624
0.705429 0.498223 0.250624
0.705429 0.498223 0.250624
0.705429 0.498223 0.250624
0.705429 0.498223 0.250624
0.705429 0.498223 0.250624
0.136447 0.375742 0.136447
0.163051 0.375742 0.136447
0.182043 0.375742 0.136447
0.200718 0.375742 0.136447
0.219394 0.375742 0.136447
0.238069 0.375742 0.136447
0.256745 0.375742 0.136447
0.275420 0.375742 0.136447
0.294096 0.375742 0.136447
0.312771 0.375742 0.136447
0.331447 0.375742 0.136447
0.351833 0.375742 0.136447
0.370208 0.375742 0.136447
0.428825 0.390290 0.150995
0.458283 0.400900 0.161606
0.487740 0.411510 0.172216
0.517198 0.447758 0.182826
0.546656 0.458442 0.193436
0.576114 0.469126 0.204046
0.605571 0.479810 0.214657
0.635029 0.490494 0.225267
0.664487 0.501178 0.235877
0.693945 0.511862 0.246487
0.705429 0.516028 0.250624
0.705429 0.516028 0.250624
0.705429 0.516028 0.250624
0.705429 0.516028 0.250624
0.705429 0.516028 0.250624
0.705429 0.516028 0.250624
0.705429 0.516028 0.250624
0.705429 0.516028 0.250624
0.705429 0.516028 0.250624
0.705429 0.516028 0.250624
0.153643 0.436177 0.153643
0.180247 0.436177 0.153643
0.199239 0.436177 0.153643
0.217915 0.436177 0.153643
0.236590 0.436177 0.153643
0.255266 0.436177 0.153643
0.273941 0.436177 0.153643
0.292617 0.436177 0.153643
0.311292 0.436177 0.153643
0.329967 0.436177 0.153643
0.348643 0.436177 0.153643
0.369030 0.436177 0.153643
0.387404 0.436177 0.153643
0.431492 0.436177 0.153643
0.458283 0.444195 0.161606
0.487740 0.454879 0.172216
0.517198 0.465563 0.182826
0.546656 0.476247 0.193436
0.576114 0.486931 0.204046
0.605571 0.497615 0.214657
0.635029 0.508299 0.225267
0.664487 0.518983 0.235877
0.693945 0.529667 0.246487
0.705429 0.533833 0.250624
0.705429 0.533833 0.250624
0.705429 0.533833 0.250624
0.705429 0.533833 0.250624
0.705429 0.533833 0.250624
0.705429 0.533833 0.250624
0.705429 0.533833 0.250624
0.705429 0.533833 0.250624
0.705429 0.533833 0.250624
0.705429 0.533833 0.250624
0.163706 0.464115 0.163706
0.190310 0.464115 0.163706
0.209302 0.464115 0.163706
0.227978 0.464115 0.163706
0.246653 0.464115 0.163706
0.265328 0.464115 0.163706
0.284004 0.464115 0.163706
0.302679 0.464115 0.163706
0.321355 0.464115 0.163706
0.340030 0.464115 0.163706
0.358706 0.464115 0.163706
0.379093 0.464115 0.163706
0.397467 0.464115 0.163706
0.441624 0.464115 0.163706
0.460398 0.464115 0.163706
0.487740 0.472684 0.172216
0.517198 0.483368 0.182826
0.546656 0.494052 0.193436
0.576114 0.504736 0.204046
0.605571 0.515420 0.214657
0.635029 0.526104 0.225267
0.664487 0.536788 0.235877
0.693945 0.547472 0.246487
0.705429 0.551637 0.250624
0.705429 0.551637 0.250624
0.705429 0.551637 0.250624
0.705429 0.551637 0.250624
0.705429 0.551637 0.250624
0.705429 0.551637 0.250624
0.705429 0.551637 0.250624
0.705429 0.551637 0.250624
0.705429 0.551637 0.250624
0.705429 0.551637 0.250624
0.173769 0.492053 0.173769
0.200372 0.492053 0.173769
0.219365 0.492053 0.173769
0.238040 0.492053 0.173769
0.256716 0.492053 0.173769
0.275391 0.492053 0.173769
0.294067 0.492053 0.173769
0.312742 0.492053 0.173769
0.331417 0.492053 0.173769
0.350093 0.492053 0.173769
0.368768 0.492053 0.173769
0.389155 0.492053 0.173769
0.407530 0.492053 0.173769
0.451757 0.492053 0.173769
0.470531 0.492053 0.173769
0.489304 0.492053 0.173769
0.517198 0.501173 0.182826
0.546656 0.511857 0.193436
0.576114 0.522541 0.204046
0.605571 0.533225 0.214657
0.635029 0.543909 0.225267
0.664487 0.554593 0.235877
0.693945 0.565277 0.246487
0.705429 0.569442 0.250624
0.705429 0.569442 0.250624
0.705429 0.569442 0.250624
0.705429 0.569442 0.250624
0.705429 0.569442 0.250624
0.705429 0.569442 0.250624
0.705429 0.569442 0.250624
0.705429 0.569442 0.250624
0.705429 0.569442 0.250624
0.705429 0.569442 0.250624
0.183832 0.519990 0.183832
0.210435 0.519990 0.183832
0.229428 0.519990 0.183832
0.248103 0.519990 0.183832
0.266778 0.519990 0.183832
0.285454 0.519990 0.183832
0.304129 0.519990 0.183832
0.322805 0.519990 0.183832
0.341480 0.519990 0.183832
0.360156 0.519990 0.183832
0.378831 0.519990 0.183832
0.399218 0.519990 0.183832
0.417592 0.519990 0.183832
0.461890 0.519990 0.183832
0.480664 0.519990 0.183832
0.499437 0.519990 0.183832
0.518211 0.519990 0.183832
0.546656 0.529662 0.193436
0.576114 0.540346 0.204046
0.605571 0.551030 0.214657
0.635029 0.561714 0.225267
0.664487 0.572398 0.235877
0.693945 0.583082 0.246487
0.705429 0.587247 0.250624
0.705429 0.587247 0.250624
0.705429 0.587247 0.250624
0.705429 0.587247 0.250624
0.705429 0.587247 0.250624
0.705429 0.587247 0.250624
0.705429 0.587247 0.250624
0.705429 0.587247 0.250624
0.705429 0.587247 0.250624
0.705429 0.587247 0.250624
0.193894 0.547928 0.193894
0.220498 0.547928 0.193894
0.239490 0.547928 0.193894
0.258166 0.547928 0.193894
0.276841 0.547928 0.193894
0.295517 0.547928 0.193894
0.314192 0.547928 0.193894
0.332867 0.547928 0.193894
0.351543 0.547928 0.193894
0.370218 0.547928 0.193894
0.388894 0.547928 0.193894
0.409281 0.547928 0.193894
0.427655 0.547928 0.193894
0.472023 0.547928 0.193894
0.490796 0.547928 0.193894
0.509570 0.547928 0.193894
0.528344 0.547928 0.193894
0.547117 0.547928 0.193894
0.576114 0.558151 0.204046
0.605571 0.568835 0.214657
0.635029 0.579519 0.225267
0.664487 0.590203 0.235877
0.693945 0.600887 0.246487
0.705429 0.605052 0.250624
0.705429 0.605052 0.250624
0.705429 0.605052 0.250624
0.705429 0.605052 0.250624
0.705429 0.605052 0.250624
0.705429 0.605052 0.250624
0.705429 0.605052 0.250624
0.705429 0.605052 0.250624
0.705429 0.605052 0.250624
0.705429 0.605052 0.250624
0.203957 0.575866 0.203957
0.230561 0.575866 0.203957
0.249553 0.575866 0.203957
0.268228 0.575866 0.203957
0.286904 0.575866 0.203957
0.305579 0.575866 0.203957
0.324255 0.575866 0.203957
0.342930 0.575866 0.203957
0.361606 0.575866 0.203957
0.380281 0.575866 0.203957
0.398957 0.575866 0.203957
0.419343 0.575866 0.203957
0.463382 0.575866 0.203957
0.482155 0.575866 0.203957
0.500929 0.575866 0.203957
0.519703 0.575866 0.203957
0.538476 0.575866 0.203957
0.557250 0.575866 0.203957
0.576114 0.575956 0.204046
0.605571 0.586640 0.214657
0.635029 0.597324 0.225267
0.664487 0.608008 0.235877
0.693945 0.618692 0.246487
0.705429 0.622857 0.250624
0.705429 0.622857 0.250624
0.705429 0.622857 0.250624
0.705429 0.622857 0.250624
0.705429 0.622857 0.250624
0.705429 0.622857 0.250624
0.705429 0.622857 0.250624
0.705429 0.622857 0.250624
0.705429 0.622857 0.250624
0.705429 0.622857 0.250624
0.214020 0.603804 0.214020
0.240623 0.603804 0.214020
0.259616 0.603804 0.214020
0.278291 0.603804 0.214020
0.296967 0.603804 0.214020
0.315642 0.603804 0.214020
0.334317 0.603804 0.214020
0.352993 0.603804 0.214020
0.371668 0.603804 0.214020
0.390344 0.603804 0.214020
0.409019 0.603804 0.214020
0.429406 0.603804 0.214020
0.473515 0.603804 0.214020
0.492288 0.603804 0.214020
0.511062 0.603804 0.214020
0.529836 0.603804 0.214020
0.548609 0.603804 0.214020
0.567383 0.603804 0.214020
0.586157 0.603804 0.214020
0.605571 0.604445 0.214657
0.635029 0.615129 0.225267
0.664487 0.625813 0.235877
0.693945 0.636497 0.246487
0.705429 0.640662 0.250624
0.705429 0.640662 0.250624
0.705429 0.640662 0.250624
0.705429 0.640662 0.250624
0.705429 0.640662 0.250624
0.705429 0.640662 0.250624
0.705429 0.640662 0.250624
0.705429 0.640662 0.250624
0.705429 0.640662 0.250624
0.705429 0.640662 0.250624
0.224083 0.631741 0.224083
0.250686 0.631741 0.224083
0.269678 0.631741 0.224083
0.288354 0.631741 0.224083
0.307029 0.631741 0.224083
0.325705 0.631741 0.224083
0.344380 0.631741 0.224083
0.363056 0.631741 0.224083
0.381731 0.631741 0.224083
0.400407 0.631741 0.224083
0.419082 0.631741 0.224083
0.439469 0.631741 0.224083
0.483647 0.631741 0.224083
0.502421 0.631741 0.224083
0.521195 0.631741 0.224083
0.539968 0.631741 0.224083
0.558742 0.631741 0.224083
0.577516 0.631741 0.224083
0.596289 0.631741 0.224083
0.615063 0.631741 0.224083
0.635029 0.632934 0.225267
0.664487 0.643618 0.235877
0.693945 0.654302 0.246487
0.705429 0.658467 0.250624
0.705429 0.658467 0.250624
0.705429 0.658467 0.250624
0.705429 0.658467 0.250624
0.705429 0.658467 0.250624
0.705429 0.658467 0.250624
0.705429 0.658467 0.250624
0.705429 0.658467 0.250624
0.705429 0.658467 0.250624
0.705429 0.658467 0.250624
0.234145 0.659679 0.234145
0.260749 0.659679 0.234145
0.279741 0.659679 0.234145
0.298417 0.659679 0.234145
0.317092 0.659679 0.234145
0.335768 0.659679 0.234145
0.354443 0.659679 0.234145
0.373118 0.659679 0.234145
0.391794 0.659679 0.234145
0.410469 0.659679 0.234145
0.429145 0.659679 0.234145
0.449532 0.659679 0.234145
0.493780 0.659679 0.234145
0.512554 0.659679 0.234145
0.531327 0.659679 0.234145
0.550101 0.659679 0.234145
0.568875 0.659679 0.234145
0.587648 0.659679 0.234145
0.606422 0.659679 0.234145
0.625196 0.659679 0.234145
0.643969 0.659679 0.234145
0.664487 0.661423 0.235877
0.693945 0.672107 0.246487
0.705429 0.676272 0.250624
0.705429 0.676272 0.250624
0.705429 0.676272 0.250624
0.705429 0.676272 0.250624
0.705429 0.676272 0.250624
0.705429 0.676272 0.250624
0.705429 0.676272 0.250624
0.705429 0.676272 0.250624
0.705429 0.676272 0.250624
0.705429 0.676272 0.250624
0.244208 0.687617 0.244208
0.270812 0.687617 0.244208
0.289804 0.687617 0.244208
0.308479 0.687617 0.244208
0.327155 0.687617 0.244208
0.345830 0.687617 0.244208
0.364506 0.687617 0.244208
0.383181 0.687617 0.244208
0.401857 0.687617 0.244208
0.420532 0.687617 0.244208
0.439207 0.687617 0.244208
0.459594 0.687617 0.244208
0.503913 0.687617 0.244208
0.522687 0.687617 0.244208
0.541460 0.687617 0.244208
0.560234 0.687617 0.244208
0.579008 0.687617 0.244208
0.597781 0.687617 0.244208
0.616555 0.687617 0.244208
0.635329 0.687617 0.244208
0.654102 0.687617 0.244208
0.672876 0.687617 0.244208
0.693945 0.689912 0.246487
0.705429 0.694077 0.250624
0.705429 0.694077 0.250624
0.705429 0.694077 0.250624
0.705429 0.694077 0.250624
0.705429 0.694077 0.250624
0.705429 0.694077 0.250624
0.705429 0.694077 0.250624
0.705429 0.694077 0.250624
0.705429 0.694077 0.250624
0.705429 0.694077 0.250624
0.249556 0.702464 0.249556
0.276159 0.702464 0.249556
0.295151 0.702464 0.249556
0.313827 0.702464 0.249556
0.332502 0.702464 0.249556
0.351178 0.702464 0.249556
0.369853 0.702464 0.249556
0.388529 0.702464 0.249556
0.407204 0.702464 0.249556
0.425880 0.702464 0.249556
0.444555 0.702464 0.249556
0.464942 0.702464 0.249556
0.509298 0.702464 0.249556
0.528071 0.702464 0.249556
0.546845 0.702464 0.249556
0.565619 0.702464 0.249556
0.584392 0.702464 0.249556
0.603166 0.702464 0.249556
0.621940 0.702464 0.249556
0.640713 0.702464 0.249556
0.659487 0.702464 0.249556
0.678261 0.702464 0.249556
0.697034 0.702464 0.249556
0.705429 0.703539 0.250624
0.705429 0.703539 0.250624
0.705429 0.703539 0.250624
0.705429 0.703539 0.250624
0.705429 0.703539 0.250624
0.705429 0.703539 0.250624
0.705429 0.703539 0.250624
0.705429 0.703539 0.250624
0.705429 0.703539 0.250624
0.705429 0.703539 0.250624
0.249556 0.702464 0.249556
0.276159 0.702464 0.249556
0.295151 0.702464 0.249556
0.313827 0.702464 0.249556
0.332502 0.702464 0.249556
0.351178 0.702464 0.249556
0.369853 0.702464 0.249556
0.388529 0.702464 0.249556
0.407204 0.702464 0.249556
0.425880 0.702464 0.249556
0.444555 0.702464 0.249556
0.464942 0.702464 0.249556
0.509298 0.702464 0.249556
0.528071 0.702464 0.249556
0.546845 0.702464 0.249556
0.565619 0.702464 0.249556
0.584392 0.702464 0.249556
0.603166 0.702464 0.249556
0.621940 0.702464 0.249556
0.640713 0.702464 0.249556
0.659487 0.702464 0.249556
0.678261 0.702464 0.249556
0.697034 0.702464 0.249556
0.705429 0.703539 0.250624
0.705429 0.703539 0.250624
0.705429 0.703539 0.250624
0.705429 0.703539 0.250624
0.705429 0.703539 0.250624
0.705429 0.703539 0.250624
0.705429 0.703539 0.250624
0.705429 0.703539 0.250624
0.705429 0.703539 0.250624
0.705429 0.703539 0.250624
0.249556 0.702464 0.249556
0.276159 0.702464 0.249556
0.295151 0.702464 0.249556
0.313827 0.702464 0.249556
0.332502 0.702464 0.249556
0.351178 0.702464 0.249556
0.369853 0.702464 0.249556
0.388529 0.702464 0.249556
0.407204 0.702464 0.249556
0.425880 0.702464 0.249556
0.444555 0.702464 0.249556
0.464942 0.702464 0.249556
0.509298 0.702464 0.249556
0.528071 0.702464 0.249556
0.546845 0.702464 0.249556
0.565619 0.702464 0.249556
0.584392 0.702464 0.249556
0.603166 0.702464 0.249556
0.621940 0.702464 0.249556
0.640713 0.702464 0.249556
0.659487 0.702464 0.249556
0.678261 0.702464 0.249556
0.697034 0.702464 0.249556
0.705429 0.703539 0.250624
