docs/luts/fuji_recipes/Classic_MT_Classic_Chrome.cube
TITLE "Fujifilm Recipe: MT Classic Chrome (Classic)"
# FilmSim=Classic HL=0 SH=0 Col=-1 WB=Auto WBR=0 WBB=0
LUT_3D_SIZE 9
DOMAIN_MIN 0.0 0.0 0.0
DOMAIN_MAX 1.0 1.0 1.0
0.000000 0.000000 0.000000
0.093648 0.018476 0.018476
0.187295 0.036952 0.036952
0.280943 0.055429 0.055429
0.374590 0.073905 0.073905
0.469748 0.092679 0.092679
0.561885 0.110857 0.110857
0.654023 0.129035 0.129035
0.746160 0.147214 0.147214
0.018365 0.093084 0.018365
0.093648 0.093195 0.018476
0.187295 0.111671 0.036952
0.280943 0.130148 0.055429
0.374590 0.148624 0.073905
0.469748 0.167398 0.092679
0.561885 0.185576 0.110857
0.654023 0.203754 0.129035
0.746160 0.221933 0.147214
0.036764 0.186340 0.036764
0.111935 0.186340 0.036764
0.187295 0.186529 0.036952
0.280943 0.205005 0.055429
0.374590 0.223481 0.073905
0.469748 0.242255 0.092679
0.561885 0.260433 0.110857
0.654023 0.278612 0.129035
0.746160 0.296790 0.147214
0.055163 0.279596 0.055163
0.130334 0.279596 0.055163
0.205506 0.279596 0.055163
0.280943 0.279862 0.055429
0.374590 0.298338 0.073905
0.469748 0.317113 0.092679
0.561885 0.335291 0.110857
0.654023 0.353469 0.129035
0.746160 0.371647 0.147214
0.073562 0.372853 0.073562
0.148733 0.372853 0.073562
0.223905 0.372853 0.073562
0.299076 0.372853 0.073562
0.374590 0.373196 0.073905
0.469748 0.391970 0.092679
0.561885 0.410148 0.110857
0.654023 0.428326 0.129035
0.746160 0.446504 0.147214
0.092266 0.467654 0.092266
0.167437 0.467654 0.092266
0.242609 0.467654 0.092266
0.317780 0.467654 0.092266
0.392951 0.467654 0.092266
0.469748 0.468067 0.092679
0.561885 0.486245 0.110857
0.654023 0.504423 0.129035
0.746160 0.522602 0.147214
0.110368 0.559406 0.110368
0.185539 0.559406 0.110368
0.260711 0.559406 0.110368
0.335882 0.559406 0.110368
0.411053 0.559406 0.110368
0.487437 0.559406 0.110368
0.561885 0.559895 0.110857
0.654023 0.578073 0.129035
0.746160 0.596251 0.147214
0.128470 0.651158 0.128470
0.203642 0.651158 0.128470
0.278813 0.651158 0.128470
0.353984 0.651158 0.128470
0.429156 0.651158 0.128470
0.505540 0.651158 0.128470
0.579498 0.651158 0.128470
0.654023 0.651723 0.129035
0.746160 0.669901 0.147214
0.146572 0.742910 0.146572
0.221744 0.742910 0.146572
0.296915 0.742910 0.146572
0.372087 0.742910 0.146572
0.447258 0.742910 0.146572
0.523642 0.742910 0.146572
0.597601 0.742910 0.146572
0.671560 0.742910 0.146572
0.746160 0.743551 0.147214
0.018141 0.018141 0.091947
0.093648 0.018476 0.092282
0.187295 0.036952 0.110759
0.280943 0.055429 0.129235
0.374590 0.073905 0.147711
0.469748 0.092679 0.166485
0.561885 0.110857 0.184663
0.654023 0.129035 0.202842
0.746160 0.147214 0.221020
0.018365 0.093084 0.092171
0.123548 0.123101 0.122200
0.219766 0.138867 0.137891
0.314706 0.156034 0.155074
0.409128 0.173727 0.172776
0.504808 0.191973 0.191028
0.597306 0.209786 0.208846
0.689714 0.227689 0.226752
0.830834 0.197051 0.195948
0.036764 0.186340 0.110570
0.139180 0.218793 0.137720
0.219766 0.218946 0.137891
0.314706 0.234802 0.155074
0.409128 0.251710 0.172776
0.504808 0.269426 0.191028
0.597306 0.286873 0.208846
0.689714 0.304501 0.226752
0.830834 0.287553 0.195948
0.055163 0.279596 0.128969
0.156259 0.313346 0.154822
0.235371 0.313346 0.154822
0.314706 0.313569 0.155074
0.409128 0.329692 0.172776
0.504808 0.346879 0.191028
0.597306 0.363960 0.208846
0.689714 0.381313 0.226752
0.830834 0.378054 0.195948
0.073562 0.372853 0.147368
0.173867 0.407379 0.172445
0.252189 0.407379 0.172445
0.330510 0.407379 0.172445
0.409128 0.407675 0.172776
0.504808 0.424332 0.191028
0.597306 0.441048 0.208846
0.689714 0.458125 0.226752
0.830834 0.468555 0.195948
0.092266 0.467654 0.166072
0.192037 0.502704 0.190625
0.269825 0.502704 0.190625
0.347613 0.502704 0.190625
0.425401 0.502704 0.190625
0.504808 0.503068 0.191028
0.597306 0.519412 0.208846
0.689714 0.536209 0.226752
0.830834 0.560556 0.195948
0.110368 0.559406 0.184174
0.209771 0.594818 0.208365
0.287190 0.594818 0.208365
0.364610 0.594818 0.208365
0.442029 0.594818 0.208365
0.520697 0.594818 0.208365
0.597306 0.595256 0.208846
0.689714 0.611782 0.226752
0.830834 0.649597 0.195948
0.128470 0.651158 0.202277
0.227596 0.686842 0.226195
0.304737 0.686842 0.226195
0.381879 0.686842 0.226195
0.459021 0.686842 0.226195
0.537407 0.686842 0.226195
0.613304 0.686842 0.226195
0.689714 0.687355 0.226752
0.830834 0.738639 0.195948
0.146572 0.742910 0.220379
0.197491 0.827049 0.195842
0.288296 0.827049 0.195842
0.379102 0.827049 0.195842
0.469907 0.827049 0.195842
0.562178 0.827049 0.195842
0.651519 0.827049 0.195842
0.740860 0.827049 0.195842
0.830834 0.827681 0.195948
0.036384 0.036384 0.184413
0.111555 0.036384 0.184413
0.187295 0.036952 0.184982
0.280943 0.055429 0.203458
0.374590 0.073905 0.221934
0.469748 0.092679 0.240709
0.561885 0.110857 0.258887
0.654023 0.129035 0.277065
0.746160 0.147214 0.295243
0.036384 0.111103 0.184413
0.139152 0.138668 0.217188
0.220124 0.139182 0.217648
0.315088 0.156342 0.233518
0.409524 0.174030 0.250431
0.505215 0.192271 0.268150
0.597720 0.210081 0.285599
0.690134 0.227982 0.303228
0.831106 0.197326 0.285957
0.036764 0.186340 0.184794
0.139652 0.219329 0.217672
0.247234 0.246477 0.244950
0.343966 0.261653 0.259977
0.439695 0.278026 0.276371
0.536358 0.295279 0.293640
0.629587 0.312355 0.310727
0.747708 0.304746 0.302921
0.852945 0.309868 0.307999
0.055163 0.279596 0.203193
0.156720 0.313916 0.233451
0.262255 0.342584 0.259747
0.343966 0.342795 0.259977
0.439695 0.358114 0.276371
0.536358 0.374607 0.293640
0.629587 0.391131 0.310727
0.747708 0.393073 0.302921
0.852945 0.400336 0.307999
0.073562 0.372853 0.221592
0.174320 0.407971 0.250277
0.278536 0.437926 0.276061
0.358977 0.437926 0.276061
0.439695 0.438203 0.276371
0.536358 0.453935 0.293640
0.629587 0.469906 0.310727
0.747708 0.481400 0.302921
0.852945 0.490803 0.307999
0.092266 0.467654 0.240295
0.192484 0.503312 0.267918
0.295707 0.534235 0.293256
0.375382 0.534235 0.293256
0.455057 0.534235 0.293256
0.536358 0.534577 0.293640
0.629587 0.549987 0.310727
0.747708 0.571190 0.302921
0.852945 0.582769 0.307999
0.110368 0.559406 0.258398
0.210213 0.595437 0.285285
0.312698 0.627081 0.310264
0.391818 0.627081 0.310264
0.470937 0.627081 0.310264
0.551333 0.627081 0.310264
0.629587 0.627492 0.310727
0.747708 0.658093 0.302921
0.852945 0.671777 0.307999
0.128470 0.651158 0.276500
0.228034 0.687470 0.302833
0.305434 0.744494 0.302706
0.394074 0.744494 0.302706
0.482714 0.744494 0.302706
0.572784 0.744494 0.302706
0.659995 0.744494 0.302706
0.747708 0.744995 0.302921
0.852945 0.760785 0.307999
0.146572 0.742910 0.294602
0.197903 0.827456 0.285913
0.310683 0.849163 0.307891
0.401443 0.849163 0.307891
0.492202 0.849163 0.307891
0.584426 0.849163 0.307891
0.673721 0.849163 0.307891
0.763017 0.849163 0.307891
0.852945 0.849793 0.307999
0.054627 0.054627 0.276880
0.129798 0.054627 0.276880
0.204970 0.054627 0.276880
0.280943 0.055429 0.277682
0.374590 0.073905 0.296158
0.469748 0.092679 0.314932
0.561885 0.110857 0.333110
0.654023 0.129035 0.351288
0.746160 0.147214 0.369467
0.054627 0.129346 0.276880
0.156061 0.155584 0.310982
0.235239 0.155584 0.310982
0.315088 0.156342 0.311654
0.409524 0.174030 0.327784
0.505215 0.192271 0.344974
0.597720 0.210081 0.362057
0.690134 0.227982 0.379410
0.831106 0.197326 0.375691
0.054627 0.204203 0.276880
0.156213 0.234602 0.311170
0.262334 0.261502 0.340372
0.344546 0.262193 0.341009
0.440303 0.278559 0.356351
0.536987 0.295807 0.372856
0.630233 0.312877 0.389388
0.748176 0.305249 0.390996
0.853406 0.310334 0.398165
0.055163 0.279596 0.277416
0.156720 0.313916 0.311619
0.263062 0.343450 0.341084
0.370920 0.369853 0.367700
0.470034 0.394740 0.392587
0.565570 0.400943 0.398591
0.668883 0.408103 0.405594
0.770230 0.417124 0.414562
0.875058 0.422683 0.420049
0.073562 0.372853 0.295815
0.174320 0.407971 0.327657
0.279334 0.438833 0.356338
0.395345 0.468195 0.392125
0.470034 0.468656 0.392587
0.565570 0.481681 0.398591
0.668883 0.494254 0.405594
0.770230 0.505070 0.414562
0.875058 0.513104 0.420049
0.092266 0.467654 0.314519
0.192484 0.503312 0.344764
0.296497 0.535175 0.372763
0.401745 0.563426 0.398227
0.482839 0.563426 0.398227
0.565570 0.563757 0.398591
0.668883 0.581831 0.405594
0.770230 0.594473 0.414562
0.875058 0.605022 0.420049
0.110368 0.559406 0.332621
0.210213 0.595437 0.361763
0.313480 0.628046 0.389211
0.409069 0.666190 0.405318
0.495539 0.666190 0.405318
0.583404 0.666190 0.405318
0.668883 0.666592 0.405594
0.770230 0.681001 0.414562
0.875058 0.693983 0.420049
0.128470 0.651158 0.350723
0.228034 0.687470 0.379033
0.306186 0.745194 0.390971
0.418156 0.767035 0.414328
0.506406 0.767035 0.414328
0.596080 0.767035 0.414328
0.682907 0.767035 0.414328
0.770230 0.767528 0.414562
0.875058 0.782945 0.420049
0.146572 0.742910 0.368825
0.197903 0.827456 0.375573
0.311382 0.849853 0.398203
0.423872 0.871280 0.419937
0.514568 0.871280 0.419937
0.606727 0.871280 0.419937
0.695960 0.871280 0.419937
0.785193 0.871280 0.419937
0.875058 0.871907 0.420049
0.072870 0.072870 0.369347
0.148042 0.072870 0.369347
0.223213 0.072870 0.369347
0.298384 0.072870 0.369347
0.374590 0.073905 0.370381
0.469748 0.092679 0.389155
0.561885 0.110857 0.407334
0.654023 0.129035 0.425512
0.746160 0.147214 0.443690
0.072870 0.147589 0.369347
0.173503 0.173031 0.404245
0.251879 0.173031 0.404245
0.330256 0.173031 0.404245
0.409524 0.174030 0.405137
0.505215 0.192271 0.421798
0.597720 0.210081 0.438515
0.690134 0.227982 0.455592
0.831106 0.197326 0.465426
0.072870 0.222447 0.369347
0.173653 0.251246 0.404440
0.278445 0.277624 0.434960
0.358956 0.277624 0.434960
0.440303 0.278559 0.435797
0.536987 0.295807 0.451545
0.630233 0.312877 0.467527
0.748176 0.305249 0.478568
0.853406 0.310334 0.487866
0.072870 0.297304 0.369347
0.173653 0.329311 0.404440
0.278710 0.358082 0.435260
0.395136 0.394069 0.465206
0.470755 0.395462 0.466599
0.566402 0.401701 0.479438
0.669571 0.408847 0.491741
0.770893 0.417840 0.502467
0.875708 0.423341 0.510360
0.073562 0.372853 0.370038
0.174320 0.407971 0.405037
0.279334 0.438833 0.435819
0.396425 0.469274 0.466495
0.494607 0.493229 0.490450
0.595318 0.518517 0.515739
0.692502 0.519349 0.516138
0.792908 0.529334 0.526047
0.897172 0.535494 0.532098
0.092266 0.467654 0.388742
0.192484 0.503312 0.421611
0.296497 0.535175 0.451483
0.402879 0.564669 0.479483
0.519338 0.593101 0.515182
0.595318 0.593658 0.515739
0.692502 0.606186 0.516138
0.792908 0.618202 0.526047
0.897172 0.627342 0.532098
0.110368 0.559406 0.406844
0.210213 0.595437 0.438241
0.313480 0.628046 0.467378
0.410182 0.667220 0.491784
0.520636 0.689836 0.515835
0.607753 0.689836 0.515835
0.692502 0.690230 0.516138
0.792908 0.704212 0.526047
0.897172 0.716236 0.532098
0.128470 0.651158 0.424947
0.228034 0.687470 0.455234
0.306186 0.745194 0.478483
0.419229 0.768028 0.502519
0.530697 0.789739 0.525786
0.619825 0.789739 0.525786
0.706124 0.789739 0.525786
0.792908 0.790223 0.526047
0.897172 0.805130 0.532098
0.146572 0.742910 0.443049
0.197903 0.827456 0.465233
0.311382 0.849853 0.487816
0.424860 0.872251 0.510474
0.537053 0.893400 0.531980
0.629118 0.893400 0.531980
0.718260 0.893400 0.531980
0.807402 0.893400 0.531980
0.897172 0.894024 0.532098
0.091432 0.091432 0.463427
0.166603 0.091432 0.463427
0.241775 0.091432 0.463427
0.316946 0.091432 0.463427
0.392117 0.091432 0.463427
0.469748 0.092679 0.464674
0.561885 0.110857 0.482853
0.654023 0.129035 0.501031
0.746160 0.147214 0.519209
0.091432 0.166151 0.463427
0.191522 0.191054 0.498864
0.269357 0.191054 0.498864
0.347192 0.191054 0.498864
0.425027 0.191054 0.498864
0.505215 0.192271 0.499963
0.597720 0.210081 0.516308
0.690134 0.227982 0.533105
0.831106 0.197326 0.556727
0.091432 0.241008 0.463427
0.191670 0.268725 0.499065
0.295460 0.294647 0.530579
0.375199 0.294647 0.530579
0.454937 0.294647 0.530579
0.536987 0.295807 0.531608
0.630233 0.312877 0.547030
0.748176 0.305249 0.567669
0.853406 0.310334 0.579132
0.091432 0.315865 0.463427
0.191670 0.346248 0.499065
0.295722 0.374330 0.530890
0.401772 0.400605 0.559930
0.482935 0.400605 0.559930
0.566402 0.401701 0.560927
0.669571 0.408847 0.578634
0.770893 0.417840 0.591178
0.875708 0.423341 0.601578
0.091432 0.390723 0.463427
0.191670 0.423771 0.499065
0.295722 0.453752 0.530890
0.402147 0.481823 0.560340
0.519147 0.517769 0.589560
0.596250 0.519449 0.591240
0.693407 0.520320 0.603254
0.793772 0.530270 0.615153
0.898011 0.536346 0.624096
0.092266 0.467654 0.464261
0.192484 0.503312 0.499799
0.296497 0.535175 0.531577
0.402879 0.564669 0.561006
0.520732 0.594495 0.591145
0.620320 0.618660 0.615310
0.717123 0.631845 0.628020
0.816258 0.643128 0.639202
0.919677 0.650187 0.646097
0.110368 0.559406 0.482363
0.210213 0.595437 0.516054
0.313480 0.628046 0.546910
0.410182 0.667220 0.578626
0.522087 0.691191 0.603372
0.633400 0.714492 0.627683
0.717123 0.714879 0.628020
0.816258 0.728362 0.639202
0.919677 0.738969 0.646097
0.128470 0.651158 0.500466
0.228034 0.687470 0.532764
0.306186 0.745194 0.567523
0.419229 0.768028 0.591157
0.532099 0.791034 0.615272
0.644769 0.813126 0.638903
0.730277 0.813126 0.638903
0.816258 0.813596 0.639202
0.919677 0.827751 0.646097
0.146572 0.742910 0.518568
0.197903 0.827456 0.556457
0.311382 0.849853 0.578994
0.424860 0.872251 0.601587
0.538333 0.894654 0.624276
0.652076 0.915913 0.645970
0.741068 0.915913 0.645970
0.830060 0.915913 0.645970
0.919677 0.916533 0.646097
0.109381 0.109381 0.554402
0.184552 0.109381 0.554402
0.259724 0.109381 0.554402
0.334895 0.109381 0.554402
0.410066 0.109381 0.554402
0.486450 0.109381 0.554402
0.561885 0.110857 0.555879
0.654023 0.129035 0.574057
0.746160 0.147214 0.592235
0.109381 0.184100 0.554402
0.209097 0.208631 0.590211
0.286558 0.208631 0.590211
0.364018 0.208631 0.590211
0.441479 0.208631 0.590211
0.520189 0.208631 0.590211
0.597720 0.210081 0.591532
0.690134 0.227982 0.608058
0.831106 0.197326 0.645014
0.109381 0.258957 0.554402
0.209244 0.285926 0.590416
0.312288 0.311480 0.622670
0.391465 0.311480 0.622670
0.470642 0.311480 0.622670
0.551097 0.311480 0.622670
0.630233 0.312877 0.623909
0.748176 0.305249 0.653829
0.853406 0.310334 0.667385
0.109381 0.333814 0.554402
0.209244 0.363075 0.590416
0.312547 0.390601 0.622989
0.409248 0.408007 0.661452
0.495617 0.408007 0.661452
0.583378 0.408007 0.661452
0.669571 0.408847 0.662660
0.770893 0.417840 0.676960
0.875708 0.423341 0.689785
0.109381 0.408672 0.554402
0.209244 0.440224 0.590416
0.312547 0.469462 0.622989
0.409618 0.494375 0.661794
0.520986 0.519398 0.685370
0.607979 0.519398 0.685370
0.693407 0.520320 0.686555
0.793772 0.530270 0.700412
0.898011 0.536346 0.712234
0.109381 0.484769 0.554402
0.209244 0.518651 0.590416
0.312547 0.549631 0.622989
0.409618 0.581797 0.661794
0.521468 0.606530 0.685820
0.633890 0.631999 0.710318
0.718249 0.633027 0.711482
0.817316 0.644275 0.724820
0.920688 0.651218 0.735153
0.110368 0.559406 0.555390
0.210213 0.595437 0.591299
0.313480 0.628046 0.623817
0.410182 0.667220 0.662602
0.522087 0.691191 0.686613
0.635167 0.716179 0.711658
0.742011 0.740046 0.736080
0.839344 0.752696 0.748114
0.941449 0.761155 0.756325
0.128470 0.651158 0.573492
0.228034 0.687470 0.607736
0.306186 0.745194 0.653623
0.419229 0.768028 0.676870
0.532099 0.791034 0.700447
0.646488 0.814713 0.724989
0.754607 0.836266 0.747762
0.839344 0.836720 0.748114
0.941449 0.849733 0.756325
0.146572 0.742910 0.591594
0.197903 0.827456 0.644671
0.311382 0.849853 0.667162
0.424860 0.872251 0.689691
0.538333 0.894654 0.712288
0.653629 0.917426 0.735381
0.763387 0.937701 0.756182
0.852109 0.937701 0.756182
0.941449 0.938311 0.756325
0.127330 0.127330 0.645378
0.202501 0.127330 0.645378
0.277673 0.127330 0.645378
0.352844 0.127330 0.645378
0.428015 0.127330 0.645378
0.504399 0.127330 0.645378
0.578358 0.127330 0.645378
0.654023 0.129035 0.647083
0.746160 0.147214 0.665261
0.127330 0.202049 0.645378
0.226764 0.226300 0.681466
0.303943 0.226300 0.681466
0.381121 0.226300 0.681466
0.458300 0.226300 0.681466
0.536723 0.226300 0.681466
0.612657 0.226300 0.681466
0.690134 0.227982 0.683012
0.831106 0.197326 0.733302
0.127330 0.276906 0.645378
0.226909 0.303312 0.681674
0.305492 0.304589 0.738485
0.394010 0.304589 0.738485
0.482529 0.304589 0.738485
0.572475 0.304589 0.738485
0.659566 0.304589 0.738485
0.748176 0.305249 0.739989
0.853406 0.310334 0.755639
0.127330 0.351763 0.645378
0.226909 0.380178 0.681674
0.305742 0.392984 0.738718
0.418386 0.417119 0.761264
0.506494 0.417119 0.761264
0.596023 0.417119 0.761264
0.682710 0.417119 0.761264
0.770893 0.417840 0.762742
0.875708 0.423341 0.777992
0.127330 0.426621 0.645378
0.226909 0.457045 0.681674
0.305742 0.481130 0.738718
0.418743 0.505209 0.761593
0.531091 0.529467 0.784224
0.620045 0.529467 0.784224
0.706175 0.529467 0.784224
0.793772 0.530270 0.785670
0.898011 0.536346 0.800372
0.127330 0.502718 0.645378
0.226909 0.535185 0.681674
0.305742 0.570735 0.738718
0.418743 0.594395 0.761593
0.531558 0.618541 0.784654
0.645296 0.643357 0.807884
0.730592 0.643357 0.807884
0.817316 0.644275 0.809290
0.920688 0.651218 0.823176
0.127330 0.576368 0.645378
0.226909 0.610812 0.681674
0.305742 0.657458 0.738718
0.418743 0.680713 0.761593
0.531558 0.704299 0.784654
0.645867 0.728846 0.808413
0.755256 0.752996 0.831371
0.840637 0.754081 0.832729
0.942647 0.762386 0.845369
0.128470 0.651158 0.646518
0.228034 0.687470 0.682707
0.306186 0.745194 0.739724
0.419229 0.768028 0.762582
0.532099 0.791034 0.785622
0.646488 0.814713 0.809353
0.756679 0.838207 0.832928
0.863703 0.861432 0.856851
0.963251 0.872069 0.866521
0.146572 0.742910 0.664620
0.197903 0.827456 0.732884
0.311382 0.849853 0.755330
0.424860 0.872251 0.777796
0.538333 0.894654 0.800299
0.653629 0.917426 0.823237
0.765245 0.939494 0.845613
0.874600 0.959542 0.866339
0.963251 0.960132 0.866521
0.145279 0.145279 0.736353
0.220450 0.145279 0.736353
0.295622 0.145279 0.736353
0.370793 0.145279 0.736353
0.445964 0.145279 0.736353
0.522348 0.145279 0.736353
0.596307 0.145279 0.736353
0.670266 0.145279 0.736353
0.746160 0.147214 0.738288
0.145279 0.219998 0.736353
0.197536 0.196990 0.819700
0.288190 0.196990 0.819700
0.378845 0.196990 0.819700
0.469499 0.196990 0.819700
0.561616 0.196990 0.819700
0.650809 0.196990 0.819700
0.740001 0.196990 0.819700
0.831106 0.197326 0.821589
0.145279 0.294855 0.736353
0.197673 0.287403 0.819835
0.310912 0.309988 0.842011
0.401496 0.309988 0.842011
0.492081 0.309988 0.842011
0.584126 0.309988 0.842011
0.673250 0.309988 0.842011
0.762373 0.309988 0.842011
0.853406 0.310334 0.843893
0.145279 0.369712 0.736353
0.197673 0.377678 0.819835
0.311145 0.400427 0.842239
0.424281 0.422980 0.864327
0.514769 0.422980 0.864327
0.606717 0.422980 0.864327
0.695745 0.422980 0.864327
0.784774 0.422980 0.864327
0.875708 0.423341 0.866199
0.145279 0.444569 0.736353
0.197673 0.467954 0.819835
0.311145 0.490632 0.842239
0.424611 0.513419 0.864649
0.537640 0.535964 0.886652
0.629444 0.535964 0.886652
0.718334 0.535964 0.886652
0.807223 0.535964 0.886652
0.898011 0.536346 0.888510
0.145279 0.520667 0.736353
0.197673 0.559724 0.819835
0.311145 0.582331 0.842239
0.424611 0.605020 0.864649
0.538069 0.627849 0.887068
0.652816 0.650801 0.909364
0.741478 0.650801 0.909364
0.830140 0.650801 0.909364
0.920688 0.651218 0.911200
0.145279 0.594317 0.736353
0.197673 0.648544 0.819835
0.311145 0.671081 0.842239
0.424611 0.693675 0.864649
0.538069 0.716364 0.887068
0.653338 0.739607 0.909867
0.764280 0.761905 0.931386
0.852530 0.761905 0.931386
0.942647 0.762386 0.933181
0.145279 0.667966 0.736353
0.197673 0.737363 0.819835
0.311145 0.759832 0.842239
0.424611 0.782330 0.864649
0.538069 0.804879 0.887068
0.653338 0.827891 0.909867
0.764907 0.850397 0.931982
0.875596 0.872884 0.953533
0.964639 0.873520 0.955233
0.146572 0.742910 0.737647
0.197903 0.827456 0.821098
0.311382 0.849853 0.843498
0.424860 0.872251 0.865901
0.538333 0.894654 0.888311
0.653629 0.917426 0.911094
0.765245 0.939494 0.933183
0.876799 0.961625 0.955368
0.985385 0.982403 0.976386
