docs/luts/fuji_recipes/Classic_VM_Classic_Chrome.cube
TITLE "Fujifilm Recipe: VM Classic Chrome (Classic)"
# FilmSim=Classic HL=1 SH=2 Col=2 WB=Auto WBR=0 WBB=-1
LUT_3D_SIZE 5
DOMAIN_MIN 0.0 0.0 0.0
DOMAIN_MAX 1.0 1.0 1.0
0.000000 0.000000 0.000000
0.227339 0.000821 0.000821
0.454677 0.001643 0.001643
0.741707 0.000000 0.000000
0.991514 0.000000 0.000000
0.000817 0.226180 0.000817
0.227339 0.226184 0.000821
0.454677 0.227005 0.001643
0.741707 0.220699 0.000000
0.991514 0.220215 0.000000
0.001635 0.452568 0.001635
0.228152 0.452568 0.001635
0.454677 0.452576 0.001643
0.741707 0.441601 0.000000
0.991514 0.440634 0.000000
0.000000 0.738346 0.000000
0.221838 0.738346 0.000000
0.443677 0.738346 0.000000
0.741707 0.738387 0.000000
0.991514 0.742023 0.000000
0.000000 0.987109 0.000000
0.221350 0.987109 0.000000
0.442700 0.987109 0.000000
0.745265 0.987109 0.000000
0.991514 0.987173 0.000000
0.000788 0.000788 0.218229
0.227339 0.000821 0.218262
0.454677 0.001643 0.219083
0.741707 0.000000 0.212941
0.991514 0.000000 0.212474
0.000817 0.226180 0.218258
0.228127 0.226972 0.219050
0.455466 0.227794 0.219872
0.754883 0.217620 0.209698
1.000000 0.222144 0.214389
0.001635 0.452568 0.219076
0.228941 0.453357 0.219864
0.455466 0.453364 0.219872
0.754883 0.443191 0.209698
1.000000 0.500365 0.214389
0.000000 0.738346 0.212949
0.218825 0.751471 0.209749
0.445342 0.751471 0.209749
0.754883 0.751493 0.209698
1.000000 0.750048 0.214389
0.000000 0.987109 0.212481
0.218970 1.000000 0.209983
0.501457 1.000000 0.209983
0.754972 1.000000 0.209983
1.000000 0.995651 0.214389
0.001579 0.001579 0.437089
0.228096 0.001579 0.437089
0.454677 0.001643 0.437152
0.741707 0.000000 0.426497
0.991514 0.000000 0.425563
0.001579 0.226942 0.437089
0.228914 0.227759 0.437906
0.455494 0.227822 0.437970
0.755078 0.217623 0.427771
1.000000 0.222508 0.483664
0.001635 0.452568 0.437145
0.228974 0.453390 0.437966
0.456256 0.454155 0.438732
0.752760 0.494321 0.476886
1.000000 0.500470 0.483406
0.000000 0.738346 0.426514
0.218829 0.751694 0.427822
0.496684 0.749357 0.476874
0.752760 0.749370 0.476886
1.000000 0.750101 0.483406
0.000000 0.987109 0.425575
0.219287 1.000000 0.482198
0.498654 1.000000 0.478931
0.753595 1.000000 0.478931
1.000000 0.995652 0.483406
0.000000 0.000000 0.713064
0.221907 0.000000 0.713064
0.443815 0.000000 0.713064
0.741707 0.000000 0.713418
0.991514 0.000000 0.717108
0.000000 0.220776 0.713064
0.219208 0.218053 0.726004
0.445726 0.218053 0.726004
0.755078 0.217623 0.726191
1.000000 0.222508 0.725283
0.000000 0.441756 0.713064
0.219209 0.443625 0.726033
0.496655 0.494280 0.723831
0.752823 0.494384 0.723936
1.000000 0.500967 0.725419
0.000000 0.738346 0.713375
0.218829 0.751694 0.726197
0.496756 0.749429 0.723932
0.753655 0.750265 0.724768
1.000000 0.756500 0.732183
0.000000 0.987109 0.717036
0.219287 1.000000 0.726560
0.498885 1.000000 0.724961
0.756168 1.000000 0.727708
1.000000 0.995763 0.732183
0.000000 0.000000 0.953554
0.221401 0.000000 0.953554
0.442802 0.000000 0.953554
0.744730 0.000000 0.953554
0.991514 0.000000 0.954106
0.000000 0.220272 0.953554
0.215597 0.214443 0.970106
0.500393 0.214443 0.970106
0.756456 0.214443 0.970106
1.000000 0.222508 0.962549
0.000000 0.440748 0.953554
0.215598 0.498046 0.970134
0.497535 0.495159 0.967247
0.753598 0.495159 0.967247
1.000000 0.500967 0.962567
0.000000 0.741417 0.953554
0.215598 0.753094 0.970134
0.497543 0.750216 0.967256
0.754522 0.751132 0.968172
1.000000 0.757865 0.963694
0.000000 0.987109 0.954041
0.219287 1.000000 0.966519
0.498885 1.000000 0.966323
0.756805 1.000000 0.966747
1.000000 0.999048 0.974165
