docs/luts/fuji_recipes/Classic_MT_Classic_Chrome.cube
TITLE "Fujifilm Recipe: MT Classic Chrome (Classic)"
# FilmSim=Classic HL=0 SH=0 Col=-1 WB=Auto WBR=0 WBB=0
LUT_3D_SIZE 33
DOMAIN_MIN 0.0 0.0 0.0
DOMAIN_MAX 1.0 1.0 1.0
0.000000 0.000000 0.000000
0.023412 0.004619 0.004619
0.046824 0.009238 0.009238
0.070236 0.013857 0.013857
0.093648 0.018476 0.018476
0.117059 0.023095 0.023095
0.140471 0.027714 0.027714
0.163883 0.032333 0.032333
0.187295 0.036952 0.036952
0.210707 0.041571 0.041571
0.234119 0.046191 0.046191
0.257531 0.050810 0.050810
0.280943 0.055429 0.055429
0.304355 0.060048 0.060048
0.327767 0.064667 0.064667
0.351178 0.069286 0.069286
0.374590 0.073905 0.073905
0.400645 0.079045 0.079045
0.423680 0.083590 0.083590
0.446714 0.088134 0.088134
0.469748 0.092679 0.092679
0.492783 0.097224 0.097224
0.515817 0.101768 0.101768
0.538851 0.106313 0.106313
0.561885 0.110857 0.110857
0.584920 0.115402 0.115402
0.607954 0.119946 0.119946
0.630988 0.124491 0.124491
0.654023 0.129035 0.129035
0.677057 0.133580 0.133580
0.700091 0.138125 0.138125
0.723125 0.142669 0.142669
0.746160 0.147214 0.147214
0.004573 0.023178 0.004573
0.023412 0.023224 0.004619
0.046824 0.027843 0.009238
0.070236 0.032462 0.013857
0.093648 0.037081 0.018476
0.117059 0.041700 0.023095
0.140471 0.046319 0.027714
0.163883 0.050938 0.032333
0.187295 0.055557 0.036952
0.210707 0.060176 0.041571
0.234119 0.064795 0.046191
0.257531 0.069414 0.050810
0.280943 0.074034 0.055429
0.304355 0.078653 0.060048
0.327767 0.083272 0.064667
0.351178 0.087891 0.069286
0.374590 0.092510 0.073905
0.400645 0.097650 0.079045
0.423680 0.102195 0.083590
0.446714 0.106739 0.088134
0.469748 0.111284 0.092679
0.492783 0.115828 0.097224
0.515817 0.120373 0.101768
0.538851 0.124918 0.106313
0.561885 0.129462 0.110857
0.584920 0.134007 0.115402
0.607954 0.138551 0.119946
0.630988 0.143096 0.124491
0.654023 0.147640 0.129035
0.677057 0.152185 0.133580
0.700091 0.156729 0.138125
0.723125 0.161274 0.142669
0.746160 0.165819 0.147214
0.009166 0.046456 0.009166
0.027958 0.046456 0.009166
0.046824 0.046529 0.009238
0.070236 0.051148 0.013857
0.093648 0.055767 0.018476
0.117059 0.060386 0.023095
0.140471 0.065005 0.027714
0.163883 0.069624 0.032333
0.187295 0.074243 0.036952
0.210707 0.078862 0.041571
0.234119 0.083481 0.046191
0.257531 0.088100 0.050810
0.280943 0.092719 0.055429
0.304355 0.097338 0.060048
0.327767 0.101957 0.064667
0.351178 0.106576 0.069286
0.374590 0.111195 0.073905
0.400645 0.116336 0.079045
0.423680 0.120880 0.083590
0.446714 0.125425 0.088134
0.469748 0.129969 0.092679
0.492783 0.134514 0.097224
0.515817 0.139059 0.101768
0.538851 0.143603 0.106313
0.561885 0.148148 0.110857
0.584920 0.152692 0.115402
0.607954 0.157237 0.119946
0.630988 0.161781 0.124491
0.654023 0.166326 0.129035
0.677057 0.170870 0.133580
0.700091 0.175415 0.138125
0.723125 0.179959 0.142669
0.746160 0.184504 0.147214
0.013765 0.069770 0.013765
0.032558 0.069770 0.013765
0.051351 0.069770 0.013765
0.070236 0.069862 0.013857
0.093648 0.074481 0.018476
0.117059 0.079100 0.023095
0.140471 0.083719 0.027714
0.163883 0.088338 0.032333
0.187295 0.092957 0.036952
0.210707 0.097576 0.041571
0.234119 0.102195 0.046191
0.257531 0.106814 0.050810
0.280943 0.111433 0.055429
0.304355 0.116052 0.060048
0.327767 0.120671 0.064667
0.351178 0.125290 0.069286
0.374590 0.129910 0.073905
0.400645 0.135050 0.079045
0.423680 0.139595 0.083590
0.446714 0.144139 0.088134
0.469748 0.148684 0.092679
0.492783 0.153228 0.097224
0.515817 0.157773 0.101768
0.538851 0.162317 0.106313
0.561885 0.166862 0.110857
0.584920 0.171406 0.115402
0.607954 0.175951 0.119946
0.630988 0.180496 0.124491
0.654023 0.185040 0.129035
0.677057 0.189585 0.133580
0.700091 0.194129 0.138125
0.723125 0.198674 0.142669
0.746160 0.203218 0.147214
0.018365 0.093084 0.018365
0.037158 0.093084 0.018365
0.055951 0.093084 0.018365
0.074744 0.093084 0.018365
0.093648 0.093195 0.018476
0.117059 0.097814 0.023095
0.140471 0.102433 0.027714
0.163883 0.107052 0.032333
0.187295 0.111671 0.036952
0.210707 0.116290 0.041571
0.234119 0.120910 0.046191
0.257531 0.125529 0.050810
0.280943 0.130148 0.055429
0.304355 0.134767 0.060048
0.327767 0.139386 0.064667
0.351178 0.144005 0.069286
0.374590 0.148624 0.073905
0.400645 0.153764 0.079045
0.423680 0.158309 0.083590
0.446714 0.162853 0.088134
0.469748 0.167398 0.092679
0.492783 0.171943 0.097224
0.515817 0.176487 0.101768
0.538851 0.181032 0.106313
0.561885 0.185576 0.110857
0.584920 0.190121 0.115402
0.607954 0.194665 0.119946
0.630988 0.199210 0.124491
0.654023 0.203754 0.129035
0.677057 0.208299 0.133580
0.700091 0.212844 0.138125
0.723125 0.217388 0.142669
0.746160 0.221933 0.147214
0.022965 0.116398 0.022965
0.041758 0.116398 0.022965
0.060550 0.116398 0.022965
0.079343 0.116398 0.022965
0.098136 0.116398 0.022965
0.117059 0.116529 0.023095
0.140471 0.121148 0.027714
0.163883 0.125767 0.032333
0.187295 0.130386 0.036952
0.210707 0.135005 0.041571
0.234119 0.139624 0.046191
0.257531 0.144243 0.050810
0.280943 0.148862 0.055429
0.304355 0.153481 0.060048
0.327767 0.158100 0.064667
0.351178 0.162719 0.069286
0.374590 0.167338 0.073905
0.400645 0.172479 0.079045
0.423680 0.177023 0.083590
0.446714 0.181568 0.088134
0.469748 0.186112 0.092679
0.492783 0.190657 0.097224
0.515817 0.195201 0.101768
0.538851 0.199746 0.106313
0.561885 0.204291 0.110857
0.584920 0.208835 0.115402
0.607954 0.213380 0.119946
0.630988 0.217924 0.124491
0.654023 0.222469 0.129035
0.677057 0.227013 0.133580
0.700091 0.231558 0.138125
0.723125 0.236102 0.142669
0.746160 0.240647 0.147214
0.027565 0.139712 0.027565
0.046357 0.139712 0.027565
0.065150 0.139712 0.027565
0.083943 0.139712 0.027565
0.102736 0.139712 0.027565
0.121529 0.139712 0.027565
0.140471 0.139862 0.027714
0.163883 0.144481 0.032333
0.187295 0.149100 0.036952
0.210707 0.153719 0.041571
0.234119 0.158338 0.046191
0.257531 0.162957 0.050810
0.280943 0.167576 0.055429
0.304355 0.172195 0.060048
0.327767 0.176814 0.064667
0.351178 0.181433 0.069286
0.374590 0.186052 0.073905
0.400645 0.191193 0.079045
0.423680 0.195738 0.083590
0.446714 0.200282 0.088134
0.469748 0.204827 0.092679
0.492783 0.209371 0.097224
0.515817 0.213916 0.101768
0.538851 0.218460 0.106313
0.561885 0.223005 0.110857
0.584920 0.227549 0.115402
0.607954 0.232094 0.119946
0.630988 0.236639 0.124491
0.654023 0.241183 0.129035
0.677057 0.245728 0.133580
0.700091 0.250272 0.138125
0.723125 0.254817 0.142669
0.746160 0.259361 0.147214
0.032164 0.163026 0.032164
0.050957 0.163026 0.032164
0.069750 0.163026 0.032164
0.088543 0.163026 0.032164
0.107336 0.163026 0.032164
0.126128 0.163026 0.032164
0.144921 0.163026 0.032164
0.163883 0.163195 0.032333
0.187295 0.167814 0.036952
0.210707 0.172433 0.041571
0.234119 0.177052 0.046191
0.257531 0.181672 0.050810
0.280943 0.186291 0.055429
0.304355 0.190910 0.060048
0.327767 0.195529 0.064667
0.351178 0.200148 0.069286
0.374590 0.204767 0.073905
0.400645 0.209907 0.079045
0.423680 0.214452 0.083590
0.446714 0.218996 0.088134
0.469748 0.223541 0.092679
0.492783 0.228086 0.097224
0.515817 0.232630 0.101768
0.538851 0.237175 0.106313
0.561885 0.241719 0.110857
0.584920 0.246264 0.115402
0.607954 0.250808 0.119946
0.630988 0.255353 0.124491
0.654023 0.259897 0.129035
0.677057 0.264442 0.133580
0.700091 0.268986 0.138125
0.723125 0.273531 0.142669
0.746160 0.278076 0.147214
0.036764 0.186340 0.036764
0.055557 0.186340 0.036764
0.074350 0.186340 0.036764
0.093143 0.186340 0.036764
0.111935 0.186340 0.036764
0.130728 0.186340 0.036764
0.149521 0.186340 0.036764
0.168314 0.186340 0.036764
0.187295 0.186529 0.036952
0.210707 0.191148 0.041571
0.234119 0.195767 0.046191
0.257531 0.200386 0.050810
0.280943 0.205005 0.055429
0.304355 0.209624 0.060048
0.327767 0.214243 0.064667
0.351178 0.218862 0.069286
0.374590 0.223481 0.073905
0.400645 0.228622 0.079045
0.423680 0.233166 0.083590
0.446714 0.237711 0.088134
0.469748 0.242255 0.092679
0.492783 0.246800 0.097224
0.515817 0.251344 0.101768
0.538851 0.255889 0.106313
0.561885 0.260433 0.110857
0.584920 0.264978 0.115402
0.607954 0.269523 0.119946
0.630988 0.274067 0.124491
0.654023 0.278612 0.129035
0.677057 0.283156 0.133580
0.700091 0.287701 0.138125
0.723125 0.292245 0.142669
0.746160 0.296790 0.147214
0.041364 0.209654 0.041364
0.060157 0.209654 0.041364
0.078949 0.209654 0.041364
0.097742 0.209654 0.041364
0.116535 0.209654 0.041364
0.135328 0.209654 0.041364
0.154121 0.209654 0.041364
0.172914 0.209654 0.041364
0.191706 0.209654 0.041364
0.210707 0.209862 0.041571
0.234119 0.214481 0.046191
0.257531 0.219100 0.050810
0.280943 0.223719 0.055429
0.304355 0.228338 0.060048
0.327767 0.232957 0.064667
0.351178 0.237576 0.069286
0.374590 0.242195 0.073905
0.400645 0.247336 0.079045
0.423680 0.251880 0.083590
0.446714 0.256425 0.088134
0.469748 0.260970 0.092679
0.492783 0.265514 0.097224
0.515817 0.270059 0.101768
0.538851 0.274603 0.106313
0.561885 0.279148 0.110857
0.584920 0.283692 0.115402
0.607954 0.288237 0.119946
0.630988 0.292781 0.124491
0.654023 0.297326 0.129035
0.677057 0.301871 0.133580
0.700091 0.306415 0.138125
0.723125 0.310960 0.142669
0.746160 0.315504 0.147214
0.045964 0.232968 0.045964
0.064756 0.232968 0.045964
0.083549 0.232968 0.045964
0.102342 0.232968 0.045964
0.121135 0.232968 0.045964
0.139928 0.232968 0.045964
0.158721 0.232968 0.045964
0.177513 0.232968 0.045964
0.196306 0.232968 0.045964
0.215099 0.232968 0.045964
0.234119 0.233195 0.046191
0.257531 0.237814 0.050810
0.280943 0.242433 0.055429
0.304355 0.247053 0.060048
0.327767 0.251672 0.064667
0.351178 0.256291 0.069286
0.374590 0.260910 0.073905
0.400645 0.266050 0.079045
0.423680 0.270595 0.083590
0.446714 0.275139 0.088134
0.469748 0.279684 0.092679
0.492783 0.284228 0.097224
0.515817 0.288773 0.101768
0.538851 0.293318 0.106313
0.561885 0.297862 0.110857
0.584920 0.302407 0.115402
0.607954 0.306951 0.119946
0.630988 0.311496 0.124491
0.654023 0.316040 0.129035
0.677057 0.320585 0.133580
0.700091 0.325129 0.138125
0.723125 0.329674 0.142669
0.746160 0.334218 0.147214
0.050563 0.256282 0.050563
0.069356 0.256282 0.050563
0.088149 0.256282 0.050563
0.106942 0.256282 0.050563
0.125735 0.256282 0.050563
0.144527 0.256282 0.050563
0.163320 0.256282 0.050563
0.182113 0.256282 0.050563
0.200906 0.256282 0.050563
0.219699 0.256282 0.050563
0.238492 0.256282 0.050563
0.257531 0.256529 0.050810
0.280943 0.261148 0.055429
0.304355 0.265767 0.060048
0.327767 0.270386 0.064667
0.351178 0.275005 0.069286
0.374590 0.279624 0.073905
0.400645 0.284765 0.079045
0.423680 0.289309 0.083590
0.446714 0.293854 0.088134
0.469748 0.298398 0.092679
0.492783 0.302943 0.097224
0.515817 0.307487 0.101768
0.538851 0.312032 0.106313
0.561885 0.316576 0.110857
0.584920 0.321121 0.115402
0.607954 0.325666 0.119946
0.630988 0.330210 0.124491
0.654023 0.334755 0.129035
0.677057 0.339299 0.133580
0.700091 0.343844 0.138125
0.723125 0.348388 0.142669
0.746160 0.352933 0.147214
0.055163 0.279596 0.055163
0.073956 0.279596 0.055163
0.092749 0.279596 0.055163
0.111542 0.279596 0.055163
0.130334 0.279596 0.055163
0.149127 0.279596 0.055163
0.167920 0.279596 0.055163
0.186713 0.279596 0.055163
0.205506 0.279596 0.055163
0.224299 0.279596 0.055163
0.243091 0.279596 0.055163
0.261884 0.279596 0.055163
0.280943 0.279862 0.055429
0.304355 0.284481 0.060048
0.327767 0.289100 0.064667
0.351178 0.293719 0.069286
0.374590 0.298338 0.073905
0.400645 0.303479 0.079045
0.423680 0.308023 0.083590
0.446714 0.312568 0.088134
0.469748 0.317113 0.092679
0.492783 0.321657 0.097224
0.515817 0.326202 0.101768
0.538851 0.330746 0.106313
0.561885 0.335291 0.110857
0.584920 0.339835 0.115402
0.607954 0.344380 0.119946
0.630988 0.348924 0.124491
0.654023 0.353469 0.129035
0.677057 0.358013 0.133580
0.700091 0.362558 0.138125
0.723125 0.367103 0.142669
0.746160 0.371647 0.147214
0.059763 0.302911 0.059763
0.078556 0.302911 0.059763
0.097348 0.302911 0.059763
0.116141 0.302911 0.059763
0.134934 0.302911 0.059763
0.153727 0.302911 0.059763
0.172520 0.302911 0.059763
0.191313 0.302911 0.059763
0.210105 0.302911 0.059763
0.228898 0.302911 0.059763
0.247691 0.302911 0.059763
0.266484 0.302911 0.059763
0.285277 0.302911 0.059763
0.304355 0.303195 0.060048
0.327767 0.307815 0.064667
0.351178 0.312434 0.069286
0.374590 0.317053 0.073905
0.400645 0.322193 0.079045
0.423680 0.326738 0.083590
0.446714 0.331282 0.088134
0.469748 0.335827 0.092679
0.492783 0.340371 0.097224
0.515817 0.344916 0.101768
0.538851 0.349460 0.106313
0.561885 0.354005 0.110857
0.584920 0.358550 0.115402
0.607954 0.363094 0.119946
0.630988 0.367639 0.124491
0.654023 0.372183 0.129035
0.677057 0.376728 0.133580
0.700091 0.381272 0.138125
0.723125 0.385817 0.142669
0.746160 0.390361 0.147214
0.064363 0.326225 0.064363
0.083155 0.326225 0.064363
0.101948 0.326225 0.064363
0.120741 0.326225 0.064363
0.139534 0.326225 0.064363
0.158327 0.326225 0.064363
0.177120 0.326225 0.064363
0.195912 0.326225 0.064363
0.214705 0.326225 0.064363
0.233498 0.326225 0.064363
0.252291 0.326225 0.064363
0.271084 0.326225 0.064363
0.289877 0.326225 0.064363
0.308669 0.326225 0.064363
0.327767 0.326529 0.064667
0.351178 0.331148 0.069286
0.374590 0.335767 0.073905
0.400645 0.340907 0.079045
0.423680 0.345452 0.083590
0.446714 0.349997 0.088134
0.469748 0.354541 0.092679
0.492783 0.359086 0.097224
0.515817 0.363630 0.101768
0.538851 0.368175 0.106313
0.561885 0.372719 0.110857
0.584920 0.377264 0.115402
0.607954 0.381808 0.119946
0.630988 0.386353 0.124491
0.654023 0.390898 0.129035
0.677057 0.395442 0.133580
0.700091 0.399987 0.138125
0.723125 0.404531 0.142669
0.746160 0.409076 0.147214
0.068962 0.349539 0.068962
0.087755 0.349539 0.068962
0.106548 0.349539 0.068962
0.125341 0.349539 0.068962
0.144134 0.349539 0.068962
0.162926 0.349539 0.068962
0.181719 0.349539 0.068962
0.200512 0.349539 0.068962
0.219305 0.349539 0.068962
0.238098 0.349539 0.068962
0.256891 0.349539 0.068962
0.275684 0.349539 0.068962
0.294476 0.349539 0.068962
0.313269 0.349539 0.068962
0.332062 0.349539 0.068962
0.351178 0.349862 0.069286
0.374590 0.354481 0.073905
0.400645 0.359622 0.079045
0.423680 0.364166 0.083590
0.446714 0.368711 0.088134
0.469748 0.373255 0.092679
0.492783 0.377800 0.097224
0.515817 0.382345 0.101768
0.538851 0.386889 0.106313
0.561885 0.391434 0.110857
0.584920 0.395978 0.115402
0.607954 0.400523 0.119946
0.630988 0.405067 0.124491
0.654023 0.409612 0.129035
0.677057 0.414156 0.133580
0.700091 0.418701 0.138125
0.723125 0.423245 0.142669
0.746160 0.427790 0.147214
0.073562 0.372853 0.073562
0.092355 0.372853 0.073562
0.111148 0.372853 0.073562
0.129941 0.372853 0.073562
0.148733 0.372853 0.073562
0.167526 0.372853 0.073562
0.186319 0.372853 0.073562
0.205112 0.372853 0.073562
0.223905 0.372853 0.073562
0.242698 0.372853 0.073562
0.261490 0.372853 0.073562
0.280283 0.372853 0.073562
0.299076 0.372853 0.073562
0.317869 0.372853 0.073562
0.336662 0.372853 0.073562
0.355455 0.372853 0.073562
0.374590 0.373196 0.073905
0.400645 0.378336 0.079045
0.423680 0.382881 0.083590
0.446714 0.387425 0.088134
0.469748 0.391970 0.092679
0.492783 0.396514 0.097224
0.515817 0.401059 0.101768
0.538851 0.405603 0.106313
0.561885 0.410148 0.110857
0.584920 0.414692 0.115402
0.607954 0.419237 0.119946
0.630988 0.423782 0.124491
0.654023 0.428326 0.129035
0.677057 0.432871 0.133580
0.700091 0.437415 0.138125
0.723125 0.441960 0.142669
0.746160 0.446504 0.147214
0.078689 0.398840 0.078689
0.097482 0.398840 0.078689
0.116275 0.398840 0.078689
0.135068 0.398840 0.078689
0.153860 0.398840 0.078689
0.172653 0.398840 0.078689
0.191446 0.398840 0.078689
0.210239 0.398840 0.078689
0.229032 0.398840 0.078689
0.247825 0.398840 0.078689
0.266618 0.398840 0.078689
0.285410 0.398840 0.078689
0.304203 0.398840 0.078689
0.322996 0.398840 0.078689
0.341789 0.398840 0.078689
0.360582 0.398840 0.078689
0.379375 0.398840 0.078689
0.400645 0.399196 0.079045
0.423680 0.403740 0.083590
0.446714 0.408285 0.088134
0.469748 0.412830 0.092679
0.492783 0.417374 0.097224
0.515817 0.421919 0.101768
0.538851 0.426463 0.106313
0.561885 0.431008 0.110857
0.584920 0.435552 0.115402
0.607954 0.440097 0.119946
0.630988 0.444641 0.124491
0.654023 0.449186 0.129035
0.677057 0.453731 0.133580
0.700091 0.458275 0.138125
0.723125 0.462820 0.142669
0.746160 0.467364 0.147214
0.083215 0.421778 0.083215
0.102008 0.421778 0.083215
0.120800 0.421778 0.083215
0.139593 0.421778 0.083215
0.158386 0.421778 0.083215
0.177179 0.421778 0.083215
0.195972 0.421778 0.083215
0.214765 0.421778 0.083215
0.233557 0.421778 0.083215
0.252350 0.421778 0.083215
0.271143 0.421778 0.083215
0.289936 0.421778 0.083215
0.308729 0.421778 0.083215
0.327522 0.421778 0.083215
0.346314 0.421778 0.083215
0.365107 0.421778 0.083215
0.383900 0.421778 0.083215
0.404815 0.421778 0.083215
0.423680 0.422153 0.083590
0.446714 0.426698 0.088134
0.469748 0.431242 0.092679
0.492783 0.435787 0.097224
0.515817 0.440331 0.101768
0.538851 0.444876 0.106313
0.561885 0.449420 0.110857
0.584920 0.453965 0.115402
0.607954 0.458509 0.119946
0.630988 0.463054 0.124491
0.654023 0.467598 0.129035
0.677057 0.472143 0.133580
0.700091 0.476688 0.138125
0.723125 0.481232 0.142669
0.746160 0.485777 0.147214
0.087740 0.444716 0.087740
0.106533 0.444716 0.087740
0.125326 0.444716 0.087740
0.144119 0.444716 0.087740
0.162912 0.444716 0.087740
0.181704 0.444716 0.087740
0.200497 0.444716 0.087740
0.219290 0.444716 0.087740
0.238083 0.444716 0.087740
0.256876 0.444716 0.087740
0.275669 0.444716 0.087740
0.294461 0.444716 0.087740
0.313254 0.444716 0.087740
0.332047 0.444716 0.087740
0.350840 0.444716 0.087740
0.369633 0.444716 0.087740
0.388426 0.444716 0.087740
0.409340 0.444716 0.087740
0.427830 0.444716 0.087740
0.446714 0.445110 0.088134
0.469748 0.449655 0.092679
0.492783 0.454199 0.097224
0.515817 0.458744 0.101768
0.538851 0.463288 0.106313
0.561885 0.467833 0.110857
0.584920 0.472377 0.115402
0.607954 0.476922 0.119946
0.630988 0.481466 0.124491
0.654023 0.486011 0.129035
0.677057 0.490555 0.133580
0.700091 0.495100 0.138125
0.723125 0.499645 0.142669
0.746160 0.504189 0.147214
0.092266 0.467654 0.092266
0.111059 0.467654 0.092266
0.129851 0.467654 0.092266
0.148644 0.467654 0.092266
0.167437 0.467654 0.092266
0.186230 0.467654 0.092266
0.205023 0.467654 0.092266
0.223816 0.467654 0.092266
0.242609 0.467654 0.092266
0.261401 0.467654 0.092266
0.280194 0.467654 0.092266
0.298987 0.467654 0.092266
0.317780 0.467654 0.092266
0.336573 0.467654 0.092266
0.355366 0.467654 0.092266
0.374158 0.467654 0.092266
0.392951 0.467654 0.092266
0.413866 0.467654 0.092266
0.432356 0.467654 0.092266
0.450845 0.467654 0.092266
0.469748 0.468067 0.092679
0.492783 0.472612 0.097224
0.515817 0.477156 0.101768
0.538851 0.481701 0.106313
0.561885 0.486245 0.110857
0.584920 0.490790 0.115402
0.607954 0.495334 0.119946
0.630988 0.499879 0.124491
0.654023 0.504423 0.129035
0.677057 0.508968 0.133580
0.700091 0.513512 0.138125
0.723125 0.518057 0.142669
0.746160 0.522602 0.147214
0.096791 0.490592 0.096791
0.115584 0.490592 0.096791
0.134377 0.490592 0.096791
0.153170 0.490592 0.096791
0.171963 0.490592 0.096791
0.190756 0.490592 0.096791
0.209548 0.490592 0.096791
0.228341 0.490592 0.096791
0.247134 0.490592 0.096791
0.265927 0.490592 0.096791
0.284720 0.490592 0.096791
0.303513 0.490592 0.096791
0.322305 0.490592 0.096791
0.341098 0.490592 0.096791
0.359891 0.490592 0.096791
0.378684 0.490592 0.096791
0.397477 0.490592 0.096791
0.418391 0.490592 0.096791
0.436881 0.490592 0.096791
0.455371 0.490592 0.096791
0.473861 0.490592 0.096791
0.492783 0.491024 0.097224
0.515817 0.495569 0.101768
0.538851 0.500113 0.106313
0.561885 0.504658 0.110857
0.584920 0.509202 0.115402
0.607954 0.513747 0.119946
0.630988 0.518291 0.124491
0.654023 0.522836 0.129035
0.677057 0.527380 0.133580
0.700091 0.531925 0.138125
0.723125 0.536470 0.142669
0.746160 0.541014 0.147214
0.101317 0.513530 0.101317
0.120110 0.513530 0.101317
0.138903 0.513530 0.101317
0.157695 0.513530 0.101317
0.176488 0.513530 0.101317
0.195281 0.513530 0.101317
0.214074 0.513530 0.101317
0.232867 0.513530 0.101317
0.251660 0.513530 0.101317
0.270452 0.513530 0.101317
0.289245 0.513530 0.101317
0.308038 0.513530 0.101317
0.326831 0.513530 0.101317
0.345624 0.513530 0.101317
0.364417 0.513530 0.101317
0.383210 0.513530 0.101317
0.402002 0.513530 0.101317
0.422917 0.513530 0.101317
0.441407 0.513530 0.101317
0.459896 0.513530 0.101317
0.478386 0.513530 0.101317
0.496876 0.513530 0.101317
0.515817 0.513981 0.101768
0.538851 0.518526 0.106313
0.561885 0.523070 0.110857
0.584920 0.527615 0.115402
0.607954 0.532159 0.119946
0.630988 0.536704 0.124491
0.654023 0.541248 0.129035
0.677057 0.545793 0.133580
0.700091 0.550337 0.138125
0.723125 0.554882 0.142669
0.746160 0.559427 0.147214
0.105842 0.536468 0.105842
0.124635 0.536468 0.105842
0.143428 0.536468 0.105842
0.162221 0.536468 0.105842
0.181014 0.536468 0.105842
0.199807 0.536468 0.105842
0.218600 0.536468 0.105842
0.237392 0.536468 0.105842
0.256185 0.536468 0.105842
0.274978 0.536468 0.105842
0.293771 0.536468 0.105842
0.312564 0.536468 0.105842
0.331357 0.536468 0.105842
0.350149 0.536468 0.105842
0.368942 0.536468 0.105842
0.387735 0.536468 0.105842
0.406528 0.536468 0.105842
0.427443 0.536468 0.105842
0.445932 0.536468 0.105842
0.464422 0.536468 0.105842
0.482912 0.536468 0.105842
0.501401 0.536468 0.105842
0.519891 0.536468 0.105842
0.538851 0.536938 0.106313
0.561885 0.541483 0.110857
0.584920 0.546027 0.115402
0.607954 0.550572 0.119946
0.630988 0.555116 0.124491
0.654023 0.559661 0.129035
0.677057 0.564205 0.133580
0.700091 0.568750 0.138125
0.723125 0.573294 0.142669
0.746160 0.577839 0.147214
0.110368 0.559406 0.110368
0.129161 0.559406 0.110368
0.147954 0.559406 0.110368
0.166747 0.559406 0.110368
0.185539 0.559406 0.110368
0.204332 0.559406 0.110368
0.223125 0.559406 0.110368
0.241918 0.559406 0.110368
0.260711 0.559406 0.110368
0.279504 0.559406 0.110368
0.298296 0.559406 0.110368
0.317089 0.559406 0.110368
0.335882 0.559406 0.110368
0.354675 0.559406 0.110368
0.373468 0.559406 0.110368
0.392261 0.559406 0.110368
0.411053 0.559406 0.110368
0.431968 0.559406 0.110368
0.450458 0.559406 0.110368
0.468948 0.559406 0.110368
0.487437 0.559406 0.110368
0.505927 0.559406 0.110368
0.524417 0.559406 0.110368
0.542906 0.559406 0.110368
0.561885 0.559895 0.110857
0.584920 0.564440 0.115402
0.607954 0.568984 0.119946
0.630988 0.573529 0.124491
0.654023 0.578073 0.129035
0.677057 0.582618 0.133580
0.700091 0.587162 0.138125
0.723125 0.591707 0.142669
0.746160 0.596251 0.147214
0.114894 0.582344 0.114894
0.133686 0.582344 0.114894
0.152479 0.582344 0.114894
0.171272 0.582344 0.114894
0.190065 0.582344 0.114894
0.208858 0.582344 0.114894
0.227651 0.582344 0.114894
0.246443 0.582344 0.114894
0.265236 0.582344 0.114894
0.284029 0.582344 0.114894
0.302822 0.582344 0.114894
0.321615 0.582344 0.114894
0.340408 0.582344 0.114894
0.359201 0.582344 0.114894
0.377993 0.582344 0.114894
0.396786 0.582344 0.114894
0.415579 0.582344 0.114894
0.436494 0.582344 0.114894
0.454983 0.582344 0.114894
0.473473 0.582344 0.114894
0.491963 0.582344 0.114894
0.510453 0.582344 0.114894
0.528942 0.582344 0.114894
0.547432 0.582344 0.114894
0.565922 0.582344 0.114894
0.584920 0.582852 0.115402
0.607954 0.587397 0.119946
0.630988 0.591941 0.124491
0.654023 0.596486 0.129035
0.677057 0.601030 0.133580
0.700091 0.605575 0.138125
0.723125 0.610119 0.142669
0.746160 0.614664 0.147214
0.119419 0.605282 0.119419
0.138212 0.605282 0.119419
0.157005 0.605282 0.119419
0.175798 0.605282 0.119419
0.194590 0.605282 0.119419
0.213383 0.605282 0.119419
0.232176 0.605282 0.119419
0.250969 0.605282 0.119419
0.269762 0.605282 0.119419
0.288555 0.605282 0.119419
0.307348 0.605282 0.119419
0.326140 0.605282 0.119419
0.344933 0.605282 0.119419
0.363726 0.605282 0.119419
0.382519 0.605282 0.119419
0.401312 0.605282 0.119419
0.420105 0.605282 0.119419
0.441019 0.605282 0.119419
0.459509 0.605282 0.119419
0.477999 0.605282 0.119419
0.496488 0.605282 0.119419
0.514978 0.605282 0.119419
0.533468 0.605282 0.119419
0.551958 0.605282 0.119419
