docs/luts/fuji_recipes/Classic_JC_Chrome_Urban.cube
TITLE "Fujifilm Recipe: JC Chrome Urban (Classic)"
# FilmSim=Classic HL=0 SH=2 Col=3 WB=Auto WBR=1 WBB=0
LUT_3D_SIZE 5
DOMAIN_MIN 0.0 0.0 0.0
DOMAIN_MAX 1.0 1.0 1.0
0.000000 0.000000 0.000000
0.233864 0.000000 0.000000
0.471224 0.000000 0.000000
0.754067 0.000000 0.000000
0.977330 0.000000 0.000000
0.000000 0.226997 0.000000
0.233864 0.226997 0.000000
0.471224 0.226997 0.000000
0.754067 0.221272 0.000000
0.977330 0.221272 0.000000
0.000000 0.454203 0.000000
0.233864 0.454203 0.000000
0.471224 0.454203 0.000000
0.754067 0.442748 0.000000
0.977330 0.442748 0.000000
0.000000 0.732717 0.000000
0.227966 0.732717 0.000000
0.459339 0.732717 0.000000
0.754067 0.733028 0.000000
0.977330 0.736283 0.000000
0.000000 0.973073 0.000000
0.227966 0.973073 0.000000
0.513468 0.973073 0.000000
0.757260 0.973073 0.000000
0.977330 0.973135 0.000000
0.000000 0.000000 0.224650
0.233864 0.000000 0.224650
0.471224 0.000000 0.224650
0.754067 0.000000 0.218984
0.977330 0.000000 0.218984
0.000000 0.226997 0.224650
0.234436 0.226716 0.224077
0.486536 0.211976 0.209337
0.801260 0.182732 0.180094
1.000000 0.207005 0.204616
0.000000 0.454203 0.224650
0.220753 0.468459 0.210394
0.486536 0.467402 0.209337
0.801260 0.438158 0.180094
1.000000 0.496969 0.204616
0.000000 0.732717 0.218984
0.192089 0.778274 0.181730
0.521375 0.778274 0.181730
0.801260 0.776996 0.180094
1.000000 0.748349 0.204616
0.000000 0.973073 0.218984
0.209840 1.000000 0.200360
0.514898 1.000000 0.200360
0.772214 1.000000 0.200360
1.000000 0.995621 0.204616
0.000000 0.000000 0.449932
0.233864 0.000000 0.449932
0.471224 0.000000 0.449932
0.754067 0.000000 0.438584
0.977330 0.000000 0.438584
0.000000 0.226997 0.449932
0.220873 0.213152 0.463777
0.486391 0.211830 0.462454
0.801149 0.182579 0.433203
1.000000 0.206991 0.492261
0.000000 0.454203 0.449932
0.220181 0.467886 0.463085
0.524268 0.442416 0.437614
0.779268 0.477307 0.472088
1.000000 0.481923 0.477057
0.000000 0.732717 0.438584
0.191488 0.777839 0.434391
0.499446 0.756345 0.473429
0.779268 0.755004 0.472088
1.000000 0.740822 0.477057
0.000000 0.973073 0.438584
0.209683 1.000000 0.491083
0.497423 1.000000 0.472754
0.764009 1.000000 0.472754
1.000000 0.995490 0.477057
0.000000 0.000000 0.726163
0.227966 0.000000 0.726163
0.459339 0.000000 0.726163
0.754067 0.000000 0.726570
0.977330 0.000000 0.729825
0.000000 0.221272 0.726163
0.192438 0.184718 0.771107
0.521656 0.184718 0.771107
0.801149 0.182579 0.769438
1.000000 0.206991 0.741615
0.000000 0.442748 0.726163
0.191990 0.439695 0.770783
0.499569 0.478771 0.749020
0.778980 0.477019 0.747268
1.000000 0.481699 0.733764
0.000000 0.732717 0.726259
0.191488 0.777839 0.770391
0.498009 0.754908 0.747460
0.764052 0.739788 0.732340
1.000000 0.729343 0.722092
0.000000 0.973073 0.729763
0.209683 1.000000 0.743190
0.495897 1.000000 0.733133
0.750303 0.999198 0.718591
1.000000 0.995290 0.722092
0.000000 0.000000 0.964484
0.227966 0.000000 0.964484
0.513343 0.000000 0.964484
0.757135 0.000000 0.964484
0.977330 0.000000 0.964672
0.000000 0.221272 0.964484
0.201370 0.194146 1.000000
0.513165 0.194146 1.000000
0.776245 0.194146 1.000000
1.000000 0.206991 0.986786
0.000000 0.442748 0.964484
0.201094 0.493603 1.000000
0.489135 0.468714 1.000000
0.765201 0.468714 1.000000
1.000000 0.481699 0.986384
0.000000 0.736096 0.964484
0.201094 0.753493 1.000000
0.487215 0.740405 1.000000
0.750431 0.726167 0.989564
1.000000 0.728717 0.985754
0.000000 0.973073 0.964610
0.209683 1.000000 0.991067
0.495897 1.000000 0.990717
0.748551 0.997446 0.987685
0.988806 0.983969 0.974208
