docs/luts/fuji_recipes/Classic_RR_Elite_Chrome_200_Color_Fade.cube
TITLE "Fujifilm Recipe: RR Elite Chrome 200 Color Fade (Classic)"
# FilmSim=Classic HL=0 SH=2 Col=-2 WB=8300K WBR=4 WBB=8
LUT_3D_SIZE 5
DOMAIN_MIN 0.0 0.0 0.0
DOMAIN_MAX 1.0 1.0 1.0
0.000000 0.000000 0.000000
0.196177 0.061397 0.061397
0.422587 0.127369 0.127369
0.627815 0.189225 0.189225
0.693392 0.208990 0.208990
0.050064 0.159964 0.050064
0.196177 0.171298 0.061397
0.422587 0.237040 0.127369
0.627815 0.298896 0.189225
0.693392 0.318661 0.208990
0.100174 0.320076 0.100174
0.234954 0.320076 0.100174
0.422587 0.346811 0.127369
0.627815 0.408668 0.189225
0.693392 0.428433 0.208990
0.156683 0.519845 0.156683
0.291180 0.519845 0.156683
0.452891 0.519845 0.156683
0.627815 0.553487 0.189225
0.693392 0.573920 0.208990
0.208080 0.690372 0.208080
0.342578 0.690372 0.208080
0.506026 0.690372 0.208080
0.647307 0.690372 0.208080
0.693392 0.691313 0.208990
0.053507 0.053507 0.170966
0.196177 0.061397 0.178856
0.422587 0.127369 0.244582
0.627815 0.189225 0.306439
0.693392 0.208990 0.326204
0.053507 0.163408 0.170966
0.264694 0.240686 0.247980
0.496029 0.300284 0.308167
0.721120 0.342277 0.350919
0.793228 0.355511 0.364280
0.100174 0.320076 0.217633
0.304689 0.394601 0.286394
0.500820 0.419493 0.312437
0.725294 0.503473 0.355048
0.797389 0.519736 0.368294
0.156683 0.519845 0.273896
0.358953 0.598862 0.340967
0.529190 0.598862 0.340967
0.725294 0.640162 0.355048
0.797389 0.658488 0.368294
0.208080 0.690372 0.325294
0.387798 0.794035 0.367718
0.579872 0.794035 0.367718
0.744005 0.794035 0.367718
0.797389 0.794972 0.368294
0.108921 0.108921 0.348024
0.243700 0.108921 0.348024
0.422587 0.127369 0.365972
0.627815 0.189225 0.454971
0.693392 0.208990 0.475404
0.108921 0.218821 0.348024
0.308712 0.282567 0.418344
0.496029 0.300284 0.463045
0.721120 0.342277 0.523103
0.793228 0.355511 0.539792
0.108921 0.328823 0.348024
0.327112 0.416820 0.465303
0.573249 0.522587 0.542727
0.789163 0.569132 0.592794
0.860919 0.583830 0.607995
0.156683 0.519845 0.395286
0.365213 0.613442 0.507499
0.611571 0.685615 0.576666
0.800315 0.716027 0.604311
0.871965 0.733386 0.619115
0.208080 0.690372 0.474463
0.397010 0.803569 0.552739
0.655049 0.868616 0.618483
0.818725 0.868616 0.618483
0.871965 0.869553 0.619115
0.169680 0.169680 0.562968
0.304178 0.169680 0.562968
0.466328 0.169680 0.562968
0.627815 0.189225 0.583173
0.693392 0.208990 0.603606
0.169680 0.279351 0.562968
0.361567 0.334619 0.644387
0.539488 0.334619 0.644387
0.721120 0.342277 0.669977
0.793228 0.355511 0.688843
0.169680 0.389123 0.562968
0.369905 0.496416 0.664870
0.611654 0.553055 0.719748
0.789163 0.569132 0.738446
0.860919 0.583830 0.756744
0.169680 0.533282 0.562968
0.369905 0.631314 0.664870
0.641026 0.715360 0.748319
0.853409 0.770369 0.803535
0.924222 0.786010 0.820353
0.208080 0.690372 0.602665
0.397010 0.803569 0.701677
0.671952 0.885359 0.783826
0.887052 0.936650 0.835639
0.939975 0.937574 0.836295
0.206244 0.206244 0.684278
0.340741 0.206244 0.684278
0.504127 0.206244 0.684278
0.645408 0.206244 0.684278
0.693392 0.208990 0.687118
0.206244 0.315914 0.684278
0.382561 0.353761 0.783118
0.574138 0.353761 0.783118
0.738028 0.353761 0.783118
0.793228 0.355511 0.785934
0.206244 0.425686 0.684278
0.395836 0.527089 0.796813
0.642495 0.581912 0.850823
0.805873 0.581912 0.850823
0.860919 0.583830 0.853640
0.206244 0.571080 0.684278
0.395836 0.665515 0.796813
0.670651 0.747945 0.878626
0.869493 0.784032 0.914185
0.924222 0.786010 0.916964
0.208080 0.690372 0.686177
0.397010 0.803569 0.798696
0.671952 0.885359 0.880503
0.911201 0.960395 0.955603
0.984509 0.982198 0.977535
