docs/luts/fuji_recipes/ClassicNEGA_GB_Classy_Neg.cube
TITLE "Fujifilm Recipe: GB Classy Neg (ClassicNEGA)"
# FilmSim=ClassicNEGA HL=-2 SH=-2 Col=2 WB=Auto WBR=0 WBB=0
LUT_3D_SIZE 33
DOMAIN_MIN 0.0 0.0 0.0
DOMAIN_MAX 1.0 1.0 1.0
0.094720 0.094720 0.094720
0.121441 0.096572 0.096572
0.148047 0.098415 0.098415
0.174614 0.100256 0.100256
0.201180 0.102097 0.102097
0.227747 0.103937 0.103937
0.254314 0.105778 0.105778
0.280881 0.107619 0.107619
0.307447 0.109460 0.109460
0.334014 0.111301 0.111301
0.360581 0.113141 0.113141
0.387147 0.114982 0.114982
0.413714 0.116823 0.116823
0.440281 0.118664 0.118664
0.466848 0.120505 0.120505
0.493414 0.122346 0.122346
0.513058 0.123707 0.123707
0.539085 0.125510 0.125510
0.565112 0.127313 0.127313
0.591139 0.129117 0.129117
0.569308 0.138220 0.138220
0.594164 0.140202 0.140202
0.619020 0.142184 0.142184
0.643876 0.144166 0.144166
0.668732 0.146148 0.146148
0.693588 0.148130 0.148130
0.718444 0.150112 0.150112
0.743300 0.152094 0.152094
0.768156 0.154076 0.154076
0.793012 0.156058 0.156058
0.817868 0.158040 0.158040
0.842724 0.160022 0.160022
0.864108 0.161728 0.161728
0.099112 0.121177 0.096553
0.121441 0.118626 0.096572
0.148047 0.120082 0.098415
0.174614 0.121847 0.100256
0.201180 0.126720 0.102097
0.227747 0.128561 0.103937
0.254314 0.130402 0.105778
0.280881 0.132243 0.107619
0.307447 0.134083 0.109460
0.334014 0.135924 0.111301
0.360581 0.137765 0.113141
0.387147 0.139606 0.114982
0.413714 0.141447 0.116823
0.440281 0.143288 0.118664
0.466848 0.145128 0.120505
0.493414 0.146969 0.122346
0.513058 0.148330 0.123707
0.539085 0.150134 0.125510
0.565112 0.151937 0.127313
0.591139 0.153740 0.129117
0.569308 0.162844 0.138220
0.594164 0.164826 0.140202
0.619020 0.166808 0.142184
0.643876 0.168790 0.144166
0.668732 0.170772 0.146148
0.693588 0.172754 0.148130
0.718444 0.174736 0.150112
0.743300 0.176718 0.152094
0.768156 0.178700 0.154076
0.793012 0.180682 0.156058
0.817868 0.182664 0.158040
0.842724 0.184646 0.160022
0.864108 0.186351 0.161728
0.103504 0.147634 0.098386
0.129166 0.147634 0.098386
0.148047 0.142529 0.098415
0.174614 0.143799 0.100256
0.201180 0.145431 0.102097
0.227747 0.147173 0.103937
0.254314 0.148960 0.105778
0.280881 0.156866 0.107619
0.307447 0.158707 0.109460
0.334014 0.160548 0.111301
0.360581 0.162389 0.113141
0.387147 0.164230 0.114982
0.413714 0.166070 0.116823
0.440281 0.167911 0.118664
0.466848 0.169752 0.120505
0.493414 0.171593 0.122346
0.513058 0.172954 0.123707
0.539085 0.174757 0.125510
0.565112 0.176561 0.127313
0.591139 0.178364 0.129117
0.569308 0.187468 0.138220
0.594164 0.189450 0.140202
0.619020 0.191432 0.142184
0.643876 0.193414 0.144166
0.668732 0.195396 0.146148
0.693588 0.197378 0.148130
0.718444 0.199360 0.150112
0.743300 0.201342 0.152094
0.768156 0.203324 0.154076
0.793012 0.205306 0.156058
0.817868 0.207288 0.158040
0.842724 0.209270 0.160022
0.864108 0.210975 0.161728
0.107896 0.174090 0.100220
0.133825 0.174090 0.100220
0.158573 0.174090 0.100220
0.174614 0.166430 0.100256
0.201180 0.167599 0.102097
0.227747 0.169118 0.103937
0.254314 0.170780 0.105778
0.280881 0.172512 0.107619
0.307447 0.174282 0.109460
0.334014 0.176074 0.111301
0.360581 0.177880 0.113141
0.387147 0.188853 0.114982
0.413714 0.190694 0.116823
0.440281 0.192535 0.118664
0.466848 0.194376 0.120505
0.493414 0.196216 0.122346
0.513058 0.197578 0.123707
0.539085 0.199381 0.125510
0.565112 0.201184 0.127313
0.591139 0.202988 0.129117
0.569308 0.212091 0.138220
0.594164 0.214073 0.140202
0.619020 0.216055 0.142184
0.643876 0.218037 0.144166
0.668732 0.220019 0.146148
0.693588 0.222001 0.148130
0.718444 0.223983 0.150112
0.743300 0.225965 0.152094
0.768156 0.227947 0.154076
0.793012 0.229929 0.156058
0.817868 0.231911 0.158040
0.842724 0.233893 0.160022
0.864108 0.235598 0.161728
0.112289 0.200547 0.102053
0.138347 0.200547 0.102053
0.163504 0.200547 0.102053
0.187811 0.200547 0.102053
0.201180 0.190331 0.102097
0.227747 0.191438 0.103937
0.254314 0.192867 0.105778
0.280881 0.194455 0.107619
0.307447 0.196129 0.109460
0.334014 0.197856 0.111301
0.360581 0.199614 0.113141
0.387147 0.201394 0.114982
0.413714 0.203188 0.116823
0.440281 0.204992 0.118664
0.466848 0.218999 0.120505
0.493414 0.220840 0.122346
0.513058 0.222201 0.123707
0.539085 0.224005 0.125510
0.565112 0.225808 0.127313
0.591139 0.227611 0.129117
0.569308 0.236715 0.138220
0.594164 0.238697 0.140202
0.619020 0.240679 0.142184
0.643876 0.242661 0.144166
0.668732 0.244643 0.146148
0.693588 0.246625 0.148130
0.718444 0.248607 0.150112
0.743300 0.250589 0.152094
0.768156 0.252571 0.154076
0.793012 0.254553 0.156058
0.817868 0.256535 0.158040
0.842724 0.258517 0.160022
0.864108 0.260222 0.161728
0.116681 0.227004 0.103886
0.142816 0.227004 0.103886
0.168216 0.227004 0.103886
0.192930 0.227004 0.103886
0.216998 0.227004 0.103886
0.227747 0.214233 0.103937
0.254314 0.215296 0.105778
0.280881 0.216654 0.107619
0.307447 0.218177 0.109460
0.334014 0.219797 0.111301
0.360581 0.221479 0.113141
0.387147 0.223201 0.114982
0.413714 0.224951 0.116823
0.440281 0.226722 0.118664
0.466848 0.228506 0.120505
0.493414 0.230302 0.122346
0.513058 0.231634 0.123707
0.539085 0.233406 0.125510
0.565112 0.250432 0.127313
0.591139 0.252235 0.129117
0.569308 0.261339 0.138220
0.594164 0.263321 0.140202
0.619020 0.265303 0.142184
0.643876 0.267285 0.144166
0.668732 0.269267 0.146148
0.693588 0.271249 0.148130
0.718444 0.273230 0.150112
0.743300 0.275212 0.152094
0.768156 0.277194 0.154076
0.793012 0.279176 0.156058
0.817868 0.281158 0.158040
0.842724 0.283140 0.160022
0.864108 0.284846 0.161728
0.121073 0.253461 0.105719
0.147259 0.253461 0.105719
0.172819 0.253461 0.105719
0.197806 0.253461 0.105719
0.222250 0.253461 0.105719
0.246159 0.253461 0.105719
0.254314 0.238134 0.105778
0.280881 0.239166 0.107619
0.307447 0.240468 0.109460
0.334014 0.241934 0.111301
0.360581 0.243504 0.113141
0.387147 0.245142 0.114982
0.413714 0.246828 0.116823
0.440281 0.248548 0.118664
0.466848 0.250292 0.120505
0.493414 0.252055 0.122346
0.513058 0.253367 0.123707
0.539085 0.255116 0.125510
0.565112 0.256873 0.127313
0.591139 0.258638 0.129117
0.569308 0.267792 0.138220
0.594164 0.269736 0.140202
0.619020 0.271684 0.142184
0.643876 0.273638 0.144166
0.668732 0.293890 0.146148
0.693588 0.295872 0.148130
0.718444 0.297854 0.150112
0.743300 0.299836 0.152094
0.768156 0.301818 0.154076
0.793012 0.303800 0.156058
0.817868 0.305782 0.158040
0.842724 0.307764 0.160022
0.864108 0.309469 0.161728
0.125465 0.279918 0.107552
0.151688 0.279918 0.107552
0.177360 0.279918 0.107552
0.202541 0.279918 0.107552
0.227256 0.279918 0.107552
0.251508 0.279918 0.107552
0.275305 0.279918 0.107552
0.280881 0.262035 0.107619
0.307447 0.263043 0.109460
0.334014 0.264300 0.111301
0.360581 0.265717 0.113141
0.387147 0.267241 0.114982
0.413714 0.268838 0.116823
0.440281 0.270488 0.118664
0.466848 0.272177 0.120505
0.493414 0.273895 0.122346
0.513058 0.275179 0.123707
0.539085 0.276896 0.125510
0.565112 0.278627 0.127313
0.591139 0.280369 0.129117
0.569308 0.289553 0.138220
0.594164 0.291474 0.140202
0.619020 0.293403 0.142184
0.643876 0.295340 0.144166
0.668732 0.297282 0.146148
0.693588 0.299229 0.148130
0.718444 0.301180 0.150112
0.743300 0.303135 0.152094
0.768156 0.326442 0.154076
0.793012 0.328424 0.156058
0.817868 0.330406 0.158040
0.842724 0.332388 0.160022
0.864108 0.334093 0.161728
0.129857 0.306374 0.109386
0.156106 0.306374 0.109386
0.181863 0.306374 0.109386
0.207188 0.306374 0.109386
0.232108 0.306374 0.109386
0.256620 0.306374 0.109386
0.280728 0.306374 0.109386
0.304443 0.306374 0.109386
0.307447 0.285936 0.109460
0.334014 0.286926 0.111301
0.360581 0.288146 0.113141
0.387147 0.289520 0.114982
0.413714 0.291002 0.116823
0.440281 0.292561 0.118664
0.466848 0.294177 0.120505
0.493414 0.295836 0.122346
0.513058 0.297083 0.123707
0.539085 0.298758 0.125510
0.565112 0.300454 0.127313
0.591139 0.302166 0.129117
0.569308 0.311389 0.138220
0.594164 0.313280 0.140202
0.619020 0.315184 0.142184
0.643876 0.317098 0.144166
0.668732 0.319021 0.146148
0.693588 0.320951 0.148130
0.718444 0.322887 0.150112
0.743300 0.324828 0.152094
0.768156 0.326774 0.154076
0.793012 0.328723 0.156058
0.817868 0.330676 0.158040
0.842724 0.357011 0.160022
0.864108 0.358716 0.161728
0.134249 0.332831 0.111219
0.160519 0.332831 0.111219
0.186341 0.332831 0.111219
0.211777 0.332831 0.111219
0.236855 0.332831 0.111219
0.261572 0.332831 0.111219
0.285926 0.332831 0.111219
0.309924 0.332831 0.111219
0.332831 0.332088 0.111219
0.334014 0.309838 0.111301
0.360581 0.310812 0.113141
0.387147 0.312000 0.114982
0.413714 0.313338 0.116823
0.440281 0.314782 0.118664
0.466848 0.316306 0.120505
0.493414 0.317890 0.122346
0.513058 0.319090 0.123707
0.539085 0.320713 0.125510
0.565112 0.322363 0.127313
0.591139 0.324037 0.129117
0.569308 0.333310 0.138220
0.594164 0.335164 0.140202
0.619020 0.337035 0.142184
0.643876 0.338921 0.144166
0.668732 0.340819 0.146148
0.693588 0.342727 0.148130
0.718444 0.344644 0.150112
0.743300 0.346568 0.152094
0.768156 0.348498 0.154076
0.793012 0.350434 0.156058
0.817868 0.352375 0.158040
0.842724 0.354320 0.160022
0.864108 0.355995 0.161728
0.138642 0.359288 0.113052
0.164928 0.359288 0.113052
0.190801 0.359288 0.113052
0.216325 0.359288 0.113052
0.241530 0.359288 0.113052
0.266410 0.359288 0.113052
0.290963 0.359288 0.113052
0.315192 0.359288 0.113052
0.339102 0.359288 0.113052
0.359288 0.355874 0.113052
0.360581 0.333739 0.113141
0.387147 0.334701 0.114982
0.413714 0.335862 0.116823
0.440281 0.337167 0.118664
0.466848 0.338578 0.120505
0.493414 0.340070 0.122346
0.513058 0.341213 0.123707
0.539085 0.342769 0.125510
0.565112 0.344365 0.127313
0.591139 0.345992 0.129117
0.569308 0.355326 0.138220
0.594164 0.357133 0.140202
0.619020 0.358964 0.142184
0.643876 0.360815 0.144166
0.668732 0.362682 0.146148
0.693588 0.364563 0.148130
0.718444 0.366456 0.150112
0.743300 0.368359 0.152094
0.768156 0.370271 0.154076
0.793012 0.372190 0.156058
0.817868 0.374115 0.158040
0.842724 0.376046 0.160022
0.864108 0.377711 0.161728
0.143034 0.385745 0.114885
0.169334 0.385745 0.114885
0.195248 0.385745 0.114885
0.220844 0.385745 0.114885
0.246152 0.385745 0.114885
0.271165 0.385745 0.114885
0.295882 0.385745 0.114885
0.320303 0.385745 0.114885
0.344430 0.385745 0.114885
0.368268 0.385745 0.114885
0.385745 0.379663 0.114885
0.387147 0.357640 0.114982
0.413714 0.358592 0.116823
0.440281 0.359730 0.118664
0.466848 0.361007 0.120505
0.493414 0.362387 0.122346
0.513058 0.363461 0.123707
0.539085 0.364939 0.125510
0.565112 0.366468 0.127313
0.591139 0.368038 0.129117
0.569308 0.377446 0.138220
0.594164 0.379197 0.140202
0.619020 0.380979 0.142184
0.643876 0.382788 0.144166
0.668732 0.384618 0.146148
0.693588 0.386466 0.148130
0.718444 0.388330 0.150112
0.743300 0.390208 0.152094
0.768156 0.392096 0.154076
0.793012 0.393995 0.156058
0.817868 0.395902 0.158040
0.842724 0.397816 0.160022
0.864108 0.399468 0.161728
0.147426 0.412202 0.116718
0.173737 0.412202 0.116718
0.199686 0.412202 0.116718
0.225342 0.412202 0.116718
0.250734 0.412202 0.116718
0.275858 0.412202 0.116718
0.300712 0.412202 0.116718
0.325293 0.412202 0.116718
0.349603 0.412202 0.116718
0.373645 0.412202 0.116718
0.397425 0.412202 0.116718
0.412202 0.403454 0.116718
0.413714 0.381541 0.116823
0.440281 0.382485 0.118664
0.466848 0.383603 0.120505
0.493414 0.384854 0.122346
0.513058 0.385846 0.123707
0.539085 0.387230 0.125510
0.565112 0.388680 0.127313
0.591139 0.390183 0.129117
0.569308 0.399680 0.138220
0.594164 0.401364 0.140202
0.619020 0.403088 0.142184
0.643876 0.404846 0.144166
0.668732 0.406632 0.146148
0.693588 0.408442 0.148130
0.718444 0.410272 0.150112
0.743300 0.412118 0.152094
0.768156 0.413980 0.154076
0.793012 0.415854 0.156058
0.817868 0.417738 0.158040
0.842724 0.419633 0.160022
0.864108 0.421269 0.161728
0.151818 0.438659 0.118551
0.178139 0.438659 0.118551
0.204117 0.438659 0.118551
0.229823 0.438659 0.118551
0.255286 0.438659 0.118551
0.280504 0.438659 0.118551
0.305473 0.438659 0.118551
0.330190 0.438659 0.118551
0.354656 0.438659 0.118551
0.378873 0.438659 0.118551
0.402845 0.438659 0.118551
0.426575 0.438659 0.118551
0.438659 0.427247 0.118551
0.440281 0.405443 0.118664
0.466848 0.406379 0.120505
0.493414 0.407479 0.122346
0.513058 0.408376 0.123707
0.539085 0.409653 0.125510
0.565112 0.411012 0.127313
0.591139 0.412435 0.129117
0.569308 0.422035 0.138220
0.594164 0.423641 0.140202
0.619020 0.425298 0.142184
0.643876 0.426997 0.144166
0.668732 0.428732 0.146148
0.693588 0.430496 0.148130
0.718444 0.432286 0.150112
0.743300 0.434097 0.152094
0.768156 0.435926 0.154076
0.793012 0.437771 0.156058
0.817868 0.439630 0.158040
0.842724 0.441501 0.160022
0.864108 0.443118 0.161728
0.156210 0.465115 0.120385
0.182539 0.465115 0.120385
0.208542 0.465115 0.120385
0.234290 0.465115 0.120385
0.259815 0.465115 0.120385
0.285113 0.465115 0.120385
0.310180 0.465115 0.120385
0.335014 0.465115 0.120385
0.359615 0.465115 0.120385
0.383983 0.465115 0.120385
0.408120 0.465115 0.120385
0.432031 0.465115 0.120385
0.455719 0.465115 0.120385
0.465115 0.451041 0.120385
0.466848 0.429344 0.120505
0.493414 0.430273 0.122346
0.513058 0.431063 0.123707
0.539085 0.432216 0.125510
0.565112 0.433469 0.127313
0.591139 0.434803 0.129117
0.569308 0.444520 0.138220
0.594164 0.446037 0.140202
0.619020 0.447616 0.142184
0.643876 0.449248 0.144166
0.668732 0.450923 0.146148
0.693588 0.452635 0.148130
0.718444 0.454378 0.150112
0.743300 0.456147 0.152094
0.768156 0.457939 0.154076
0.793012 0.459751 0.156058
0.817868 0.461580 0.158040
0.842724 0.463424 0.160022
0.864108 0.465020 0.161728
0.160602 0.491572 0.122218
0.186938 0.491572 0.122218
0.212963 0.491572 0.122218
0.238748 0.491572 0.122218
0.264325 0.491572 0.122218
0.289692 0.491572 0.122218
0.314843 0.491572 0.122218
0.339779 0.491572 0.122218
0.364496 0.491572 0.122218
0.388996 0.491572 0.122218
0.413280 0.491572 0.122218
0.437349 0.491572 0.122218
0.461207 0.491572 0.122218
0.484859 0.491572 0.122218
0.491572 0.474836 0.122218
0.493414 0.453245 0.122346
0.513058 0.453913 0.123707
0.539085 0.454926 0.125510
0.565112 0.456060 0.127313
0.591139 0.457291 0.129117
0.569308 0.467142 0.138220
0.594164 0.468558 0.140202
0.619020 0.470049 0.142184
0.643876 0.471604 0.144166
0.668732 0.473211 0.146148
0.693588 0.474863 0.148130
0.718444 0.476553 0.150112
0.743300 0.478275 0.152094
0.768156 0.480025 0.154076
0.793012 0.481799 0.156058
0.817868 0.483593 0.158040
0.842724 0.485406 0.160022
0.864108 0.486978 0.161728
0.164953 0.517781 0.124034
0.191295 0.517781 0.124034
0.217339 0.517781 0.124034
0.243155 0.517781 0.124034
0.268778 0.517781 0.124034
0.294204 0.517781 0.124034
0.319429 0.517781 0.124034
0.344452 0.517781 0.124034
0.369271 0.517781 0.124034
0.393885 0.517781 0.124034
0.418296 0.517781 0.124034
0.442505 0.517781 0.124034
0.466513 0.517781 0.124034
0.490324 0.517781 0.124034
0.513942 0.517781 0.124034
0.517781 0.498191 0.124034
0.517781 0.480984 0.124034
0.539085 0.477577 0.125510
0.565112 0.478578 0.127313
0.591139 0.479696 0.129117
0.569308 0.489695 0.138220
0.594164 0.490998 0.140202
0.619020 0.492392 0.142184
0.643876 0.493861 0.144166
0.668732 0.495392 0.146148
0.693588 0.496978 0.148130
0.718444 0.498608 0.150112
0.743300 0.500277 0.152094
0.768156 0.501979 0.154076
0.793012 0.503710 0.156058
0.817868 0.505466 0.158040
0.842724 0.507244 0.160022
0.864108 0.460006 0.161728
0.168155 0.537065 0.125370
0.194501 0.537065 0.125370
0.220556 0.537065 0.125370
0.246394 0.537065 0.125370
0.272047 0.537065 0.125370
0.297511 0.537065 0.125370
0.322785 0.537065 0.125370
0.347865 0.537065 0.125370
0.372751 0.537065 0.125370
0.397441 0.537065 0.125370
0.421936 0.537065 0.125370
0.446237 0.537065 0.125370
0.470346 0.537065 0.125370
0.494264 0.537065 0.125370
0.517995 0.537065 0.125370
0.537065 0.532587 0.125370
0.537065 0.515290 0.125370
0.539085 0.494344 0.125510
0.565112 0.495239 0.127313
0.591139 0.496264 0.129117
0.569308 0.506383 0.138220
0.594164 0.507596 0.140202
0.619020 0.508910 0.142184
0.643876 0.510310 0.144166
0.668732 0.511780 0.146148
0.693588 0.513311 0.148130
0.718444 0.514893 0.150112
0.743300 0.516519 0.152094
0.768156 0.518183 0.154076
0.793012 0.470829 0.156058
0.817868 0.472377 0.158040
0.842724 0.473941 0.160022
0.864108 0.475299 0.161728
0.172458 0.562984 0.127166
0.198808 0.562984 0.127166
0.224879 0.562984 0.127166
0.250742 0.562984 0.127166
0.276431 0.562984 0.127166
0.301943 0.562984 0.127166
0.327275 0.562984 0.127166
0.352425 0.562984 0.127166
0.377392 0.562984 0.127166
0.402174 0.562984 0.127166
0.426772 0.562984 0.127166
0.451186 0.562984 0.127166
0.475416 0.562984 0.127166
0.499466 0.562984 0.127166
0.523336 0.562984 0.127166
0.547031 0.562984 0.127166
0.562984 0.561527 0.127166
0.562984 0.538603 0.127166
0.565112 0.517759 0.127313
0.591139 0.518650 0.129117
0.573412 0.532557 0.137594
0.594164 0.530024 0.140202
0.619020 0.531223 0.142184
0.643876 0.532520 0.144166
0.668732 0.533901 0.146148
0.693588 0.485746 0.148130
0.718444 0.487140 0.150112
0.743300 0.488570 0.152094
0.768156 0.490032 0.154076
0.793012 0.491521 0.156058
0.817868 0.493033 0.158040
0.842724 0.494566 0.160022
0.864108 0.495899 0.161728
0.176760 0.588903 0.128962
0.203115 0.588903 0.128962
0.229199 0.588903 0.128962
0.255085 0.588903 0.128962
0.280806 0.588903 0.128962
0.306360 0.588903 0.128962
0.331744 0.588903 0.128962
0.356957 0.588903 0.128962
0.381996 0.588903 0.128962
0.406861 0.588903 0.128962
0.431550 0.588903 0.128962
0.456066 0.588903 0.128962
0.480407 0.588903 0.128962
0.504575 0.588903 0.128962
0.528572 0.588903 0.128962
0.552400 0.588903 0.128962
0.569912 0.588903 0.128962
0.588903 0.584829 0.128962
0.588903 0.561917 0.128962
0.591139 0.541175 0.129117
0.594343 0.573689 0.134402
0.599352 0.557162 0.139411
0.619020 0.503049 0.142184
0.643876 0.504202 0.144166
0.668732 0.505425 0.146148
0.693588 0.506708 0.148130
0.718444 0.508041 0.150112
0.743300 0.509417 0.152094
0.768156 0.510831 0.154076
0.793012 0.512276 0.156058
0.817868 0.513750 0.158040
0.842724 0.515247 0.160022
0.864108 0.516553 0.161728
0.182628 0.567070 0.138042
0.208977 0.567070 0.138042
0.235044 0.567070 0.138042
0.260900 0.567070 0.138042
0.286579 0.567070 0.138042
0.312078 0.567070 0.138042
0.337395 0.567070 0.138042
0.362526 0.567070 0.138042
0.387471 0.567070 0.138042
0.412228 0.567070 0.138042
0.436798 0.567070 0.138042
0.461182 0.567070 0.138042
0.485379 0.567070 0.138042
0.509393 0.567070 0.138042
0.533226 0.567070 0.138042
0.556881 0.567070 0.138042
0.567070 0.559881 0.138042
0.567070 0.536999 0.138042
0.574680 0.520973 0.136881
0.595697 0.516894 0.133675
0.569308 0.522554 0.138220
0.594164 0.523397 0.140202
0.619020 0.524356 0.142184
0.643876 0.525413 0.144166
0.668732 0.526552 0.146148
0.693588 0.527759 0.148130
0.718444 0.529026 0.150112
0.743300 0.530342 0.152094
0.768156 0.531702 0.154076
0.793012 0.533100 0.156058
0.817868 0.534529 0.158040
0.842724 0.535988 0.160022
0.864108 0.537262 0.161728
0.186969 0.591823 0.140016
0.213323 0.591823 0.140016
0.239402 0.591823 0.140016
0.265280 0.591823 0.140016
0.290991 0.591823 0.140016
0.316532 0.591823 0.140016
0.341899 0.591823 0.140016
0.367091 0.591823 0.140016
0.392107 0.591823 0.140016
0.416945 0.591823 0.140016
0.441604 0.591823 0.140016
0.466087 0.591823 0.140016
0.490392 0.591823 0.140016
0.514521 0.591823 0.140016
0.538477 0.591823 0.140016
0.562262 0.591823 0.140016
0.579740 0.591823 0.140016
0.591823 0.580888 0.140016
0.591823 0.558024 0.140016
0.600686 0.543111 0.138664
0.591823 0.564596 0.140016
0.594164 0.544943 0.140202
0.619020 0.545783 0.142184
0.643876 0.546734 0.144166
0.668732 0.547780 0.146148
0.693588 0.548905 0.148130
0.718444 0.550098 0.150112
0.743300 0.551349 0.152094
0.768156 0.552650 0.154076
0.793012 0.553994 0.156058
0.817868 0.555376 0.158040
0.842724 0.556791 0.160022
0.864108 0.558031 0.161728
0.191310 0.616577 0.141990
0.217668 0.616577 0.141990
0.243759 0.616577 0.141990
0.269657 0.616577 0.141990
0.295396 0.616577 0.141990
0.320973 0.616577 0.141990
0.346387 0.616577 0.141990
0.371634 0.616577 0.141990
0.396713 0.616577 0.141990
0.421624 0.616577 0.141990
0.446365 0.616577 0.141990
0.470937 0.616577 0.141990
0.495339 0.616577 0.141990
0.519574 0.616577 0.141990
0.543642 0.616577 0.141990
0.567546 0.616577 0.141990
0.585116 0.616577 0.141990
0.608261 0.616577 0.141990
0.616577 0.601898 0.141990
0.602331 0.616577 0.141990
0.616577 0.608787 0.141990
0.616577 0.586889 0.141990
0.619020 0.567332 0.142184
0.643876 0.568169 0.144166
0.668732 0.569113 0.146148
0.693588 0.570148 0.148130
0.718444 0.571260 0.150112
0.743300 0.572440 0.152094
0.768156 0.573676 0.154076
0.793012 0.574962 0.156058
0.817868 0.576292 0.158040
0.842724 0.577659 0.160022
0.864108 0.578862 0.161728
0.195651 0.641330 0.143963
0.222012 0.641330 0.143963
0.248114 0.641330 0.143963
0.274030 0.641330 0.143963
0.299795 0.641330 0.143963
0.325406 0.641330 0.143963
0.350861 0.641330 0.143963
0.376158 0.641330 0.143963
0.401295 0.641330 0.143963
0.426271 0.641330 0.143963
0.451086 0.641330 0.143963
0.475740 0.641330 0.143963
0.500231 0.641330 0.143963
0.524562 0.641330 0.143963
0.548733 0.641330 0.143963
0.572746 0.641330 0.143963
0.590400 0.641330 0.143963
0.613661 0.641330 0.143963
0.636777 0.641330 0.143963
0.607419 0.641330 0.143963
0.629569 0.641330 0.143963
0.641330 0.631071 0.143963
0.641330 0.609182 0.143963
0.643876 0.589721 0.144166
0.668732 0.590555 0.146148
0.693588 0.591492 0.148130
0.718444 0.592518 0.150112
0.743300 0.593619 0.152094
0.768156 0.594785 0.154076
0.793012 0.596008 0.156058
0.817868 0.597280 0.158040
0.842724 0.598595 0.160022
0.864108 0.599757 0.161728
0.199992 0.666083 0.145937
0.226356 0.666083 0.145937
0.252468 0.666083 0.145937
0.278400 0.666083 0.145937
0.304188 0.666083 0.145937
0.329830 0.666083 0.145937
0.355323 0.666083 0.145937
0.380665 0.666083 0.145937
0.405855 0.666083 0.145937
0.430891 0.666083 0.145937
0.455774 0.666083 0.145937
0.480501 0.666083 0.145937
0.505074 0.666083 0.145937
0.529493 0.666083 0.145937
0.553758 0.666083 0.145937
0.577871 0.666083 0.145937
0.595604 0.666083 0.145937
0.618973 0.666083 0.145937
0.642200 0.666083 0.145937
0.612417 0.666083 0.145937
0.634675 0.666083 0.145937
0.656805 0.666083 0.145937
0.666083 0.653356 0.145937
0.666083 0.631475 0.145937
0.668732 0.612110 0.146148
0.693588 0.612942 0.148130
0.718444 0.613873 0.150112
0.743300 0.614889 0.152094
0.768156 0.615979 0.154076
0.793012 0.617133 0.156058
0.817868 0.618343 0.158040
0.842724 0.619602 0.160022
0.864108 0.620719 0.161728
0.204333 0.690836 0.147911
0.230700 0.690836 0.147911
0.256821 0.690836 0.147911
0.282768 0.690836 0.147911
0.308578 0.690836 0.147911
0.334247 0.690836 0.147911
0.359775 0.690836 0.147911
0.385158 0.690836 0.147911
0.410396 0.690836 0.147911
0.435487 0.690836 0.147911
0.460431 0.690836 0.147911
0.485227 0.690836 0.147911
0.509875 0.690836 0.147911
0.534374 0.690836 0.147911
0.558727 0.690836 0.147911
0.582932 0.690836 0.147911
0.600737 0.690836 0.147911
0.624205 0.690836 0.147911
0.594851 0.690836 0.147911
0.617335 0.690836 0.147911
0.639693 0.690836 0.147911
0.661926 0.690836 0.147911
0.684038 0.690836 0.147911
0.690836 0.675642 0.147911
0.690836 0.653769 0.147911
0.693588 0.634499 0.148130
0.718444 0.635328 0.150112
0.743300 0.636254 0.152094
0.768156 0.637262 0.154076
0.793012 0.638342 0.156058
0.817868 0.639484 0.158040
0.842724 0.640682 0.160022
0.864108 0.641751 0.161728
0.208674 0.715589 0.149885
0.235044 0.715589 0.149885
0.261172 0.715589 0.149885
0.287134 0.715589 0.149885
0.312963 0.715589 0.149885
0.338658 0.715589 0.149885
0.364217 0.715589 0.149885
0.389639 0.715589 0.149885
0.414921 0.715589 0.149885
0.440062 0.715589 0.149885
0.465063 0.715589 0.149885
0.489921 0.715589 0.149885
0.514637 0.715589 0.149885
0.539212 0.715589 0.149885
0.563644 0.715589 0.149885
0.587935 0.715589 0.149885
0.605806 0.715589 0.149885
0.629366 0.715589 0.149885
0.599610 0.715589 0.149885
0.622182 0.715589 0.149885
0.644633 0.715589 0.149885
0.666963 0.715589 0.149885
0.689175 0.715589 0.149885
0.711269 0.715589 0.149885
