docs/luts/fuji_recipes/Classic_RR_Kodacolor_S__Shore.cube
TITLE "Fujifilm Recipe: RR Kodacolor S. Shore (Classic)"
# FilmSim=Classic HL=-1 SH=2 Col=0 WB=6300K WBR=-1 WBB=-4
LUT_3D_SIZE 5
DOMAIN_MIN 0.0 0.0 0.0
DOMAIN_MAX 1.0 1.0 1.0
0.000000 0.000000 0.000000
0.250719 0.039129 0.039129
0.533264 0.076873 0.076873
0.774734 0.113757 0.113757
0.813503 0.119679 0.119679
0.038634 0.247542 0.038634
0.250719 0.248038 0.039129
0.533264 0.285781 0.076873
0.774734 0.322665 0.113757
0.813503 0.328587 0.119679
0.076122 0.528348 0.076122
0.287711 0.528348 0.076122
0.533264 0.529115 0.076873
0.774734 0.566801 0.113757
0.813503 0.572852 0.119679
0.112743 0.768094 0.112743
0.324332 0.768094 0.112743
0.569914 0.768094 0.112743
0.774734 0.769131 0.113757
0.813503 0.775181 0.119679
0.122175 0.829844 0.122175
0.333764 0.829844 0.122175
0.579551 0.829844 0.122175
0.783335 0.829844 0.122175
0.816053 0.829844 0.122175
0.033285 0.033285 0.213273
0.250719 0.039129 0.219117
0.533264 0.076873 0.256860
0.774734 0.113757 0.293744
0.813503 0.119679 0.299666
0.038634 0.247542 0.218621
0.284004 0.281323 0.252402
0.567273 0.319066 0.290146
0.808743 0.355951 0.327030
0.847512 0.361873 0.332952
0.076122 0.528348 0.256109
0.320996 0.562357 0.289395
0.567273 0.563124 0.290146
0.808743 0.600810 0.327030
0.847512 0.606861 0.332952
0.112743 0.768094 0.292730
0.357617 0.802103 0.326016
0.603923 0.802103 0.326016
0.808743 0.803140 0.327030
0.847512 0.809190 0.332952
0.122175 0.829844 0.302162
0.367050 0.863853 0.335448
0.613560 0.863853 0.335448
0.817344 0.863853 0.335448
0.850062 0.863853 0.335448
0.066007 0.066007 0.422934
0.277596 0.066007 0.422934
0.533264 0.076873 0.433800
0.774734 0.113757 0.510916
0.813503 0.119679 0.516967
0.066007 0.274915 0.422934
0.316230 0.313549 0.501602
0.572738 0.324415 0.512704
0.814208 0.361299 0.550390
0.852977 0.367221 0.556441
0.076122 0.528348 0.433049
0.326841 0.568328 0.512443
0.600706 0.596557 0.540672
0.842176 0.634243 0.578358
0.880945 0.640294 0.584409
0.112743 0.768094 0.509880
0.363462 0.808075 0.549860
0.637356 0.835536 0.577322
0.842176 0.836573 0.578358
0.880945 0.842623 0.584409
0.122175 0.829844 0.519517
0.372894 0.869824 0.559498
0.646993 0.897286 0.586959
0.850777 0.897286 0.586959
0.883495 0.897286 0.586959
0.097775 0.097775 0.670105
0.309364 0.097775 0.670105
0.554621 0.097775 0.670105
0.774734 0.113757 0.686435
0.813503 0.119679 0.692485
0.097775 0.306683 0.670105
0.347998 0.345317 0.709579
0.594095 0.345317 0.709579
0.814208 0.361299 0.725908
0.852977 0.367221 0.731959
0.097775 0.550472 0.670105
0.348494 0.590452 0.710085
0.632398 0.628248 0.747882
0.852511 0.644578 0.764211
0.891280 0.650629 0.770262
0.112743 0.768094 0.685398
0.363462 0.808075 0.725378
0.648458 0.846639 0.763942
0.874635 0.869031 0.786335
0.913404 0.875082 0.792386
0.122175 0.829844 0.695035
0.372894 0.869824 0.735016
0.658096 0.908388 0.773580
0.883236 0.929745 0.794936
0.915954 0.929745 0.794936
0.105958 0.105958 0.723672
0.317547 0.105958 0.723672
0.562981 0.105958 0.723672
0.774734 0.113757 0.731641
0.813503 0.119679 0.737692
0.105958 0.314866 0.723672
0.356180 0.353499 0.763146
0.602455 0.353499 0.763146
0.814208 0.361299 0.771115
0.852977 0.367221 0.777166
0.105958 0.558832 0.723672
0.356676 0.598812 0.763652
0.640758 0.636609 0.801449
0.852511 0.644578 0.809418
0.891280 0.650629 0.815469
0.112743 0.768094 0.730605
0.363462 0.808075 0.770585
0.648458 0.846639 0.809149
0.882995 0.877392 0.839902
0.921764 0.883442 0.845953
0.122175 0.829844 0.740242
0.372894 0.869824 0.780222
0.658096 0.908388 0.818786
0.891596 0.938105 0.848503
0.924314 0.938105 0.848503
