docs/luts/fuji_recipes/Classic_RR_Bleach_Bypass_1_2.cube
TITLE "Fujifilm Recipe: RR Bleach Bypass 1/2 (Classic)"
# FilmSim=Classic HL=3 SH=4 Col=2 WB=Auto WBR=-1 WBB=3
LUT_3D_SIZE 9
DOMAIN_MIN 0.0 0.0 0.0
DOMAIN_MAX 1.0 1.0 1.0
0.000000 0.000000 0.000000
0.097725 0.000000 0.000000
0.191691 0.000000 0.000000
0.285657 0.000000 0.000000
0.381979 0.000000 0.000000
0.559987 0.000000 0.000000
0.678931 0.000000 0.000000
0.797875 0.000000 0.000000
0.825559 0.000000 0.000000
0.000000 0.099651 0.000000
0.097725 0.099651 0.000000
0.191691 0.099651 0.000000
0.285657 0.099651 0.000000
0.381979 0.099651 0.000000
0.559987 0.094153 0.000000
0.678931 0.093752 0.000000
0.797875 0.093472 0.000000
0.825559 0.093419 0.000000
0.000000 0.195623 0.000000
0.097725 0.195623 0.000000
0.191691 0.195623 0.000000
0.285657 0.195623 0.000000
0.381979 0.195623 0.000000
0.559987 0.184832 0.000000
0.678931 0.184043 0.000000
0.797875 0.183494 0.000000
0.825559 0.183389 0.000000
0.000000 0.291596 0.000000
0.097725 0.291596 0.000000
0.191691 0.291596 0.000000
0.285657 0.291596 0.000000
0.381979 0.291596 0.000000
0.559987 0.275510 0.000000
0.678931 0.274335 0.000000
0.797875 0.273516 0.000000
0.825559 0.273360 0.000000
0.000000 0.389797 0.000000
0.097725 0.389797 0.000000
0.191691 0.389797 0.000000
0.285657 0.389797 0.000000
0.381979 0.389797 0.000000
0.559987 0.368293 0.000000
0.678931 0.456796 0.000000
0.797875 0.460779 0.000000
0.825559 0.461759 0.000000
0.000000 0.572585 0.000000
0.092284 0.572585 0.000000
0.181019 0.572585 0.000000
0.269753 0.572585 0.000000
0.360713 0.572585 0.000000
0.560256 0.572585 0.000000
0.678931 0.575243 0.000000
0.797875 0.578872 0.000000
0.825559 0.579785 0.000000
0.000000 0.694069 0.000000
0.091900 0.694069 0.000000
0.180265 0.694069 0.000000
0.268630 0.694069 0.000000
0.447476 0.694069 0.000000
0.563396 0.694069 0.000000
0.679316 0.694069 0.000000
0.797875 0.696966 0.000000
0.825559 0.697811 0.000000
0.000000 0.815553 0.000000
0.091632 0.815553 0.000000
0.179739 0.815553 0.000000
0.267847 0.815553 0.000000
0.451629 0.815553 0.000000
0.567211 0.815553 0.000000
0.682793 0.815553 0.000000
0.798375 0.815553 0.000000
0.825559 0.815838 0.000000
0.000000 0.845286 0.000000
0.091739 0.845286 0.000000
0.179949 0.845286 0.000000
0.268160 0.845286 0.000000
0.453429 0.845286 0.000000
0.569146 0.845286 0.000000
0.684863 0.845286 0.000000
0.800580 0.845286 0.000000
0.827513 0.845286 0.000000
0.000000 0.000000 0.105903
0.097725 0.000000 0.105903
0.191691 0.000000 0.105903
0.285657 0.000000 0.105903
0.381979 0.000000 0.105903
0.559987 0.000000 0.100061
0.678931 0.000000 0.099634
0.797875 0.000000 0.099336
0.825559 0.000000 0.099280
0.000000 0.099651 0.105903
0.116215 0.118488 0.125867
0.222272 0.106707 0.114557
0.324988 0.097957 0.105588
0.428865 0.090402 0.097897
0.638680 0.057504 0.064783
0.769052 0.044377 0.051590
0.930675 0.000000 0.007686
0.963666 0.000000 0.007655
0.000000 0.195623 0.105903
0.103852 0.226406 0.114090
0.222309 0.227261 0.114264
0.325926 0.215587 0.105633
0.430014 0.205810 0.097867
0.640533 0.169288 0.064526
0.771023 0.155055 0.051282
0.939550 0.112210 0.000000
0.972676 0.111703 0.000000
0.000000 0.291596 0.105903
0.095110 0.331121 0.105066
0.210110 0.332377 0.105121
0.325109 0.332377 0.105121
0.430014 0.321274 0.097867
0.640533 0.281349 0.064526
0.771023 0.266060 0.051282
0.939550 0.232240 0.000000
0.972676 0.231191 0.000000
0.000000 0.389797 0.105903
0.087539 0.436892 0.097321
0.200365 0.438421 0.097277
0.313281 0.438421 0.097277
0.429027 0.438421 0.097277
0.640533 0.508772 0.064526
0.771023 0.497930 0.051282
0.939550 0.490088 0.000000
0.972676 0.489525 0.000000
0.000000 0.572585 0.100007
0.053943 0.651925 0.063445
0.163156 0.654375 0.063102
0.272748 0.654375 0.063102
0.495382 0.654375 0.063102
0.639148 0.654375 0.063102
0.771023 0.643549 0.051282
0.939550 0.647546 0.000000
0.972676 0.646272 0.000000
0.000000 0.694069 0.099590
0.040615 0.785002 0.050034
0.148748 0.787603 0.049623
0.257323 0.787603 0.049623
0.484614 0.787603 0.049623
0.627045 0.787603 0.049623
0.769476 0.787603 0.049623
0.939550 0.805005 0.000000
0.972676 0.803019 0.000000
0.000000 0.815553 0.099300
0.000000 0.947073 0.009954
0.106773 0.958858 0.000000
0.223724 0.958858 0.000000
0.475797 0.958858 0.000000
0.629217 0.958858 0.000000
0.782636 0.958858 0.000000
0.936056 0.958858 0.000000
0.972676 0.959766 0.000000
0.000000 0.845286 0.099416
0.000000 0.986119 0.009972
0.106868 0.997905 0.000000
0.223924 0.997905 0.000000
0.477909 0.997905 0.000000
0.631466 0.997905 0.000000
0.785023 0.997905 0.000000
0.938579 0.997905 0.000000
0.974319 0.997905 0.000000
0.000000 0.000000 0.208200
0.097725 0.000000 0.208200
0.191691 0.000000 0.208200
0.285657 0.000000 0.208200
0.381979 0.000000 0.208200
0.559987 0.000000 0.196714
0.678931 0.000000 0.195875
0.797875 0.000000 0.195291
0.825559 0.000000 0.195179
0.000000 0.099651 0.208200
0.102586 0.104986 0.240248
0.219871 0.105016 0.240472
0.324988 0.097957 0.230447
0.428865 0.090402 0.220534
0.638680 0.057504 0.183885
0.769052 0.044377 0.169609
0.930675 0.000000 0.133434
0.963666 0.000000 0.132896
0.000000 0.195623 0.208200
0.102586 0.224577 0.240248
0.227962 0.232603 0.247447
0.335323 0.219843 0.235974
0.530003 0.185173 0.200654
0.663656 0.168766 0.183980
0.830843 0.118825 0.135467
1.000000 0.066913 0.084505
1.000000 0.101974 0.118176
0.000000 0.291596 0.208200
0.095110 0.331121 0.229598
0.213979 0.341709 0.235086
0.335234 0.342876 0.235555
0.532415 0.303730 0.200615
0.666454 0.285125 0.183821
0.844447 0.237384 0.123073
1.000000 0.201251 0.084766
1.000000 0.227181 0.120098
0.000000 0.389797 0.208200
0.087539 0.436892 0.219681
0.178927 0.540582 0.199184
0.294734 0.543816 0.199128
0.530950 0.543816 0.199128
0.666454 0.529379 0.183821
0.844447 0.520811 0.123073
1.000000 0.498030 0.084766
1.000000 0.501708 0.120098
0.000000 0.572585 0.196609
0.053943 0.651925 0.182309
0.162432 0.676826 0.182344
0.276069 0.680565 0.182128
0.515231 0.680565 0.182128
0.664731 0.680565 0.182128
0.844447 0.693381 0.123073
1.000000 0.673883 0.084766
1.000000 0.663367 0.120098
0.000000 0.694069 0.195790
0.040615 0.785002 0.167845
0.101325 0.857682 0.123695
0.216042 0.876331 0.106111
0.504172 0.876331 0.106111
0.679119 0.876331 0.106111
0.854066 0.876331 0.106111
1.000000 0.849736 0.084766
1.000000 0.825026 0.120098
0.000000 0.815553 0.195219
0.000000 0.947073 0.134469
0.082489 1.000000 0.104445
0.208925 1.000000 0.106281
0.485670 1.000000 0.106281
0.649021 1.000000 0.106281
0.812372 1.000000 0.106281
0.975722 1.000000 0.106281
1.000000 0.986685 0.120098
0.000000 0.845286 0.195447
0.000000 0.986119 0.134705
0.121536 1.000000 0.141662
0.239219 1.000000 0.145327
0.494008 1.000000 0.145327
0.643429 1.000000 0.145327
0.792851 1.000000 0.145327
0.942272 1.000000 0.145327
0.977050 1.000000 0.145327
0.000000 0.000000 0.310497
0.097725 0.000000 0.310497
0.191691 0.000000 0.310497
0.285657 0.000000 0.310497
0.381979 0.000000 0.310497
0.559987 0.000000 0.293368
0.678931 0.000000 0.292117
0.797875 0.000000 0.291245
0.825559 0.000000 0.291079
0.000000 0.099651 0.310497
0.093575 0.095910 0.351556
0.207646 0.095911 0.351874
0.321718 0.095911 0.351874
0.428865 0.090402 0.343171
0.638680 0.057504 0.302987
0.769052 0.044377 0.287627
0.930675 0.000000 0.259183
0.963666 0.000000 0.258137
0.000000 0.195623 0.310497
0.093575 0.212275 0.351556
0.211719 0.216722 0.362869
0.331540 0.216813 0.363193
0.530003 0.185173 0.326568
0.663656 0.168766 0.307723
0.830843 0.118825 0.270831
1.000000 0.066913 0.227601
1.000000 0.101974 0.249965
0.000000 0.291596 0.310497
0.093575 0.328639 0.351556
0.211719 0.338823 0.362869
0.339709 0.346718 0.369027
0.546270 0.305145 0.329120
0.694690 0.273970 0.298893
0.869287 0.216618 0.244153
1.000000 0.203151 0.357665
1.000000 0.240282 0.381972
0.000000 0.389797 0.310497
0.087539 0.436892 0.342040
0.178927 0.540582 0.324702
0.295884 0.557014 0.327284
0.547406 0.560668 0.327492
0.706975 0.550266 0.288516
0.869447 0.525860 0.243289
1.000000 0.481898 0.329467
1.000000 0.499894 0.363635
0.000000 0.572585 0.293210
0.053943 0.651925 0.301172
0.162432 0.676826 0.305733
0.260594 0.712053 0.293744
0.533724 0.725426 0.282483
0.707067 0.725426 0.282483
0.869447 0.709068 0.243289
1.000000 0.663403 0.329467
1.000000 0.662141 0.363635
0.000000 0.694069 0.291989
0.040615 0.785002 0.285656
0.101325 0.857682 0.262310
0.201862 0.890534 0.238258
0.506945 0.890693 0.236965
0.687340 0.890693 0.236965
0.867734 0.890693 0.236965
1.000000 0.844907 0.329467
1.000000 0.824389 0.363635
0.000000 0.815553 0.291138
0.000000 0.947073 0.258984
0.082489 1.000000 0.240490
0.217906 1.000000 0.371668
0.477615 1.000000 0.349335
0.643524 1.000000 0.349335
0.809433 1.000000 0.349335
0.975342 1.000000 0.349335
1.000000 0.986637 0.363635
0.000000 0.845286 0.291478
0.000000 0.986119 0.259439
0.121536 1.000000 0.266376
0.256952 1.000000 0.397547
0.503182 1.000000 0.389745
0.649894 1.000000 0.389745
0.796607 1.000000 0.389745
0.943319 1.000000 0.389745
0.977466 1.000000 0.389745
0.000000 0.000000 0.483031
0.092695 0.000000 0.483031
0.181824 0.000000 0.483031
0.270954 0.000000 0.483031
0.362318 0.000000 0.483031
0.559987 0.000000 0.484634
0.678931 0.000000 0.487929
0.797875 0.000000 0.491818
0.825559 0.000000 0.492781
0.000000 0.094521 0.483031
0.064064 0.066322 0.553530
0.174251 0.066249 0.554078
0.284512 0.066249 0.554078
0.397537 0.066249 0.554078
0.638680 0.057504 0.545826
0.769052 0.044377 0.534832
0.930675 0.000000 0.529586
0.963666 0.000000 0.529071
0.000000 0.185554 0.483031
0.064064 0.178826 0.553530
0.174444 0.179245 0.576540
0.289275 0.179206 0.577360
0.524162 0.179206 0.577360
0.663656 0.168766 0.567183
0.830843 0.118825 0.562197
1.000000 0.066913 0.543581
1.000000 0.101974 0.542685
0.000000 0.276587 0.483031
0.064064 0.291331 0.553530
0.174444 0.296409 0.576540
0.290575 0.298041 0.593798
0.539953 0.298058 0.594745
0.694690 0.273970 0.589527
0.869287 0.216618 0.573536
1.000000 0.203151 0.549386
1.000000 0.240282 0.555720
0.000000 0.369733 0.483031
0.064064 0.514738 0.553530
0.174444 0.536141 0.576540
0.290575 0.552197 0.593798
0.545672 0.557975 0.597032
0.691004 0.537595 0.582582
0.843523 0.508344 0.555320
1.000000 0.475135 0.523464
1.000000 0.509447 0.551278
0.000000 0.572585 0.484943
0.053943 0.651925 0.544087
0.162432 0.676826 0.564883
0.260594 0.712053 0.588199
0.520438 0.706857 0.579943
0.688818 0.706512 0.580733
0.842035 0.686444 0.555421
1.000000 0.657048 0.520724
1.000000 0.671406 0.555082
0.000000 0.694069 0.488397
0.040615 0.785002 0.533125
0.101325 0.857682 0.561327
0.201862 0.890534 0.570080
0.488909 0.864286 0.551201
0.664479 0.862074 0.551071
0.839765 0.862074 0.551071
1.000000 0.841979 0.520724
1.000000 0.829204 0.555082
0.000000 0.815553 0.492431
0.000000 0.947073 0.527620
0.082489 1.000000 0.541705
0.217906 1.000000 0.552102
0.480773 1.000000 0.538986
0.647059 1.000000 0.540782
0.811323 1.000000 0.540782
0.975586 1.000000 0.540782
1.000000 0.987003 0.555082
0.000000 0.845286 0.494278
0.000000 0.986119 0.530199
0.121536 1.000000 0.544154
0.256952 1.000000 0.560663
0.521183 1.000000 0.571097
0.670521 1.000000 0.581192
0.808590 1.000000 0.581192
0.946658 1.000000 0.581192
0.978793 1.000000 0.581192
0.000000 0.000000 0.612521
0.092140 0.000000 0.612521
0.180737 0.000000 0.612521
0.269334 0.000000 0.612521
0.360152 0.000000 0.612521
0.561188 0.000000 0.612521
0.678931 0.000000 0.614181
0.797875 0.000000 0.617694
0.825559 0.000000 0.618585
0.000000 0.093956 0.612521
0.049520 0.051750 0.695714
0.158348 0.051659 0.696309
0.267270 0.051659 0.696309
0.490314 0.051659 0.696309
0.633200 0.051659 0.696309
0.769052 0.044377 0.689651
0.930675 0.000000 0.694546
0.963666 0.000000 0.693366
0.000000 0.184445 0.612521
0.049520 0.162903 0.695714
0.157289 0.162010 0.721335
0.270175 0.161932 0.722274
0.508621 0.161932 0.722274
0.656819 0.161932 0.722274
0.830843 0.118825 0.739772
1.000000 0.066913 0.731298
1.000000 0.101974 0.715569
0.000000 0.274933 0.612521
0.049520 0.274057 0.695714
0.157289 0.277244 0.721335
0.233943 0.242412 0.778070
0.524902 0.242261 0.778183
0.700588 0.242261 0.778183
0.869287 0.216618 0.769027
1.000000 0.203151 0.734715
1.000000 0.240282 0.723676
0.000000 0.454793 0.612521
0.049520 0.501966 0.695714
0.157289 0.520475 0.721335
0.233943 0.539530 0.778070
0.511232 0.525674 0.757451
0.681901 0.525854 0.757189
0.843523 0.508344 0.745822
1.000000 0.475135 0.719455
1.000000 0.509447 0.720913
0.000000 0.573498 0.612521
0.049520 0.647780 0.695714
0.157289 0.671641 0.721335
0.233943 0.719054 0.778070
0.511232 0.700108 0.757451
0.682597 0.700178 0.755910
0.838845 0.686473 0.743693
1.000000 0.648586 0.710879
1.000000 0.683071 0.733103
0.000000 0.694069 0.614594
0.040615 0.785002 0.687673
0.101325 0.857682 0.743166
0.201862 0.890534 0.766706
0.488909 0.864286 0.743305
0.664319 0.858701 0.740479
0.835586 0.857182 0.740844
0.997611 0.835413 0.707994
1.000000 0.839615 0.740147
0.000000 0.815553 0.618260
0.000000 0.947073 0.690962
0.082489 1.000000 0.720173
0.217906 1.000000 0.726521
0.480773 1.000000 0.718513
0.650766 1.000000 0.722554
0.815520 1.000000 0.725847
0.976129 1.000000 0.725847
1.000000 0.987796 0.740147
0.000000 0.845286 0.620255
0.000000 0.986119 0.693828
0.121536 1.000000 0.707757
0.256952 1.000000 0.718340
0.521183 1.000000 0.725030
0.691176 1.000000 0.748334
0.831753 1.000000 0.762466
0.955848 1.000000 0.762466
0.984730 1.000000 0.762466
0.000000 0.000000 0.742010
0.091783 0.000000 0.742010
0.180036 0.000000 0.742010
0.268289 0.000000 0.742010
0.449067 0.000000 0.742010
0.564840 0.000000 0.742010
0.680613 0.000000 0.742010
0.797875 0.000000 0.743569
0.825559 0.000000 0.744388
0.000000 0.093592 0.742010
0.031614 0.033847 0.841260
0.139090 0.031788 0.843820
0.248637 0.031788 0.843820
0.480194 0.031788 0.843820
0.623901 0.031788 0.843820
0.767608 0.031788 0.843820
0.930675 0.000000 0.859507
0.963666 0.000000 0.857661
0.000000 0.183730 0.742010
0.031614 0.145116 0.841260
0.046936 0.052816 0.959328
0.187132 0.052512 0.959334
0.492963 0.052512 0.959334
0.677276 0.052512 0.959334
0.861588 0.052512 0.959334
1.000000 0.066913 0.919015
1.000000 0.101974 0.888453
0.000000 0.273868 0.742010
0.031614 0.256385 0.841260
0.046936 0.196325 0.959328
0.180161 0.189028 0.959492
0.493884 0.188581 0.959503
0.677900 0.188581 0.959503
0.861915 0.188581 0.959503
1.000000 0.203151 0.920045
1.000000 0.240282 0.891633
0.000000 0.458856 0.742010
0.031614 0.491726 0.841260
0.046936 0.508517 0.959328
0.180161 0.509382 0.959492
0.472719 0.488006 0.930160
0.653097 0.487775 0.929464
0.833691 0.487775 0.929464
1.000000 0.475135 0.915445
1.000000 0.509447 0.890549
0.000000 0.577102 0.742010
0.031614 0.637692 0.841260
0.046936 0.696776 0.959328
0.180161 0.697348 0.959492
0.472719 0.672650 0.930160
0.650328 0.669157 0.922376
0.827595 0.669061 0.921630
1.000000 0.648586 0.912861
1.000000 0.683071 0.895330
0.000000 0.695347 0.742010
0.031614 0.783657 0.841260
0.046936 0.885035 0.959328
0.180161 0.885315 0.959492
0.472719 0.857293 0.930160
0.650328 0.850723 0.922376
0.825879 0.847663 0.916649
0.991287 0.830750 0.904892
1.000000 0.856695 0.908944
0.000000 0.815553 0.744089
0.000000 0.947073 0.854304
0.082489 1.000000 0.898641
0.217906 1.000000 0.900940
0.480773 1.000000 0.898039
0.650766 1.000000 0.899503
0.820759 1.000000 0.903516
0.978585 1.000000 0.910912
1.000000 0.995750 0.919023
0.000000 0.845286 0.746231
0.000000 0.986119 0.857458
0.121536 1.000000 0.871359
0.256952 1.000000 0.876018
0.521183 1.000000 0.878963
0.691176 1.000000 0.889221
0.844566 1.000000 0.910377
0.980831 1.000000 0.922548
1.000000 1.000000 0.922548
0.000000 0.000000 0.835935
0.091594 0.000000 0.835935
0.179666 0.000000 0.835935
0.267738 0.000000 0.835935
0.452361 0.000000 0.835935
0.567896 0.000000 0.835935
0.683431 0.000000 0.835935
0.798966 0.000000 0.835935
0.825856 0.000000 0.835935
0.000000 0.093399 0.835935
0.000000 0.002347 0.975219
0.112748 0.000000 0.977995
0.227855 0.000000 0.977995
0.476676 0.000000 0.977995
0.627676 0.000000 0.977995
0.778677 0.000000 0.977995
0.929677 0.000000 0.977995
0.964822 0.000000 0.977995
0.000000 0.183352 0.835935
0.000000 0.119314 0.975219
0.110636 0.115548 1.000000
0.228629 0.116303 1.000000
0.489426 0.116303 1.000000
0.643214 0.116303 1.000000
0.797002 0.116303 1.000000
0.950790 0.116303 1.000000
0.986584 0.116303 1.000000
0.000000 0.273304 0.835935
0.000000 0.236280 0.975219
0.110636 0.235427 1.000000
0.246052 0.253230 1.000000
0.506605 0.254611 1.000000
0.655219 0.254611 1.000000
0.803832 0.254611 1.000000
0.952446 0.254611 1.000000
0.987035 0.254611 1.000000
0.000000 0.462131 0.835935
0.000000 0.489156 0.975219
0.110636 0.501834 1.000000
0.246052 0.517995 1.000000
0.509903 0.522385 1.000000
0.658880 0.524277 1.000000
0.805915 0.524277 1.000000
0.952951 0.524277 1.000000
0.987173 0.524277 1.000000
0.000000 0.580133 0.835935
0.000000 0.642596 0.975219
0.110636 0.659095 1.000000
0.246052 0.670154 1.000000
0.509903 0.673158 1.000000
0.679896 0.694510 1.000000
0.819894 0.697901 1.000000
0.956340 0.697901 1.000000
0.988097 0.697901 1.000000
0.000000 0.698135 0.835935
0.000000 0.796036 0.975219
0.110636 0.816355 1.000000
0.246052 0.822313 1.000000
0.509903 0.823931 1.000000
0.679896 0.835433 1.000000
0.843043 0.858836 1.000000
0.970059 0.861757 1.000000
0.998941 0.861757 1.000000
0.000000 0.816137 0.835935
0.000000 0.949476 0.975219
0.110636 0.973615 1.000000
0.246052 0.974471 1.000000
0.509903 0.974704 1.000000
0.679896 0.976356 1.000000
0.843043 0.985582 1.000000
0.990087 1.000000 1.000000
1.000000 1.000000 1.000000
0.000000 0.845286 0.837607
0.000000 0.986119 0.976145
0.121536 1.000000 0.990028
0.256952 1.000000 0.990389
0.521183 1.000000 0.990617
0.691176 1.000000 0.991412
0.844566 1.000000 1.000000
0.991610 1.000000 1.000000
1.000000 1.000000 1.000000
0.000000 0.000000 0.835935
0.091594 0.000000 0.835935
0.179666 0.000000 0.835935
0.267738 0.000000 0.835935
0.452361 0.000000 0.835935
0.567896 0.000000 0.835935
0.683431 0.000000 0.835935
0.798966 0.000000 0.835935
0.825856 0.000000 0.835935
0.000000 0.093399 0.835935
0.000000 0.002347 0.975219
0.112748 0.000000 0.977995
0.227855 0.000000 0.977995
0.476676 0.000000 0.977995
0.627676 0.000000 0.977995
0.778677 0.000000 0.977995
0.929677 0.000000 0.977995
0.964822 0.000000 0.977995
0.000000 0.183352 0.835935
0.000000 0.119314 0.975219
0.110636 0.115548 1.000000
0.228629 0.116303 1.000000
0.489426 0.116303 1.000000
0.643214 0.116303 1.000000
0.797002 0.116303 1.000000
0.950790 0.116303 1.000000
0.986584 0.116303 1.000000
0.000000 0.273304 0.835935
0.000000 0.236280 0.975219
0.110636 0.235427 1.000000
0.246052 0.253230 1.000000
0.506605 0.254611 1.000000
0.655219 0.254611 1.000000
0.803832 0.254611 1.000000
0.952446 0.254611 1.000000
0.987035 0.254611 1.000000
0.000000 0.462131 0.835935
0.000000 0.489156 0.975219
0.110636 0.501834 1.000000
0.246052 0.517995 1.000000
0.509903 0.522385 1.000000
0.658880 0.524277 1.000000
0.805915 0.524277 1.000000
0.952951 0.524277 1.000000
0.987173 0.524277 1.000000
0.000000 0.580133 0.835935
0.000000 0.642596 0.975219
0.110636 0.659095 1.000000
0.246052 0.670154 1.000000
0.509903 0.673158 1.000000
0.679896 0.694510 1.000000
0.819894 0.697901 1.000000
0.956340 0.697901 1.000000
0.988097 0.697901 1.000000
0.000000 0.698135 0.835935
0.000000 0.796036 0.975219
0.110636 0.816355 1.000000
0.246052 0.822313 1.000000
0.509903 0.823931 1.000000
0.679896 0.835433 1.000000
0.843043 0.858836 1.000000
0.970059 0.861757 1.000000
0.998941 0.861757 1.000000
0.000000 0.816137 0.835935
0.000000 0.949476 0.975219
0.110636 0.973615 1.000000
0.246052 0.974471 1.000000
0.509903 0.974704 1.000000
0.679896 0.976356 1.000000
0.843043 0.985582 1.000000
0.990087 1.000000 1.000000
1.000000 1.000000 1.000000
0.000000 0.845286 0.837607
0.000000 0.986119 0.976145
0.121536 1.000000 0.990028
0.256952 1.000000 0.990389
0.521183 1.000000 0.990617
0.691176 1.000000 0.991412
0.844566 1.000000 1.000000
0.991610 1.000000 1.000000
1.000000 1.000000 1.000000
