docs/luts/fuji_recipes/Classic_RR_Kodachrome_II.cube
TITLE "Fujifilm Recipe: RR Kodachrome II (Classic)"
# FilmSim=Classic HL=1 SH=2 Col=-1 WB=Auto WBR=3 WBB=-4
LUT_3D_SIZE 33
DOMAIN_MIN 0.0 0.0 0.0
DOMAIN_MAX 1.0 1.0 1.0
0.000000 0.000000 0.000000
0.030804 0.007735 0.007735
0.058225 0.014620 0.014620
0.085182 0.021389 0.021389
0.112138 0.028157 0.028157
0.139094 0.034926 0.034926
0.166050 0.041694 0.041694
0.193007 0.048463 0.048463
0.219963 0.055232 0.055232
0.246919 0.062000 0.062000
0.273875 0.068769 0.068769
0.300832 0.075537 0.075537
0.327788 0.082306 0.082306
0.354744 0.089074 0.089074
0.384368 0.096513 0.096513
0.410890 0.103172 0.103172
0.475397 0.113589 0.113589
0.505326 0.120585 0.120585
0.535254 0.127581 0.127581
0.565182 0.134577 0.134577
0.595110 0.141574 0.141574
0.625038 0.148570 0.148570
0.654967 0.155566 0.155566
0.684895 0.162563 0.162563
0.714823 0.169559 0.169559
0.744751 0.176555 0.176555
0.774680 0.183552 0.183552
0.801656 0.189858 0.189858
0.801656 0.189858 0.189858
0.801656 0.189858 0.189858
0.801656 0.189858 0.189858
0.801656 0.189858 0.189858
0.801656 0.189858 0.189858
0.007123 0.028368 0.007123
0.030804 0.028980 0.007735
0.058225 0.035865 0.014620
0.085182 0.042634 0.021389
0.112138 0.049402 0.028157
0.139094 0.056171 0.034926
0.166050 0.062940 0.041694
0.193007 0.069708 0.048463
0.219963 0.076477 0.055232
0.246919 0.083245 0.062000
0.273875 0.090014 0.068769
0.300832 0.096782 0.075537
0.327788 0.103551 0.082306
0.354744 0.110320 0.089074
0.384368 0.117758 0.096513
0.410890 0.124417 0.103172
0.475397 0.134834 0.113589
0.505326 0.141830 0.120585
0.535254 0.148826 0.127581
0.565182 0.155823 0.134577
0.595110 0.162819 0.141574
0.625038 0.169815 0.148570
0.654967 0.176812 0.155566
0.684895 0.183808 0.162563
0.714823 0.190804 0.169559
0.744751 0.197801 0.176555
0.774680 0.204797 0.183552
0.801656 0.211103 0.189858
0.801656 0.211103 0.189858
0.801656 0.211103 0.189858
0.801656 0.211103 0.189858
0.801656 0.211103 0.189858
0.801656 0.211103 0.189858
0.013501 0.053769 0.013501
0.036570 0.053769 0.013501
0.058225 0.054888 0.014620
0.085182 0.061657 0.021389
0.112138 0.068425 0.028157
0.139094 0.075194 0.034926
0.166050 0.081962 0.041694
0.193007 0.088731 0.048463
0.219963 0.095500 0.055232
0.246919 0.102268 0.062000
0.273875 0.109037 0.068769
0.300832 0.115805 0.075537
0.327788 0.122574 0.082306
0.354744 0.129342 0.089074
0.384368 0.136781 0.096513
0.410890 0.143440 0.103172
0.475397 0.153857 0.113589
0.505326 0.160853 0.120585
0.535254 0.167849 0.127581
0.565182 0.174845 0.134577
0.595110 0.181842 0.141574
0.625038 0.188838 0.148570
0.654967 0.195834 0.155566
0.684895 0.202831 0.162563
0.714823 0.209827 0.169559
0.744751 0.216823 0.176555
0.774680 0.223820 0.183552
0.801656 0.230126 0.189858
0.801656 0.230126 0.189858
0.801656 0.230126 0.189858
0.801656 0.230126 0.189858
0.801656 0.230126 0.189858
0.801656 0.230126 0.189858
0.019771 0.078740 0.019771
0.042840 0.078740 0.019771
0.063376 0.078740 0.019771
0.085182 0.080357 0.021389
0.112138 0.087126 0.028157
0.139094 0.093895 0.034926
0.166050 0.100663 0.041694
0.193007 0.107432 0.048463
0.219963 0.114200 0.055232
0.246919 0.120969 0.062000
0.273875 0.127737 0.068769
0.300832 0.134506 0.075537
0.327788 0.141275 0.082306
0.354744 0.148043 0.089074
0.384368 0.155482 0.096513
0.410890 0.162141 0.103172
0.475397 0.172557 0.113589
0.505326 0.179554 0.120585
0.535254 0.186550 0.127581
0.565182 0.193546 0.134577
0.595110 0.200543 0.141574
0.625038 0.207539 0.148570
0.654967 0.214535 0.155566
0.684895 0.221532 0.162563
0.714823 0.228528 0.169559
0.744751 0.235524 0.176555
0.774680 0.242521 0.183552
0.801656 0.248827 0.189858
0.801656 0.248827 0.189858
0.801656 0.248827 0.189858
0.801656 0.248827 0.189858
0.801656 0.248827 0.189858
0.801656 0.248827 0.189858
0.026041 0.103711 0.026041
0.049111 0.103711 0.026041
0.069647 0.103711 0.026041
0.089834 0.103711 0.026041
0.112138 0.105827 0.028157
0.139094 0.112595 0.034926
0.166050 0.119364 0.041694
0.193007 0.126132 0.048463
0.219963 0.132901 0.055232
0.246919 0.139670 0.062000
0.273875 0.146438 0.068769
0.300832 0.153207 0.075537
0.327788 0.159975 0.082306
0.354744 0.166744 0.089074
0.384368 0.174182 0.096513
0.410890 0.180842 0.103172
0.475397 0.191258 0.113589
0.505326 0.198254 0.120585
0.535254 0.205251 0.127581
0.565182 0.212247 0.134577
0.595110 0.219243 0.141574
0.625038 0.226240 0.148570
0.654967 0.233236 0.155566
0.684895 0.240232 0.162563
0.714823 0.247229 0.169559
0.744751 0.254225 0.176555
0.774680 0.261221 0.183552
0.801656 0.267528 0.189858
0.801656 0.267528 0.189858
0.801656 0.267528 0.189858
0.801656 0.267528 0.189858
0.801656 0.267528 0.189858
0.801656 0.267528 0.189858
0.032311 0.128682 0.032311
0.055381 0.128682 0.032311
0.075917 0.128682 0.032311
0.096104 0.128682 0.032311
0.116292 0.128682 0.032311
0.139094 0.131296 0.034926
0.166050 0.138065 0.041694
0.193007 0.144833 0.048463
0.219963 0.151602 0.055232
0.246919 0.158370 0.062000
0.273875 0.165139 0.068769
0.300832 0.171907 0.075537
0.327788 0.178676 0.082306
0.354744 0.185445 0.089074
0.384368 0.192883 0.096513
0.410890 0.199542 0.103172
0.475397 0.209959 0.113589
0.505326 0.216955 0.120585
0.535254 0.223951 0.127581
0.565182 0.230948 0.134577
0.595110 0.237944 0.141574
0.625038 0.244940 0.148570
0.654967 0.251937 0.155566
0.684895 0.258933 0.162563
0.714823 0.265929 0.169559
0.744751 0.272926 0.176555
0.774680 0.279922 0.183552
0.801656 0.286228 0.189858
0.801656 0.286228 0.189858
0.801656 0.286228 0.189858
0.801656 0.286228 0.189858
0.801656 0.286228 0.189858
0.801656 0.286228 0.189858
0.038581 0.153652 0.038581
0.061651 0.153652 0.038581
0.082187 0.153652 0.038581
0.102374 0.153652 0.038581
0.122562 0.153652 0.038581
0.142750 0.153652 0.038581
0.166050 0.156765 0.041694
0.193007 0.163534 0.048463
0.219963 0.170303 0.055232
0.246919 0.177071 0.062000
0.273875 0.183840 0.068769
0.300832 0.190608 0.075537
0.327788 0.197377 0.082306
0.354744 0.204145 0.089074
0.384368 0.211584 0.096513
0.410890 0.218243 0.103172
0.475397 0.228660 0.113589
0.505326 0.235656 0.120585
0.535254 0.242652 0.127581
0.565182 0.249649 0.134577
0.595110 0.256645 0.141574
0.625038 0.263641 0.148570
0.654967 0.270638 0.155566
0.684895 0.277634 0.162563
0.714823 0.284630 0.169559
0.744751 0.291627 0.176555
0.774680 0.298623 0.183552
0.801656 0.304929 0.189858
0.801656 0.304929 0.189858
0.801656 0.304929 0.189858
0.801656 0.304929 0.189858
0.801656 0.304929 0.189858
0.801656 0.304929 0.189858
0.044851 0.178623 0.044851
0.067921 0.178623 0.044851
0.088457 0.178623 0.044851
0.108644 0.178623 0.044851
0.128832 0.178623 0.044851
0.149020 0.178623 0.044851
0.169207 0.178623 0.044851
0.193007 0.182235 0.048463
0.219963 0.189003 0.055232
0.246919 0.195772 0.062000
0.273875 0.202540 0.068769
0.300832 0.209309 0.075537
0.327788 0.216078 0.082306
0.354744 0.222846 0.089074
0.384368 0.230285 0.096513
0.410890 0.236944 0.103172
0.475397 0.247360 0.113589
0.505326 0.254357 0.120585
0.535254 0.261353 0.127581
0.565182 0.268349 0.134577
0.595110 0.275346 0.141574
0.625038 0.282342 0.148570
0.654967 0.289338 0.155566
0.684895 0.296335 0.162563
0.714823 0.303331 0.169559
0.744751 0.310327 0.176555
0.774680 0.317324 0.183552
0.801656 0.323630 0.189858
0.801656 0.323630 0.189858
0.801656 0.323630 0.189858
0.801656 0.323630 0.189858
0.801656 0.323630 0.189858
0.801656 0.323630 0.189858
0.051121 0.203594 0.051121
0.074191 0.203594 0.051121
0.094727 0.203594 0.051121
0.114914 0.203594 0.051121
0.135102 0.203594 0.051121
0.155290 0.203594 0.051121
0.175477 0.203594 0.051121
0.195665 0.203594 0.051121
0.219963 0.207704 0.055232
0.246919 0.214473 0.062000
0.273875 0.221241 0.068769
0.300832 0.228010 0.075537
0.327788 0.234778 0.082306
0.354744 0.241547 0.089074
0.384368 0.248985 0.096513
0.410890 0.255645 0.103172
0.475397 0.266061 0.113589
0.505326 0.273057 0.120585
0.535254 0.280054 0.127581
0.565182 0.287050 0.134577
0.595110 0.294046 0.141574
0.625038 0.301043 0.148570
0.654967 0.308039 0.155566
0.684895 0.315035 0.162563
0.714823 0.322032 0.169559
0.744751 0.329028 0.176555
0.774680 0.336024 0.183552
0.801656 0.342331 0.189858
0.801656 0.342331 0.189858
0.801656 0.342331 0.189858
0.801656 0.342331 0.189858
0.801656 0.342331 0.189858
0.801656 0.342331 0.189858
0.057391 0.228565 0.057391
0.080461 0.228565 0.057391
0.100997 0.228565 0.057391
0.121184 0.228565 0.057391
0.141372 0.228565 0.057391
0.161560 0.228565 0.057391
0.181747 0.228565 0.057391
0.201935 0.228565 0.057391
0.222123 0.228565 0.057391
0.246919 0.233173 0.062000
0.273875 0.239942 0.068769
0.300832 0.246711 0.075537
0.327788 0.253479 0.082306
0.354744 0.260248 0.089074
0.384368 0.267686 0.096513
0.410890 0.274346 0.103172
0.475397 0.284762 0.113589
0.505326 0.291758 0.120585
0.535254 0.298754 0.127581
0.565182 0.305751 0.134577
0.595110 0.312747 0.141574
0.625038 0.319743 0.148570
0.654967 0.326740 0.155566
0.684895 0.333736 0.162563
0.714823 0.340732 0.169559
0.744751 0.347729 0.176555
0.774680 0.354725 0.183552
0.801656 0.361031 0.189858
0.801656 0.361031 0.189858
0.801656 0.361031 0.189858
0.801656 0.361031 0.189858
0.801656 0.361031 0.189858
0.801656 0.361031 0.189858
0.063661 0.253535 0.063661
0.086731 0.253535 0.063661
0.107267 0.253535 0.063661
0.127454 0.253535 0.063661
0.147642 0.253535 0.063661
0.167830 0.253535 0.063661
0.188017 0.253535 0.063661
0.208205 0.253535 0.063661
0.228393 0.253535 0.063661
0.248580 0.253535 0.063661
0.273875 0.258643 0.068769
0.300832 0.265411 0.075537
0.327788 0.272180 0.082306
0.354744 0.278948 0.089074
0.384368 0.286387 0.096513
0.410890 0.293046 0.103172
0.475397 0.303463 0.113589
0.505326 0.310459 0.120585
0.535254 0.317455 0.127581
0.565182 0.324452 0.134577
0.595110 0.331448 0.141574
0.625038 0.338444 0.148570
0.654967 0.345441 0.155566
0.684895 0.352437 0.162563
0.714823 0.359433 0.169559
0.744751 0.366430 0.176555
0.774680 0.373426 0.183552
0.801656 0.379732 0.189858
0.801656 0.379732 0.189858
0.801656 0.379732 0.189858
0.801656 0.379732 0.189858
0.801656 0.379732 0.189858
0.801656 0.379732 0.189858
0.069931 0.278506 0.069931
0.093001 0.278506 0.069931
0.113537 0.278506 0.069931
0.133724 0.278506 0.069931
0.153912 0.278506 0.069931
0.174100 0.278506 0.069931
0.194287 0.278506 0.069931
0.214475 0.278506 0.069931
0.234663 0.278506 0.069931
0.254850 0.278506 0.069931
0.275038 0.278506 0.069931
0.300832 0.284112 0.075537
0.327788 0.290881 0.082306
0.354744 0.297649 0.089074
0.384368 0.305088 0.096513
0.410890 0.311747 0.103172
0.475397 0.322163 0.113589
0.505326 0.329160 0.120585
0.535254 0.336156 0.127581
0.565182 0.343152 0.134577
0.595110 0.350149 0.141574
0.625038 0.357145 0.148570
0.654967 0.364141 0.155566
0.684895 0.371138 0.162563
0.714823 0.378134 0.169559
0.744751 0.385130 0.176555
0.774680 0.392127 0.183552
0.801656 0.398433 0.189858
0.801656 0.398433 0.189858
0.801656 0.398433 0.189858
0.801656 0.398433 0.189858
0.801656 0.398433 0.189858
0.801656 0.398433 0.189858
0.076201 0.303477 0.076201
0.099271 0.303477 0.076201
0.119807 0.303477 0.076201
0.139994 0.303477 0.076201
0.160182 0.303477 0.076201
0.180370 0.303477 0.076201
0.200557 0.303477 0.076201
0.220745 0.303477 0.076201
0.240933 0.303477 0.076201
0.261121 0.303477 0.076201
0.281308 0.303477 0.076201
0.301496 0.303477 0.076201
0.327788 0.309581 0.082306
0.354744 0.316350 0.089074
0.384368 0.323788 0.096513
0.410890 0.330448 0.103172
0.475397 0.340864 0.113589
0.505326 0.347860 0.120585
0.535254 0.354857 0.127581
0.565182 0.361853 0.134577
0.595110 0.368849 0.141574
0.625038 0.375846 0.148570
0.654967 0.382842 0.155566
0.684895 0.389838 0.162563
0.714823 0.396835 0.169559
0.744751 0.403831 0.176555
0.774680 0.410827 0.183552
0.801656 0.417134 0.189858
0.801656 0.417134 0.189858
0.801656 0.417134 0.189858
0.801656 0.417134 0.189858
0.801656 0.417134 0.189858
0.801656 0.417134 0.189858
0.082472 0.328448 0.082472
0.105541 0.328448 0.082472
0.126077 0.328448 0.082472
0.146264 0.328448 0.082472
0.166452 0.328448 0.082472
0.186640 0.328448 0.082472
0.206828 0.328448 0.082472
0.227015 0.328448 0.082472
0.247203 0.328448 0.082472
0.267391 0.328448 0.082472
0.287578 0.328448 0.082472
0.307766 0.328448 0.082472
0.327954 0.328448 0.082472
0.354744 0.335051 0.089074
0.384368 0.342489 0.096513
0.410890 0.349149 0.103172
0.475397 0.359565 0.113589
0.505326 0.366561 0.120585
0.535254 0.373557 0.127581
0.565182 0.380554 0.134577
0.595110 0.387550 0.141574
0.625038 0.394546 0.148570
0.654967 0.401543 0.155566
0.684895 0.408539 0.162563
0.714823 0.415535 0.169559
0.744751 0.422532 0.176555
0.774680 0.429528 0.183552
0.801656 0.435834 0.189858
0.801656 0.435834 0.189858
0.801656 0.435834 0.189858
0.801656 0.435834 0.189858
0.801656 0.435834 0.189858
0.801656 0.435834 0.189858
0.088742 0.353419 0.088742
0.111811 0.353419 0.088742
0.132347 0.353419 0.088742
0.152535 0.353419 0.088742
0.172722 0.353419 0.088742
0.192910 0.353419 0.088742
0.213098 0.353419 0.088742
0.233285 0.353419 0.088742
0.253473 0.353419 0.088742
0.273661 0.353419 0.088742
0.293848 0.353419 0.088742
0.314036 0.353419 0.088742
0.334224 0.353419 0.088742
0.354744 0.353751 0.089074
0.384368 0.361190 0.096513
0.410890 0.367849 0.103172
0.475397 0.378266 0.113589
0.505326 0.385262 0.120585
0.535254 0.392258 0.127581
0.565182 0.399255 0.134577
0.595110 0.406251 0.141574
0.625038 0.413247 0.148570
0.654967 0.420244 0.155566
0.684895 0.427240 0.162563
0.714823 0.434236 0.169559
0.744751 0.441233 0.176555
0.774680 0.448229 0.183552
0.801656 0.454535 0.189858
0.801656 0.454535 0.189858
0.801656 0.454535 0.189858
0.801656 0.454535 0.189858
0.801656 0.454535 0.189858
0.801656 0.454535 0.189858
0.095695 0.381111 0.095695
0.118764 0.381111 0.095695
0.139300 0.381111 0.095695
0.159488 0.381111 0.095695
0.179676 0.381111 0.095695
0.199863 0.381111 0.095695
0.220051 0.381111 0.095695
0.240239 0.381111 0.095695
0.260426 0.381111 0.095695
0.280614 0.381111 0.095695
0.300802 0.381111 0.095695
0.320989 0.381111 0.095695
0.341177 0.381111 0.095695
0.361365 0.381111 0.095695
0.384368 0.381929 0.096513
0.410890 0.388588 0.103172
0.475397 0.399004 0.113589
0.505326 0.406001 0.120585
0.535254 0.412997 0.127581
0.565182 0.419993 0.134577
0.595110 0.426990 0.141574
0.625038 0.433986 0.148570
0.654967 0.440982 0.155566
0.684895 0.447979 0.162563
0.714823 0.454975 0.169559
0.744751 0.495013 0.176555
0.774680 0.502488 0.183552
0.801656 0.509227 0.189858
0.801656 0.509227 0.189858
0.801656 0.509227 0.189858
0.801656 0.509227 0.189858
0.801656 0.509227 0.189858
0.801656 0.509227 0.189858
0.101864 0.405679 0.101864
0.124933 0.405679 0.101864
0.145469 0.405679 0.101864
0.165657 0.405679 0.101864
0.185844 0.405679 0.101864
0.206032 0.405679 0.101864
0.226220 0.405679 0.101864
0.246407 0.405679 0.101864
0.266595 0.405679 0.101864
0.286783 0.405679 0.101864
0.306970 0.405679 0.101864
0.327158 0.405679 0.101864
0.347346 0.405679 0.101864
0.367534 0.405679 0.101864
0.389719 0.405679 0.101864
0.410890 0.406987 0.103172
0.475397 0.417403 0.113589
0.505326 0.424400 0.120585
0.535254 0.431396 0.127581
0.565182 0.438392 0.134577
0.595110 0.478435 0.141574
0.625038 0.485910 0.148570
0.654967 0.493386 0.155566
0.684895 0.500861 0.162563
0.714823 0.508337 0.169559
0.744751 0.515812 0.176555
0.774680 0.523287 0.183552
0.801656 0.530026 0.189858
0.801656 0.530026 0.189858
0.801656 0.530026 0.189858
0.801656 0.530026 0.189858
0.801656 0.530026 0.189858
0.801656 0.530026 0.189858
0.111699 0.467313 0.111699
0.134768 0.467313 0.111699
0.155304 0.467313 0.111699
0.175492 0.467313 0.111699
0.195679 0.467313 0.111699
0.215867 0.467313 0.111699
0.236055 0.467313 0.111699
0.256242 0.467313 0.111699
0.276430 0.467313 0.111699
0.296618 0.467313 0.111699
0.316805 0.467313 0.111699
0.336993 0.467313 0.111699
0.357181 0.467313 0.111699
0.377368 0.467313 0.111699
0.399554 0.467313 0.111699
0.419416 0.467313 0.111699
0.475397 0.469332 0.113589
0.505326 0.476808 0.120585
0.535254 0.484283 0.127581
0.565182 0.491758 0.134577
0.595110 0.499234 0.141574
0.625038 0.506709 0.148570
0.654967 0.514185 0.155566
0.684895 0.521660 0.162563
0.714823 0.529136 0.169559
0.744751 0.536611 0.176555
0.774680 0.544087 0.183552
0.801656 0.550825 0.189858
0.801656 0.550825 0.189858
0.801656 0.550825 0.189858
0.801656 0.550825 0.189858
0.801656 0.550825 0.189858
0.801656 0.550825 0.189858
0.118180 0.495037 0.118180
0.141249 0.495037 0.118180
0.161785 0.495037 0.118180
0.181973 0.495037 0.118180
0.202160 0.495037 0.118180
0.222348 0.495037 0.118180
0.242536 0.495037 0.118180
0.262723 0.495037 0.118180
0.282911 0.495037 0.118180
0.303099 0.495037 0.118180
0.323286 0.495037 0.118180
0.343474 0.495037 0.118180
0.363662 0.495037 0.118180
0.383849 0.495037 0.118180
0.406035 0.495037 0.118180
0.425897 0.495037 0.118180
0.480303 0.495037 0.118180
0.505326 0.497607 0.120585
0.535254 0.505082 0.127581
0.565182 0.512557 0.134577
0.595110 0.520033 0.141574
0.625038 0.527508 0.148570
0.654967 0.534984 0.155566
0.684895 0.542459 0.162563
0.714823 0.549935 0.169559
0.744751 0.557410 0.176555
0.774680 0.564886 0.183552
0.801656 0.571624 0.189858
0.801656 0.571624 0.189858
0.801656 0.571624 0.189858
0.801656 0.571624 0.189858
0.801656 0.571624 0.189858
0.801656 0.571624 0.189858
0.124661 0.522760 0.124661
0.147730 0.522760 0.124661
0.168266 0.522760 0.124661
0.188454 0.522760 0.124661
0.208641 0.522760 0.124661
0.228829 0.522760 0.124661
0.249017 0.522760 0.124661
0.269204 0.522760 0.124661
0.289392 0.522760 0.124661
0.309580 0.522760 0.124661
0.329767 0.522760 0.124661
0.349955 0.522760 0.124661
0.370143 0.522760 0.124661
0.390330 0.522760 0.124661
0.412516 0.522760 0.124661
0.432378 0.522760 0.124661
0.487228 0.522760 0.124661
0.509681 0.522760 0.124661
0.535254 0.525881 0.127581
0.565182 0.533357 0.134577
0.595110 0.540832 0.141574
0.625038 0.548307 0.148570
0.654967 0.555783 0.155566
0.684895 0.563258 0.162563
0.714823 0.570734 0.169559
0.744751 0.578209 0.176555
0.774680 0.585685 0.183552
0.801656 0.592423 0.189858
0.801656 0.592423 0.189858
0.801656 0.592423 0.189858
0.801656 0.592423 0.189858
0.801656 0.592423 0.189858
0.801656 0.592423 0.189858
0.131142 0.550484 0.131142
0.154211 0.550484 0.131142
0.174747 0.550484 0.131142
0.194935 0.550484 0.131142
0.215122 0.550484 0.131142
0.235310 0.550484 0.131142
0.255498 0.550484 0.131142
0.275685 0.550484 0.131142
0.295873 0.550484 0.131142
0.316061 0.550484 0.131142
0.336248 0.550484 0.131142
0.356436 0.550484 0.131142
0.376624 0.550484 0.131142
0.396811 0.550484 0.131142
0.418997 0.550484 0.131142
0.471700 0.550484 0.131142
0.494153 0.550484 0.131142
0.516605 0.550484 0.131142
0.539058 0.550484 0.131142
0.565182 0.554156 0.134577
0.595110 0.561631 0.141574
0.625038 0.569106 0.148570
0.654967 0.576582 0.155566
0.684895 0.584057 0.162563
0.714823 0.591533 0.169559
0.744751 0.599008 0.176555
0.774680 0.606484 0.183552
0.801656 0.613222 0.189858
0.801656 0.613222 0.189858
0.801656 0.613222 0.189858
0.801656 0.613222 0.189858
0.801656 0.613222 0.189858
0.801656 0.613222 0.189858
0.137623 0.578208 0.137623
0.160692 0.578208 0.137623
0.181228 0.578208 0.137623
0.201416 0.578208 0.137623
0.221603 0.578208 0.137623
0.241791 0.578208 0.137623
0.261979 0.578208 0.137623
0.282166 0.578208 0.137623
0.302354 0.578208 0.137623
0.322542 0.578208 0.137623
0.342729 0.578208 0.137623
0.362917 0.578208 0.137623
0.383105 0.578208 0.137623
0.403292 0.578208 0.137623
0.425478 0.578208 0.137623
0.478625 0.578208 0.137623
0.501077 0.578208 0.137623
0.523530 0.578208 0.137623
0.545983 0.578208 0.137623
0.568436 0.578208 0.137623
0.595110 0.582430 0.141574
0.625038 0.589905 0.148570
0.654967 0.597381 0.155566
0.684895 0.604856 0.162563
0.714823 0.612332 0.169559
0.744751 0.619807 0.176555
0.774680 0.627283 0.183552
0.801656 0.634021 0.189858
0.801656 0.634021 0.189858
0.801656 0.634021 0.189858
0.801656 0.634021 0.189858
0.801656 0.634021 0.189858
0.801656 0.634021 0.189858
0.144104 0.605932 0.144104
0.167173 0.605932 0.144104
0.187709 0.605932 0.144104
0.207897 0.605932 0.144104
0.228084 0.605932 0.144104
0.248272 0.605932 0.144104
0.268460 0.605932 0.144104
0.288647 0.605932 0.144104
0.308835 0.605932 0.144104
0.329023 0.605932 0.144104
0.349210 0.605932 0.144104
0.369398 0.605932 0.144104
0.389586 0.605932 0.144104
0.409773 0.605932 0.144104
0.431959 0.605932 0.144104
0.485549 0.605932 0.144104
0.508002 0.605932 0.144104
0.530455 0.605932 0.144104
0.552908 0.605932 0.144104
0.575361 0.605932 0.144104
0.597813 0.605932 0.144104
0.625038 0.610704 0.148570
0.654967 0.618180 0.155566
0.684895 0.625655 0.162563
0.714823 0.633131 0.169559
0.744751 0.640606 0.176555
0.774680 0.648082 0.183552
0.801656 0.654820 0.189858
0.801656 0.654820 0.189858
0.801656 0.654820 0.189858
0.801656 0.654820 0.189858
0.801656 0.654820 0.189858
0.801656 0.654820 0.189858
0.150585 0.633656 0.150585
0.173654 0.633656 0.150585
0.194190 0.633656 0.150585
0.214378 0.633656 0.150585
0.234565 0.633656 0.150585
0.254753 0.633656 0.150585
0.274941 0.633656 0.150585
0.295128 0.633656 0.150585
0.315316 0.633656 0.150585
0.335504 0.633656 0.150585
0.355691 0.633656 0.150585
0.375879 0.633656 0.150585
0.396067 0.633656 0.150585
0.416254 0.633656 0.150585
0.438440 0.633656 0.150585
0.492474 0.633656 0.150585
0.514927 0.633656 0.150585
0.537380 0.633656 0.150585
0.559833 0.633656 0.150585
0.582285 0.633656 0.150585
0.604738 0.633656 0.150585
0.627191 0.633656 0.150585
0.654967 0.638979 0.155566
0.684895 0.646454 0.162563
0.714823 0.653930 0.169559
0.744751 0.661405 0.176555
0.774680 0.668881 0.183552
0.801656 0.675619 0.189858
0.801656 0.675619 0.189858
0.801656 0.675619 0.189858
0.801656 0.675619 0.189858
0.801656 0.675619 0.189858
0.801656 0.675619 0.189858
0.157066 0.661380 0.157066
0.180135 0.661380 0.157066
0.200671 0.661380 0.157066
0.220859 0.661380 0.157066
0.241046 0.661380 0.157066
0.261234 0.661380 0.157066
0.281422 0.661380 0.157066
0.301609 0.661380 0.157066
0.321797 0.661380 0.157066
0.341985 0.661380 0.157066
0.362172 0.661380 0.157066
0.382360 0.661380 0.157066
0.402548 0.661380 0.157066
0.422735 0.661380 0.157066
0.444921 0.661380 0.157066
0.499399 0.661380 0.157066
0.521852 0.661380 0.157066
0.544305 0.661380 0.157066
0.566757 0.661380 0.157066
0.589210 0.661380 0.157066
0.611663 0.661380 0.157066
0.634116 0.661380 0.157066
0.656569 0.661380 0.157066
0.684895 0.667253 0.162563
0.714823 0.674729 0.169559
0.744751 0.682204 0.176555
0.774680 0.689680 0.183552
0.801656 0.696418 0.189858
0.801656 0.696418 0.189858
0.801656 0.696418 0.189858
0.801656 0.696418 0.189858
0.801656 0.696418 0.189858
0.801656 0.696418 0.189858
0.163547 0.689104 0.163547
0.186616 0.689104 0.163547
0.207152 0.689104 0.163547
0.227340 0.689104 0.163547
0.247527 0.689104 0.163547
0.267715 0.689104 0.163547
0.287903 0.689104 0.163547
0.308090 0.689104 0.163547
0.328278 0.689104 0.163547
0.348466 0.689104 0.163547
0.368653 0.689104 0.163547
0.388841 0.689104 0.163547
0.409029 0.689104 0.163547
0.429216 0.689104 0.163547
0.451402 0.689104 0.163547
0.506324 0.689104 0.163547
0.528777 0.689104 0.163547
0.551230 0.689104 0.163547
0.573682 0.689104 0.163547
0.596135 0.689104 0.163547
0.618588 0.689104 0.163547
0.641041 0.689104 0.163547
0.663493 0.689104 0.163547
0.685946 0.689104 0.163547
0.714823 0.695528 0.169559
0.744751 0.703003 0.176555
0.774680 0.710479 0.183552
0.801656 0.717217 0.189858
0.801656 0.717217 0.189858
0.801656 0.717217 0.189858
0.801656 0.717217 0.189858
0.801656 0.717217 0.189858
0.801656 0.717217 0.189858
0.170028 0.716827 0.170028
0.193097 0.716827 0.170028
0.213633 0.716827 0.170028
0.233821 0.716827 0.170028
0.254008 0.716827 0.170028
0.274196 0.716827 0.170028
0.294384 0.716827 0.170028
0.314571 0.716827 0.170028
0.334759 0.716827 0.170028
0.354947 0.716827 0.170028
0.375134 0.716827 0.170028
0.395322 0.716827 0.170028
0.415510 0.716827 0.170028
0.435697 0.716827 0.170028
0.490796 0.716827 0.170028
0.513249 0.716827 0.170028
0.535702 0.716827 0.170028
0.558154 0.716827 0.170028
0.580607 0.716827 0.170028
0.603060 0.716827 0.170028
0.625513 0.716827 0.170028
0.647965 0.716827 0.170028
0.670418 0.716827 0.170028
0.692871 0.716827 0.170028
