docs/luts/fuji_recipes/ClassicNEGA_PLR_Classic_Nrg.cube
TITLE "Fujifilm Recipe: PLR Classic Nrg (ClassicNEGA)"
# FilmSim=ClassicNEGA HL=-2 SH=-2 Col=0 WB=Auto WBR=0 WBB=0
LUT_3D_SIZE 5
DOMAIN_MIN 0.0 0.0 0.0
DOMAIN_MAX 1.0 1.0 1.0
0.094720 0.094720 0.094720
0.281243 0.135664 0.135664
0.461526 0.175238 0.175238
0.599566 0.215314 0.215314
0.771146 0.254690 0.254690
0.135458 0.280302 0.135458
0.281243 0.280509 0.135664
0.461526 0.320083 0.175238
0.599566 0.360159 0.215314
0.771146 0.399534 0.254690
0.176148 0.465668 0.176148
0.321726 0.465668 0.176148
0.462435 0.465668 0.176148
0.599566 0.504834 0.215314
0.771146 0.504027 0.254690
0.214780 0.597240 0.214780
0.360359 0.597240 0.214780
0.501068 0.597240 0.214780
0.599566 0.597751 0.215314
0.771146 0.635414 0.254690
0.254690 0.771146 0.254690
0.400269 0.771146 0.254690
0.500935 0.771146 0.254690
0.637230 0.771146 0.254690
0.771146 0.771146 0.254690
0.135041 0.135041 0.278405
0.281243 0.135664 0.279028
0.461526 0.175238 0.318602
0.599566 0.215314 0.358677
0.771146 0.254690 0.398053
0.135458 0.280302 0.278821
0.321564 0.320830 0.319349
0.501847 0.360404 0.358923
0.638134 0.400480 0.398998
0.809714 0.439855 0.438374
0.176148 0.465668 0.319511
0.362047 0.505989 0.359832
0.502756 0.505989 0.359832
0.638134 0.504931 0.398998
0.809714 0.542595 0.438374
0.214780 0.597240 0.358144
0.400680 0.635808 0.398465
0.501329 0.635808 0.398465
0.638134 0.636319 0.398998
0.809714 0.673982 0.438374
0.254690 0.771146 0.398053
0.440590 0.809714 0.438374
0.539503 0.809714 0.438374
0.675798 0.809714 0.438374
0.809714 0.809714 0.438374
0.175417 0.175417 0.462338
0.320996 0.175417 0.462338
0.461705 0.175417 0.462338
0.599566 0.215314 0.502236
0.771146 0.254690 0.501541
0.175417 0.320262 0.462338
0.361733 0.360999 0.503076
0.502442 0.360999 0.503076
0.638533 0.400896 0.502844
0.810112 0.440272 0.540508
0.176148 0.465668 0.463069
0.362671 0.506612 0.504013
0.502826 0.505917 0.503432
0.676755 0.543551 0.541066
0.848334 0.581215 0.578729
0.214780 0.597240 0.501702
0.401303 0.636404 0.502531
0.539778 0.674258 0.540384
0.676755 0.674939 0.541066
0.848334 0.712603 0.578729
0.254690 0.771146 0.501541
0.441213 0.810310 0.540705
0.577953 0.848163 0.578559
0.714418 0.848334 0.578729
0.848334 0.848334 0.578729
0.213703 0.213703 0.592546
0.359282 0.213703 0.592546
0.499991 0.213703 0.592546
0.599566 0.215314 0.594087
0.771146 0.254690 0.631751
0.213703 0.358548 0.592546
0.400019 0.399285 0.631512
0.500697 0.399285 0.631512
0.638533 0.400896 0.633053
0.810112 0.440272 0.670717
0.213703 0.503223 0.592546
0.400226 0.503986 0.631710
0.538748 0.541840 0.669564
0.677454 0.544250 0.671974
0.849033 0.581914 0.709638
0.214780 0.597240 0.593576
0.401303 0.636404 0.632740
0.539778 0.674258 0.670594
0.713376 0.711560 0.707897
0.884955 0.749224 0.745560
0.254690 0.771146 0.631751
0.441213 0.810310 0.670915
0.577953 0.848163 0.708768
0.751040 0.884955 0.745560
0.884955 0.884955 0.745560
0.253278 0.253278 0.764994
0.398857 0.253278 0.764994
0.539566 0.253278 0.764994
0.635880 0.253278 0.764994
0.771146 0.254690 0.766344
0.253278 0.398123 0.764994
0.439594 0.438860 0.803960
0.538551 0.438860 0.803960
0.674846 0.438860 0.803960
0.810112 0.440272 0.805311
0.253278 0.502676 0.764994
0.439801 0.541840 0.804158
0.576602 0.579694 0.842012
0.713767 0.580563 0.842881
0.849033 0.581914 0.844231
0.253278 0.634064 0.764994
0.439801 0.673228 0.804158
0.576602 0.711082 0.842012
0.750720 0.748904 0.879834
0.885986 0.750254 0.881184
0.254690 0.771146 0.766344
0.441213 0.810310 0.805508
0.577953 0.848163 0.843362
0.752581 0.886496 0.881695
0.922810 0.922810 0.918008
