docs/luts/fuji_recipes/Classic_HF_Muted_Color.cube
TITLE "Fujifilm Recipe: HF Muted Color (Classic)"
# FilmSim=Classic HL=2 SH=0 Col=-2 WB=Auto WBR=0 WBB=0
LUT_3D_SIZE 9
DOMAIN_MIN 0.0 0.0 0.0
DOMAIN_MAX 1.0 1.0 1.0
0.000000 0.000000 0.000000
0.090966 0.033034 0.033034
0.181933 0.066067 0.066067
0.272899 0.099101 0.099101
0.363866 0.132134 0.132134
0.458794 0.166248 0.166248
0.555216 0.200269 0.200269
0.651638 0.234289 0.234289
0.748060 0.268310 0.268310
0.032835 0.090419 0.032835
0.090966 0.090618 0.033034
0.181933 0.123651 0.066067
0.272899 0.156685 0.099101
0.363866 0.189719 0.132134
0.458794 0.223833 0.166248
0.555216 0.257853 0.200269
0.651638 0.291873 0.234289
0.748060 0.325894 0.268310
0.065730 0.181005 0.065730
0.123663 0.181005 0.065730
0.181933 0.181342 0.066067
0.272899 0.214376 0.099101
0.363866 0.247409 0.132134
0.458794 0.281523 0.166248
0.555216 0.315544 0.200269
0.651638 0.349564 0.234289
0.748060 0.383585 0.268310
0.098626 0.271592 0.098626
0.156559 0.271592 0.098626
0.214492 0.271592 0.098626
0.272899 0.272066 0.099101
0.363866 0.305100 0.132134
0.458794 0.339214 0.166248
0.555216 0.373234 0.200269
0.651638 0.407255 0.234289
0.748060 0.441275 0.268310
0.131521 0.362178 0.131521
0.189454 0.362178 0.131521
0.247387 0.362178 0.131521
0.305320 0.362178 0.131521
0.363866 0.362791 0.132134
0.458794 0.396905 0.166248
0.555216 0.430925 0.200269
0.651638 0.464946 0.234289
0.748060 0.498966 0.268310
0.165475 0.456602 0.165475
0.223408 0.456602 0.165475
0.281341 0.456602 0.165475
0.339273 0.456602 0.165475
0.397206 0.456602 0.165475
0.458794 0.457395 0.166248
0.555216 0.492258 0.200269
0.651638 0.527122 0.234289
0.748060 0.561986 0.268310
0.199353 0.552621 0.199353
0.257286 0.552621 0.199353
0.315219 0.552621 0.199353
0.373152 0.552621 0.199353
0.431085 0.552621 0.199353
0.492719 0.552621 0.199353
0.555216 0.553559 0.200269
0.651638 0.588423 0.234289
0.748060 0.623287 0.268310
0.233232 0.648640 0.233232
0.291164 0.648640 0.233232
0.349097 0.648640 0.233232
0.407030 0.648640 0.233232
0.464963 0.648640 0.233232
0.527437 0.648640 0.233232
0.588996 0.648640 0.233232
0.651638 0.649724 0.234289
0.748060 0.684588 0.268310
0.267110 0.744659 0.267110
0.325043 0.744659 0.267110
0.382975 0.744659 0.267110
0.440908 0.744659 0.267110
0.498841 0.744659 0.267110
0.562155 0.744659 0.267110
0.623714 0.744659 0.267110
0.685272 0.744659 0.267110
0.748060 0.745889 0.268310
0.032434 0.032434 0.089314
0.090966 0.033034 0.089914
0.181933 0.066067 0.122948
0.272899 0.099101 0.155982
0.363866 0.132134 0.189015
0.458794 0.166248 0.223129
0.555216 0.200269 0.257150
0.651638 0.234289 0.291170
0.748060 0.268310 0.325190
0.032835 0.090419 0.089716
0.123400 0.123051 0.122348
0.214367 0.156085 0.155382
0.305333 0.189119 0.188415
0.396299 0.222152 0.221449
0.492306 0.256503 0.255800
0.588728 0.290523 0.289820
0.685150 0.324544 0.323840
0.781572 0.358564 0.357861
0.065730 0.181005 0.122611
0.156097 0.213439 0.155045
0.214367 0.213776 0.155382
0.305333 0.246809 0.188415
0.396299 0.279843 0.221449
0.492306 0.314194 0.255800
0.588728 0.348214 0.289820
0.685150 0.382235 0.323840
0.781572 0.416255 0.357861
0.098626 0.271592 0.155507
0.188992 0.304025 0.187940
0.246925 0.304025 0.187940
0.305333 0.304500 0.188415
0.396299 0.337534 0.221449
0.492306 0.371884 0.255800
0.588728 0.405905 0.289820
0.685150 0.439925 0.323840
0.781572 0.473946 0.357861
0.131521 0.362178 0.188402
0.221888 0.394611 0.220836
0.279821 0.394611 0.220836
0.337754 0.394611 0.220836
0.396299 0.395224 0.221449
0.492306 0.429575 0.255800
0.588728 0.463596 0.289820
0.685150 0.497616 0.323840
0.781572 0.532159 0.357861
0.165475 0.456602 0.222356
0.256078 0.490114 0.255026
0.314011 0.490114 0.255026
0.371944 0.490114 0.255026
0.429877 0.490114 0.255026
0.492306 0.490906 0.255800
0.588728 0.525770 0.289820
0.685150 0.560634 0.323840
0.781572 0.595498 0.357861
0.199353 0.552621 0.256234
0.289956 0.586133 0.288904
0.347889 0.586133 0.288904
0.405822 0.586133 0.288904
0.463755 0.586133 0.288904
0.526231 0.586133 0.288904
0.588728 0.587071 0.289820
0.685150 0.621935 0.323840
0.781572 0.656799 0.357861
0.233232 0.648640 0.290112
0.323835 0.682152 0.322783
0.381768 0.682152 0.322783
0.439700 0.682152 0.322783
0.497633 0.682152 0.322783
0.560949 0.682152 0.322783
0.622508 0.682152 0.322783
0.685150 0.683236 0.323840
0.781572 0.718100 0.357861
0.267110 0.744659 0.323991
0.357713 0.778171 0.356661
0.415646 0.778171 0.356661
0.473579 0.778171 0.356661
0.532091 0.778171 0.356661
0.595667 0.778171 0.356661
0.657226 0.778171 0.356661
0.718784 0.778171 0.356661
0.781572 0.779401 0.357861
0.065051 0.065051 0.179134
0.122984 0.065051 0.179134
0.181933 0.066067 0.180150
0.272899 0.099101 0.213184
0.363866 0.132134 0.246217
0.458794 0.166248 0.280331
0.555216 0.200269 0.314352
0.651638 0.234289 0.348372
0.748060 0.268310 0.382393
0.065051 0.122635 0.179134
0.155818 0.155470 0.211968
0.214768 0.156486 0.212985
0.305734 0.189520 0.246019
0.396700 0.222553 0.279052
0.492720 0.256907 0.313406
0.589142 0.290927 0.347426
0.685564 0.324948 0.381447
0.781986 0.358968 0.415467
0.065730 0.181005 0.179813
0.156697 0.214039 0.212847
0.246984 0.246393 0.245201
0.337950 0.279426 0.278234
0.428916 0.312460 0.311268
0.526007 0.347049 0.345857
0.622429 0.381069 0.379877
0.718851 0.415090 0.413898
0.815273 0.449110 0.447918
0.098626 0.271592 0.212709
0.189592 0.304625 0.245742
0.279542 0.336642 0.277760
0.337950 0.337117 0.278234
0.428916 0.370151 0.311268
0.526007 0.404739 0.345857
0.622429 0.438760 0.379877
0.718851 0.472780 0.413898
0.815273 0.506801 0.447918
0.131521 0.362178 0.245604
0.222488 0.395211 0.278638
0.312438 0.427229 0.310655
0.370371 0.427229 0.310655
0.428916 0.427841 0.311268
0.526007 0.462430 0.345857
0.622429 0.496451 0.379877
0.718851 0.530997 0.413898
0.815273 0.565861 0.447918
0.165475 0.456602 0.279558
0.256682 0.490734 0.312833
0.346866 0.523815 0.345083
0.404799 0.523815 0.345083
0.462732 0.523815 0.345083
0.526007 0.524608 0.345857
0.622429 0.559471 0.379877
0.718851 0.594335 0.413898
0.815273 0.629199 0.447918
0.199353 0.552621 0.313436
0.290561 0.586753 0.346711
0.380744 0.619834 0.378962
0.438677 0.619834 0.378962
0.496610 0.619834 0.378962
0.559933 0.619834 0.378962
0.622429 0.620772 0.379877
0.718851 0.655636 0.413898
0.815273 0.690500 0.447918
0.233232 0.648640 0.347315
0.324439 0.682772 0.380589
0.414623 0.715853 0.412840
0.472555 0.715853 0.412840
0.531074 0.715853 0.412840
0.594651 0.715853 0.412840
0.656209 0.715853 0.412840
0.718851 0.716937 0.413898
0.815273 0.751801 0.447918
0.267110 0.744659 0.381193
0.358317 0.778791 0.414467
0.448501 0.811872 0.446718
0.506434 0.811872 0.446718
0.565792 0.811872 0.446718
0.629369 0.811872 0.446718
0.690927 0.811872 0.446718
0.752485 0.811872 0.446718
0.815273 0.813102 0.447918
0.097668 0.097668 0.268953
0.155601 0.097668 0.268953
0.213533 0.097668 0.268953
0.272899 0.099101 0.270386
0.363866 0.132134 0.303420
0.458794 0.166248 0.337534
0.555216 0.200269 0.371554
0.651638 0.234289 0.405574
0.748060 0.268310 0.439595
0.097668 0.155252 0.268953
0.188435 0.188087 0.301788
0.246368 0.188087 0.301788
0.305734 0.189520 0.303221
0.396700 0.222553 0.336254
0.492720 0.256907 0.370608
0.589142 0.290927 0.404628
0.685564 0.324948 0.438649
0.781986 0.358968 0.472669
0.097668 0.212943 0.268953
0.188634 0.245976 0.301986
0.279264 0.278673 0.334683
0.338630 0.280106 0.336116
0.429596 0.313140 0.369150
0.526709 0.347733 0.403744
0.623131 0.381754 0.437764
0.719553 0.415774 0.471784
0.815975 0.449795 0.505805
0.098626 0.271592 0.269911
0.189592 0.304625 0.302945
0.280559 0.337659 0.335978
0.370567 0.369734 0.368054
0.461533 0.402768 0.401087
0.559708 0.437594 0.435914
0.656130 0.471615 0.469934
0.752552 0.505635 0.503955
0.848974 0.539656 0.537975
0.131521 0.362178 0.302807
0.222488 0.395211 0.335840
0.313454 0.428245 0.368874
0.402988 0.459846 0.400474
0.461533 0.460458 0.401087
0.559708 0.495285 0.435914
0.656130 0.529835 0.469934
0.752552 0.564698 0.503955
0.848974 0.599562 0.537975
0.165475 0.456602 0.336760
0.256682 0.490734 0.370035
0.347890 0.524865 0.403309
0.437654 0.557517 0.435141
0.495587 0.557517 0.435141
0.559708 0.558309 0.435914
0.656130 0.593173 0.469934
0.752552 0.628036 0.503955
0.848974 0.662900 0.537975
0.199353 0.552621 0.370638
0.290561 0.586753 0.403913
0.381768 0.620885 0.437188
0.471532 0.653536 0.469019
0.530057 0.653536 0.469019
0.593634 0.653536 0.469019
0.656130 0.654474 0.469934
0.752552 0.689337 0.503955
0.848974 0.724201 0.537975
0.233232 0.648640 0.404517
0.324439 0.682772 0.437791
0.415646 0.716904 0.471066
0.505410 0.749555 0.502897
0.564775 0.749555 0.502897
0.628352 0.749555 0.502897
0.689910 0.749555 0.502897
0.752552 0.750639 0.503955
0.848974 0.785502 0.537975
0.267110 0.744659 0.438395
0.358317 0.778791 0.471670
0.449525 0.812923 0.504944
0.539289 0.845574 0.536775
0.599493 0.845574 0.536775
0.663070 0.845574 0.536775
0.724628 0.845574 0.536775
0.786186 0.845574 0.536775
0.848974 0.846803 0.537975
0.130285 0.130285 0.358772
0.188218 0.130285 0.358772
0.246150 0.130285 0.358772
0.304083 0.130285 0.358772
0.363866 0.132134 0.360622
0.458794 0.166248 0.394736
0.555216 0.200269 0.428756
0.651638 0.234289 0.462777
0.748060 0.268310 0.496797
0.130285 0.187869 0.358772
0.221052 0.220704 0.391607
0.278985 0.220704 0.391607
0.336918 0.220704 0.391607
0.396700 0.222553 0.393457
0.492720 0.256907 0.427810
0.589142 0.290927 0.461831
0.685564 0.324948 0.495851
0.781986 0.358968 0.530231
0.130285 0.245560 0.358772
0.221251 0.278593 0.391806
0.311881 0.311290 0.424502
0.369814 0.311290 0.424502
0.429596 0.313140 0.426352
0.526709 0.347733 0.460946
0.623131 0.381754 0.494966
0.719553 0.415774 0.529357
0.815975 0.449795 0.564221
0.130285 0.303250 0.358772
0.221251 0.336284 0.391806
0.312218 0.369318 0.424839
0.402709 0.401876 0.457398
0.462492 0.403726 0.459248
0.560699 0.438560 0.494081
0.657121 0.472580 0.528482
0.753542 0.506601 0.563346
0.849964 0.540621 0.598210
0.131521 0.362178 0.360009
0.222488 0.395211 0.393042
0.313454 0.428245 0.426076
0.404421 0.461279 0.459110
0.494150 0.493075 0.490906
0.593511 0.528773 0.526431
0.690170 0.563874 0.561532
0.786829 0.598975 0.596632
0.883488 0.634076 0.631733
0.165475 0.456602 0.393962
0.256682 0.490734 0.427237
0.347890 0.524865 0.460512
0.439097 0.558997 0.493786
0.529136 0.591313 0.525633
0.593511 0.592111 0.526431
0.690170 0.627212 0.561532
0.786829 0.662313 0.596632
0.883488 0.697414 0.631733
0.199353 0.552621 0.427841
0.290561 0.586753 0.461115
0.381768 0.620885 0.494390
0.472976 0.655016 0.528035
0.564090 0.687568 0.560587
0.627667 0.687568 0.560587
0.690170 0.688513 0.561532
0.786829 0.723614 0.596632
0.883488 0.758715 0.631733
0.233232 0.648640 0.461719
0.324439 0.682772 0.494994
0.415646 0.716904 0.528621
0.506854 0.751035 0.562753
0.599044 0.783824 0.595541
0.662621 0.783824 0.595541
0.724179 0.783824 0.595541
0.786829 0.784915 0.596632
0.883488 0.820016 0.631733
0.267110 0.744659 0.495597
0.358317 0.778791 0.529207
0.449525 0.812923 0.563339
0.540732 0.847054 0.597471
0.633999 0.880079 0.630495
0.697575 0.880079 0.630495
0.759134 0.880079 0.630495
0.820692 0.880079 0.630495
0.883488 0.881317 0.631733
0.163914 0.163914 0.452179
0.221847 0.163914 0.452179
0.279780 0.163914 0.452179
0.337713 0.163914 0.452179
0.395646 0.163914 0.452179
0.458794 0.166248 0.454571
0.555216 0.200269 0.489434
0.651638 0.234289 0.524298
0.748060 0.268310 0.559162
0.163914 0.221499 0.452179
0.254922 0.254573 0.486105
0.312854 0.254573 0.486105
0.370787 0.254573 0.486105
0.428720 0.254573 0.486105
0.492720 0.256907 0.488497
0.589142 0.290927 0.523361
0.685564 0.324948 0.558225
0.781986 0.358968 0.593088
0.163914 0.279189 0.452179
0.255122 0.312464 0.486311
0.345990 0.345399 0.520094
0.403923 0.345399 0.520094
0.461856 0.345399 0.520094
0.526709 0.347733 0.522486
0.623131 0.381754 0.557350
0.719553 0.415774 0.592214
0.815975 0.449795 0.627077
0.163914 0.336880 0.452179
0.255122 0.370155 0.486311
0.346329 0.403429 0.520442
0.437059 0.436226 0.554084
0.494991 0.436226 0.554084
0.560699 0.438560 0.556475
0.657121 0.472580 0.591339
0.753542 0.506601 0.626203
0.849964 0.540621 0.661066
0.163914 0.394571 0.452179
0.255122 0.427845 0.486311
0.346329 0.461120 0.520442
0.437537 0.494395 0.554574
0.528862 0.527701 0.588215
0.594846 0.530109 0.590623
0.691505 0.565210 0.625724
0.788165 0.600311 0.660825
0.884824 0.635411 0.695926
0.165475 0.456602 0.453778
0.256682 0.490734 0.487910
0.347890 0.524865 0.522042
0.439097 0.558997 0.556173
0.531134 0.593311 0.590487
0.629352 0.627953 0.625129
0.726011 0.663053 0.660230
0.822670 0.698154 0.695330
0.919329 0.733255 0.730431
0.199353 0.552621 0.488496
0.290561 0.586753 0.522628
0.381768 0.620885 0.556760
0.472976 0.655016 0.590891
0.566088 0.689566 0.625441
0.663508 0.723410 0.659285
0.726011 0.724354 0.660230
0.822670 0.759455 0.695330
0.919329 0.794556 0.730431
0.233232 0.648640 0.523214
0.324439 0.682772 0.557346
0.415646 0.716904 0.591478
0.506854 0.751035 0.625609
0.601042 0.785821 0.660396
0.698462 0.819665 0.694239
0.760021 0.819665 0.694239
0.822670 0.820756 0.695330
0.919329 0.855857 0.730431
0.267110 0.744659 0.557932
0.358317 0.778791 0.592064
0.449525 0.812923 0.626196
0.540732 0.847054 0.660327
0.635996 0.882077 0.695350
0.733417 0.915920 0.729193
0.794975 0.915920 0.729193
0.856533 0.915920 0.729193
0.919329 0.917158 0.730431
0.197506 0.197506 0.547385
0.255439 0.197506 0.547385
0.313371 0.197506 0.547385
0.371304 0.197506 0.547385
0.429237 0.197506 0.547385
0.490826 0.197506 0.547385
0.555216 0.200269 0.550216
0.651638 0.234289 0.585080
0.748060 0.268310 0.619944
0.197506 0.255090 0.547385
0.288513 0.288164 0.581311
0.346446 0.288164 0.581311
0.404379 0.288164 0.581311
0.462311 0.288164 0.581311
0.524753 0.288164 0.581311
0.589142 0.290927 0.584143
0.685564 0.324948 0.619006
0.781986 0.358968 0.653870
0.197506 0.312781 0.547385
0.288713 0.346055 0.581517
0.379581 0.378991 0.615300
0.437514 0.378991 0.615300
0.495447 0.378991 0.615300
0.558742 0.378991 0.615300
0.623131 0.381754 0.618132
0.719553 0.415774 0.652996
0.815975 0.449795 0.687859
0.197506 0.370471 0.547385
0.288713 0.403746 0.581517
0.379921 0.437021 0.615648
0.470650 0.469817 0.649290
0.529154 0.469817 0.649290
0.592731 0.469817 0.649290
0.657121 0.472580 0.652121
0.753542 0.506601 0.686985
0.849964 0.540621 0.721848
0.197506 0.428162 0.547385
0.288713 0.461437 0.581517
0.379921 0.494711 0.615648
0.471128 0.528484 0.649780
0.563520 0.562359 0.683655
0.627096 0.562359 0.683655
0.691505 0.565210 0.686506
0.788165 0.600311 0.721607
0.884824 0.635411 0.756708
0.197506 0.489427 0.547385
0.288713 0.523559 0.581517
0.379921 0.557690 0.615648
0.471128 0.591822 0.649780
0.564182 0.626359 0.684317
0.663212 0.661813 0.719771
0.727621 0.664663 0.722622
0.824280 0.699764 0.757723
0.920939 0.734865 0.792823
0.199353 0.552621 0.549278
0.290561 0.586753 0.583410
0.381768 0.620885 0.617542
0.472976 0.655016 0.651673
0.566088 0.689566 0.686223
0.665916 0.725818 0.722475
0.760669 0.759013 0.755670
0.857328 0.794113 0.790771
0.953988 0.829214 0.825871
0.233232 0.648640 0.583996
0.324439 0.682772 0.618128
0.415646 0.716904 0.652260
0.506854 0.751035 0.686391
0.601042 0.785821 0.721177
0.700870 0.822073 0.757429
0.794679 0.854323 0.789679
0.857328 0.855414 0.790771
0.953988 0.890515 0.825871
0.267110 0.744659 0.618714
0.358317 0.778791 0.652846
0.449525 0.812923 0.686978
0.540732 0.847054 0.721109
0.635996 0.882077 0.756132
0.735825 0.918328 0.792383
0.829633 0.950578 0.824633
0.891191 0.950578 0.824633
0.953988 0.951816 0.825871
0.231097 0.231097 0.642591
0.289030 0.231097 0.642591
0.346963 0.231097 0.642591
0.404896 0.231097 0.642591
0.462828 0.231097 0.642591
0.525250 0.231097 0.642591
0.586808 0.231097 0.642591
0.651638 0.234289 0.645862
0.748060 0.268310 0.680726
0.231097 0.288681 0.642591
0.322104 0.321756 0.676517
0.380037 0.321756 0.676517
0.437970 0.321756 0.676517
0.495903 0.321756 0.676517
0.559177 0.321756 0.676517
0.620735 0.321756 0.676517
0.685564 0.324948 0.679788
0.781986 0.358968 0.714652
0.231097 0.346372 0.642591
0.322305 0.379647 0.676723
0.413173 0.412582 0.710506
0.471106 0.412582 0.710506
0.529589 0.412582 0.710506
0.593166 0.412582 0.710506
0.654724 0.412582 0.710506
0.719553 0.415774 0.713778
0.815975 0.449795 0.748641
0.231097 0.404063 0.642591
0.322305 0.437338 0.676723
0.413512 0.470612 0.710854
0.504241 0.503408 0.744496
0.563578 0.503408 0.744496
0.627155 0.503408 0.744496
0.688713 0.503408 0.744496
0.753542 0.506601 0.747767
0.849964 0.540621 0.782630
0.231097 0.461754 0.642591
0.322305 0.495028 0.676723
0.413512 0.528776 0.710854
0.504720 0.562908 0.744986
0.598178 0.597017 0.779095
0.661755 0.597017 0.779095
0.723313 0.597017 0.779095
0.788165 0.600311 0.782389
0.884824 0.635411 0.817490
0.231097 0.523851 0.642591
0.322305 0.557983 0.676723
0.413512 0.592114 0.710854
0.504720 0.626246 0.744986
0.598840 0.661017 0.779757
0.697870 0.696471 0.815211
0.759429 0.696471 0.815211
0.824280 0.699764 0.818504
0.920939 0.734865 0.853605
0.231097 0.585152 0.642591
0.322305 0.619284 0.676723
0.413512 0.653415 0.710854
0.504720 0.687547 0.744986
0.598840 0.722318 0.779757
0.698668 0.758570 0.816009
0.794383 0.792726 0.850165
0.859235 0.796020 0.853459
0.955894 0.831120 0.888560
0.233232 0.648640 0.644778
0.324439 0.682772 0.678910
0.415646 0.716904 0.713042
0.506854 0.751035 0.747173
0.601042 0.785821 0.781959
0.700870 0.822073 0.818211
0.797530 0.857174 0.853312
0.891987 0.890073 0.886211
0.982427 0.923809 0.919947
0.267110 0.744659 0.679496
0.358317 0.778791 0.713628
0.449525 0.812923 0.747760
0.540732 0.847054 0.781891
0.635996 0.882077 0.816914
0.735825 0.918328 0.853165
0.832484 0.953429 0.888266
0.925208 0.982314 0.919432
0.982427 0.982427 0.919947
0.264689 0.264689 0.737797
0.322621 0.264689 0.737797
0.380554 0.264689 0.737797
0.438487 0.264689 0.737797
0.496420 0.264689 0.737797
0.559674 0.264689 0.737797
0.621233 0.264689 0.737797
0.682791 0.264689 0.737797
0.748060 0.268310 0.741508
0.264689 0.322273 0.737797
0.355696 0.355347 0.771723
0.413629 0.355347 0.771723
0.471561 0.355347 0.771723
0.530024 0.355347 0.771723
0.593601 0.355347 0.771723
0.655159 0.355347 0.771723
0.716717 0.355347 0.771723
0.781986 0.358968 0.775434
0.264689 0.379964 0.737797
0.355896 0.413238 0.771929
0.446764 0.446174 0.805712
0.504697 0.446174 0.805712
0.564013 0.446174 0.805712
0.627590 0.446174 0.805712
0.689148 0.446174 0.805712
0.750706 0.446174 0.805712
0.815975 0.449795 0.809423
0.264689 0.437654 0.737797
0.355896 0.470929 0.771929
0.447104 0.504204 0.806060
0.537833 0.537000 0.839701
0.598002 0.537000 0.839701
0.661579 0.537000 0.839701
0.723137 0.537000 0.839701
0.784695 0.537000 0.839701
0.849964 0.540621 0.843412
0.264689 0.495345 0.737797
0.355896 0.529069 0.771929
0.447104 0.563200 0.806060
0.538311 0.597332 0.840192
0.632836 0.631675 0.874536
0.696413 0.631675 0.874536
0.757971 0.631675 0.874536
0.819529 0.631675 0.874536
0.884824 0.635411 0.878272
0.264689 0.558275 0.737797
0.355896 0.592407 0.771929
0.447104 0.626538 0.806060
0.538311 0.660670 0.840192
0.633498 0.695675 0.875197
0.732529 0.731129 0.910651
0.794087 0.731129 0.910651
0.855645 0.731129 0.910651
0.920939 0.734865 0.914387
0.264689 0.619576 0.737797
0.355896 0.653708 0.771929
0.447104 0.687839 0.806060
0.538311 0.721971 0.840192
0.633498 0.756976 0.875197
0.733327 0.793228 0.911449
0.829041 0.827384 0.945605
0.890599 0.827384 0.945605
0.955894 0.831120 0.949341
0.264689 0.680877 0.737797
0.355896 0.715009 0.771929
0.447104 0.749140 0.806060
0.538311 0.783272 0.840192
0.633498 0.818277 0.875197
0.733327 0.854529 0.911449
0.829986 0.889630 0.946550
0.925553 0.923640 0.980560
0.983714 0.925810 0.982730
0.267110 0.744659 0.740278
0.358317 0.778791 0.774410
0.449525 0.812923 0.808542
0.540732 0.847054 0.842673
0.635996 0.882077 0.877696
0.735825 0.918328 0.913947
0.832484 0.953429 0.949048
0.928201 0.984239 0.983207
1.000000 1.000000 1.000000
