docs/luts/fuji_recipes/Classic_PS_Kodak_Portra_160.cube
TITLE "Fujifilm Recipe: PS Kodak Portra 160 (Classic)"
# FilmSim=Classic HL=-2 SH=0 Col=2 WB=FLight1 WBR=-1 WBB=-1
LUT_3D_SIZE 9
DOMAIN_MIN 0.0 0.0 0.0
DOMAIN_MAX 1.0 1.0 1.0
0.000000 0.000000 0.000000
0.161382 0.000583 0.000583
0.310262 0.001121 0.001121
0.459141 0.001659 0.001659
0.605965 0.002846 0.002846
0.734437 0.006122 0.006122
0.847859 0.009014 0.009014
0.847859 0.009014 0.009014
0.847859 0.009014 0.009014
0.000658 0.182135 0.000658
0.161457 0.182135 0.000658
0.310262 0.182598 0.001121
0.459141 0.183136 0.001659
0.605965 0.184323 0.002846
0.734437 0.187599 0.006122
0.847859 0.190491 0.009014
0.847859 0.190491 0.009014
0.847859 0.190491 0.009014
0.001251 0.346370 0.001251
0.162050 0.346370 0.001251
0.310392 0.346370 0.001251
0.459141 0.346777 0.001659
0.605965 0.347965 0.002846
0.734437 0.351241 0.006122
0.847859 0.354133 0.009014
0.847859 0.354133 0.009014
0.847859 0.354133 0.009014
0.001858 0.514326 0.001858
0.162657 0.514326 0.001858
0.310999 0.514326 0.001858
0.459341 0.514326 0.001858
0.605965 0.515314 0.002846
0.734437 0.518590 0.006122
0.847859 0.521482 0.009014
0.847859 0.521482 0.009014
0.847859 0.521482 0.009014
0.004316 0.663625 0.004316
0.165116 0.663625 0.004316
0.313457 0.663625 0.004316
0.461799 0.663625 0.004316
0.605981 0.663625 0.004316
0.734437 0.663645 0.006122
0.847859 0.663678 0.009014
0.847859 0.663678 0.009014
0.847859 0.663678 0.009014
0.007930 0.805348 0.007930
0.168729 0.805348 0.007930
0.317071 0.805348 0.007930
0.465413 0.805348 0.007930
0.606022 0.805348 0.007930
0.734457 0.805348 0.007930
0.847859 0.805360 0.009014
0.847859 0.805360 0.009014
0.847859 0.805360 0.009014
0.011121 0.930469 0.011121
0.171920 0.930469 0.011121
0.320261 0.930469 0.011121
0.468603 0.930469 0.011121
0.606058 0.930469 0.011121
0.734494 0.930469 0.011121
0.847883 0.930469 0.011121
0.847883 0.930469 0.011121
0.847883 0.930469 0.011121
0.011121 0.930469 0.011121
0.171920 0.930469 0.011121
0.320261 0.930469 0.011121
0.468603 0.930469 0.011121
0.606058 0.930469 0.011121
0.734494 0.930469 0.011121
0.847883 0.930469 0.011121
0.847883 0.930469 0.011121
0.847883 0.930469 0.011121
0.011121 0.930469 0.011121
0.171920 0.930469 0.011121
0.320261 0.930469 0.011121
0.468603 0.930469 0.011121
0.606058 0.930469 0.011121
0.734494 0.930469 0.011121
0.847883 0.930469 0.011121
0.847883 0.930469 0.011121
0.847883 0.930469 0.011121
0.000701 0.000701 0.193920
0.161500 0.000701 0.193920
0.310262 0.001121 0.194340
0.459141 0.001659 0.194878
0.605965 0.002846 0.196065
0.734437 0.006122 0.199341
0.847859 0.009014 0.202233
0.847859 0.009014 0.202233
0.847859 0.009014 0.202233
0.000701 0.182177 0.193920
0.162083 0.182761 0.194503
0.310920 0.183256 0.194998
0.459799 0.183794 0.195536
0.603129 0.185514 0.197256
0.731601 0.188790 0.200532
0.845023 0.191682 0.203424
0.845023 0.191682 0.203424
0.845023 0.191682 0.203424
0.001251 0.346370 0.194471
0.162634 0.346953 0.195054
0.311093 0.347071 0.195171
0.459842 0.347478 0.195579
0.602945 0.349233 0.197333
0.731417 0.352509 0.200609
0.844840 0.355401 0.203502
0.844840 0.355401 0.203502
0.844840 0.355401 0.203502
0.001858 0.514326 0.195077
0.163240 0.514909 0.195660
0.311700 0.515027 0.195778
0.460041 0.515027 0.195778
0.602945 0.516582 0.197333
0.731417 0.518943 0.200609
0.844840 0.518976 0.203502
0.844840 0.518976 0.203502
0.844840 0.518976 0.203502
0.004316 0.663625 0.197536
0.166171 0.661112 0.198591
0.314725 0.660605 0.198804
0.463067 0.660605 0.198804
0.602962 0.660605 0.198804
0.731417 0.660626 0.200609
0.844840 0.660658 0.203502
0.844840 0.660658 0.203502
0.844840 0.660658 0.203502
0.007930 0.805348 0.201149
0.169785 0.802835 0.202205
0.318339 0.802328 0.202418
0.466681 0.802328 0.202418
0.603003 0.802328 0.202418
0.731438 0.802328 0.202418
0.844840 0.802340 0.203502
0.844840 0.802340 0.203502
0.844840 0.802340 0.203502
0.011121 0.930469 0.204340
0.172975 0.927956 0.205395
0.321530 0.927449 0.205608
0.469871 0.927449 0.205608
0.603039 0.927449 0.205608
0.731474 0.927449 0.205608
0.844864 0.927449 0.205608
0.844864 0.927449 0.205608
0.844864 0.927449 0.205608
0.011121 0.930469 0.204340
0.172975 0.927956 0.205395
0.321530 0.927449 0.205608
0.469871 0.927449 0.205608
0.603039 0.927449 0.205608
0.731474 0.927449 0.205608
0.844864 0.927449 0.205608
0.844864 0.927449 0.205608
0.844864 0.927449 0.205608
0.011121 0.930469 0.204340
0.172975 0.927956 0.205395
0.321530 0.927449 0.205608
0.469871 0.927449 0.205608
0.603039 0.927449 0.205608
0.731474 0.927449 0.205608
0.844864 0.927449 0.205608
0.844864 0.927449 0.205608
0.844864 0.927449 0.205608
0.001320 0.001320 0.365407
0.162119 0.001320 0.365407
0.310461 0.001320 0.365407
0.459141 0.001659 0.365745
0.605965 0.002846 0.366933
0.734437 0.006122 0.370209
0.847859 0.009014 0.373101
0.847859 0.009014 0.373101
0.847859 0.009014 0.373101
0.001320 0.182797 0.365407
0.162702 0.183380 0.365990
0.311119 0.183455 0.366065
0.459799 0.183794 0.366404
0.603129 0.185514 0.368124
0.731601 0.188790 0.371400
0.845023 0.191682 0.374292
0.845023 0.191682 0.374292
0.845023 0.191682 0.374292
0.001320 0.346439 0.365407
0.162702 0.347022 0.365990
0.311582 0.347560 0.366528
0.460393 0.348029 0.366997
0.600571 0.350230 0.369198
0.729043 0.353506 0.372474
0.842466 0.356398 0.375366
0.842466 0.356398 0.375366
0.842466 0.356398 0.375366
0.001858 0.514326 0.365945
0.163240 0.514909 0.366528
0.312120 0.515447 0.367066
0.460661 0.515647 0.367265
0.600275 0.516236 0.369322
0.728747 0.516273 0.372598
0.842169 0.516306 0.375490
0.842169 0.516306 0.375490
0.842169 0.516306 0.375490
0.004316 0.663625 0.368403
0.166171 0.661112 0.369458
0.315486 0.658793 0.370432
0.464189 0.657935 0.370793
0.600291 0.657935 0.370793
0.728747 0.657955 0.372598
0.842169 0.657988 0.375490
0.842169 0.657988 0.375490
0.842169 0.657988 0.375490
0.007930 0.805348 0.372017
0.169785 0.802835 0.373072
0.319100 0.800516 0.374046
0.467802 0.799658 0.374406
0.600332 0.799658 0.374406
0.728767 0.799658 0.374406
0.842169 0.799670 0.375490
0.842169 0.799670 0.375490
0.842169 0.799670 0.375490
0.011121 0.930469 0.375207
0.172975 0.927956 0.376263
0.322290 0.925637 0.377236
0.467942 0.924778 0.377597
0.600368 0.924778 0.377597
0.728803 0.924778 0.377597
0.842193 0.924778 0.377597
0.842193 0.924778 0.377597
0.842193 0.924778 0.377597
0.011121 0.930469 0.375207
0.172975 0.927956 0.376263
0.322290 0.925637 0.377236
0.467942 0.924778 0.377597
0.600368 0.924778 0.377597
0.728803 0.924778 0.377597
0.842193 0.924778 0.377597
0.842193 0.924778 0.377597
0.842193 0.924778 0.377597
0.011121 0.930469 0.375207
0.172975 0.927956 0.376263
0.322290 0.925637 0.377236
0.467942 0.924778 0.377597
0.600368 0.924778 0.377597
0.728803 0.924778 0.377597
0.842193 0.924778 0.377597
0.842193 0.924778 0.377597
0.842193 0.924778 0.377597
0.001952 0.001952 0.540191
0.162751 0.001952 0.540191
0.311092 0.001952 0.540191
0.459434 0.001952 0.540191
0.605965 0.002846 0.541086
0.734437 0.006122 0.544361
0.847859 0.009014 0.544675
0.847859 0.009014 0.544675
0.847859 0.009014 0.544675
0.001952 0.183429 0.540191
0.163334 0.184012 0.540774
0.311751 0.184087 0.540849
0.460092 0.184087 0.540849
0.603129 0.185514 0.541769
0.731601 0.188790 0.541806
0.845023 0.191682 0.541839
0.845023 0.191682 0.541839
0.845023 0.191682 0.541839
0.001952 0.347070 0.540191
0.163334 0.347653 0.540774
0.312451 0.348429 0.539756
0.461029 0.348665 0.539194
0.600571 0.350230 0.539211
0.729043 0.353506 0.539248
0.842466 0.356398 0.539281
0.842466 0.356398 0.539281
0.842466 0.356398 0.539281
0.001952 0.514420 0.540191
0.163334 0.515003 0.540774
0.312451 0.515778 0.539756
0.461766 0.514759 0.537438
0.598586 0.514547 0.537226
0.727487 0.515013 0.537692
0.841288 0.515424 0.538103
0.841288 0.515424 0.538103
0.841288 0.515424 0.538103
0.004316 0.663625 0.542556
0.166171 0.661112 0.542109
0.315486 0.658793 0.539790
0.464801 0.656475 0.537472
0.598877 0.656520 0.537517
0.727569 0.656777 0.537774
0.841370 0.657188 0.538185
0.841370 0.657188 0.538185
0.841370 0.657188 0.538185
0.007930 0.805348 0.544662
0.169785 0.802835 0.542149
0.319100 0.800516 0.539831
0.466707 0.798459 0.537773
0.599391 0.798716 0.538031
0.727826 0.798716 0.538031
0.841370 0.798870 0.538185
0.841370 0.798870 0.538185
0.841370 0.798870 0.538185
0.011121 0.930469 0.544699
0.172975 0.927956 0.542186
0.322290 0.925637 0.539867
0.467161 0.923997 0.538227
0.599844 0.924255 0.538485
0.728280 0.924255 0.538485
0.841669 0.924255 0.538485
0.841669 0.924255 0.538485
0.841669 0.924255 0.538485
0.011121 0.930469 0.544699
0.172975 0.927956 0.542186
0.322290 0.925637 0.539867
0.467161 0.923997 0.538227
0.599844 0.924255 0.538485
0.728280 0.924255 0.538485
0.841669 0.924255 0.538485
0.841669 0.924255 0.538485
0.841669 0.924255 0.538485
0.011121 0.930469 0.544699
0.172975 0.927956 0.542186
0.322290 0.925637 0.539867
0.467161 0.923997 0.538227
0.599844 0.924255 0.538485
0.728280 0.924255 0.538485
0.841669 0.924255 0.538485
0.841669 0.924255 0.538485
0.841669 0.924255 0.538485
0.005054 0.005054 0.692568
0.165854 0.005054 0.692568
0.314195 0.005054 0.692568
0.462537 0.005054 0.692568
0.605990 0.005054 0.692568
0.734437 0.006122 0.692580
0.847859 0.009014 0.692613
0.847859 0.009014 0.692613
0.847859 0.009014 0.692613
0.005054 0.186531 0.692568
0.166909 0.187587 0.690055
0.315386 0.187722 0.689732
0.463728 0.187722 0.689732
0.603154 0.187722 0.689732
0.731601 0.188790 0.689744
0.845023 0.191682 0.689777
0.845023 0.191682 0.689777
0.845023 0.191682 0.689777
0.005054 0.350173 0.692568
0.166909 0.351228 0.690055
0.316224 0.352202 0.687737
0.464802 0.352438 0.687174
0.600596 0.352438 0.687174
0.729043 0.353506 0.687187
0.842466 0.356398 0.687219
0.842466 0.356398 0.687219
0.842466 0.356398 0.687219
0.005054 0.517523 0.692568
0.166909 0.518578 0.690055
0.316224 0.517120 0.687737
0.465540 0.514801 0.685418
0.598900 0.514861 0.685478
0.727487 0.515013 0.685630
0.841288 0.515424 0.686041
0.841288 0.515424 0.686041
0.841288 0.515424 0.686041
0.005054 0.663633 0.692568
0.166909 0.661120 0.690055
0.316224 0.658802 0.687737
0.465540 0.656483 0.685418
0.599204 0.656848 0.685783
0.728000 0.657209 0.686144
0.841801 0.657620 0.686555
0.841801 0.657620 0.686555
0.841801 0.657620 0.686555
0.007930 0.805348 0.692601
0.169785 0.802835 0.690088
0.319100 0.800516 0.687769
0.466707 0.798459 0.685711
0.599613 0.798939 0.686192
0.728362 0.799253 0.686506
0.841906 0.799407 0.686660
0.841906 0.799407 0.686660
0.841906 0.799407 0.686660
0.011121 0.930469 0.692637
0.172975 0.927956 0.690124
0.322290 0.925637 0.687805
0.467161 0.923997 0.686165
0.600067 0.924477 0.686645
0.728816 0.924791 0.686959
0.842206 0.924791 0.686959
0.842206 0.924791 0.686959
0.842206 0.924791 0.686959
0.011121 0.930469 0.692637
0.172975 0.927956 0.690124
0.322290 0.925637 0.687805
0.467161 0.923997 0.686165
0.600067 0.924477 0.686645
0.728816 0.924791 0.686959
0.842206 0.924791 0.686959
0.842206 0.924791 0.686959
0.842206 0.924791 0.686959
0.011121 0.930469 0.692637
0.172975 0.927956 0.690124
0.322290 0.925637 0.687805
0.467161 0.923997 0.686165
0.600067 0.924477 0.686645
0.728816 0.924791 0.686959
0.842206 0.924791 0.686959
0.842206 0.924791 0.686959
0.842206 0.924791 0.686959
0.008828 0.008828 0.840549
0.169627 0.008828 0.840549
0.317969 0.008828 0.840549
0.466310 0.008828 0.840549
0.606032 0.008828 0.840549
0.734468 0.008828 0.840549
0.847859 0.009014 0.840551
0.847859 0.009014 0.840551
0.847859 0.009014 0.840551
0.008828 0.190305 0.840549
0.170682 0.191360 0.838036
0.319160 0.191496 0.837713
0.467501 0.191496 0.837713
0.603196 0.191496 0.837713
0.731631 0.191496 0.837713
0.845023 0.191682 0.837715
0.845023 0.191682 0.837715
0.845023 0.191682 0.837715
0.008828 0.353946 0.840549
0.170682 0.355002 0.838036
0.319998 0.355975 0.835718
0.468213 0.356211 0.835155
0.600639 0.356211 0.835155
0.729074 0.356211 0.835155
0.842466 0.356398 0.835157
0.842466 0.356398 0.835157
0.842466 0.356398 0.835157
0.008828 0.521296 0.840549
0.170682 0.519481 0.838036
0.319998 0.517162 0.835718
0.466835 0.515222 0.833777
0.599436 0.515398 0.833953
0.727871 0.515398 0.833953
0.841288 0.515424 0.833979
0.841288 0.515424 0.833979
0.841288 0.515424 0.833979
0.008828 0.663676 0.840549
0.170682 0.661163 0.838036
0.319998 0.658844 0.835718
0.466835 0.656904 0.833777
0.599741 0.657384 0.834257
0.728385 0.657593 0.834466
0.841801 0.657620 0.834493
0.841801 0.657620 0.834493
0.841801 0.657620 0.834493
0.008828 0.805358 0.840549
0.170682 0.802845 0.838036
0.319998 0.800526 0.835718
0.466835 0.798586 0.833777
0.599741 0.799066 0.834257
0.728642 0.799532 0.834723
0.842315 0.799816 0.835007
0.842315 0.799816 0.835007
0.842315 0.799816 0.835007
0.011121 0.930469 0.840575
0.172975 0.927956 0.838062
0.322290 0.925637 0.835743
0.467161 0.923997 0.834103
0.600067 0.924477 0.834583
0.728968 0.924943 0.835049
0.842742 0.925327 0.835434
0.842742 0.925327 0.835434
0.842742 0.925327 0.835434
0.011121 0.930469 0.840575
0.172975 0.927956 0.838062
0.322290 0.925637 0.835743
0.467161 0.923997 0.834103
0.600067 0.924477 0.834583
0.728968 0.924943 0.835049
0.842742 0.925327 0.835434
0.842742 0.925327 0.835434
0.842742 0.925327 0.835434
0.011121 0.930469 0.840575
0.172975 0.927956 0.838062
0.322290 0.925637 0.835743
0.467161 0.923997 0.834103
0.600067 0.924477 0.834583
0.728968 0.924943 0.835049
0.842742 0.925327 0.835434
0.842742 0.925327 0.835434
0.842742 0.925327 0.835434
0.010390 0.010390 0.901826
0.171189 0.010390 0.901826
0.319531 0.010390 0.901826
0.467873 0.010390 0.901826
0.606050 0.010390 0.901826
0.734485 0.010390 0.901826
0.847875 0.010390 0.901826
0.847875 0.010390 0.901826
0.847875 0.010390 0.901826
0.010390 0.191867 0.901826
0.172245 0.192923 0.899313
0.320722 0.193058 0.898990
0.469064 0.193058 0.898990
0.603214 0.193058 0.898990
0.731649 0.193058 0.898990
0.845039 0.193058 0.898990
0.845039 0.193058 0.898990
0.845039 0.193058 0.898990
0.010390 0.355509 0.901826
0.172245 0.356564 0.899313
0.321560 0.357538 0.896995
0.468231 0.357774 0.896432
0.600656 0.357774 0.896432
0.729092 0.357774 0.896432
0.842481 0.357774 0.896432
0.842481 0.357774 0.896432
0.842481 0.357774 0.896432
0.010390 0.522011 0.901826
0.172245 0.519498 0.899313
0.321560 0.517180 0.896995
0.467057 0.515444 0.895259
0.599658 0.515620 0.895434
0.728093 0.515620 0.895434
0.841483 0.515620 0.895434
0.841483 0.515620 0.895434
0.841483 0.515620 0.895434
0.010390 0.663694 0.901826
0.172245 0.661180 0.899313
0.321560 0.658862 0.896995
0.467057 0.657126 0.895259
0.599963 0.657606 0.895739
0.728607 0.657815 0.895948
0.841997 0.657815 0.895948
0.841997 0.657815 0.895948
0.841997 0.657815 0.895948
0.010390 0.805376 0.901826
0.172245 0.802863 0.899313
0.321560 0.800544 0.896995
0.467057 0.798808 0.895259
0.599963 0.799288 0.895739
0.728864 0.799754 0.896205
0.842511 0.800011 0.896462
0.842511 0.800011 0.896462
0.842511 0.800011 0.896462
0.011121 0.930469 0.901834
0.172975 0.927956 0.899321
0.322290 0.925637 0.897003
0.467161 0.923997 0.895363
0.600067 0.924477 0.895843
0.728968 0.924943 0.896309
0.842769 0.925354 0.896720
0.842769 0.925354 0.896720
0.842769 0.925354 0.896720
0.011121 0.930469 0.901834
0.172975 0.927956 0.899321
0.322290 0.925637 0.897003
0.467161 0.923997 0.895363
0.600067 0.924477 0.895843
0.728968 0.924943 0.896309
0.842769 0.925354 0.896720
0.842769 0.925354 0.896720
0.842769 0.925354 0.896720
0.011121 0.930469 0.901834
0.172975 0.927956 0.899321
0.322290 0.925637 0.897003
0.467161 0.923997 0.895363
0.600067 0.924477 0.895843
0.728968 0.924943 0.896309
0.842769 0.925354 0.896720
0.842769 0.925354 0.896720
0.842769 0.925354 0.896720
0.010390 0.010390 0.901826
0.171189 0.010390 0.901826
0.319531 0.010390 0.901826
0.467873 0.010390 0.901826
0.606050 0.010390 0.901826
0.734485 0.010390 0.901826
0.847875 0.010390 0.901826
0.847875 0.010390 0.901826
0.847875 0.010390 0.901826
0.010390 0.191867 0.901826
0.172245 0.192923 0.899313
0.320722 0.193058 0.898990
0.469064 0.193058 0.898990
0.603214 0.193058 0.898990
0.731649 0.193058 0.898990
0.845039 0.193058 0.898990
0.845039 0.193058 0.898990
0.845039 0.193058 0.898990
0.010390 0.355509 0.901826
0.172245 0.356564 0.899313
0.321560 0.357538 0.896995
0.468231 0.357774 0.896432
0.600656 0.357774 0.896432
0.729092 0.357774 0.896432
0.842481 0.357774 0.896432
0.842481 0.357774 0.896432
0.842481 0.357774 0.896432
0.010390 0.522011 0.901826
0.172245 0.519498 0.899313
0.321560 0.517180 0.896995
0.467057 0.515444 0.895259
0.599658 0.515620 0.895434
0.728093 0.515620 0.895434
0.841483 0.515620 0.895434
0.841483 0.515620 0.895434
0.841483 0.515620 0.895434
0.010390 0.663694 0.901826
0.172245 0.661180 0.899313
0.321560 0.658862 0.896995
0.467057 0.657126 0.895259
0.599963 0.657606 0.895739
0.728607 0.657815 0.895948
0.841997 0.657815 0.895948
0.841997 0.657815 0.895948
0.841997 0.657815 0.895948
0.010390 0.805376 0.901826
0.172245 0.802863 0.899313
0.321560 0.800544 0.896995
0.467057 0.798808 0.895259
0.599963 0.799288 0.895739
0.728864 0.799754 0.896205
0.842511 0.800011 0.896462
0.842511 0.800011 0.896462
0.842511 0.800011 0.896462
0.011121 0.930469 0.901834
0.172975 0.927956 0.899321
0.322290 0.925637 0.897003
0.467161 0.923997 0.895363
0.600067 0.924477 0.895843
0.728968 0.924943 0.896309
0.842769 0.925354 0.896720
0.842769 0.925354 0.896720
0.842769 0.925354 0.896720
0.011121 0.930469 0.901834
0.172975 0.927956 0.899321
0.322290 0.925637 0.897003
0.467161 0.923997 0.895363
0.600067 0.924477 0.895843
0.728968 0.924943 0.896309
0.842769 0.925354 0.896720
0.842769 0.925354 0.896720
0.842769 0.925354 0.896720
0.011121 0.930469 0.901834
0.172975 0.927956 0.899321
0.322290 0.925637 0.897003
0.467161 0.923997 0.895363
0.600067 0.924477 0.895843
0.728968 0.924943 0.896309
0.842769 0.925354 0.896720
0.842769 0.925354 0.896720
0.842769 0.925354 0.896720
0.010390 0.010390 0.901826
0.171189 0.010390 0.901826
0.319531 0.010390 0.901826
0.467873 0.010390 0.901826
0.606050 0.010390 0.901826
0.734485 0.010390 0.901826
0.847875 0.010390 0.901826
0.847875 0.010390 0.901826
0.847875 0.010390 0.901826
0.010390 0.191867 0.901826
0.172245 0.192923 0.899313
0.320722 0.193058 0.898990
0.469064 0.193058 0.898990
0.603214 0.193058 0.898990
0.731649 0.193058 0.898990
0.845039 0.193058 0.898990
0.845039 0.193058 0.898990
0.845039 0.193058 0.898990
0.010390 0.355509 0.901826
0.172245 0.356564 0.899313
0.321560 0.357538 0.896995
0.468231 0.357774 0.896432
0.600656 0.357774 0.896432
0.729092 0.357774 0.896432
0.842481 0.357774 0.896432
0.842481 0.357774 0.896432
0.842481 0.357774 0.896432
0.010390 0.522011 0.901826
0.172245 0.519498 0.899313
0.321560 0.517180 0.896995
0.467057 0.515444 0.895259
0.599658 0.515620 0.895434
0.728093 0.515620 0.895434
0.841483 0.515620 0.895434
0.841483 0.515620 0.895434
0.841483 0.515620 0.895434
0.010390 0.663694 0.901826
0.172245 0.661180 0.899313
0.321560 0.658862 0.896995
0.467057 0.657126 0.895259
0.599963 0.657606 0.895739
0.728607 0.657815 0.895948
0.841997 0.657815 0.895948
0.841997 0.657815 0.895948
0.841997 0.657815 0.895948
0.010390 0.805376 0.901826
0.172245 0.802863 0.899313
0.321560 0.800544 0.896995
0.467057 0.798808 0.895259
0.599963 0.799288 0.895739
0.728864 0.799754 0.896205
0.842511 0.800011 0.896462
0.842511 0.800011 0.896462
0.842511 0.800011 0.896462
0.011121 0.930469 0.901834
0.172975 0.927956 0.899321
0.322290 0.925637 0.897003
0.467161 0.923997 0.895363
0.600067 0.924477 0.895843
0.728968 0.924943 0.896309
0.842769 0.925354 0.896720
0.842769 0.925354 0.896720
0.842769 0.925354 0.896720
0.011121 0.930469 0.901834
0.172975 0.927956 0.899321
0.322290 0.925637 0.897003
0.467161 0.923997 0.895363
0.600067 0.924477 0.895843
0.728968 0.924943 0.896309
0.842769 0.925354 0.896720
0.842769 0.925354 0.896720
0.842769 0.925354 0.896720
0.011121 0.930469 0.901834
0.172975 0.927956 0.899321
0.322290 0.925637 0.897003
0.467161 0.923997 0.895363
0.600067 0.924477 0.895843
0.728968 0.924943 0.896309
0.842769 0.925354 0.896720
0.842769 0.925354 0.896720
0.842769 0.925354 0.896720
