docs/luts/fuji_recipes/Classic_RR_Cross_Process.cube
TITLE "Fujifilm Recipe: RR Cross Process (Classic)"
# FilmSim=Classic HL=4 SH=-1 Col=3 WB=7700K WBR=-8 WBB=-3
LUT_3D_SIZE 5
DOMAIN_MIN 0.0 0.0 0.0
DOMAIN_MAX 1.0 1.0 1.0
0.040000 0.040000 0.040000
0.236148 0.028531 0.028531
0.433404 0.016998 0.016998
0.608829 0.010523 0.010523
0.835009 0.000000 0.000000
0.026923 0.263648 0.026923
0.234540 0.263648 0.026923
0.433404 0.253723 0.016998
0.608829 0.247248 0.010523
0.835009 0.231342 0.000000
0.013539 0.492565 0.013539
0.221156 0.492565 0.013539
0.429945 0.492565 0.013539
0.608829 0.489550 0.010523
0.835009 0.468134 0.000000
0.001205 0.717442 0.001205
0.208822 0.717442 0.001205
0.417611 0.717442 0.001205
0.603155 0.717442 0.001205
0.835009 0.704123 0.000000
0.000000 0.968918 0.000000
0.198488 0.968918 0.000000
0.398096 0.968918 0.000000
0.584263 0.968918 0.000000
0.821567 0.968918 0.000000
0.029049 0.029049 0.227294
0.236148 0.028531 0.226777
0.433404 0.016998 0.215243
0.608829 0.010523 0.208768
0.835009 0.000000 0.193737
0.026923 0.263648 0.225169
0.223589 0.252698 0.214218
0.422453 0.242772 0.204292
0.604177 0.234958 0.196478
0.840071 0.214720 0.176240
0.013539 0.492565 0.211784
0.210205 0.481615 0.200833
0.418994 0.481615 0.200833
0.604177 0.477260 0.196478
0.840071 0.457022 0.176240
0.001205 0.717442 0.199450
0.196532 0.712790 0.187160
0.405321 0.712790 0.187160
0.598503 0.712790 0.187160
0.840071 0.706140 0.176240
0.000000 0.968918 0.189528
0.173045 0.986547 0.163674
0.381834 0.986547 0.163674
0.584201 0.986547 0.163674
0.832419 0.986547 0.163674
0.017604 0.017604 0.423036
0.225221 0.017604 0.423036
0.433404 0.016998 0.422430
0.608829 0.010523 0.415955
0.835009 0.000000 0.396212
0.017604 0.254329 0.423036
0.213752 0.242861 0.411567
0.420327 0.240647 0.409353
0.603274 0.232573 0.401279
0.839168 0.212335 0.381041
0.013539 0.492565 0.418971
0.209687 0.481097 0.407502
0.407549 0.470170 0.396575
0.599315 0.464415 0.390821
0.835209 0.444177 0.370582
0.001205 0.717442 0.406637
0.195951 0.712570 0.393766
0.392477 0.707928 0.381502
0.593641 0.707928 0.381502
0.835209 0.701278 0.370582
0.000000 0.968918 0.387605
0.172464 0.986327 0.370279
0.368990 0.981685 0.358016
0.579339 0.981685 0.358016
0.827557 0.981685 0.358016
0.005990 0.005990 0.621678
0.213606 0.005990 0.621678
0.422396 0.005990 0.621678
0.605782 0.007476 0.623164
0.835009 0.000000 0.577823
0.005990 0.242715 0.621678
0.206488 0.235596 0.589748
0.413473 0.233792 0.589064
0.603274 0.232573 0.588322
0.839168 0.212335 0.575998
0.005990 0.485016 0.621678
0.206488 0.477898 0.589748
0.402334 0.464954 0.584848
0.597588 0.459853 0.582636
0.833482 0.439615 0.570312
0.001205 0.717442 0.588203
0.195951 0.712570 0.583331
0.391796 0.707670 0.578431
0.589578 0.703865 0.574626
0.830398 0.696467 0.567228
0.000000 0.968918 0.569968
0.172464 0.986327 0.569029
0.368310 0.981427 0.564129
0.573666 0.976012 0.558714
0.821884 0.976012 0.558714
0.000000 0.000000 0.820362
0.203479 0.000000 0.820362
0.408108 0.000000 0.820362
0.593613 0.000000 0.820362
0.835009 0.000000 0.818534
0.000000 0.232007 0.820362
0.186405 0.215514 0.823831
0.393390 0.213709 0.823148
0.591787 0.213709 0.823148
0.839168 0.212335 0.822311
0.000000 0.469480 0.820362
0.186405 0.457815 0.823831
0.382251 0.444871 0.818931
0.586101 0.440989 0.817462
0.833482 0.439615 0.816625
0.000000 0.705622 0.820362
0.186405 0.706757 0.823831
0.382251 0.701858 0.818931
0.582285 0.696572 0.813646
0.823259 0.689328 0.806401
0.000000 0.968918 0.805450
0.172464 0.986327 0.815342
0.368310 0.981427 0.810442
0.572840 0.975186 0.804200
0.808278 0.962406 0.791420
