docs/luts/fuji_recipes/Classic_EM_Cross_Process.cube
TITLE "Fujifilm Recipe: EM Cross Process (Classic)"
# FilmSim=Classic HL=1 SH=2 Col=-1 WB=Auto WBR=-3 WBB=-8
LUT_3D_SIZE 9
DOMAIN_MIN 0.0 0.0 0.0
DOMAIN_MAX 1.0 1.0 1.0
0.000000 0.000000 0.000000
0.084345 0.021179 0.021179
0.168691 0.042357 0.042357
0.253036 0.063536 0.063536
0.337381 0.084715 0.084715
0.423749 0.106401 0.106401
0.553625 0.131876 0.131876
0.647269 0.153767 0.153767
0.740914 0.175658 0.175658
0.022758 0.090635 0.022758
0.085925 0.090635 0.022758
0.168691 0.110235 0.042357
0.253036 0.131413 0.063536
0.337381 0.152592 0.084715
0.423749 0.174278 0.106401
0.553625 0.199753 0.131876
0.647269 0.221644 0.153767
0.740914 0.243536 0.175658
0.045558 0.181439 0.045558
0.108725 0.181439 0.045558
0.171892 0.181439 0.045558
0.253036 0.199416 0.063536
0.337381 0.220595 0.084715
0.423749 0.242281 0.106401
0.553625 0.267756 0.131876
0.647269 0.289647 0.153767
0.740914 0.311539 0.175658
0.068358 0.272242 0.068358
0.131525 0.272242 0.068358
0.194692 0.272242 0.068358
0.257858 0.272242 0.068358
0.337381 0.288598 0.084715
0.423749 0.310284 0.106401
0.553625 0.335759 0.131876
0.647269 0.357650 0.153767
0.740914 0.379542 0.175658
0.091159 0.363045 0.091159
0.154325 0.363045 0.091159
0.217492 0.363045 0.091159
0.280659 0.363045 0.091159
0.343825 0.363045 0.091159
0.423749 0.378287 0.106401
0.553625 0.403762 0.131876
0.647269 0.425653 0.153767
0.740914 0.447545 0.175658
0.118321 0.495643 0.118321
0.181488 0.495643 0.118321
0.244655 0.495643 0.118321
0.307821 0.495643 0.118321
0.370988 0.495643 0.118321
0.468888 0.495643 0.118321
0.553625 0.510126 0.131876
0.647269 0.533516 0.153767
0.740914 0.556906 0.175658
0.141889 0.596457 0.141889
0.205055 0.596457 0.141889
0.268222 0.596457 0.141889
0.331389 0.596457 0.141889
0.394555 0.596457 0.141889
0.494069 0.596457 0.141889
0.564323 0.596457 0.141889
0.647269 0.609149 0.153767
0.740914 0.632539 0.175658
0.165456 0.697271 0.165456
0.228623 0.697271 0.165456
0.291789 0.697271 0.165456
0.354956 0.697271 0.165456
0.418123 0.697271 0.165456
0.519251 0.697271 0.165456
0.589505 0.697271 0.165456
0.659759 0.697271 0.165456
0.740914 0.708172 0.175658
0.189023 0.798086 0.189023
0.252190 0.798086 0.189023
0.315357 0.798086 0.189023
0.378523 0.798086 0.189023
0.441690 0.798086 0.189023
0.544432 0.798086 0.189023
0.614686 0.798086 0.189023
0.684940 0.798086 0.189023
0.755194 0.798086 0.189023
0.017959 0.017959 0.071521
0.084345 0.021179 0.074741
0.168691 0.042357 0.095920
0.253036 0.063536 0.117099
0.337381 0.084715 0.138277
0.423749 0.106401 0.159964
0.553625 0.131876 0.185439
0.647269 0.153767 0.207330
0.740914 0.175658 0.229221
0.022758 0.090635 0.076321
0.103883 0.108594 0.094279
0.186649 0.128193 0.113879
0.270995 0.149372 0.135057
0.355340 0.170551 0.156236
0.479373 0.195962 0.181648
0.573017 0.217854 0.203539
0.666662 0.239745 0.225430
0.760306 0.261636 0.247322
0.045558 0.181439 0.099121
0.126684 0.199397 0.117080
0.189850 0.199397 0.117080
0.270995 0.217375 0.135057
0.355340 0.238554 0.156236
0.479373 0.263965 0.181648
0.573017 0.285856 0.203539
0.666662 0.307748 0.225430
0.760306 0.329639 0.247322
0.068358 0.272242 0.121921
0.149484 0.290200 0.139880
0.212650 0.290200 0.139880
0.275817 0.290200 0.139880
0.355340 0.306557 0.156236
0.479373 0.331968 0.181648
0.573017 0.353859 0.203539
0.666662 0.375751 0.225430
0.760306 0.397642 0.247322
0.091159 0.363045 0.144721
0.172284 0.381003 0.162680
0.235451 0.381003 0.162680
0.298617 0.381003 0.162680
0.361784 0.381003 0.162680
0.479373 0.399971 0.181648
0.573017 0.421862 0.203539
0.666662 0.443754 0.225430
0.760306 0.465645 0.247322
0.118321 0.495643 0.171884
0.199588 0.515035 0.189984
0.262755 0.515035 0.189984
0.325922 0.515035 0.189984
0.389088 0.515035 0.189984
0.488281 0.515035 0.189984
0.573017 0.529518 0.203539
0.666662 0.552908 0.225430
0.760306 0.576299 0.247322
0.141889 0.596457 0.195451
0.223156 0.615850 0.213552
0.286322 0.615850 0.213552
0.349489 0.615850 0.213552
0.412656 0.615850 0.213552
0.513462 0.615850 0.213552
0.583716 0.615850 0.213552
0.666662 0.628541 0.225430
0.760306 0.651932 0.247322
0.165456 0.697271 0.219019
0.246723 0.716664 0.237119
0.309890 0.716664 0.237119
0.373057 0.716664 0.237119
0.436223 0.716664 0.237119
0.538643 0.716664 0.237119
0.608897 0.716664 0.237119
0.679151 0.716664 0.237119
0.760306 0.727565 0.247322
0.189023 0.798086 0.242586
0.270291 0.817478 0.260687
0.333457 0.817478 0.260687
0.396624 0.817478 0.260687
0.459791 0.817478 0.260687
0.563824 0.817478 0.260687
0.634078 0.817478 0.260687
0.704333 0.817478 0.260687
0.774587 0.817478 0.260687
0.036044 0.036044 0.143549
0.099211 0.036044 0.143549
0.168691 0.042357 0.149862
0.253036 0.063536 0.171040
0.337381 0.084715 0.192219
0.423749 0.106401 0.213906
0.553625 0.131876 0.239380
0.647269 0.153767 0.261271
0.740914 0.175658 0.283163
0.036044 0.103922 0.143549
0.120390 0.125100 0.164727
0.191449 0.132993 0.172620
0.275794 0.154171 0.193799
0.360139 0.175350 0.214977
0.484555 0.200800 0.240427
0.578200 0.222691 0.262318
0.671844 0.244582 0.284209
0.765489 0.266474 0.306101
0.045558 0.181439 0.153063
0.129904 0.202617 0.174241
0.207936 0.217483 0.189107
0.289080 0.235461 0.207085
0.373426 0.256639 0.228263
0.498902 0.282194 0.253818
0.592547 0.304085 0.275709
0.686191 0.325976 0.297600
0.779836 0.347868 0.319492
0.068358 0.272242 0.175863
0.152704 0.293420 0.197042
0.230736 0.308286 0.211907
0.293903 0.308286 0.211907
0.373426 0.324642 0.228263
0.498902 0.350197 0.253818
0.592547 0.372088 0.275709
0.686191 0.393979 0.297600
0.779836 0.415871 0.319492
0.091159 0.363045 0.198663
0.175504 0.384223 0.219842
0.253536 0.399089 0.234707
0.316703 0.399089 0.234707
0.379870 0.399089 0.234707
0.498902 0.418199 0.253818
0.592547 0.440091 0.275709
0.686191 0.461982 0.297600
0.779836 0.517682 0.319492
0.118321 0.495643 0.225826
0.202834 0.518512 0.247172
0.280984 0.534565 0.262155
0.344150 0.534565 0.262155
0.407317 0.534565 0.262155
0.507810 0.534565 0.262155
0.592547 0.549048 0.275709
0.686191 0.572438 0.297600
0.779836 0.595828 0.319492
0.141889 0.596457 0.249393
0.226401 0.619327 0.270739
0.304551 0.635379 0.285722
0.367718 0.635379 0.285722
0.430884 0.635379 0.285722
0.532991 0.635379 0.285722
0.603246 0.635379 0.285722
0.686191 0.648071 0.297600
0.779836 0.671461 0.319492
0.165456 0.697271 0.272960
0.249969 0.720141 0.294306
0.328118 0.736193 0.309289
0.391285 0.736193 0.309289
0.454452 0.736193 0.309289
0.558173 0.736193 0.309289
0.628427 0.736193 0.309289
0.698681 0.736193 0.309289
0.779836 0.747094 0.319492
0.189023 0.798086 0.296528
0.273536 0.820955 0.317874
0.351686 0.837008 0.332857
0.414852 0.837008 0.332857
0.478019 0.837008 0.332857
0.583354 0.837008 0.332857
0.653608 0.837008 0.332857
0.723862 0.837008 0.332857
0.794116 0.837008 0.332857
0.054130 0.054130 0.215576
0.117297 0.054130 0.215576
0.180463 0.054130 0.215576
0.253036 0.063536 0.224982
0.337381 0.084715 0.246161
0.423749 0.106401 0.267847
0.553625 0.131876 0.293322
0.647269 0.153767 0.315213
0.740914 0.175658 0.337104
0.054130 0.122007 0.215576
0.138475 0.143186 0.236755
0.203221 0.144765 0.238334
0.275794 0.154171 0.247740
0.360139 0.175350 0.268919
0.484555 0.200800 0.294368
0.578200 0.222691 0.316260
0.671844 0.244582 0.338151
0.765489 0.266474 0.360042
0.054130 0.190010 0.215576
0.138475 0.211189 0.236755
0.222821 0.232368 0.257933
0.298594 0.244975 0.270540
0.382940 0.266153 0.291719
0.509176 0.291783 0.317349
0.602820 0.313674 0.339240
0.696465 0.335565 0.361131
0.790109 0.357457 0.383022
0.068358 0.272242 0.229805
0.152704 0.293420 0.250983
0.237049 0.314599 0.272162
0.311988 0.326372 0.283935
0.391511 0.342728 0.300291
0.518432 0.368425 0.325988
0.612077 0.390316 0.347879
0.705721 0.412208 0.369771
0.799366 0.434099 0.391662
0.091159 0.363045 0.252605
0.175504 0.384223 0.273783
0.259849 0.405402 0.294962
0.334789 0.417175 0.306735
0.397955 0.417175 0.306735
0.518432 0.436428 0.325988
0.612077 0.458319 0.347879
0.705721 0.513821 0.369771
0.799366 0.537212 0.391662
0.118321 0.495643 0.279767
0.202834 0.518512 0.301113
0.287346 0.541382 0.322459
0.362379 0.554095 0.334325
0.425545 0.554095 0.334325
0.527340 0.554095 0.334325
0.612077 0.568577 0.347879
0.705721 0.591968 0.369771
0.799366 0.615358 0.391662
0.141889 0.596457 0.303335
0.226401 0.619327 0.324681
0.310914 0.642196 0.346027
0.385946 0.654909 0.357892
0.449113 0.654909 0.357892
0.552521 0.654909 0.357892
0.622775 0.654909 0.357892
0.705721 0.667601 0.369771
0.799366 0.690991 0.391662
0.165456 0.697271 0.326902
0.249969 0.720141 0.348248
0.334481 0.743011 0.369594
0.409514 0.755723 0.381460
0.472680 0.755723 0.381460
0.577702 0.755723 0.381460
0.647956 0.755723 0.381460
0.718211 0.755723 0.381460
0.799366 0.766624 0.391662
0.189023 0.798086 0.350470
0.273536 0.820955 0.371815
0.358049 0.843825 0.393161
0.433081 0.856537 0.405027
0.529766 0.856537 0.405027
0.602884 0.856537 0.405027
0.673138 0.856537 0.405027
0.743392 0.856537 0.405027
0.813646 0.856537 0.405027
0.072216 0.072216 0.287603
0.135382 0.072216 0.287603
0.198549 0.072216 0.287603
0.261716 0.072216 0.287603
0.337381 0.084715 0.300102
0.423749 0.106401 0.321789
0.553625 0.131876 0.347264
0.647269 0.153767 0.369155
0.740914 0.175658 0.391046
0.072216 0.140093 0.287603
0.156561 0.161272 0.308782
0.221307 0.162851 0.310362
0.284474 0.162851 0.310362
0.360139 0.175350 0.322861
0.484555 0.200800 0.348310
0.578200 0.222691 0.370201
0.671844 0.244582 0.392093
0.765489 0.266474 0.413984
0.072216 0.208096 0.287603
0.156561 0.229275 0.308782
0.240906 0.250453 0.329961
0.307274 0.253654 0.333162
0.382940 0.266153 0.345661
0.509176 0.291783 0.371290
0.602820 0.313674 0.393182
0.696465 0.335565 0.415073
0.790109 0.357457 0.436964
0.072216 0.276099 0.287603
0.156561 0.297278 0.308782
0.240906 0.318456 0.329961
0.325252 0.339635 0.351139
0.405740 0.356956 0.368461
0.533796 0.382766 0.394270
0.627441 0.404657 0.416162
0.721086 0.426548 0.438053
0.814730 0.448440 0.459944
0.091159 0.363045 0.306546
0.175504 0.384223 0.327725
0.259849 0.405402 0.348904
0.344195 0.426581 0.370082
0.416041 0.435260 0.378762
0.537962 0.454656 0.398158
0.631606 0.509961 0.420049
0.725251 0.533351 0.441941
0.818895 0.556742 0.463832
0.118321 0.495643 0.333709
0.202834 0.518512 0.355055
0.287346 0.541382 0.376401
0.371859 0.564252 0.397747
0.443774 0.573624 0.406495
0.546869 0.573624 0.406495
0.631606 0.588107 0.420049
0.725251 0.611497 0.441941
0.818895 0.634888 0.463832
0.141889 0.596457 0.357276
0.226401 0.619327 0.378622
0.310914 0.642196 0.399968
0.395426 0.665066 0.421314
0.467341 0.674439 0.430062
0.572051 0.674439 0.430062
0.642305 0.674439 0.430062
0.725251 0.687130 0.441941
0.818895 0.710521 0.463832
0.165456 0.697271 0.380844
0.249969 0.720141 0.402190
0.334481 0.743011 0.423536
0.418994 0.765880 0.444882
0.524114 0.775253 0.453630
0.597232 0.775253 0.453630
0.667486 0.775253 0.453630
0.737740 0.775253 0.453630
0.818895 0.786154 0.463832
0.189023 0.798086 0.404411
0.273536 0.820955 0.425757
0.358049 0.843825 0.447103
0.442561 0.866694 0.468449
0.549296 0.876067 0.477197
0.622413 0.876067 0.477197
0.692667 0.876067 0.477197
0.762921 0.876067 0.477197
0.833176 0.876067 0.477197
0.090301 0.090301 0.359631
0.153468 0.090301 0.359631
0.216635 0.090301 0.359631
0.279801 0.090301 0.359631
0.342968 0.090301 0.359631
0.423749 0.106401 0.375731
0.553625 0.131876 0.401205
0.647269 0.153767 0.423097
0.740914 0.175658 0.444988
0.090301 0.158179 0.359631
0.174647 0.179357 0.380810
0.239393 0.180937 0.382389
0.302559 0.180937 0.382389
0.365726 0.180937 0.382389
0.484555 0.200800 0.402252
0.578200 0.222691 0.424143
0.671844 0.244582 0.446034
0.765489 0.266474 0.467926
0.090301 0.226182 0.359631
0.174647 0.247360 0.380810
0.258992 0.268539 0.401988
0.325360 0.271740 0.405189
0.388526 0.271740 0.405189
0.509176 0.291783 0.425232
0.602820 0.313674 0.447123
0.696465 0.335565 0.469015
0.790109 0.357457 0.525066
0.090301 0.294185 0.359631
0.174647 0.315363 0.380810
0.258992 0.336542 0.401988
0.343337 0.357721 0.423167
0.411327 0.362543 0.427989
0.533796 0.382766 0.448212
0.627441 0.404657 0.502905
0.721086 0.426548 0.526296
0.814730 0.448440 0.549686
0.091159 0.363045 0.360488
0.175504 0.384223 0.381667
0.259849 0.405402 0.402845
0.344195 0.426581 0.424024
0.428540 0.447759 0.445203
0.561100 0.509709 0.506819
0.654909 0.533264 0.530374
0.748718 0.556819 0.553929
0.842527 0.580374 0.577484
0.118321 0.495643 0.387651
0.202834 0.518512 0.408997
0.287346 0.541382 0.430343
0.371859 0.564252 0.451688
0.456372 0.587121 0.506085
0.570071 0.596826 0.515789
0.654909 0.611410 0.530374
0.748718 0.634965 0.553929
0.842527 0.658520 0.577484
0.141889 0.596457 0.411218
0.226401 0.619327 0.432564
0.310914 0.642196 0.453910
0.395426 0.665066 0.508396
0.479939 0.687935 0.531266
0.595429 0.697817 0.541148
0.665683 0.697817 0.541148
0.748718 0.710598 0.553929
0.842527 0.734153 0.577484
0.165456 0.697271 0.434786
0.249969 0.720141 0.456131
0.334481 0.743011 0.510708
0.418994 0.765880 0.533578
0.541354 0.792493 0.560191
0.620788 0.798808 0.566506
0.691042 0.798808 0.566506
0.761296 0.798808 0.566506
0.842527 0.809786 0.577484
0.189023 0.798086 0.458353
0.273536 0.820955 0.513020
0.358049 0.843825 0.535889
0.442561 0.866694 0.558759
0.566713 0.893484 0.585549
0.646146 0.899800 0.591864
0.716400 0.899800 0.591864
0.786654 0.899800 0.591864
0.856908 0.899800 0.591864
0.112562 0.112562 0.471007
0.175729 0.112562 0.471007
0.238895 0.112562 0.471007
0.302062 0.112562 0.471007
0.365229 0.112562 0.471007
0.462735 0.112562 0.471007
0.553625 0.131876 0.491643
0.647269 0.153767 0.515033
0.740914 0.175658 0.538424
0.112562 0.180439 0.471007
0.197075 0.201785 0.493876
0.261833 0.203377 0.495582
0.325000 0.203377 0.495582
0.388167 0.203377 0.495582
0.487310 0.203377 0.495582
0.578200 0.222691 0.516218
0.671844 0.244582 0.539609
0.765489 0.266474 0.562999
0.112562 0.248442 0.471007
0.197075 0.269788 0.493876
0.281587 0.291134 0.516746
0.347980 0.294360 0.520202
0.411147 0.294360 0.520202
0.511930 0.294360 0.520202
0.602820 0.313674 0.540839
0.696465 0.335565 0.564229
0.790109 0.357457 0.587620
0.112562 0.316445 0.471007
0.197075 0.337791 0.493876
0.281587 0.359137 0.516746
0.366100 0.380483 0.539616
0.434127 0.385344 0.544823
0.536551 0.385344 0.544823
0.627441 0.404657 0.565459
0.721086 0.426548 0.588850
0.814730 0.448440 0.612240
0.112562 0.384448 0.471007
0.197075 0.405794 0.493876
0.281587 0.427140 0.516746
0.366100 0.448486 0.539616
0.450612 0.502821 0.562485
0.564843 0.513451 0.573115
0.655878 0.534233 0.593897
0.749687 0.557788 0.617452
0.843496 0.581343 0.641007
0.118321 0.495643 0.477160
0.202834 0.518512 0.500030
0.287346 0.541382 0.522900
0.371859 0.564252 0.545769
0.456372 0.587121 0.568639
0.588270 0.615025 0.596543
0.675883 0.632383 0.613901
0.769692 0.655938 0.637456
0.863501 0.679493 0.661011
0.141889 0.596457 0.502342
0.226401 0.619327 0.525211
0.310914 0.642196 0.548081
0.395426 0.665066 0.570950
0.479939 0.687935 0.593820
0.613629 0.716017 0.621901
0.686656 0.718790 0.624675
0.769692 0.731571 0.637456
0.863501 0.755126 0.661011
0.165456 0.697271 0.527523
0.249969 0.720141 0.550393
0.334481 0.743011 0.573262
0.418994 0.765880 0.596132
0.541354 0.792493 0.622744
0.638987 0.817008 0.647260
0.712015 0.819782 0.650033
0.782269 0.819782 0.650033
0.863501 0.830759 0.661011
0.189023 0.798086 0.552704
0.273536 0.820955 0.575574
0.358049 0.843825 0.598443
0.442561 0.866694 0.621313
0.566713 0.893484 0.648103
0.664346 0.917999 0.672618
0.737373 0.920773 0.675392
0.807627 0.920773 0.675392
0.877881 0.920773 0.675392
0.131256 0.131256 0.550975
0.194423 0.131256 0.550975
0.257590 0.131256 0.550975
0.320756 0.131256 0.550975
0.383923 0.131256 0.550975
0.482709 0.131256 0.550975
0.553625 0.131876 0.551637
0.647269 0.153767 0.575028
0.740914 0.175658 0.598418
0.131256 0.199134 0.550975
0.215769 0.220480 0.573845
0.280527 0.222072 0.575550
0.343694 0.222072 0.575550
0.406861 0.222072 0.575550
0.507284 0.222072 0.575550
0.578200 0.222691 0.576212
0.671844 0.244582 0.599603
0.765489 0.266474 0.622993
0.131256 0.267137 0.550975
0.215769 0.288483 0.573845
0.300282 0.309828 0.596714
0.366674 0.313055 0.600171
0.429841 0.313055 0.600171
0.531905 0.313055 0.600171
0.602820 0.313674 0.600833
0.696465 0.335565 0.624223
0.790109 0.357457 0.647614
0.131256 0.335140 0.550975
0.215769 0.356485 0.573845
0.300282 0.377831 0.596714
0.384794 0.399177 0.619584
0.452821 0.404038 0.624791
0.556525 0.404038 0.624791
0.627441 0.404657 0.625453
0.721086 0.426548 0.648844
0.814730 0.448440 0.672234
0.131256 0.403142 0.550975
0.215769 0.424488 0.573845
0.300282 0.445834 0.596714
0.384794 0.467180 0.619584
0.469307 0.522796 0.642454
0.584958 0.533566 0.653224
0.655878 0.534233 0.653891
0.749687 0.557788 0.677446
0.843496 0.581343 0.701001
0.131256 0.509464 0.550975
0.215769 0.532333 0.573845
0.300282 0.555203 0.596714
0.384794 0.578072 0.619584
0.469307 0.600942 0.642454
0.602189 0.628943 0.670455
0.682079 0.638580 0.680092
0.775889 0.662135 0.703647
0.869698 0.685690 0.727202
0.141889 0.596457 0.562336
0.226401 0.619327 0.585205
0.310914 0.642196 0.608075
0.395426 0.665066 0.630944
0.479939 0.687935 0.653814
0.613629 0.716017 0.681895
0.706771 0.738905 0.704784
0.789807 0.751686 0.717565
0.883616 0.775241 0.741120
0.165456 0.697271 0.587517
0.249969 0.720141 0.610387
0.334481 0.743011 0.633256
0.418994 0.765880 0.656126
0.541354 0.792493 0.682738
0.638987 0.817008 0.707254
0.732130 0.839896 0.730142
0.802384 0.839896 0.730142
0.883616 0.850874 0.741120
0.189023 0.798086 0.612698
0.273536 0.820955 0.635568
0.358049 0.843825 0.658437
0.442561 0.866694 0.681307
0.566713 0.893484 0.708097
0.664346 0.917999 0.732612
0.757488 0.940888 0.755500
0.827742 0.940888 0.755500
0.897996 0.940888 0.755500
0.149951 0.149951 0.630944
0.213117 0.149951 0.630944
0.276284 0.149951 0.630944
0.339451 0.149951 0.630944
0.402617 0.149951 0.630944
0.502683 0.149951 0.630944
0.572937 0.149951 0.630944
0.647269 0.153767 0.635022
0.740914 0.175658 0.658412
0.149951 0.217828 0.630944
0.234463 0.239174 0.653813
0.299222 0.240766 0.655519
0.362388 0.240766 0.655519
0.425555 0.240766 0.655519
0.527258 0.240766 0.655519
0.597513 0.240766 0.655519
0.671844 0.244582 0.659597
0.765489 0.266474 0.682987
0.149951 0.285831 0.630944
0.234463 0.307177 0.653813
0.318976 0.328523 0.676683
0.385369 0.331749 0.680139
0.448535 0.331749 0.680139
0.551879 0.331749 0.680139
0.622133 0.331749 0.680139
0.696465 0.335565 0.684217
0.790109 0.357457 0.707608
0.149951 0.353834 0.630944
0.234463 0.375180 0.653813
0.318976 0.396526 0.676683
0.403488 0.417872 0.699553
0.471516 0.422732 0.704760
0.576500 0.422732 0.704760
0.646754 0.422732 0.704760
0.721086 0.426548 0.708838
0.814730 0.448440 0.732228
0.149951 0.421837 0.630944
0.234463 0.443183 0.653813
0.318976 0.464529 0.676683
0.403488 0.519901 0.699553
0.524671 0.546397 0.726049
0.605073 0.553681 0.733333
0.675327 0.553681 0.733333
0.749687 0.557788 0.737440
0.843496 0.581343 0.760995
0.149951 0.529438 0.630944
0.234463 0.552308 0.653813
0.318976 0.575177 0.676683
0.403488 0.598047 0.699553
0.524671 0.624543 0.726049
0.622303 0.649058 0.750564
0.701528 0.658029 0.759534
0.775889 0.662135 0.763641
0.869698 0.685690 0.787196
0.149951 0.605071 0.630944
0.234463 0.627941 0.653813
0.318976 0.650810 0.676683
0.403488 0.673680 0.699553
0.524671 0.700176 0.726049
0.622303 0.724691 0.750564
0.716112 0.748246 0.774119
0.801247 0.763127 0.788999
0.895056 0.786681 0.812554
0.165456 0.697271 0.647511
0.249969 0.720141 0.670381
0.334481 0.743011 0.693250
0.418994 0.765880 0.716120
0.541354 0.792493 0.742733
0.638987 0.817008 0.767248
0.732796 0.840563 0.790803
0.822499 0.860011 0.810251
0.903731 0.870989 0.821229
0.189023 0.798086 0.672692
0.273536 0.820955 0.695562
0.358049 0.843825 0.718431
0.442561 0.866694 0.741301
0.566713 0.893484 0.768091
0.664346 0.917999 0.792606
0.758155 0.941554 0.816161
0.847857 0.961003 0.835609
0.918111 0.961003 0.835609
