docs/luts/fuji_recipes/Classic_GB_Chrome.cube
TITLE "Fujifilm Recipe: GB Chrome (Classic)"
# FilmSim=Classic HL=-1 SH=2 Col=-1 WB=Auto WBR=0 WBB=0
LUT_3D_SIZE 9
DOMAIN_MIN 0.0 0.0 0.0
DOMAIN_MAX 1.0 1.0 1.0
0.000000 0.000000 0.000000
0.091184 0.022896 0.022896
0.182368 0.045792 0.045792
0.273552 0.068688 0.068688
0.364737 0.091583 0.091583
0.494484 0.118517 0.118517
0.586118 0.141234 0.141234
0.677752 0.163950 0.163950
0.769386 0.186667 0.186667
0.022758 0.090635 0.022758
0.091184 0.090773 0.022896
0.182368 0.113669 0.045792
0.273552 0.136565 0.068688
0.364737 0.159461 0.091583
0.494484 0.186394 0.118517
0.586118 0.209111 0.141234
0.677752 0.231827 0.163950
0.769386 0.254544 0.186667
0.045558 0.181439 0.045558
0.113847 0.181439 0.045558
0.182368 0.181672 0.045792
0.273552 0.204568 0.068688
0.364737 0.227464 0.091583
0.494484 0.254397 0.118517
0.586118 0.277114 0.141234
0.677752 0.299830 0.163950
0.769386 0.322547 0.186667
0.068358 0.272242 0.068358
0.136647 0.272242 0.068358
0.204935 0.272242 0.068358
0.273552 0.272571 0.068688
0.364737 0.295467 0.091583
0.494484 0.322400 0.118517
0.586118 0.345117 0.141234
0.677752 0.367833 0.163950
0.769386 0.390550 0.186667
0.091159 0.363045 0.091159
0.159447 0.363045 0.091159
0.227735 0.363045 0.091159
0.296023 0.363045 0.091159
0.364737 0.363470 0.091583
0.494484 0.390403 0.118517
0.586118 0.413120 0.141234
0.677752 0.435836 0.163950
0.769386 0.458553 0.186667
0.118001 0.492400 0.118001
0.186289 0.492400 0.118001
0.254577 0.492400 0.118001
0.322865 0.492400 0.118001
0.391154 0.492400 0.118001
0.494484 0.492923 0.118517
0.586118 0.515910 0.141234
0.677752 0.538896 0.163950
0.769386 0.561883 0.186667
0.140622 0.583652 0.140622
0.208910 0.583652 0.140622
0.277199 0.583652 0.140622
0.345487 0.583652 0.140622
0.413775 0.583652 0.140622
0.516852 0.583652 0.140622
0.586118 0.584270 0.141234
0.677752 0.607257 0.163950
0.769386 0.630243 0.186667
0.163244 0.674903 0.163244
0.231532 0.674903 0.163244
0.299820 0.674903 0.163244
0.368109 0.674903 0.163244
0.436397 0.674903 0.163244
0.539742 0.674903 0.163244
0.608390 0.674903 0.163244
0.677752 0.675617 0.163950
0.769386 0.698604 0.186667
0.185865 0.766154 0.185865
0.254154 0.766154 0.185865
0.322442 0.766154 0.185865
0.390730 0.766154 0.185865
0.459019 0.766154 0.185865
0.562633 0.766154 0.185865
0.631280 0.766154 0.185865
0.699928 0.766154 0.185865
0.769386 0.766965 0.186667
0.022480 0.022480 0.089528
0.091184 0.022896 0.089944
0.182368 0.045792 0.112840
0.273552 0.068688 0.135736
0.364737 0.091583 0.158632
0.494484 0.118517 0.185565
0.586118 0.141234 0.208282
0.677752 0.163950 0.230998
0.769386 0.186667 0.253715
0.022758 0.090635 0.089806
0.113664 0.113253 0.112424
0.204848 0.136149 0.135320
0.296032 0.159045 0.158216
0.387217 0.181941 0.181112
0.517263 0.208904 0.208075
0.608897 0.231621 0.230791
0.700531 0.254337 0.253508
0.792165 0.277054 0.276224
0.045558 0.181439 0.112606
0.136327 0.203919 0.135086
0.204848 0.204152 0.135320
0.296032 0.227048 0.158216
0.387217 0.249944 0.181112
0.517263 0.276907 0.208075
0.608897 0.299623 0.230791
0.700531 0.322340 0.253508
0.792165 0.345057 0.276224
0.068358 0.272242 0.135407
0.159127 0.294722 0.157887
0.227415 0.294722 0.157887
0.296032 0.295051 0.158216
0.387217 0.317947 0.181112
0.517263 0.344910 0.208075
0.608897 0.367626 0.230791
0.700531 0.390343 0.253508
0.792165 0.413059 0.276224
0.091159 0.363045 0.158207
0.181927 0.385525 0.180687
0.250215 0.385525 0.180687
0.318504 0.385525 0.180687
0.387217 0.385950 0.181112
0.517263 0.412913 0.208075
0.608897 0.435629 0.230791
0.700531 0.458346 0.253508
0.792165 0.514030 0.276224
0.118001 0.492400 0.185049
0.208799 0.515180 0.207558
0.277087 0.515180 0.207558
0.345375 0.515180 0.207558
0.413663 0.515180 0.207558
0.517263 0.515702 0.208075
0.608897 0.538689 0.230791
0.700531 0.561675 0.253508
0.792165 0.584662 0.276224
0.140622 0.583652 0.207670
0.231420 0.606431 0.230180
0.299708 0.606431 0.230180
0.367997 0.606431 0.230180
0.436285 0.606431 0.230180
0.539631 0.606431 0.230180
0.608897 0.607049 0.230791
0.700531 0.630036 0.253508
0.792165 0.653023 0.276224
0.163244 0.674903 0.230292
0.254042 0.697682 0.252802
0.322330 0.697682 0.252802
0.390618 0.697682 0.252802
0.458907 0.697682 0.252802
0.562521 0.697682 0.252802
0.631169 0.697682 0.252802
0.700531 0.698397 0.253508
0.792165 0.721383 0.276224
0.185865 0.766154 0.252914
0.276663 0.788933 0.275423
0.344952 0.788933 0.275423
0.413240 0.788933 0.275423
0.514514 0.788933 0.275423
0.585412 0.788933 0.275423
0.654059 0.788933 0.275423
0.722707 0.788933 0.275423
0.792165 0.789744 0.276224
0.045087 0.045087 0.179562
0.113375 0.045087 0.179562
0.182368 0.045792 0.180267
0.273552 0.068688 0.203163
0.364737 0.091583 0.226059
0.494484 0.118517 0.252992
0.586118 0.141234 0.275709
0.677752 0.163950 0.298425
0.769386 0.186667 0.321142
0.045087 0.112965 0.179562
0.136134 0.135723 0.202321
0.205126 0.136427 0.203025
0.296311 0.159323 0.225921
0.387495 0.182219 0.248817
0.517544 0.209182 0.275780
0.609179 0.231899 0.298497
0.700813 0.254615 0.321213
0.792447 0.277332 0.343930
0.045558 0.181439 0.180034
0.136742 0.204334 0.202929
0.227455 0.226759 0.225354
0.318640 0.249655 0.248250
0.409824 0.272551 0.271146
0.540171 0.299544 0.298139
0.631805 0.322260 0.320855
0.723439 0.344977 0.343572
0.815073 0.367693 0.366288
0.068358 0.272242 0.202834
0.159543 0.295137 0.225730
0.250022 0.317329 0.247921
0.318640 0.317658 0.248250
0.409824 0.340554 0.271146
0.540171 0.367547 0.298139
0.631805 0.390263 0.320855
0.723439 0.412980 0.343572
0.815073 0.435696 0.366288
0.091159 0.363045 0.225634
0.182343 0.385941 0.248530
0.272822 0.408132 0.270721
0.341111 0.408132 0.270721
0.409824 0.408557 0.271146
0.540171 0.435550 0.298139
0.631805 0.458266 0.320855
0.723439 0.513951 0.343572
0.815073 0.536938 0.366288
0.118001 0.492400 0.252476
0.209215 0.515601 0.275402
0.299724 0.538088 0.297622
0.368012 0.538088 0.297622
0.436300 0.538088 0.297622
0.540171 0.538610 0.298139
0.631805 0.561597 0.320855
0.723439 0.584583 0.343572
0.815073 0.607570 0.366288
0.140622 0.583652 0.275097
0.231836 0.606852 0.298023
0.322345 0.629339 0.320244
0.390634 0.629339 0.320244
0.458922 0.629339 0.320244
0.562539 0.629339 0.320244
0.631805 0.629957 0.320855
0.723439 0.652944 0.343572
0.815073 0.675931 0.366288
0.163244 0.674903 0.297719
0.254458 0.698103 0.320645
0.344967 0.720590 0.342866
0.413255 0.720590 0.342866
0.514531 0.720590 0.342866
0.585429 0.720590 0.342866
0.654077 0.720590 0.342866
0.723439 0.721305 0.343572
0.815073 0.744291 0.366288
0.185865 0.766154 0.320341
0.277080 0.789354 0.343267
0.367588 0.811841 0.365487
0.435877 0.811841 0.365487
0.537422 0.811841 0.365487
0.608320 0.811841 0.365487
0.676967 0.811841 0.365487
0.745615 0.811841 0.365487
0.815073 0.812652 0.366288
0.067694 0.067694 0.269597
0.135983 0.067694 0.269597
0.204271 0.067694 0.269597
0.273552 0.068688 0.270590
0.364737 0.091583 0.293486
0.494484 0.118517 0.320419
0.586118 0.141234 0.343136
0.677752 0.163950 0.365852
0.769386 0.186667 0.388569
0.067694 0.135572 0.269597
0.158741 0.158330 0.292355
0.227029 0.158330 0.292355
0.296311 0.159323 0.293348
0.387495 0.182219 0.316244
0.517544 0.209182 0.343207
0.609179 0.231899 0.365924
0.700813 0.254615 0.388640
0.792447 0.277332 0.411357
0.067694 0.203575 0.269597
0.158878 0.226470 0.292493
0.249829 0.249133 0.315155
0.319111 0.250126 0.316148
0.410295 0.273022 0.339044
0.540648 0.300016 0.366038
0.632282 0.322732 0.388754
0.723916 0.345449 0.411471
0.815550 0.368165 0.434187
0.068358 0.272242 0.270261
0.159543 0.295137 0.293157
0.250727 0.318033 0.316053
0.341247 0.340265 0.338284
0.432431 0.363161 0.361180
0.563079 0.390184 0.388203
0.654713 0.412900 0.410919
0.746347 0.435617 0.433636
0.837981 0.458333 0.456352
0.091159 0.363045 0.293061
0.182343 0.385941 0.315957
0.273527 0.408836 0.338853
0.363718 0.430739 0.360755
0.432431 0.431164 0.361180
0.563079 0.458187 0.388203
0.654713 0.513873 0.410919
0.746347 0.536859 0.433636
0.837981 0.559846 0.456352
0.118001 0.492400 0.319903
0.209215 0.515601 0.342829
0.300429 0.538801 0.365755
0.390649 0.560996 0.387686
0.458937 0.560996 0.387686
0.563079 0.561518 0.388203
0.654713 0.584505 0.410919
0.746347 0.607491 0.433636
0.837981 0.630478 0.456352
0.140622 0.583652 0.342525
0.231836 0.606852 0.365451
0.323051 0.630053 0.388377
0.413270 0.652247 0.410308
0.514548 0.652247 0.410308
0.585447 0.652247 0.410308
0.654713 0.652865 0.410919
0.746347 0.675852 0.433636
0.837981 0.698839 0.456352
0.163244 0.674903 0.365146
0.254458 0.698103 0.388072
0.345672 0.721304 0.410998
0.435892 0.743498 0.432930
0.537439 0.743498 0.432930
0.608337 0.743498 0.432930
0.676985 0.743498 0.432930
0.746347 0.744213 0.433636
0.837981 0.767199 0.456352
0.185865 0.766154 0.387768
0.277080 0.789354 0.410694
0.368294 0.812555 0.433620
0.458514 0.834749 0.455551
0.560330 0.834749 0.455551
0.631228 0.834749 0.455551
0.699875 0.834749 0.455551
0.768523 0.834749 0.455551
0.837981 0.835560 0.456352
0.090301 0.090301 0.359631
0.158590 0.090301 0.359631
0.226878 0.090301 0.359631
0.295166 0.090301 0.359631
0.364737 0.091583 0.360913
0.494484 0.118517 0.387846
0.586118 0.141234 0.410563
0.677752 0.163950 0.433280
0.769386 0.186667 0.455996
0.090301 0.158179 0.359631
0.181348 0.180937 0.382389
0.249636 0.180937 0.382389
0.317924 0.180937 0.382389
0.387495 0.182219 0.383671
0.517544 0.209182 0.410635
0.609179 0.231899 0.433351
0.700813 0.254615 0.456068
0.792447 0.277332 0.511699
0.090301 0.226182 0.359631
0.181486 0.249078 0.382527
0.272436 0.271740 0.405189
0.340725 0.271740 0.405189
0.410295 0.273022 0.406471
0.540648 0.300016 0.433465
0.632282 0.322732 0.456181
0.723916 0.345449 0.511816
0.815550 0.368165 0.534803
0.090301 0.294185 0.359631
0.181486 0.317080 0.382527
0.272670 0.339976 0.405423
0.363525 0.362543 0.427989
0.433095 0.363825 0.429271
0.563752 0.390849 0.456295
0.655386 0.413565 0.511933
0.747020 0.436282 0.534920
0.838654 0.458998 0.557907
0.091159 0.363045 0.360488
0.182343 0.385941 0.383384
0.273527 0.408836 0.406280
0.364711 0.431732 0.429176
0.455038 0.453771 0.451214
0.589599 0.517406 0.514794
0.681263 0.540423 0.537810
0.772927 0.563439 0.560827
0.864590 0.586455 0.583843
0.118001 0.492400 0.387330
0.209215 0.515601 0.410256
0.300429 0.538801 0.433182
0.391643 0.562002 0.456108
0.518178 0.587515 0.514271
0.589599 0.588039 0.514794
0.681263 0.611055 0.537810
0.772927 0.634071 0.560827
0.864590 0.657087 0.583843
0.140622 0.583652 0.409952
0.231836 0.606852 0.432878
0.323051 0.630053 0.455804
0.414265 0.653253 0.511648
0.541098 0.678796 0.537191
0.611996 0.678796 0.537191
0.681263 0.679415 0.537810
0.772927 0.702432 0.560827
0.864590 0.725448 0.583843
0.163244 0.674903 0.432573
0.254458 0.698103 0.455499
0.345672 0.721304 0.511338
0.436887 0.744504 0.534539
0.564018 0.770077 0.560111
0.634916 0.770077 0.560111
0.703564 0.770077 0.560111
0.772927 0.770792 0.560827
0.864590 0.793809 0.583843
0.185865 0.766154 0.455195
0.277080 0.789354 0.511028
0.368294 0.812555 0.534229
0.459508 0.835755 0.557429
0.586938 0.861357 0.583031
0.657836 0.861357 0.583031
0.726484 0.861357 0.583031
0.795131 0.861357 0.583031
0.864590 0.862169 0.583843
0.116959 0.116959 0.488197
0.185247 0.116959 0.488197
0.253535 0.116959 0.488197
0.321823 0.116959 0.488197
0.390112 0.116959 0.488197
0.494484 0.118517 0.489774
0.586118 0.141234 0.512761
0.677752 0.163950 0.535747
0.769386 0.186667 0.558734
0.116959 0.184836 0.488197
0.208035 0.207624 0.511258
0.276323 0.207624 0.511258
0.344611 0.207624 0.511258
0.412900 0.207624 0.511258
0.517544 0.209182 0.512835
0.609179 0.231899 0.535822
0.700813 0.254615 0.558808
0.792447 0.277332 0.581795
0.116959 0.252839 0.488197
0.208173 0.275765 0.511398
0.299153 0.298457 0.534362
0.367442 0.298457 0.534362
0.435730 0.298457 0.534362
0.540648 0.300016 0.535939
0.632282 0.322732 0.558925
0.723916 0.345449 0.581912
0.815550 0.368165 0.604898
0.116959 0.320842 0.488197
0.208173 0.343768 0.511398
0.299387 0.366694 0.534598
0.390272 0.389290 0.557465
0.458560 0.389290 0.557465
0.563752 0.390849 0.559042
0.655386 0.413565 0.582029
0.747020 0.436282 0.605015
0.838654 0.458998 0.628002
0.116959 0.388845 0.488197
0.208173 0.411771 0.511398
0.299387 0.434697 0.534598
0.390601 0.457623 0.557799
0.517998 0.516703 0.584186
0.590475 0.518282 0.585766
0.682139 0.541299 0.608782
0.773802 0.564315 0.631798
0.865466 0.587331 0.654814
0.118001 0.492400 0.489251
0.209215 0.515601 0.512452
0.300429 0.538801 0.535653
0.391643 0.562002 0.558853
0.519488 0.588825 0.585676
0.613101 0.611540 0.608391
0.704765 0.634557 0.631408
0.796428 0.657573 0.654424
0.888092 0.680589 0.677440
0.140622 0.583652 0.512142
0.231836 0.606852 0.535343
0.323051 0.630053 0.558543
0.414265 0.653253 0.581744
0.542408 0.680106 0.608596
0.635498 0.702298 0.630788
0.704765 0.702917 0.631408
0.796428 0.725934 0.654424
0.888092 0.748950 0.677440
0.163244 0.674903 0.535033
0.254458 0.698103 0.558233
0.345672 0.721304 0.581434
0.436887 0.744504 0.604634
0.565328 0.771387 0.631517
0.658418 0.793579 0.653708
0.727065 0.793579 0.653708
0.796428 0.794294 0.654424
0.888092 0.817310 0.677440
0.185865 0.766154 0.557923
0.277080 0.789354 0.581124
0.368294 0.812555 0.604324
0.459508 0.835755 0.627525
0.588248 0.862667 0.654437
0.681338 0.884859 0.676628
0.749985 0.884859 0.676628
0.818633 0.884859 0.676628
0.888092 0.885671 0.677440
0.139389 0.139389 0.578676
0.207677 0.139389 0.578676
0.275965 0.139389 0.578676
0.344253 0.139389 0.578676
0.412542 0.139389 0.578676
0.515603 0.139389 0.578676
0.586118 0.141234 0.580542
0.677752 0.163950 0.603529
0.769386 0.186667 0.626516
0.139389 0.207266 0.578676
0.230465 0.230054 0.601736
0.298753 0.230054 0.601736
0.367041 0.230054 0.601736
0.435330 0.230054 0.601736
0.538664 0.230054 0.601736
0.609179 0.231899 0.603603
0.700813 0.254615 0.626590
0.792447 0.277332 0.649577
0.139389 0.275269 0.578676
0.230603 0.298195 0.601876
0.321583 0.320887 0.624840
0.389872 0.320887 0.624840
0.458160 0.320887 0.624840
0.561768 0.320887 0.624840
0.632282 0.322732 0.626707
0.723916 0.345449 0.649694
0.815550 0.368165 0.672680
0.139389 0.343272 0.578676
0.230603 0.366198 0.601876
0.321817 0.389124 0.625077
0.412702 0.411720 0.647944
0.513973 0.411720 0.647944
0.584871 0.411720 0.647944
0.655386 0.413565 0.649810
0.747020 0.436282 0.672797
0.838654 0.458998 0.695784
0.139389 0.411275 0.578676
0.230603 0.434201 0.601876
0.321817 0.457127 0.625077
0.413031 0.513012 0.648277
0.540724 0.539429 0.674694
0.611622 0.539429 0.674694
0.682139 0.541299 0.676564
0.773802 0.564315 0.699580
0.865466 0.587331 0.722596
0.139389 0.514043 0.578676
0.230603 0.537243 0.601876
0.321817 0.560444 0.625077
0.413031 0.583644 0.648277
0.541158 0.610496 0.675128
0.635304 0.633743 0.698376
0.705820 0.635612 0.700245
0.797484 0.658629 0.723262
0.889148 0.681645 0.746278
0.140622 0.583652 0.579924
0.231836 0.606852 0.603124
0.323051 0.630053 0.626325
0.414265 0.653253 0.649525
0.542408 0.680106 0.676378
0.637077 0.703877 0.700149
0.727491 0.725643 0.721915
0.819154 0.748660 0.744932
0.910818 0.771676 0.767948
0.163244 0.674903 0.602814
0.254458 0.698103 0.626015
0.345672 0.721304 0.649215
0.436887 0.744504 0.672416
0.565328 0.771387 0.699298
0.659997 0.795158 0.723069
0.749791 0.816305 0.744216
0.819154 0.817020 0.744932
0.910818 0.840036 0.767948
0.185865 0.766154 0.625705
0.277080 0.789354 0.648905
0.368294 0.812555 0.672106
0.459508 0.835755 0.695307
0.588248 0.862667 0.722218
0.682917 0.886438 0.745989
0.772711 0.907585 0.767136
0.841359 0.907585 0.767136
0.910818 0.908397 0.767948
0.161819 0.161819 0.669154
0.230107 0.161819 0.669154
0.298395 0.161819 0.669154
0.366684 0.161819 0.669154
0.434972 0.161819 0.669154
0.538300 0.161819 0.669154
0.606948 0.161819 0.669154
0.677752 0.163950 0.671311
0.769386 0.186667 0.694297
0.161819 0.229696 0.669154
0.252895 0.252484 0.692215
0.321183 0.252484 0.692215
0.389472 0.252484 0.692215
0.457760 0.252484 0.692215
0.561361 0.252484 0.692215
0.630008 0.252484 0.692215
0.700813 0.254615 0.694372
0.792447 0.277332 0.717358
0.161819 0.297699 0.669154
0.253033 0.320625 0.692355
0.344013 0.343317 0.715318
0.412302 0.343317 0.715318
0.513566 0.343317 0.715318
0.584465 0.343317 0.715318
0.653112 0.343317 0.715318
0.723916 0.345449 0.717475
0.815550 0.368165 0.740462
0.161819 0.365702 0.669154
0.253033 0.388628 0.692355
0.344247 0.411554 0.715555
0.435132 0.434150 0.738422
0.536670 0.434150 0.738422
0.607568 0.434150 0.738422
0.676216 0.434150 0.738422
0.747020 0.436282 0.740579
0.838654 0.458998 0.763565
0.161819 0.433705 0.669154
0.253033 0.456631 0.692355
0.344247 0.512508 0.715555
0.435461 0.535709 0.738756
0.563450 0.562155 0.765202
0.634348 0.562155 0.765202
0.702995 0.562155 0.765202
0.773802 0.564315 0.767362
0.865466 0.587331 0.790378
0.161819 0.536740 0.669154
0.253033 0.559940 0.692355
0.344247 0.583141 0.715555
0.435461 0.606341 0.738756
0.563884 0.633222 0.765636
0.658030 0.656469 0.788884
0.726677 0.656469 0.788884
0.797484 0.658629 0.791043
0.889148 0.681645 0.814060
0.161819 0.605100 0.669154
0.253033 0.628301 0.692355
0.344247 0.651501 0.715555
0.435461 0.674702 0.738756
0.563884 0.701582 0.765636
0.658553 0.725353 0.789407
0.749597 0.747750 0.811804
0.820404 0.749909 0.813963
0.912068 0.772926 0.836980
0.163244 0.674903 0.670596
0.254458 0.698103 0.693797
0.345672 0.721304 0.716997
0.436887 0.744504 0.740198
0.565328 0.771387 0.767080
0.659997 0.795158 0.790851
0.751661 0.818174 0.813867
0.841880 0.839746 0.835439
0.933544 0.862762 0.858456
0.185865 0.766154 0.693487
0.277080 0.789354 0.716687
0.368294 0.812555 0.739888
0.459508 0.835755 0.763088
0.588248 0.862667 0.790000
0.682917 0.886438 0.813771
0.774581 0.909454 0.836787
0.864085 0.930311 0.857644
0.933544 0.931123 0.858456
0.184249 0.184249 0.759632
0.252537 0.184249 0.759632
0.320825 0.184249 0.759632
0.389114 0.184249 0.759632
0.457402 0.184249 0.759632
0.560997 0.184249 0.759632
0.629644 0.184249 0.759632
0.698292 0.184249 0.759632
0.769386 0.186667 0.762079
0.184249 0.252126 0.759632
0.275325 0.274914 0.782693
0.343613 0.274914 0.782693
0.411902 0.274914 0.782693
0.513160 0.274914 0.782693
0.584058 0.274914 0.782693
0.652705 0.274914 0.782693
0.721353 0.274914 0.782693
0.792447 0.277332 0.785140
0.184249 0.320129 0.759632
0.275463 0.343055 0.782833
0.366443 0.365747 0.805797
0.434732 0.365747 0.805797
0.536263 0.365747 0.805797
0.607161 0.365747 0.805797
0.675809 0.365747 0.805797
0.744456 0.365747 0.805797
0.815550 0.368165 0.808244
0.184249 0.388132 0.759632
0.275463 0.411058 0.782833
0.366677 0.433984 0.806034
0.457562 0.456580 0.828901
0.559367 0.456580 0.828901
0.630265 0.456580 0.828901
0.698912 0.456580 0.828901
0.767560 0.456580 0.828901
0.838654 0.458998 0.831347
0.184249 0.456135 0.759632
0.275463 0.512005 0.782833
0.366677 0.535205 0.806034
0.457892 0.558406 0.829234
0.586176 0.584881 0.855710
0.657074 0.584881 0.855710
0.725722 0.584881 0.855710
0.794369 0.584881 0.855710
0.865466 0.587331 0.858160
0.184249 0.559436 0.759632
0.275463 0.582637 0.782833
0.366677 0.605837 0.806034
0.457892 0.629038 0.829234
0.586610 0.655948 0.856144
0.680756 0.679195 0.879391
0.749403 0.679195 0.879391
0.818051 0.679195 0.879391
0.889148 0.681645 0.881841
0.184249 0.627797 0.759632
0.275463 0.650997 0.782833
0.366677 0.674198 0.806034
0.457892 0.697398 0.829234
0.586610 0.724308 0.856144
0.681279 0.748079 0.879915
0.772323 0.770476 0.902312
0.840971 0.770476 0.902312
0.912068 0.772926 0.904761
0.184249 0.696157 0.759632
0.275463 0.719358 0.782833
0.366677 0.742558 0.806034
0.457892 0.765759 0.829234
0.586610 0.792669 0.856144
0.681279 0.816440 0.879915
0.772943 0.839456 0.902931
0.863891 0.861757 0.925232
0.934988 0.864206 0.927681
0.185865 0.766154 0.761268
0.277080 0.789354 0.784469
0.368294 0.812555 0.807669
0.459508 0.835755 0.830870
0.588248 0.862667 0.857782
0.682917 0.886438 0.881553
0.774581 0.909454 0.904569
0.866244 0.932471 0.927585
0.956270 0.953849 0.948963
