docs/luts/fuji_recipes/Classic_VM_K14.cube
TITLE "Fujifilm Recipe: VM K14 (Classic)"
# FilmSim=Classic HL=-1 SH=0 Col=-4 WB=Auto WBR=0 WBB=-2
LUT_3D_SIZE 9
DOMAIN_MIN 0.0 0.0 0.0
DOMAIN_MAX 1.0 1.0 1.0
0.000000 0.000000 0.000000
0.074673 0.049327 0.049327
0.149346 0.098654 0.098654
0.224018 0.147982 0.147982
0.298691 0.197309 0.197309
0.373108 0.246610 0.246610
0.442524 0.292862 0.292862
0.511940 0.339114 0.339114
0.581356 0.385367 0.385367
0.049030 0.074223 0.049030
0.074673 0.074520 0.049327
0.149346 0.123847 0.098654
0.224018 0.173175 0.147982
0.298691 0.222502 0.197309
0.373108 0.271803 0.246610
0.442524 0.318055 0.292862
0.511940 0.364308 0.339114
0.581356 0.410560 0.385367
0.098151 0.148584 0.098151
0.123497 0.148584 0.098151
0.149346 0.149087 0.098654
0.224018 0.198414 0.147982
0.298691 0.247742 0.197309
0.373108 0.297043 0.246610
0.442524 0.343295 0.292862
0.511940 0.389547 0.339114
0.581356 0.435799 0.385367
0.147273 0.222945 0.147273
0.172618 0.222945 0.147273
0.197964 0.222945 0.147273
0.224018 0.223654 0.147982
0.298691 0.272981 0.197309
0.373108 0.322283 0.246610
0.442524 0.368535 0.292862
0.511940 0.414787 0.339114
0.581356 0.461039 0.385367
0.196394 0.297306 0.196394
0.221739 0.297306 0.196394
0.247085 0.297306 0.196394
0.272430 0.297306 0.196394
0.298691 0.298221 0.197309
0.373108 0.347522 0.246610
0.442524 0.393774 0.292862
0.511940 0.440027 0.339114
0.581356 0.486279 0.385367
0.245559 0.371530 0.245559
0.270904 0.371530 0.245559
0.296250 0.371530 0.245559
0.321595 0.371530 0.245559
0.346941 0.371530 0.245559
0.373108 0.372575 0.246610
0.442524 0.418551 0.292862
0.511940 0.464526 0.339114
0.581356 0.510502 0.385367
0.291618 0.440656 0.291618
0.316963 0.440656 0.291618
0.342309 0.440656 0.291618
0.367654 0.440656 0.291618
0.393000 0.440656 0.291618
0.417846 0.440656 0.291618
0.442524 0.441893 0.292862
0.511940 0.487869 0.339114
0.581356 0.533844 0.385367
0.337676 0.509782 0.337676
0.363022 0.509782 0.337676
0.388368 0.509782 0.337676
0.413713 0.509782 0.337676
0.439059 0.509782 0.337676
0.463630 0.509782 0.337676
0.487070 0.509782 0.337676
0.511940 0.511211 0.339114
0.581356 0.557187 0.385367
0.383735 0.578908 0.383735
0.409081 0.578908 0.383735
0.434427 0.578908 0.383735
0.459772 0.578908 0.383735
0.485118 0.578908 0.383735
0.509413 0.578908 0.383735
0.532853 0.578908 0.383735
0.556294 0.578908 0.383735
0.581356 0.580529 0.385367
0.045996 0.045996 0.069630
0.074673 0.049327 0.072961
0.149346 0.098654 0.122288
0.224018 0.147982 0.171616
0.298691 0.197309 0.220943
0.373108 0.246610 0.270244
0.442524 0.292862 0.316496
0.511940 0.339114 0.362748
0.581356 0.385367 0.409001
0.049030 0.074223 0.072664
0.120669 0.120516 0.118957
0.195342 0.169844 0.168285
0.270015 0.219171 0.217612
0.344687 0.268498 0.266939
0.418505 0.317462 0.315903
0.487921 0.363714 0.362155
0.557337 0.409967 0.408407
0.626753 0.456219 0.454660
0.098151 0.148584 0.121785
0.169493 0.194580 0.167782
0.195342 0.195083 0.168285
0.270015 0.244411 0.217612
0.344687 0.293738 0.266939
0.418505 0.342702 0.315903
0.487921 0.388954 0.362155
0.557337 0.435206 0.408407
0.626753 0.481458 0.454660
0.147273 0.222945 0.170907
0.218614 0.268941 0.216903
0.243960 0.268941 0.216903
0.270015 0.269650 0.217612
0.344687 0.318977 0.266939
0.418505 0.367942 0.315903
0.487921 0.414194 0.362155
0.557337 0.460446 0.408407
0.626753 0.506698 0.454660
0.196394 0.297306 0.220028
0.267735 0.343302 0.266024
0.293081 0.343302 0.266024
0.318427 0.343302 0.266024
0.344687 0.344217 0.266939
0.418505 0.393181 0.315903
0.487921 0.439433 0.362155
0.557337 0.485686 0.408407
0.626753 0.531780 0.454660
0.245559 0.371530 0.269193
0.316563 0.416927 0.314852
0.341909 0.416927 0.314852
0.367254 0.416927 0.314852
0.392600 0.416927 0.314852
0.418505 0.417972 0.315903
0.487921 0.463947 0.362155
0.557337 0.509923 0.408407
0.626753 0.555898 0.454660
0.291618 0.440656 0.315252
0.362622 0.486053 0.360911
0.387968 0.486053 0.360911
0.413313 0.486053 0.360911
0.438659 0.486053 0.360911
0.463243 0.486053 0.360911
0.487921 0.487290 0.362155
0.557337 0.533265 0.408407
0.626753 0.579241 0.454660
0.337676 0.509782 0.361310
0.408681 0.555179 0.406969
0.434027 0.555179 0.406969
0.459372 0.555179 0.406969
0.484718 0.555179 0.406969
0.509026 0.555179 0.406969
0.532467 0.555179 0.406969
0.557337 0.556608 0.408407
0.626753 0.602584 0.454660
0.383735 0.578908 0.407369
0.454740 0.624305 0.453028
0.480085 0.624305 0.453028
0.505431 0.624305 0.453028
0.530600 0.624305 0.453028
0.554810 0.624305 0.453028
0.578250 0.624305 0.453028
0.601691 0.624305 0.453028
0.626753 0.625926 0.454660
0.092266 0.092266 0.139675
0.117612 0.092266 0.139675
0.149346 0.098654 0.146063
0.224018 0.147982 0.195390
0.298691 0.197309 0.244717
0.373108 0.246610 0.294019
0.442524 0.292862 0.340271
0.511940 0.339114 0.386523
0.581356 0.385367 0.432775
0.092266 0.117459 0.139675
0.166642 0.166489 0.188705
0.198376 0.172878 0.195093
0.273049 0.222205 0.244421
0.347722 0.271532 0.293748
0.421499 0.320474 0.342690
0.490916 0.366726 0.388942
0.560332 0.412978 0.435194
0.629748 0.459231 0.481446
0.098151 0.148584 0.145560
0.172824 0.197911 0.194887
0.241612 0.241353 0.238329
0.316284 0.290680 0.287656
0.390957 0.340008 0.336984
0.464172 0.388633 0.385609
0.533588 0.434885 0.431861
0.603004 0.481137 0.478113
0.672420 0.527389 0.524365
0.147273 0.222945 0.194681
0.221945 0.272272 0.244008
0.290230 0.315211 0.286947
0.316284 0.315920 0.287656
0.390957 0.365247 0.336984
0.464172 0.413872 0.385609
0.533588 0.460124 0.431861
0.603004 0.506377 0.478113
0.672420 0.552629 0.524365
0.196394 0.297306 0.243802
0.271066 0.346633 0.293129
0.339351 0.389572 0.336068
0.364696 0.389572 0.336068
0.390957 0.390487 0.336984
0.464172 0.439112 0.385609
0.533588 0.485364 0.431861
0.603004 0.531471 0.478113
0.672420 0.577447 0.524365
0.245559 0.371530 0.292967
0.319870 0.420214 0.341933
0.387840 0.462594 0.384557
0.413185 0.462594 0.384557
0.438531 0.462594 0.384557
0.464172 0.463639 0.385609
0.533588 0.509614 0.431861
0.603004 0.555590 0.478113
0.672420 0.601565 0.524365
0.291618 0.440656 0.339026
0.365929 0.489340 0.387992
0.433898 0.531720 0.430616
0.459244 0.531720 0.430616
0.484590 0.531720 0.430616
0.508910 0.531720 0.430616
0.533588 0.532957 0.431861
0.603004 0.578932 0.478113
0.672420 0.624908 0.524365
0.337676 0.509782 0.385085
0.411988 0.558466 0.434051
0.479957 0.600846 0.476675
0.505303 0.600846 0.476675
0.530484 0.600846 0.476675
0.554693 0.600846 0.476675
0.578134 0.600846 0.476675
0.603004 0.602275 0.478113
0.672420 0.648250 0.524365
0.383735 0.578908 0.431144
0.458047 0.627592 0.480110
0.526016 0.669972 0.522734
0.551362 0.669972 0.522734
0.576267 0.669972 0.522734
0.600477 0.669972 0.522734
0.623917 0.669972 0.522734
0.647358 0.669972 0.522734
0.672420 0.671593 0.524365
0.138536 0.138536 0.209719
0.163882 0.138536 0.209719
0.189227 0.138536 0.209719
0.224018 0.147982 0.219165
0.298691 0.197309 0.268492
0.373108 0.246610 0.317794
0.442524 0.292862 0.364046
0.511940 0.339114 0.410298
0.581356 0.385367 0.456550
0.138536 0.163729 0.209719
0.212912 0.212759 0.258750
0.238257 0.212759 0.258750
0.273049 0.222205 0.268195
0.347722 0.271532 0.317523
0.421499 0.320474 0.366464
0.490916 0.366726 0.412717
0.560332 0.412978 0.458969
0.629748 0.459231 0.505221
0.138536 0.188969 0.209719
0.213209 0.238296 0.259046
0.287379 0.287120 0.307871
0.322170 0.296566 0.317316
0.396843 0.345893 0.366644
0.469980 0.394475 0.415225
0.539396 0.440727 0.461478
0.608813 0.486979 0.507730
0.678229 0.533231 0.553982
0.147273 0.222945 0.218456
0.221945 0.272272 0.267783
0.296618 0.321599 0.317110
0.362554 0.362190 0.357701
0.437227 0.411517 0.407028
0.509839 0.459803 0.455314
0.579255 0.506055 0.501566
0.648671 0.552307 0.547818
0.718087 0.598559 0.594070
0.196394 0.297306 0.267577
0.271066 0.346633 0.316904
0.345739 0.395960 0.366231
0.410966 0.435842 0.406113
0.437227 0.436757 0.407028
0.509839 0.485043 0.455314
0.579255 0.531163 0.501566
0.648671 0.577138 0.547818
0.718087 0.623114 0.594070
0.245559 0.371530 0.316742
0.319870 0.420214 0.365708
0.394181 0.468899 0.414673
0.459116 0.508261 0.454262
0.484461 0.508261 0.454262
0.509839 0.509306 0.455314
0.579255 0.555281 0.501566
0.648671 0.601257 0.547818
0.718087 0.647232 0.594070
0.291618 0.440656 0.362801
0.365929 0.489340 0.411767
0.440240 0.538025 0.460732
0.505175 0.577387 0.500321
0.530368 0.577387 0.500321
0.554577 0.577387 0.500321
0.579255 0.578624 0.501566
0.648671 0.624599 0.547818
0.718087 0.670575 0.594070
0.337676 0.509782 0.408860
0.411988 0.558466 0.457825
0.486299 0.607151 0.506791
0.551234 0.646512 0.546380
0.576151 0.646512 0.546380
0.600360 0.646512 0.546380
0.623801 0.646512 0.546380
0.648671 0.647942 0.547818
0.718087 0.693917 0.594070
0.383735 0.578908 0.454919
0.458047 0.627592 0.503884
0.532358 0.676277 0.552850
0.597292 0.715638 0.592439
0.621934 0.715638 0.592439
0.646143 0.715638 0.592439
0.669584 0.715638 0.592439
0.693025 0.715638 0.592439
0.718087 0.717260 0.594070
0.184806 0.184806 0.279764
0.210151 0.184806 0.279764
0.235497 0.184806 0.279764
0.260843 0.184806 0.279764
0.298691 0.197309 0.292267
0.373108 0.246610 0.341568
0.442524 0.292862 0.387820
0.511940 0.339114 0.434072
0.581356 0.385367 0.480325
0.184806 0.209999 0.279764
0.259182 0.259029 0.328794
0.284527 0.259029 0.328794
0.309873 0.259029 0.328794
0.347722 0.271532 0.341297
0.421499 0.320474 0.390239
0.490916 0.366726 0.436491
0.560332 0.412978 0.482743
0.629748 0.459231 0.528996
0.184806 0.235239 0.279764
0.259479 0.284566 0.329091
0.333648 0.333390 0.377915
0.358994 0.333390 0.377915
0.396843 0.345893 0.390418
0.469980 0.394475 0.439000
0.539396 0.440727 0.485252
0.608813 0.486979 0.531504
0.678229 0.533231 0.577659
0.184806 0.260478 0.279764
0.259479 0.309805 0.329091
0.334151 0.359133 0.378418
0.408115 0.407751 0.427036
0.445964 0.420254 0.439539
0.518461 0.468476 0.487761
0.587877 0.514728 0.534013
0.657293 0.560980 0.580164
0.726709 0.607232 0.626140
0.196394 0.297306 0.291352
0.271066 0.346633 0.340679
0.345739 0.395960 0.390006
0.420412 0.445287 0.439333
0.483497 0.483027 0.477073
0.555505 0.530854 0.525019
0.624872 0.576780 0.571183
0.693932 0.622400 0.616803
0.762993 0.668020 0.662423
0.245559 0.371530 0.340517
0.319870 0.420214 0.389482
0.394181 0.468899 0.438448
0.468492 0.517583 0.487414
0.530251 0.553927 0.523968
0.555505 0.554973 0.525019
0.624872 0.600899 0.571183
0.693932 0.646518 0.616803
0.762993 0.692138 0.662423
0.291618 0.440656 0.386576
0.365929 0.489340 0.435541
0.440240 0.538025 0.484507
0.514551 0.586709 0.533472
0.575995 0.623013 0.569956
0.600204 0.623013 0.569956
0.624872 0.624241 0.571183
0.693932 0.669861 0.616803
0.762993 0.715481 0.662423
0.337676 0.509782 0.432634
0.411988 0.558466 0.481600
0.486299 0.607151 0.530566
0.560610 0.655835 0.579435
0.621424 0.691785 0.615385
0.645633 0.691785 0.615385
0.669073 0.691785 0.615385
0.693932 0.693204 0.616803
0.762993 0.738823 0.662423
0.383735 0.578908 0.478693
0.458047 0.627592 0.527659
0.532358 0.676277 0.576534
0.606669 0.724961 0.625218
0.666853 0.760557 0.660814
0.691062 0.760557 0.660814
0.714502 0.760557 0.660814
0.737943 0.760557 0.660814
0.762993 0.762166 0.662423
0.232020 0.232020 0.351211
0.257365 0.232020 0.351211
0.282711 0.232020 0.351211
0.308057 0.232020 0.351211
0.333402 0.232020 0.351211
0.373108 0.246610 0.365714
0.442524 0.292862 0.411689
0.511940 0.339114 0.457665
0.581356 0.385367 0.503640
0.232020 0.257213 0.351211
0.306036 0.305884 0.399602
0.331382 0.305884 0.399602
0.356728 0.305884 0.399602
0.382073 0.305884 0.399602
0.421499 0.320474 0.414105
0.490916 0.366726 0.460081
0.560332 0.412978 0.506056
0.629748 0.459231 0.552031
0.232020 0.282453 0.351211
0.306331 0.331418 0.399895
0.380143 0.379885 0.448083
0.405489 0.379885 0.448083
0.430834 0.379885 0.448083
0.469980 0.394475 0.462586
0.539396 0.440727 0.508561
0.608813 0.486979 0.554537
0.678229 0.533231 0.600512
0.232020 0.307692 0.351211
0.306331 0.356658 0.399895
0.380642 0.405624 0.448579
0.454250 0.453885 0.496564
0.479595 0.453885 0.496564
0.518461 0.468476 0.511067
0.587877 0.514728 0.557042
0.657293 0.560980 0.603018
0.726709 0.607232 0.648993
0.232020 0.332932 0.351211
0.306331 0.381898 0.399895
0.380642 0.430863 0.448579
0.454953 0.479829 0.497264
0.528104 0.527662 0.544919
0.566704 0.542053 0.559310
0.635765 0.587673 0.604930
0.704825 0.633292 0.650549
0.773885 0.678912 0.696169
0.245559 0.371530 0.364669
0.319870 0.420214 0.413353
0.394181 0.468899 0.462037
0.468492 0.517583 0.510722
0.542318 0.565995 0.559133
0.600289 0.599756 0.592895
0.669349 0.645376 0.638515
0.738410 0.690996 0.684134
0.807470 0.736615 0.729754
0.291618 0.440656 0.410452
0.365929 0.489340 0.459136
0.440240 0.538025 0.507821
0.514551 0.586709 0.556505
0.587747 0.634766 0.604562
0.644681 0.667491 0.637287
0.669349 0.668719 0.638515
0.738410 0.714338 0.684134
0.807470 0.759958 0.729754
0.337676 0.509782 0.456235
0.411988 0.558466 0.504920
0.486299 0.607151 0.553604
0.560610 0.655835 0.602288
0.633176 0.703538 0.649991
0.690110 0.736263 0.682716
0.713551 0.736263 0.682716
0.738410 0.737681 0.684134
0.807470 0.783301 0.729754
0.383735 0.578908 0.502018
0.458047 0.627592 0.550703
0.532358 0.676277 0.599387
0.606669 0.724961 0.648072
0.678606 0.772310 0.695420
0.735539 0.805034 0.728145
0.758980 0.805034 0.728145
0.782420 0.805034 0.728145
0.807470 0.806643 0.729754
0.275405 0.275405 0.416324
0.300751 0.275405 0.416324
0.326096 0.275405 0.416324
0.351442 0.275405 0.416324
0.376788 0.275405 0.416324
0.401731 0.275405 0.416324
0.442524 0.292862 0.433677
0.511940 0.339114 0.479652
0.581356 0.385367 0.525628
0.275405 0.300598 0.416324
0.349422 0.349269 0.464716
0.374767 0.349269 0.464716
0.400113 0.349269 0.464716
0.425459 0.349269 0.464716
0.450122 0.349269 0.464716
0.490916 0.366726 0.482068
0.560332 0.412978 0.528044
0.629748 0.459231 0.574019
0.275405 0.325838 0.416324
0.349716 0.374804 0.465009
0.423528 0.423270 0.513197
0.448874 0.423270 0.513197
0.474220 0.423270 0.513197
0.498603 0.423270 0.513197
0.539396 0.440727 0.530549
0.608813 0.486979 0.576525
0.678229 0.533231 0.622500
0.275405 0.351078 0.416324
0.349716 0.400043 0.465009
0.424028 0.449009 0.513693
0.497635 0.497271 0.561678
0.522875 0.497271 0.561678
0.547084 0.497271 0.561678
0.587877 0.514728 0.579030
0.657293 0.560980 0.625006
0.726709 0.607232 0.670981
0.275405 0.376317 0.416324
0.349716 0.425283 0.465009
0.424028 0.474249 0.513693
0.498339 0.523133 0.562377
0.570896 0.570454 0.609699
0.595106 0.570454 0.609699
0.635765 0.587673 0.626917
0.704825 0.633292 0.672537
0.773885 0.678912 0.718157
0.275405 0.401198 0.416324
0.349716 0.449882 0.465009
0.424028 0.498567 0.513693
0.498339 0.547251 0.562377
0.571757 0.595433 0.610559
0.642044 0.641511 0.656638
0.682703 0.658730 0.673856
0.751764 0.704349 0.719476
0.820824 0.749969 0.765095
0.291618 0.440656 0.432440
0.365929 0.489340 0.481124
0.440240 0.538025 0.529808
0.514551 0.586709 0.578493
0.587747 0.634766 0.626550
0.659072 0.681882 0.673665
0.712142 0.711511 0.703294
0.781202 0.757131 0.748914
0.850262 0.802750 0.794534
0.337676 0.509782 0.478223
0.411988 0.558466 0.526907
0.486299 0.607151 0.575592
0.560610 0.655835 0.624276
0.633176 0.703538 0.671979
0.704501 0.750653 0.719094
0.756343 0.779055 0.747496
0.781202 0.780473 0.748914
0.850262 0.826093 0.794534
0.383735 0.578908 0.524006
0.458047 0.627592 0.572691
0.532358 0.676277 0.621375
0.606669 0.724961 0.670059
0.678606 0.772310 0.717408
0.749930 0.819425 0.764523
0.801772 0.847826 0.792925
0.825213 0.847826 0.792925
0.850262 0.849435 0.794534
0.318791 0.318791 0.481438
0.344136 0.318791 0.481438
0.369482 0.318791 0.481438
0.394827 0.318791 0.481438
0.420173 0.318791 0.481438
0.444857 0.318791 0.481438
0.468297 0.318791 0.481438
0.511940 0.339114 0.501640
0.581356 0.385367 0.547615
0.318791 0.343984 0.481438
0.392807 0.392655 0.529829
0.418153 0.392655 0.529829
0.443498 0.392655 0.529829
0.468844 0.392655 0.529829
0.493248 0.392655 0.529829
0.516689 0.392655 0.529829
0.560332 0.412978 0.550031
0.629748 0.459231 0.596007
0.318791 0.369223 0.481438
0.393102 0.418189 0.530122
0.466914 0.466655 0.578310
0.492259 0.466655 0.578310
0.517520 0.466655 0.578310
0.541729 0.466655 0.578310
0.565170 0.466655 0.578310
0.608813 0.486979 0.598512
0.678229 0.533231 0.644488
0.318791 0.394463 0.481438
0.393102 0.443429 0.530122
0.467413 0.492394 0.578807
0.541020 0.540656 0.626791
0.566001 0.540656 0.626791
0.590210 0.540656 0.626791
0.613651 0.540656 0.626791
0.657293 0.560980 0.646993
0.726709 0.607232 0.692969
0.318791 0.419703 0.481438
0.393102 0.468668 0.530122
0.467413 0.517574 0.578807
0.541724 0.566259 0.627491
0.613689 0.613247 0.674479
0.637898 0.613247 0.674479
0.661338 0.613247 0.674479
0.704825 0.633292 0.694525
0.773885 0.678912 0.740144
0.318791 0.444324 0.481438
0.393102 0.493008 0.530122
0.467413 0.541693 0.578807
0.541724 0.590377 0.627491
0.614549 0.638225 0.675339
0.684836 0.684304 0.721418
0.708277 0.684304 0.721418
0.751764 0.704349 0.741463
0.820824 0.749969 0.787083
0.318791 0.467667 0.481438
0.393102 0.516351 0.530122
0.467413 0.565035 0.578807
0.541724 0.613720 0.627491
0.614549 0.661568 0.675339
0.685874 0.708683 0.722455
0.753706 0.753075 0.766847
0.797193 0.773121 0.786892
0.866253 0.818741 0.832512
0.337676 0.509782 0.500211
0.411988 0.558466 0.548895
0.486299 0.607151 0.597579
0.560610 0.655835 0.646264
0.633176 0.703538 0.693967
0.704501 0.750653 0.741082
0.773561 0.796273 0.786702
0.823994 0.823265 0.813694
0.893054 0.868885 0.859314
0.383735 0.578908 0.545994
0.458047 0.627592 0.594678
0.532358 0.676277 0.643363
0.606669 0.724961 0.692047
0.678606 0.772310 0.739396
0.749930 0.819425 0.786511
0.818990 0.865045 0.832131
0.868005 0.890619 0.857705
0.893054 0.892228 0.859314
0.362176 0.362176 0.546551
0.387522 0.362176 0.546551
0.412867 0.362176 0.546551
0.438213 0.362176 0.546551
0.463558 0.362176 0.546551
0.487983 0.362176 0.546551
0.511423 0.362176 0.546551
0.534864 0.362176 0.546551
0.581356 0.385367 0.569603
0.362176 0.387369 0.546551
0.436193 0.436040 0.594943
0.461538 0.436040 0.594943
0.486884 0.436040 0.594943
0.512165 0.436040 0.594943
0.536374 0.436040 0.594943
0.559815 0.436040 0.594943
0.583255 0.436040 0.594943
0.629748 0.459231 0.617995
0.362176 0.412609 0.546551
0.436487 0.461574 0.595236
0.510299 0.510041 0.643424
0.535645 0.510041 0.643424
0.560646 0.510041 0.643424
0.584855 0.510041 0.643424
0.608296 0.510041 0.643424
0.631736 0.510041 0.643424
0.678229 0.533231 0.666476
0.362176 0.437849 0.546551
0.436487 0.486814 0.595236
0.510799 0.535780 0.643920
0.584406 0.584041 0.691905
0.609127 0.584041 0.691905
0.633336 0.584041 0.691905
0.656777 0.584041 0.691905
0.680217 0.584041 0.691905
0.726709 0.607232 0.714957
0.362176 0.463088 0.546551
0.436487 0.512016 0.595236
0.510799 0.560700 0.643920
0.585110 0.609385 0.692605
0.656481 0.656039 0.739259
0.680690 0.656039 0.739259
0.704131 0.656039 0.739259
0.727571 0.656039 0.739259
0.773885 0.678912 0.762132
0.362176 0.487450 0.546551
0.436487 0.536134 0.595236
0.510799 0.584819 0.643920
0.585110 0.633503 0.692605
0.657341 0.681017 0.740119
0.727629 0.727096 0.786197
0.751069 0.727096 0.786197
0.774510 0.727096 0.786197
0.820824 0.749969 0.809071
0.362176 0.510792 0.546551
0.436487 0.559477 0.595236
0.510799 0.608161 0.643920
0.585110 0.656846 0.692605
0.657341 0.704360 0.740119
0.728666 0.751475 0.787234
0.796498 0.795867 0.831626
0.819939 0.795867 0.831626
0.866253 0.818741 0.854500
0.362176 0.534135 0.546551
0.436487 0.582819 0.595236
0.510799 0.631504 0.643920
0.585110 0.680188 0.692605
0.657341 0.727703 0.740119
0.728666 0.774818 0.787234
0.797726 0.820438 0.832854
0.865368 0.864639 0.877056
0.911682 0.887513 0.899929
0.383735 0.578908 0.567982
0.458047 0.627592 0.616666
0.532358 0.676277 0.665350
0.606669 0.724961 0.714035
0.678606 0.772310 0.761383
0.749930 0.819425 0.808499
0.818990 0.865045 0.854119
0.888051 0.910665 0.899738
0.935847 0.935020 0.924094
