docs/luts/fuji_recipes/Classic_RR_Bleach_Bypass_1_2.cube
TITLE "Fujifilm Recipe: RR Bleach Bypass 1/2 (Classic)"
# FilmSim=Classic HL=3 SH=4 Col=2 WB=Auto WBR=-1 WBB=3
LUT_3D_SIZE 33
DOMAIN_MIN 0.0 0.0 0.0
DOMAIN_MAX 1.0 1.0 1.0
0.000000 0.000000 0.000000
0.026845 0.000000 0.000000
0.050742 0.000000 0.000000
0.074233 0.000000 0.000000
0.097725 0.000000 0.000000
0.121216 0.000000 0.000000
0.144708 0.000000 0.000000
0.168199 0.000000 0.000000
0.191691 0.000000 0.000000
0.215183 0.000000 0.000000
0.238674 0.000000 0.000000
0.262166 0.000000 0.000000
0.285657 0.000000 0.000000
0.309149 0.000000 0.000000
0.332640 0.000000 0.000000
0.358867 0.000000 0.000000
0.381979 0.000000 0.000000
0.405092 0.000000 0.000000
0.500515 0.000000 0.000000
0.530251 0.000000 0.000000
0.559987 0.000000 0.000000
0.589723 0.000000 0.000000
0.619459 0.000000 0.000000
0.649195 0.000000 0.000000
0.678931 0.000000 0.000000
0.708667 0.000000 0.000000
0.738403 0.000000 0.000000
0.768139 0.000000 0.000000
0.797875 0.000000 0.000000
0.825559 0.000000 0.000000
0.825559 0.000000 0.000000
0.825559 0.000000 0.000000
0.825559 0.000000 0.000000
0.000000 0.027258 0.000000
0.026845 0.027258 0.000000
0.050742 0.027258 0.000000
0.074233 0.027258 0.000000
0.097725 0.027258 0.000000
0.121216 0.027258 0.000000
0.144708 0.027258 0.000000
0.168199 0.027258 0.000000
0.191691 0.027258 0.000000
0.215183 0.027258 0.000000
0.238674 0.027258 0.000000
0.262166 0.027258 0.000000
0.285657 0.027258 0.000000
0.309149 0.027258 0.000000
0.332640 0.027258 0.000000
0.358867 0.027258 0.000000
0.381979 0.027258 0.000000
0.405092 0.027258 0.000000
0.500515 0.025829 0.000000
0.530251 0.025789 0.000000
0.559987 0.025754 0.000000
0.589723 0.025722 0.000000
0.619459 0.025694 0.000000
0.649195 0.025668 0.000000
0.678931 0.025644 0.000000
0.708667 0.025623 0.000000
0.738403 0.025603 0.000000
0.768139 0.025585 0.000000
0.797875 0.025568 0.000000
0.825559 0.025553 0.000000
0.825559 0.025553 0.000000
0.825559 0.025553 0.000000
0.825559 0.025553 0.000000
0.000000 0.051664 0.000000
0.026845 0.051664 0.000000
0.050742 0.051664 0.000000
0.074233 0.051664 0.000000
0.097725 0.051664 0.000000
0.121216 0.051664 0.000000
0.144708 0.051664 0.000000
0.168199 0.051664 0.000000
0.191691 0.051664 0.000000
0.215183 0.051664 0.000000
0.238674 0.051664 0.000000
0.262166 0.051664 0.000000
0.285657 0.051664 0.000000
0.309149 0.051664 0.000000
0.332640 0.051664 0.000000
0.358867 0.051664 0.000000
0.381979 0.051664 0.000000
0.405092 0.051664 0.000000
0.500515 0.048956 0.000000
0.530251 0.048881 0.000000
0.559987 0.048814 0.000000
0.589723 0.048754 0.000000
0.619459 0.048700 0.000000
0.649195 0.048651 0.000000
0.678931 0.048606 0.000000
0.708667 0.048565 0.000000
0.738403 0.048527 0.000000
0.768139 0.048493 0.000000
0.797875 0.048461 0.000000
0.825559 0.048433 0.000000
0.825559 0.048433 0.000000
0.825559 0.048433 0.000000
0.825559 0.048433 0.000000
0.000000 0.075657 0.000000
0.026845 0.075657 0.000000
0.050742 0.075657 0.000000
0.074233 0.075657 0.000000
0.097725 0.075657 0.000000
0.121216 0.075657 0.000000
0.144708 0.075657 0.000000
0.168199 0.075657 0.000000
0.191691 0.075657 0.000000
0.215183 0.075657 0.000000
0.238674 0.075657 0.000000
0.262166 0.075657 0.000000
0.285657 0.075657 0.000000
0.309149 0.075657 0.000000
0.332640 0.075657 0.000000
0.358867 0.075657 0.000000
0.381979 0.075657 0.000000
0.405092 0.075657 0.000000
0.500515 0.071692 0.000000
0.530251 0.071582 0.000000
0.559987 0.071484 0.000000
0.589723 0.071396 0.000000
0.619459 0.071316 0.000000
0.649195 0.071244 0.000000
0.678931 0.071179 0.000000
0.708667 0.071119 0.000000
0.738403 0.071064 0.000000
0.768139 0.071013 0.000000
0.797875 0.070966 0.000000
0.825559 0.070926 0.000000
0.825559 0.070926 0.000000
0.825559 0.070926 0.000000
0.825559 0.070926 0.000000
0.000000 0.099651 0.000000
0.026845 0.099651 0.000000
0.050742 0.099651 0.000000
0.074233 0.099651 0.000000
0.097725 0.099651 0.000000
0.121216 0.099651 0.000000
0.144708 0.099651 0.000000
0.168199 0.099651 0.000000
0.191691 0.099651 0.000000
0.215183 0.099651 0.000000
0.238674 0.099651 0.000000
0.262166 0.099651 0.000000
0.285657 0.099651 0.000000
0.309149 0.099651 0.000000
0.332640 0.099651 0.000000
0.358867 0.099651 0.000000
0.381979 0.099651 0.000000
0.405092 0.099651 0.000000
0.500515 0.094427 0.000000
0.530251 0.094282 0.000000
0.559987 0.094153 0.000000
0.589723 0.094037 0.000000
0.619459 0.093933 0.000000
0.649195 0.093838 0.000000
0.678931 0.093752 0.000000
0.708667 0.093673 0.000000
0.738403 0.093600 0.000000
0.768139 0.093534 0.000000
0.797875 0.093472 0.000000
0.825559 0.093419 0.000000
0.825559 0.093419 0.000000
0.825559 0.093419 0.000000
0.825559 0.093419 0.000000
0.000000 0.123644 0.000000
0.026845 0.123644 0.000000
0.050742 0.123644 0.000000
0.074233 0.123644 0.000000
0.097725 0.123644 0.000000
0.121216 0.123644 0.000000
0.144708 0.123644 0.000000
0.168199 0.123644 0.000000
0.191691 0.123644 0.000000
0.215183 0.123644 0.000000
0.238674 0.123644 0.000000
0.262166 0.123644 0.000000
0.285657 0.123644 0.000000
0.309149 0.123644 0.000000
0.332640 0.123644 0.000000
0.358867 0.123644 0.000000
0.381979 0.123644 0.000000
0.405092 0.123644 0.000000
0.500515 0.117163 0.000000
0.530251 0.116983 0.000000
0.559987 0.116823 0.000000
0.589723 0.116679 0.000000
0.619459 0.116549 0.000000
0.649195 0.116432 0.000000
0.678931 0.116325 0.000000
0.708667 0.116227 0.000000
0.738403 0.116137 0.000000
0.768139 0.116054 0.000000
0.797875 0.115977 0.000000
0.825559 0.115911 0.000000
0.825559 0.115911 0.000000
0.825559 0.115911 0.000000
0.825559 0.115911 0.000000
0.000000 0.147637 0.000000
0.026845 0.147637 0.000000
0.050742 0.147637 0.000000
0.074233 0.147637 0.000000
0.097725 0.147637 0.000000
0.121216 0.147637 0.000000
0.144708 0.147637 0.000000
0.168199 0.147637 0.000000
0.191691 0.147637 0.000000
0.215183 0.147637 0.000000
0.238674 0.147637 0.000000
0.262166 0.147637 0.000000
0.285657 0.147637 0.000000
0.309149 0.147637 0.000000
0.332640 0.147637 0.000000
0.358867 0.147637 0.000000
0.381979 0.147637 0.000000
0.405092 0.147637 0.000000
0.500515 0.139899 0.000000
0.530251 0.139684 0.000000
0.559987 0.139492 0.000000
0.589723 0.139321 0.000000
0.619459 0.139166 0.000000
0.649195 0.139025 0.000000
0.678931 0.138897 0.000000
0.708667 0.138781 0.000000
0.738403 0.138673 0.000000
0.768139 0.138574 0.000000
0.797875 0.138483 0.000000
0.825559 0.138404 0.000000
0.825559 0.138404 0.000000
0.825559 0.138404 0.000000
0.825559 0.138404 0.000000
0.000000 0.171630 0.000000
0.026845 0.171630 0.000000
0.050742 0.171630 0.000000
0.074233 0.171630 0.000000
0.097725 0.171630 0.000000
0.121216 0.171630 0.000000
0.144708 0.171630 0.000000
0.168199 0.171630 0.000000
0.191691 0.171630 0.000000
0.215183 0.171630 0.000000
0.238674 0.171630 0.000000
0.262166 0.171630 0.000000
0.285657 0.171630 0.000000
0.309149 0.171630 0.000000
0.332640 0.171630 0.000000
0.358867 0.171630 0.000000
0.381979 0.171630 0.000000
0.405092 0.171630 0.000000
0.500515 0.162634 0.000000
0.530251 0.162385 0.000000
0.559987 0.162162 0.000000
0.589723 0.161962 0.000000
0.619459 0.161782 0.000000
0.649195 0.161619 0.000000
0.678931 0.161470 0.000000
0.708667 0.161334 0.000000
0.738403 0.161210 0.000000
0.768139 0.161095 0.000000
0.797875 0.160989 0.000000
0.825559 0.160897 0.000000
0.825559 0.160897 0.000000
0.825559 0.160897 0.000000
0.825559 0.160897 0.000000
0.000000 0.195623 0.000000
0.026845 0.195623 0.000000
0.050742 0.195623 0.000000
0.074233 0.195623 0.000000
0.097725 0.195623 0.000000
0.121216 0.195623 0.000000
0.144708 0.195623 0.000000
0.168199 0.195623 0.000000
0.191691 0.195623 0.000000
0.215183 0.195623 0.000000
0.238674 0.195623 0.000000
0.262166 0.195623 0.000000
0.285657 0.195623 0.000000
0.309149 0.195623 0.000000
0.332640 0.195623 0.000000
0.358867 0.195623 0.000000
0.381979 0.195623 0.000000
0.405092 0.195623 0.000000
0.500515 0.185370 0.000000
0.530251 0.185085 0.000000
0.559987 0.184832 0.000000
0.589723 0.184604 0.000000
0.619459 0.184399 0.000000
0.649195 0.184213 0.000000
0.678931 0.184043 0.000000
0.708667 0.183888 0.000000
0.738403 0.183746 0.000000
0.768139 0.183615 0.000000
0.797875 0.183494 0.000000
0.825559 0.183389 0.000000
0.825559 0.183389 0.000000
0.825559 0.183389 0.000000
0.825559 0.183389 0.000000
0.000000 0.219617 0.000000
0.026845 0.219617 0.000000
0.050742 0.219617 0.000000
0.074233 0.219617 0.000000
0.097725 0.219617 0.000000
0.121216 0.219617 0.000000
0.144708 0.219617 0.000000
0.168199 0.219617 0.000000
0.191691 0.219617 0.000000
0.215183 0.219617 0.000000
0.238674 0.219617 0.000000
0.262166 0.219617 0.000000
0.285657 0.219617 0.000000
0.309149 0.219617 0.000000
0.332640 0.219617 0.000000
0.358867 0.219617 0.000000
0.381979 0.219617 0.000000
0.405092 0.219617 0.000000
0.500515 0.208106 0.000000
0.530251 0.207786 0.000000
0.559987 0.207501 0.000000
0.589723 0.207246 0.000000
0.619459 0.207015 0.000000
0.649195 0.206806 0.000000
0.678931 0.206616 0.000000
0.708667 0.206442 0.000000
0.738403 0.206283 0.000000
0.768139 0.206136 0.000000
0.797875 0.206000 0.000000
0.825559 0.205882 0.000000
0.825559 0.205882 0.000000
0.825559 0.205882 0.000000
0.825559 0.205882 0.000000
0.000000 0.243610 0.000000
0.026845 0.243610 0.000000
0.050742 0.243610 0.000000
0.074233 0.243610 0.000000
0.097725 0.243610 0.000000
0.121216 0.243610 0.000000
0.144708 0.243610 0.000000
0.168199 0.243610 0.000000
0.191691 0.243610 0.000000
0.215183 0.243610 0.000000
0.238674 0.243610 0.000000
0.262166 0.243610 0.000000
0.285657 0.243610 0.000000
0.309149 0.243610 0.000000
0.332640 0.243610 0.000000
0.358867 0.243610 0.000000
0.381979 0.243610 0.000000
0.405092 0.243610 0.000000
0.500515 0.230841 0.000000
0.530251 0.230487 0.000000
0.559987 0.230171 0.000000
0.589723 0.229887 0.000000
0.619459 0.229632 0.000000
0.649195 0.229400 0.000000
0.678931 0.229189 0.000000
0.708667 0.228996 0.000000
0.738403 0.228819 0.000000
0.768139 0.228656 0.000000
0.797875 0.228505 0.000000
0.825559 0.228375 0.000000
0.825559 0.228375 0.000000
0.825559 0.228375 0.000000
0.825559 0.228375 0.000000
0.000000 0.267603 0.000000
0.026845 0.267603 0.000000
0.050742 0.267603 0.000000
0.074233 0.267603 0.000000
0.097725 0.267603 0.000000
0.121216 0.267603 0.000000
0.144708 0.267603 0.000000
0.168199 0.267603 0.000000
0.191691 0.267603 0.000000
0.215183 0.267603 0.000000
0.238674 0.267603 0.000000
0.262166 0.267603 0.000000
0.285657 0.267603 0.000000
0.309149 0.267603 0.000000
0.332640 0.267603 0.000000
0.358867 0.267603 0.000000
0.381979 0.267603 0.000000
0.405092 0.267603 0.000000
0.500515 0.253577 0.000000
0.530251 0.253187 0.000000
0.559987 0.252840 0.000000
0.589723 0.252529 0.000000
0.619459 0.252248 0.000000
0.649195 0.251994 0.000000
0.678931 0.251762 0.000000
0.708667 0.251550 0.000000
0.738403 0.251356 0.000000
0.768139 0.251176 0.000000
0.797875 0.251011 0.000000
0.825559 0.250867 0.000000
0.825559 0.250867 0.000000
0.825559 0.250867 0.000000
0.825559 0.250867 0.000000
0.000000 0.291596 0.000000
0.026845 0.291596 0.000000
0.050742 0.291596 0.000000
0.074233 0.291596 0.000000
0.097725 0.291596 0.000000
0.121216 0.291596 0.000000
0.144708 0.291596 0.000000
0.168199 0.291596 0.000000
0.191691 0.291596 0.000000
0.215183 0.291596 0.000000
0.238674 0.291596 0.000000
0.262166 0.291596 0.000000
0.285657 0.291596 0.000000
0.309149 0.291596 0.000000
0.332640 0.291596 0.000000
0.358867 0.291596 0.000000
0.381979 0.291596 0.000000
0.405092 0.291596 0.000000
0.500515 0.276313 0.000000
0.530251 0.275888 0.000000
0.559987 0.275510 0.000000
0.589723 0.275171 0.000000
0.619459 0.274865 0.000000
0.649195 0.274587 0.000000
0.678931 0.274335 0.000000
0.708667 0.274104 0.000000
0.738403 0.273892 0.000000
0.768139 0.273697 0.000000
0.797875 0.273516 0.000000
0.825559 0.273360 0.000000
0.825559 0.273360 0.000000
0.825559 0.273360 0.000000
0.825559 0.273360 0.000000
0.000000 0.315589 0.000000
0.026845 0.315589 0.000000
0.050742 0.315589 0.000000
0.074233 0.315589 0.000000
0.097725 0.315589 0.000000
0.121216 0.315589 0.000000
0.144708 0.315589 0.000000
0.168199 0.315589 0.000000
0.191691 0.315589 0.000000
0.215183 0.315589 0.000000
0.238674 0.315589 0.000000
0.262166 0.315589 0.000000
0.285657 0.315589 0.000000
0.309149 0.315589 0.000000
0.332640 0.315589 0.000000
0.358867 0.315589 0.000000
0.381979 0.315589 0.000000
0.405092 0.315589 0.000000
0.500515 0.299048 0.000000
0.530251 0.298589 0.000000
0.559987 0.298179 0.000000
0.589723 0.297812 0.000000
0.619459 0.297481 0.000000
0.649195 0.297181 0.000000
0.678931 0.296908 0.000000
0.708667 0.296658 0.000000
0.738403 0.296429 0.000000
0.768139 0.296217 0.000000
0.797875 0.296022 0.000000
0.825559 0.295853 0.000000
0.825559 0.295853 0.000000
0.825559 0.295853 0.000000
0.825559 0.295853 0.000000
0.000000 0.339583 0.000000
0.026845 0.339583 0.000000
0.050742 0.339583 0.000000
0.074233 0.339583 0.000000
0.097725 0.339583 0.000000
0.121216 0.339583 0.000000
0.144708 0.339583 0.000000
0.168199 0.339583 0.000000
0.191691 0.339583 0.000000
0.215183 0.339583 0.000000
0.238674 0.339583 0.000000
0.262166 0.339583 0.000000
0.285657 0.339583 0.000000
0.309149 0.339583 0.000000
0.332640 0.339583 0.000000
0.358867 0.339583 0.000000
0.381979 0.339583 0.000000
0.405092 0.339583 0.000000
0.500515 0.321784 0.000000
0.530251 0.321290 0.000000
0.559987 0.320849 0.000000
0.589723 0.320454 0.000000
0.619459 0.320098 0.000000
0.649195 0.319775 0.000000
0.678931 0.319481 0.000000
0.708667 0.319212 0.000000
0.738403 0.318965 0.000000
0.768139 0.318738 0.000000
0.797875 0.318527 0.000000
0.825559 0.318346 0.000000
0.825559 0.318346 0.000000
0.825559 0.318346 0.000000
0.825559 0.318346 0.000000
0.000000 0.366191 0.000000
0.026845 0.366191 0.000000
0.050742 0.366191 0.000000
0.074233 0.366191 0.000000
0.097725 0.366191 0.000000
0.121216 0.366191 0.000000
0.144708 0.366191 0.000000
0.168199 0.366191 0.000000
0.191691 0.366191 0.000000
0.215183 0.366191 0.000000
0.238674 0.366191 0.000000
0.262166 0.366191 0.000000
0.285657 0.366191 0.000000
0.309149 0.366191 0.000000
0.332640 0.366191 0.000000
0.358867 0.366191 0.000000
0.381979 0.366191 0.000000
0.405092 0.366191 0.000000
0.500515 0.346997 0.000000
0.530251 0.346464 0.000000
0.559987 0.345989 0.000000
0.589723 0.345563 0.000000
0.619459 0.345179 0.000000
0.649195 0.344831 0.000000
0.678931 0.344514 0.000000
0.708667 0.344224 0.000000
0.738403 0.343957 0.000000
0.768139 0.343712 0.000000
0.797875 0.431255 0.000000
0.825559 0.432252 0.000000
0.825559 0.432252 0.000000
0.825559 0.432252 0.000000
0.825559 0.432252 0.000000
0.000000 0.389797 0.000000
0.026845 0.389797 0.000000
0.050742 0.389797 0.000000
0.074233 0.389797 0.000000
0.097725 0.389797 0.000000
0.121216 0.389797 0.000000
0.144708 0.389797 0.000000
0.168199 0.389797 0.000000
0.191691 0.389797 0.000000
0.215183 0.389797 0.000000
0.238674 0.389797 0.000000
0.262166 0.389797 0.000000
0.285657 0.389797 0.000000
0.309149 0.389797 0.000000
0.332640 0.389797 0.000000
0.358867 0.389797 0.000000
0.381979 0.389797 0.000000
0.405092 0.389797 0.000000
0.500515 0.369366 0.000000
0.530251 0.368799 0.000000
0.559987 0.368293 0.000000
0.589723 0.367840 0.000000
0.619459 0.454992 0.000000
0.649195 0.455875 0.000000
0.678931 0.456796 0.000000
0.708667 0.457751 0.000000
0.738403 0.458735 0.000000
0.768139 0.459745 0.000000
0.797875 0.460779 0.000000
0.825559 0.461759 0.000000
0.825559 0.461759 0.000000
0.825559 0.461759 0.000000
0.825559 0.461759 0.000000
0.000000 0.481472 0.000000
0.025465 0.481472 0.000000
0.048134 0.481472 0.000000
0.070419 0.481472 0.000000
0.092703 0.481472 0.000000
0.114988 0.481472 0.000000
0.137272 0.481472 0.000000
0.159557 0.481472 0.000000
0.181841 0.481472 0.000000
0.204125 0.481472 0.000000
0.226410 0.481472 0.000000
0.248694 0.481472 0.000000
0.270979 0.481472 0.000000
0.293263 0.481472 0.000000
0.315548 0.481472 0.000000
0.340426 0.481472 0.000000
0.362351 0.481472 0.000000
0.384276 0.481472 0.000000
0.500515 0.481814 0.000000
0.530251 0.482422 0.000000
0.559987 0.483106 0.000000
0.589723 0.483856 0.000000
0.619459 0.484661 0.000000
0.649195 0.485514 0.000000
0.678931 0.486408 0.000000
0.708667 0.487338 0.000000
0.738403 0.488299 0.000000
0.768139 0.489288 0.000000
0.797875 0.490302 0.000000
0.825559 0.491266 0.000000
0.825559 0.491266 0.000000
0.825559 0.491266 0.000000
0.825559 0.491266 0.000000
0.000000 0.511843 0.000000
0.025422 0.511843 0.000000
0.048053 0.511843 0.000000
0.070300 0.511843 0.000000
0.092546 0.511843 0.000000
0.114793 0.511843 0.000000
0.137040 0.511843 0.000000
0.159287 0.511843 0.000000
0.181533 0.511843 0.000000
0.203780 0.511843 0.000000
0.226027 0.511843 0.000000
0.248274 0.511843 0.000000
0.270520 0.511843 0.000000
0.292767 0.511843 0.000000
0.315014 0.511843 0.000000
0.339851 0.511843 0.000000
0.361739 0.511843 0.000000
0.471541 0.511843 0.000000
0.500725 0.511843 0.000000
0.530251 0.512201 0.000000
0.559987 0.512845 0.000000
0.589723 0.513558 0.000000
0.619459 0.514330 0.000000
0.649195 0.515153 0.000000
0.678931 0.516020 0.000000
0.708667 0.516925 0.000000
0.738403 0.517863 0.000000
0.768139 0.518831 0.000000
0.797875 0.519825 0.000000
0.825559 0.520772 0.000000
0.825559 0.520772 0.000000
0.825559 0.520772 0.000000
0.825559 0.520772 0.000000
0.000000 0.542214 0.000000
0.025384 0.542214 0.000000
0.047981 0.542214 0.000000
0.070194 0.542214 0.000000
0.092408 0.542214 0.000000
0.114621 0.542214 0.000000
0.136834 0.542214 0.000000
0.159048 0.542214 0.000000
0.181261 0.542214 0.000000
0.203475 0.542214 0.000000
0.225688 0.542214 0.000000
0.247901 0.542214 0.000000
0.270115 0.542214 0.000000
0.292328 0.542214 0.000000
0.314542 0.542214 0.000000
0.339341 0.542214 0.000000
0.361196 0.542214 0.000000
0.472210 0.542214 0.000000
0.501350 0.542214 0.000000
0.530490 0.542214 0.000000
0.559987 0.542584 0.000000
0.589723 0.543260 0.000000
0.619459 0.543999 0.000000
0.649195 0.544792 0.000000
0.678931 0.545631 0.000000
0.708667 0.546511 0.000000
0.738403 0.547427 0.000000
0.768139 0.548374 0.000000
0.797875 0.549349 0.000000
0.825559 0.550279 0.000000
0.825559 0.550279 0.000000
0.825559 0.550279 0.000000
0.825559 0.550279 0.000000
0.000000 0.572585 0.000000
0.025350 0.572585 0.000000
0.047917 0.572585 0.000000
0.070100 0.572585 0.000000
0.092284 0.572585 0.000000
0.114468 0.572585 0.000000
0.136651 0.572585 0.000000
0.158835 0.572585 0.000000
0.181019 0.572585 0.000000
0.203202 0.572585 0.000000
0.225386 0.572585 0.000000
0.247570 0.572585 0.000000
0.269753 0.572585 0.000000
0.291937 0.572585 0.000000
0.314121 0.572585 0.000000
0.338887 0.572585 0.000000
0.360713 0.572585 0.000000
0.472952 0.572585 0.000000
0.502053 0.572585 0.000000
0.531155 0.572585 0.000000
0.560256 0.572585 0.000000
0.589723 0.572962 0.000000
0.619459 0.573668 0.000000
0.649195 0.574431 0.000000
0.678931 0.575243 0.000000
0.708667 0.576098 0.000000
0.738403 0.576991 0.000000
0.768139 0.577917 0.000000
0.797875 0.578872 0.000000
0.825559 0.579785 0.000000
0.825559 0.579785 0.000000
0.825559 0.579785 0.000000
0.825559 0.579785 0.000000
0.000000 0.602956 0.000000
0.025320 0.602956 0.000000
0.047859 0.602956 0.000000
0.070016 0.602956 0.000000
0.092173 0.602956 0.000000
0.114330 0.602956 0.000000
0.136487 0.602956 0.000000
0.158644 0.602956 0.000000
0.180801 0.602956 0.000000
0.202958 0.602956 0.000000
0.225115 0.602956 0.000000
0.247272 0.602956 0.000000
0.269429 0.602956 0.000000
0.291586 0.602956 0.000000
0.313743 0.602956 0.000000
0.338479 0.602956 0.000000
0.360279 0.602956 0.000000
0.473756 0.602956 0.000000
0.502822 0.602956 0.000000
0.531888 0.602956 0.000000
0.560955 0.602956 0.000000
0.590021 0.602956 0.000000
0.619459 0.603337 0.000000
0.649195 0.604070 0.000000
0.678931 0.604855 0.000000
0.708667 0.605685 0.000000
0.738403 0.606555 0.000000
0.768139 0.607460 0.000000
0.797875 0.608396 0.000000
0.825559 0.609292 0.000000
0.825559 0.609292 0.000000
0.825559 0.609292 0.000000
0.825559 0.609292 0.000000
0.000000 0.633327 0.000000
0.025292 0.633327 0.000000
0.047807 0.633327 0.000000
0.069940 0.633327 0.000000
0.092073 0.633327 0.000000
0.114206 0.633327 0.000000
0.136339 0.633327 0.000000
0.158472 0.633327 0.000000
0.180605 0.633327 0.000000
0.202738 0.633327 0.000000
0.224871 0.633327 0.000000
0.247004 0.633327 0.000000
0.269137 0.633327 0.000000
0.291269 0.633327 0.000000
0.313402 0.633327 0.000000
0.338112 0.633327 0.000000
0.359888 0.633327 0.000000
0.474613 0.633327 0.000000
0.503647 0.633327 0.000000
0.532682 0.633327 0.000000
0.561717 0.633327 0.000000
0.590751 0.633327 0.000000
0.619786 0.633327 0.000000
0.649195 0.633709 0.000000
0.678931 0.634467 0.000000
0.708667 0.635272 0.000000
0.738403 0.636119 0.000000
0.768139 0.637003 0.000000
0.797875 0.637919 0.000000
0.825559 0.638798 0.000000
0.825559 0.638798 0.000000
0.825559 0.638798 0.000000
0.825559 0.638798 0.000000
0.000000 0.663698 0.000000
0.025267 0.663698 0.000000
0.047760 0.663698 0.000000
0.069871 0.663698 0.000000
0.091982 0.663698 0.000000
0.114093 0.663698 0.000000
0.136205 0.663698 0.000000
0.158316 0.663698 0.000000
0.180427 0.663698 0.000000
0.202538 0.663698 0.000000
0.224649 0.663698 0.000000
0.246760 0.663698 0.000000
0.268871 0.663698 0.000000
0.290982 0.663698 0.000000
0.313094 0.663698 0.000000
0.337779 0.663698 0.000000
0.446509 0.663698 0.000000
0.475515 0.663698 0.000000
0.504521 0.663698 0.000000
0.533527 0.663698 0.000000
0.562533 0.663698 0.000000
0.591539 0.663698 0.000000
0.620545 0.663698 0.000000
0.649551 0.663698 0.000000
0.678931 0.664079 0.000000
0.708667 0.664859 0.000000
0.738403 0.665683 0.000000
0.768139 0.666546 0.000000
0.797875 0.667442 0.000000
0.825559 0.668305 0.000000
0.825559 0.668305 0.000000
0.825559 0.668305 0.000000
0.825559 0.668305 0.000000
0.000000 0.694069 0.000000
0.025245 0.694069 0.000000
0.047717 0.694069 0.000000
0.069808 0.694069 0.000000
0.091900 0.694069 0.000000
0.113991 0.694069 0.000000
0.136082 0.694069 0.000000
0.158173 0.694069 0.000000
0.180265 0.694069 0.000000
0.202356 0.694069 0.000000
0.224447 0.694069 0.000000
0.246539 0.694069 0.000000
0.268630 0.694069 0.000000
0.290721 0.694069 0.000000
0.312812 0.694069 0.000000
0.337475 0.694069 0.000000
0.447476 0.694069 0.000000
0.476456 0.694069 0.000000
0.505436 0.694069 0.000000
0.534416 0.694069 0.000000
0.563396 0.694069 0.000000
0.592376 0.694069 0.000000
0.621356 0.694069 0.000000
0.650336 0.694069 0.000000
0.679316 0.694069 0.000000
0.708667 0.694446 0.000000
0.738403 0.695247 0.000000
0.768139 0.696088 0.000000
0.797875 0.696966 0.000000
0.825559 0.697811 0.000000
0.825559 0.697811 0.000000
0.825559 0.697811 0.000000
0.825559 0.697811 0.000000
0.000000 0.724440 0.000000
0.025224 0.724440 0.000000
0.047678 0.724440 0.000000
0.069751 0.724440 0.000000
0.091824 0.724440 0.000000
0.113897 0.724440 0.000000
0.135970 0.724440 0.000000
0.158043 0.724440 0.000000
0.180116 0.724440 0.000000
0.202190 0.724440 0.000000
0.224263 0.724440 0.000000
0.246336 0.724440 0.000000
0.268409 0.724440 0.000000
0.290482 0.724440 0.000000
0.312555 0.724440 0.000000
0.337198 0.724440 0.000000
0.448475 0.724440 0.000000
0.477432 0.724440 0.000000
0.506388 0.724440 0.000000
0.535344 0.724440 0.000000
0.564300 0.724440 0.000000
0.593256 0.724440 0.000000
0.622212 0.724440 0.000000
0.651168 0.724440 0.000000
0.680124 0.724440 0.000000
0.709081 0.724440 0.000000
0.738403 0.724811 0.000000
0.768139 0.725631 0.000000
0.797875 0.726489 0.000000
0.825559 0.727318 0.000000
0.825559 0.727318 0.000000
0.825559 0.727318 0.000000
0.825559 0.727318 0.000000
0.000000 0.754811 0.000000
0.025205 0.754811 0.000000
0.047642 0.754811 0.000000
0.069698 0.754811 0.000000
0.091755 0.754811 0.000000
0.113811 0.754811 0.000000
0.135868 0.754811 0.000000
0.157924 0.754811 0.000000
0.179980 0.754811 0.000000
0.202037 0.754811 0.000000
0.224093 0.754811 0.000000
0.246150 0.754811 0.000000
0.268206 0.754811 0.000000
0.290263 0.754811 0.000000
0.312319 0.754811 0.000000
0.336943 0.754811 0.000000
0.449503 0.754811 0.000000
0.478437 0.754811 0.000000
0.507371 0.754811 0.000000
0.536306 0.754811 0.000000
0.565240 0.754811 0.000000
0.594174 0.754811 0.000000
0.623108 0.754811 0.000000
0.652043 0.754811 0.000000
