docs/luts/fuji_recipes/Classic_EM_Cross_Process.cube
TITLE "Fujifilm Recipe: EM Cross Process (Classic)"
# FilmSim=Classic HL=1 SH=2 Col=-1 WB=Auto WBR=-3 WBB=-8
LUT_3D_SIZE 5
DOMAIN_MIN 0.0 0.0 0.0
DOMAIN_MAX 1.0 1.0 1.0
0.000000 0.000000 0.000000
0.168691 0.042357 0.042357
0.337381 0.084715 0.084715
0.553625 0.131876 0.131876
0.740914 0.175658 0.175658
0.045558 0.181439 0.045558
0.171892 0.181439 0.045558
0.337381 0.220595 0.084715
0.553625 0.267756 0.131876
0.740914 0.311539 0.175658
0.091159 0.363045 0.091159
0.217492 0.363045 0.091159
0.343825 0.363045 0.091159
0.553625 0.403762 0.131876
0.740914 0.447545 0.175658
0.141889 0.596457 0.141889
0.268222 0.596457 0.141889
0.394555 0.596457 0.141889
0.564323 0.596457 0.141889
0.740914 0.632539 0.175658
0.189023 0.798086 0.189023
0.315357 0.798086 0.189023
0.441690 0.798086 0.189023
0.614686 0.798086 0.189023
0.755194 0.798086 0.189023
0.036044 0.036044 0.143549
0.168691 0.042357 0.149862
0.337381 0.084715 0.192219
0.553625 0.131876 0.239380
0.740914 0.175658 0.283163
0.045558 0.181439 0.153063
0.207936 0.217483 0.189107
0.373426 0.256639 0.228263
0.592547 0.304085 0.275709
0.779836 0.347868 0.319492
0.091159 0.363045 0.198663
0.253536 0.399089 0.234707
0.379870 0.399089 0.234707
0.592547 0.440091 0.275709
0.779836 0.517682 0.319492
0.141889 0.596457 0.249393
0.304551 0.635379 0.285722
0.430884 0.635379 0.285722
0.603246 0.635379 0.285722
0.779836 0.671461 0.319492
0.189023 0.798086 0.296528
0.351686 0.837008 0.332857
0.478019 0.837008 0.332857
0.653608 0.837008 0.332857
0.794116 0.837008 0.332857
0.072216 0.072216 0.287603
0.198549 0.072216 0.287603
0.337381 0.084715 0.300102
0.553625 0.131876 0.347264
0.740914 0.175658 0.391046
0.072216 0.208096 0.287603
0.240906 0.250453 0.329961
0.382940 0.266153 0.345661
0.602820 0.313674 0.393182
0.790109 0.357457 0.436964
0.091159 0.363045 0.306546
0.259849 0.405402 0.348904
0.416041 0.435260 0.378762
0.631606 0.509961 0.420049
0.818895 0.556742 0.463832
0.141889 0.596457 0.357276
0.310914 0.642196 0.399968
0.467341 0.674439 0.430062
0.642305 0.674439 0.430062
0.818895 0.710521 0.463832
0.189023 0.798086 0.404411
0.358049 0.843825 0.447103
0.549296 0.876067 0.477197
0.692667 0.876067 0.477197
0.833176 0.876067 0.477197
0.112562 0.112562 0.471007
0.238895 0.112562 0.471007
0.365229 0.112562 0.471007
0.553625 0.131876 0.491643
0.740914 0.175658 0.538424
0.112562 0.248442 0.471007
0.281587 0.291134 0.516746
0.411147 0.294360 0.520202
0.602820 0.313674 0.540839
0.790109 0.357457 0.587620
0.112562 0.384448 0.471007
0.281587 0.427140 0.516746
0.450612 0.502821 0.562485
0.655878 0.534233 0.593897
0.843496 0.581343 0.641007
0.141889 0.596457 0.502342
0.310914 0.642196 0.548081
0.479939 0.687935 0.593820
0.686656 0.718790 0.624675
0.863501 0.755126 0.661011
0.189023 0.798086 0.552704
0.358049 0.843825 0.598443
0.566713 0.893484 0.648103
0.737373 0.920773 0.675392
0.877881 0.920773 0.675392
0.149951 0.149951 0.630944
0.276284 0.149951 0.630944
0.402617 0.149951 0.630944
0.572937 0.149951 0.630944
0.740914 0.175658 0.658412
0.149951 0.285831 0.630944
0.318976 0.328523 0.676683
0.448535 0.331749 0.680139
0.622133 0.331749 0.680139
0.790109 0.357457 0.707608
0.149951 0.421837 0.630944
0.318976 0.464529 0.676683
0.524671 0.546397 0.726049
0.675327 0.553681 0.733333
0.843496 0.581343 0.760995
0.149951 0.605071 0.630944
0.318976 0.650810 0.676683
0.524671 0.700176 0.726049
0.716112 0.748246 0.774119
0.895056 0.786681 0.812554
0.189023 0.798086 0.672692
0.358049 0.843825 0.718431
0.566713 0.893484 0.768091
0.758155 0.941554 0.816161
0.918111 0.961003 0.835609
