docs/luts/fuji_recipes/Classic_DC_Classic_Chrome_I.cube
TITLE "Fujifilm Recipe: DC Classic Chrome I (Classic)"
# FilmSim=Classic HL=-1 SH=0 Col=2 WB=Auto WBR=0 WBB=0
LUT_3D_SIZE 33
DOMAIN_MIN 0.0 0.0 0.0
DOMAIN_MAX 1.0 1.0 1.0
0.000000 0.000000 0.000000
0.030888 0.000112 0.000112
0.061777 0.000223 0.000223
0.092665 0.000335 0.000335
0.123554 0.000446 0.000446
0.154442 0.000558 0.000558
0.185330 0.000670 0.000670
0.216219 0.000781 0.000781
0.247107 0.000893 0.000893
0.277996 0.001004 0.001004
0.308884 0.001116 0.001116
0.339772 0.001228 0.001228
0.370661 0.001339 0.001339
0.401549 0.001451 0.001451
0.432438 0.001562 0.001562
0.463326 0.001674 0.001674
0.494214 0.001786 0.001786
0.528590 0.001910 0.001910
0.558980 0.002020 0.002020
0.588546 0.002255 0.002255
0.617068 0.002650 0.002650
0.645591 0.003045 0.003045
0.674113 0.003439 0.003439
0.702635 0.003834 0.003834
0.731158 0.004229 0.004229
0.759680 0.004624 0.004624
0.788202 0.005018 0.005018
0.816725 0.005413 0.005413
0.845247 0.005808 0.005808
0.873769 0.006203 0.006203
0.902291 0.006597 0.006597
0.930814 0.006992 0.006992
0.959336 0.007387 0.007387
0.000110 0.030580 0.000110
0.030888 0.030581 0.000112
0.061777 0.030692 0.000223
0.092665 0.030804 0.000335
0.123554 0.030915 0.000446
0.154442 0.031027 0.000558
0.185330 0.031139 0.000670
0.216219 0.031250 0.000781
0.247107 0.031362 0.000893
0.277996 0.031473 0.001004
0.308884 0.031585 0.001116
0.339772 0.031697 0.001228
0.370661 0.031808 0.001339
0.401549 0.031920 0.001451
0.432438 0.032031 0.001562
0.463326 0.032143 0.001674
0.494214 0.032255 0.001786
0.528590 0.032379 0.001910
0.558980 0.032489 0.002020
0.588546 0.032724 0.002255
0.617068 0.033119 0.002650
0.645591 0.033514 0.003045
0.674113 0.033908 0.003439
0.702635 0.034303 0.003834
0.731158 0.034698 0.004229
0.759680 0.035093 0.004624
0.788202 0.035487 0.005018
0.816725 0.035882 0.005413
0.845247 0.036277 0.005808
0.873769 0.036672 0.006203
0.902291 0.037066 0.006597
0.930814 0.037461 0.006992
0.959336 0.037856 0.007387
0.000221 0.061291 0.000221
0.030998 0.061291 0.000221
0.061777 0.061293 0.000223
0.092665 0.061405 0.000335
0.123554 0.061516 0.000446
0.154442 0.061628 0.000558
0.185330 0.061740 0.000670
0.216219 0.061851 0.000781
0.247107 0.061963 0.000893
0.277996 0.062074 0.001004
0.308884 0.062186 0.001116
0.339772 0.062298 0.001228
0.370661 0.062409 0.001339
0.401549 0.062521 0.001451
0.432438 0.062632 0.001562
0.463326 0.062744 0.001674
0.494214 0.062856 0.001786
0.528590 0.062980 0.001910
0.558980 0.063090 0.002020
0.588546 0.063325 0.002255
0.617068 0.063720 0.002650
0.645591 0.064115 0.003045
0.674113 0.064509 0.003439
0.702635 0.064904 0.003834
0.731158 0.065299 0.004229
0.759680 0.065694 0.004624
0.788202 0.066088 0.005018
0.816725 0.066483 0.005413
0.845247 0.066878 0.005808
0.873769 0.067273 0.006203
0.902291 0.067667 0.006597
0.930814 0.068062 0.006992
0.959336 0.068457 0.007387
0.000333 0.092051 0.000333
0.031109 0.092051 0.000333
0.061886 0.092051 0.000333
0.092665 0.092053 0.000335
0.123554 0.092165 0.000446
0.154442 0.092276 0.000558
0.185330 0.092388 0.000670
0.216219 0.092499 0.000781
0.247107 0.092611 0.000893
0.277996 0.092723 0.001004
0.308884 0.092834 0.001116
0.339772 0.092946 0.001228
0.370661 0.093057 0.001339
0.401549 0.093169 0.001451
0.432438 0.093281 0.001562
0.463326 0.093392 0.001674
0.494214 0.093504 0.001786
0.528590 0.093628 0.001910
0.558980 0.093738 0.002020
0.588546 0.093973 0.002255
0.617068 0.094368 0.002650
0.645591 0.094763 0.003045
0.674113 0.095158 0.003439
0.702635 0.095552 0.003834
0.731158 0.095947 0.004229
0.759680 0.096342 0.004624
0.788202 0.096737 0.005018
0.816725 0.097131 0.005413
0.845247 0.097526 0.005808
0.873769 0.097921 0.006203
0.902291 0.098315 0.006597
0.930814 0.098710 0.006992
0.959336 0.099105 0.007387
0.000444 0.122810 0.000444
0.031221 0.122810 0.000444
0.061997 0.122810 0.000444
0.092774 0.122810 0.000444
0.123554 0.122813 0.000446
0.154442 0.122924 0.000558
0.185330 0.123036 0.000670
0.216219 0.123148 0.000781
0.247107 0.123259 0.000893
0.277996 0.123371 0.001004
0.308884 0.123482 0.001116
0.339772 0.123594 0.001228
0.370661 0.123706 0.001339
0.401549 0.123817 0.001451
0.432438 0.123929 0.001562
0.463326 0.124040 0.001674
0.494214 0.124152 0.001786
0.528590 0.124276 0.001910
0.558980 0.124386 0.002020
0.588546 0.124622 0.002255
0.617068 0.125016 0.002650
0.645591 0.125411 0.003045
0.674113 0.125806 0.003439
0.702635 0.126201 0.003834
0.731158 0.126595 0.004229
0.759680 0.126990 0.004624
0.788202 0.127385 0.005018
0.816725 0.127779 0.005413
0.845247 0.128174 0.005808
0.873769 0.128569 0.006203
0.902291 0.128964 0.006597
0.930814 0.129358 0.006992
0.959336 0.129753 0.007387
0.000555 0.153569 0.000555
0.031332 0.153569 0.000555
0.062108 0.153569 0.000555
0.092885 0.153569 0.000555
0.123662 0.153569 0.000555
0.154442 0.153573 0.000558
0.185330 0.153684 0.000670
0.216219 0.153796 0.000781
0.247107 0.153907 0.000893
0.277996 0.154019 0.001004
0.308884 0.154131 0.001116
0.339772 0.154242 0.001228
0.370661 0.154354 0.001339
0.401549 0.154465 0.001451
0.432438 0.154577 0.001562
0.463326 0.154689 0.001674
0.494214 0.154800 0.001786
0.528590 0.154924 0.001910
0.558980 0.155034 0.002020
0.588546 0.155270 0.002255
0.617068 0.155665 0.002650
0.645591 0.156059 0.003045
0.674113 0.156454 0.003439
0.702635 0.156849 0.003834
0.731158 0.157243 0.004229
0.759680 0.157638 0.004624
0.788202 0.158033 0.005018
0.816725 0.158428 0.005413
0.845247 0.158822 0.005808
0.873769 0.159217 0.006203
0.902291 0.159612 0.006597
0.930814 0.160007 0.006992
0.959336 0.160401 0.007387
0.000666 0.184329 0.000666
0.031443 0.184329 0.000666
0.062220 0.184329 0.000666
0.092996 0.184329 0.000666
0.123773 0.184329 0.000666
0.154550 0.184329 0.000666
0.185330 0.184332 0.000670
0.216219 0.184444 0.000781
0.247107 0.184556 0.000893
0.277996 0.184667 0.001004
0.308884 0.184779 0.001116
0.339772 0.184890 0.001228
0.370661 0.185002 0.001339
0.401549 0.185114 0.001451
0.432438 0.185225 0.001562
0.463326 0.185337 0.001674
0.494214 0.185448 0.001786
0.528590 0.185573 0.001910
0.558980 0.185682 0.002020
0.588546 0.185918 0.002255
0.617068 0.186313 0.002650
0.645591 0.186707 0.003045
0.674113 0.187102 0.003439
0.702635 0.187497 0.003834
0.731158 0.187892 0.004229
0.759680 0.188286 0.004624
0.788202 0.188681 0.005018
0.816725 0.189076 0.005413
0.845247 0.189471 0.005808
0.873769 0.189865 0.006203
0.902291 0.190260 0.006597
0.930814 0.190655 0.006992
0.959336 0.191049 0.007387
0.000777 0.215088 0.000777
0.031554 0.215088 0.000777
0.062331 0.215088 0.000777
0.093108 0.215088 0.000777
0.123884 0.215088 0.000777
0.154661 0.215088 0.000777
0.185438 0.215088 0.000777
0.216219 0.215092 0.000781
0.247107 0.215204 0.000893
0.277996 0.215315 0.001004
0.308884 0.215427 0.001116
0.339772 0.215539 0.001228
0.370661 0.215650 0.001339
0.401549 0.215762 0.001451
0.432438 0.215873 0.001562
0.463326 0.215985 0.001674
0.494214 0.216097 0.001786
0.528590 0.216221 0.001910
0.558980 0.216331 0.002020
0.588546 0.216566 0.002255
0.617068 0.216961 0.002650
0.645591 0.217356 0.003045
0.674113 0.217750 0.003439
0.702635 0.218145 0.003834
0.731158 0.218540 0.004229
0.759680 0.218935 0.004624
0.788202 0.219329 0.005018
0.816725 0.219724 0.005413
0.845247 0.220119 0.005808
0.873769 0.220513 0.006203
0.902291 0.220908 0.006597
0.930814 0.221303 0.006992
0.959336 0.221698 0.007387
0.000888 0.245847 0.000888
0.031665 0.245847 0.000888
0.062442 0.245847 0.000888
0.093219 0.245847 0.000888
0.123995 0.245847 0.000888
0.154772 0.245847 0.000888
0.185549 0.245847 0.000888
0.216326 0.245847 0.000888
0.247107 0.245852 0.000893
0.277996 0.245964 0.001004
0.308884 0.246075 0.001116
0.339772 0.246187 0.001228
0.370661 0.246298 0.001339
0.401549 0.246410 0.001451
0.432438 0.246522 0.001562
0.463326 0.246633 0.001674
0.494214 0.246745 0.001786
0.528590 0.246869 0.001910
0.558980 0.246979 0.002020
0.588546 0.247214 0.002255
0.617068 0.247609 0.002650
0.645591 0.248004 0.003045
0.674113 0.248399 0.003439
0.702635 0.248793 0.003834
0.731158 0.249188 0.004229
0.759680 0.249583 0.004624
0.788202 0.249977 0.005018
0.816725 0.250372 0.005413
0.845247 0.250767 0.005808
0.873769 0.251162 0.006203
0.902291 0.251556 0.006597
0.930814 0.251951 0.006992
0.959336 0.252346 0.007387
0.000999 0.276607 0.000999
0.031776 0.276607 0.000999
0.062553 0.276607 0.000999
0.093330 0.276607 0.000999
0.124107 0.276607 0.000999
0.154883 0.276607 0.000999
0.185660 0.276607 0.000999
0.216437 0.276607 0.000999
0.247214 0.276607 0.000999
0.277996 0.276612 0.001004
0.308884 0.276723 0.001116
0.339772 0.276835 0.001228
0.370661 0.276947 0.001339
0.401549 0.277058 0.001451
0.432438 0.277170 0.001562
0.463326 0.277281 0.001674
0.494214 0.277393 0.001786
0.528590 0.277517 0.001910
0.558980 0.277627 0.002020
0.588546 0.277863 0.002255
0.617068 0.278257 0.002650
0.645591 0.278652 0.003045
0.674113 0.279047 0.003439
0.702635 0.279441 0.003834
0.731158 0.279836 0.004229
0.759680 0.280231 0.004624
0.788202 0.280626 0.005018
0.816725 0.281020 0.005413
0.845247 0.281415 0.005808
0.873769 0.281810 0.006203
0.902291 0.282205 0.006597
0.930814 0.282599 0.006992
0.959336 0.282994 0.007387
0.001111 0.307366 0.001111
0.031887 0.307366 0.001111
0.062664 0.307366 0.001111
0.093441 0.307366 0.001111
0.124218 0.307366 0.001111
0.154995 0.307366 0.001111
0.185771 0.307366 0.001111
0.216548 0.307366 0.001111
0.247325 0.307366 0.001111
0.278102 0.307366 0.001111
0.308884 0.307372 0.001116
0.339772 0.307483 0.001228
0.370661 0.307595 0.001339
0.401549 0.307706 0.001451
0.432438 0.307818 0.001562
0.463326 0.307930 0.001674
0.494214 0.308041 0.001786
0.528590 0.308165 0.001910
0.558980 0.308275 0.002020
0.588546 0.308511 0.002255
0.617068 0.308905 0.002650
0.645591 0.309300 0.003045
0.674113 0.309695 0.003439
0.702635 0.310090 0.003834
0.731158 0.310484 0.004229
0.759680 0.310879 0.004624
0.788202 0.311274 0.005018
0.816725 0.311669 0.005413
0.845247 0.312063 0.005808
0.873769 0.312458 0.006203
0.902291 0.312853 0.006597
0.930814 0.313247 0.006992
0.959336 0.313642 0.007387
0.001222 0.338125 0.001222
0.031998 0.338125 0.001222
0.062775 0.338125 0.001222
0.093552 0.338125 0.001222
0.124329 0.338125 0.001222
0.155106 0.338125 0.001222
0.185882 0.338125 0.001222
0.216659 0.338125 0.001222
0.247436 0.338125 0.001222
0.278213 0.338125 0.001222
0.308990 0.338125 0.001222
0.339772 0.338131 0.001228
0.370661 0.338243 0.001339
0.401549 0.338355 0.001451
0.432438 0.338466 0.001562
0.463326 0.338578 0.001674
0.494214 0.338689 0.001786
0.528590 0.338814 0.001910
0.558980 0.338923 0.002020
0.588546 0.339159 0.002255
0.617068 0.339554 0.002650
0.645591 0.339948 0.003045
0.674113 0.340343 0.003439
0.702635 0.340738 0.003834
0.731158 0.341133 0.004229
0.759680 0.341527 0.004624
0.788202 0.341922 0.005018
0.816725 0.342317 0.005413
0.845247 0.342711 0.005808
0.873769 0.343106 0.006203
0.902291 0.343501 0.006597
0.930814 0.343896 0.006992
0.959336 0.344290 0.007387
0.001333 0.368885 0.001333
0.032110 0.368885 0.001333
0.062886 0.368885 0.001333
0.093663 0.368885 0.001333
0.124440 0.368885 0.001333
0.155217 0.368885 0.001333
0.185994 0.368885 0.001333
0.216770 0.368885 0.001333
0.247547 0.368885 0.001333
0.278324 0.368885 0.001333
0.309101 0.368885 0.001333
0.339878 0.368885 0.001333
0.370661 0.368891 0.001339
0.401549 0.369003 0.001451
0.432438 0.369114 0.001562
0.463326 0.369226 0.001674
0.494214 0.369337 0.001786
0.528590 0.369462 0.001910
0.558980 0.369571 0.002020
0.588546 0.369807 0.002255
0.617068 0.370202 0.002650
0.645591 0.370597 0.003045
0.674113 0.370991 0.003439
0.702635 0.371386 0.003834
0.731158 0.371781 0.004229
0.759680 0.372175 0.004624
0.788202 0.372570 0.005018
0.816725 0.372965 0.005413
0.845247 0.373360 0.005808
0.873769 0.373754 0.006203
0.902291 0.374149 0.006597
0.930814 0.374544 0.006992
0.959336 0.374939 0.007387
0.001444 0.399644 0.001444
0.032221 0.399644 0.001444
0.062998 0.399644 0.001444
0.093774 0.399644 0.001444
0.124551 0.399644 0.001444
0.155328 0.399644 0.001444
0.186105 0.399644 0.001444
0.216882 0.399644 0.001444
0.247658 0.399644 0.001444
0.278435 0.399644 0.001444
0.309212 0.399644 0.001444
0.339989 0.399644 0.001444
0.370766 0.399644 0.001444
0.401549 0.399651 0.001451
0.432438 0.399762 0.001562
0.463326 0.399874 0.001674
0.494214 0.399986 0.001786
0.528590 0.400110 0.001910
0.558980 0.400220 0.002020
0.588546 0.400455 0.002255
0.617068 0.400850 0.002650
0.645591 0.401245 0.003045
0.674113 0.401639 0.003439
0.702635 0.402034 0.003834
0.731158 0.402429 0.004229
0.759680 0.402824 0.004624
0.788202 0.403218 0.005018
0.816725 0.403613 0.005413
0.845247 0.404008 0.005808
0.873769 0.404403 0.006203
0.902291 0.404797 0.006597
0.930814 0.405192 0.006992
0.959336 0.405587 0.007387
0.001555 0.430403 0.001555
0.032332 0.430403 0.001555
0.063109 0.430403 0.001555
0.093885 0.430403 0.001555
0.124662 0.430403 0.001555
0.155439 0.430403 0.001555
0.186216 0.430403 0.001555
0.216993 0.430403 0.001555
0.247769 0.430403 0.001555
0.278546 0.430403 0.001555
0.309323 0.430403 0.001555
0.340100 0.430403 0.001555
0.370877 0.430403 0.001555
0.401653 0.430403 0.001555
0.432438 0.430411 0.001562
0.463326 0.430522 0.001674
0.494214 0.430634 0.001786
0.528590 0.430758 0.001910
0.558980 0.430868 0.002020
0.588546 0.431103 0.002255
0.617068 0.431498 0.002650
0.645591 0.431893 0.003045
0.674113 0.432288 0.003439
0.702635 0.432682 0.003834
0.731158 0.433077 0.004229
0.759680 0.433472 0.004624
0.788202 0.433867 0.005018
0.816725 0.434261 0.005413
0.845247 0.434656 0.005808
0.873769 0.435051 0.006203
0.902291 0.435445 0.006597
0.930814 0.435840 0.006992
0.959336 0.436235 0.007387
0.001666 0.461163 0.001666
0.032443 0.461163 0.001666
0.063220 0.461163 0.001666
0.093997 0.461163 0.001666
0.124773 0.461163 0.001666
0.155550 0.461163 0.001666
0.186327 0.461163 0.001666
0.217104 0.461163 0.001666
0.247881 0.461163 0.001666
0.278657 0.461163 0.001666
0.309434 0.461163 0.001666
0.340211 0.461163 0.001666
0.370988 0.461163 0.001666
0.401765 0.461163 0.001666
0.432541 0.461163 0.001666
0.463326 0.461170 0.001674
0.494214 0.461282 0.001786
0.528590 0.461406 0.001910
0.558980 0.461516 0.002020
0.588546 0.461752 0.002255
0.617068 0.462146 0.002650
0.645591 0.462541 0.003045
0.674113 0.462936 0.003439
0.702635 0.463331 0.003834
0.731158 0.463725 0.004229
0.759680 0.464120 0.004624
0.788202 0.464515 0.005018
0.816725 0.464909 0.005413
0.845247 0.465304 0.005808
0.873769 0.465699 0.006203
0.902291 0.466094 0.006597
0.930814 0.466488 0.006992
0.959336 0.466883 0.007387
0.001777 0.491922 0.001777
0.032554 0.491922 0.001777
0.063331 0.491922 0.001777
0.094108 0.491922 0.001777
0.124885 0.491922 0.001777
0.155661 0.491922 0.001777
0.186438 0.491922 0.001777
0.217215 0.491922 0.001777
0.247992 0.491922 0.001777
0.278769 0.491922 0.001777
0.309545 0.491922 0.001777
0.340322 0.491922 0.001777
0.371099 0.491922 0.001777
0.401876 0.491922 0.001777
0.432653 0.491922 0.001777
0.463429 0.491922 0.001777
0.494214 0.491930 0.001786
0.528590 0.492054 0.001910
0.558980 0.492164 0.002020
0.588546 0.492400 0.002255
0.617068 0.492795 0.002650
0.645591 0.493189 0.003045
0.674113 0.493584 0.003439
0.702635 0.493979 0.003834
0.731158 0.494373 0.004229
0.759680 0.494768 0.004624
0.788202 0.495163 0.005018
0.816725 0.495558 0.005413
0.845247 0.495952 0.005808
0.873769 0.496347 0.006203
0.902291 0.496742 0.006597
0.930814 0.497137 0.006992
0.959336 0.497531 0.007387
0.001901 0.526208 0.001901
0.032678 0.526208 0.001901
0.063455 0.526208 0.001901
0.094232 0.526208 0.001901
0.125008 0.526208 0.001901
0.155785 0.526208 0.001901
0.186562 0.526208 0.001901
0.217339 0.526208 0.001901
0.248116 0.526208 0.001901
0.278892 0.526208 0.001901
0.309669 0.526208 0.001901
0.340446 0.526208 0.001901
0.371223 0.526208 0.001901
0.402000 0.526208 0.001901
0.432776 0.526208 0.001901
0.463553 0.526208 0.001901
0.494330 0.526208 0.001901
0.528590 0.526216 0.001910
0.558980 0.526326 0.002020
0.588546 0.526562 0.002255
0.617068 0.526956 0.002650
0.645591 0.527351 0.003045
0.674113 0.527746 0.003439
0.702635 0.528141 0.003834
0.731158 0.528535 0.004229
0.759680 0.528930 0.004624
0.788202 0.529325 0.005018
0.816725 0.529720 0.005413
0.845247 0.529916 0.005808
0.873769 0.529975 0.006203
0.902291 0.530034 0.006597
0.930814 0.530092 0.006992
0.959336 0.530151 0.007387
0.002011 0.556471 0.002011
0.032787 0.556471 0.002011
0.063564 0.556471 0.002011
0.094341 0.556471 0.002011
0.125118 0.556471 0.002011
0.155895 0.556471 0.002011
0.186671 0.556471 0.002011
0.217448 0.556471 0.002011
0.248225 0.556471 0.002011
0.279002 0.556471 0.002011
0.309779 0.556471 0.002011
0.340555 0.556471 0.002011
0.371332 0.556471 0.002011
0.402109 0.556471 0.002011
0.432886 0.556471 0.002011
0.463663 0.556471 0.002011
0.494439 0.556471 0.002011
0.528691 0.556471 0.002011
0.558980 0.556480 0.002020
0.588546 0.556716 0.002255
0.617068 0.557110 0.002650
0.645591 0.557505 0.003045
0.674113 0.557900 0.003439
0.702635 0.557967 0.003834
0.731158 0.558026 0.004229
0.759680 0.558084 0.004624
0.788202 0.558143 0.005018
0.816725 0.558202 0.005413
0.845247 0.558261 0.005808
0.873769 0.558319 0.006203
0.902291 0.558378 0.006597
0.930814 0.558437 0.006992
0.959336 0.558496 0.007387
0.002221 0.586072 0.002221
0.032998 0.586072 0.002221
0.063775 0.586072 0.002221
0.094551 0.586072 0.002221
0.125328 0.586072 0.002221
0.156105 0.586072 0.002221
0.186882 0.586072 0.002221
0.217659 0.586072 0.002221
0.248435 0.586072 0.002221
0.279212 0.586072 0.002221
0.309989 0.586072 0.002221
0.340766 0.586072 0.002221
0.371543 0.586072 0.002221
0.402319 0.586072 0.002221
0.433096 0.586072 0.002221
0.463873 0.586072 0.002221
0.494650 0.586072 0.002221
0.528901 0.586072 0.002221
0.559182 0.586072 0.002221
0.588546 0.586077 0.002255
0.617068 0.586135 0.002650
0.645591 0.586194 0.003045
0.674113 0.586253 0.003439
0.702635 0.586312 0.003834
0.731158 0.586370 0.004229
0.759680 0.586429 0.004624
0.788202 0.586488 0.005018
0.816725 0.586547 0.005413
0.845247 0.586605 0.005808
0.873769 0.586664 0.006203
0.902291 0.586723 0.006597
0.930814 0.586782 0.006992
0.959336 0.586840 0.007387
0.002614 0.614475 0.002614
0.033391 0.614475 0.002614
0.064168 0.614475 0.002614
0.094944 0.614475 0.002614
0.125721 0.614475 0.002614
0.156498 0.614475 0.002614
0.187275 0.614475 0.002614
0.218052 0.614475 0.002614
0.248828 0.614475 0.002614
0.279605 0.614475 0.002614
0.310382 0.614475 0.002614
0.341159 0.614475 0.002614
0.371936 0.614475 0.002614
0.402712 0.614475 0.002614
0.433489 0.614475 0.002614
0.464266 0.614475 0.002614
0.495043 0.614475 0.002614
0.529294 0.614475 0.002614
0.559575 0.614475 0.002614
0.588599 0.614475 0.002614
0.617068 0.614480 0.002650
0.645591 0.614539 0.003045
0.674113 0.614597 0.003439
0.702635 0.614656 0.003834
0.731158 0.614715 0.004229
0.759680 0.614774 0.004624
0.788202 0.614832 0.005018
0.816725 0.614891 0.005413
0.845247 0.614950 0.005808
0.873769 0.615009 0.006203
0.902291 0.615067 0.006597
0.930814 0.615126 0.006992
0.959336 0.615185 0.007387
0.003007 0.642878 0.003007
0.033784 0.642878 0.003007
0.064561 0.642878 0.003007
0.095338 0.642878 0.003007
0.126114 0.642878 0.003007
0.156891 0.642878 0.003007
0.187668 0.642878 0.003007
0.218445 0.642878 0.003007
0.249222 0.642878 0.003007
0.279998 0.642878 0.003007
0.310775 0.642878 0.003007
0.341552 0.642878 0.003007
0.372329 0.642878 0.003007
0.403106 0.642878 0.003007
0.433882 0.642878 0.003007
0.464659 0.642878 0.003007
0.495436 0.642878 0.003007
0.529688 0.642878 0.003007
0.559968 0.642878 0.003007
0.588658 0.642878 0.003007
0.617121 0.642878 0.003007
0.645591 0.642883 0.003045
0.674113 0.642942 0.003439
0.702635 0.643001 0.003834
0.731158 0.643060 0.004229
0.759680 0.643118 0.004624
0.788202 0.643177 0.005018
0.816725 0.643236 0.005413
0.845247 0.643295 0.005808
0.873769 0.643353 0.006203
0.902291 0.643412 0.006597
0.930814 0.643471 0.006992
0.959336 0.643530 0.007387
0.003400 0.671281 0.003400
0.034177 0.671281 0.003400
0.064954 0.671281 0.003400
0.095731 0.671281 0.003400
0.126507 0.671281 0.003400
0.157284 0.671281 0.003400
0.188061 0.671281 0.003400
0.218838 0.671281 0.003400
0.249615 0.671281 0.003400
0.280391 0.671281 0.003400
0.311168 0.671281 0.003400
0.341945 0.671281 0.003400
0.372722 0.671281 0.003400
0.403499 0.671281 0.003400
0.434275 0.671281 0.003400
0.465052 0.671281 0.003400
0.495829 0.671281 0.003400
0.530081 0.671281 0.003400
0.560253 0.671281 0.003400
0.588716 0.671281 0.003400
0.617180 0.671281 0.003400
0.645644 0.671281 0.003400
0.674113 0.671287 0.003439
0.702635 0.671346 0.003834
0.731158 0.671404 0.004229
0.759680 0.671463 0.004624
0.788202 0.671522 0.005018
0.816725 0.671580 0.005413
0.845247 0.671639 0.005808
0.873769 0.671698 0.006203
0.902291 0.671757 0.006597
0.930814 0.671815 0.006992
0.959336 0.671874 0.007387
0.003793 0.699684 0.003793
0.034570 0.699684 0.003793
0.065347 0.699684 0.003793
0.096124 0.699684 0.003793
0.126900 0.699684 0.003793
0.157677 0.699684 0.003793
0.188454 0.699684 0.003793
0.219231 0.699684 0.003793
0.250008 0.699684 0.003793
0.280784 0.699684 0.003793
0.311561 0.699684 0.003793
0.342338 0.699684 0.003793
0.373115 0.699684 0.003793
0.403892 0.699684 0.003793
0.434668 0.699684 0.003793
0.465445 0.699684 0.003793
0.496222 0.699684 0.003793
0.530474 0.699684 0.003793
0.560311 0.699684 0.003793
0.588775 0.699684 0.003793
0.617238 0.699684 0.003793
0.645702 0.699684 0.003793
0.674166 0.699684 0.003793
0.702635 0.699690 0.003834
0.731158 0.699749 0.004229
0.759680 0.699808 0.004624
0.788202 0.699866 0.005018
0.816725 0.699925 0.005413
0.845247 0.699984 0.005808
0.873769 0.700043 0.006203
0.902291 0.700101 0.006597
0.930814 0.700160 0.006992
0.959336 0.700219 0.007387
0.004186 0.728087 0.004186
0.034963 0.728087 0.004186
0.065740 0.728087 0.004186
0.096517 0.728087 0.004186
0.127294 0.728087 0.004186
0.158070 0.728087 0.004186
0.188847 0.728087 0.004186
0.219624 0.728087 0.004186
0.250401 0.728087 0.004186
0.281178 0.728087 0.004186
0.311954 0.728087 0.004186
0.342731 0.728087 0.004186
0.373508 0.728087 0.004186
0.404285 0.728087 0.004186
0.435062 0.728087 0.004186
0.465838 0.728087 0.004186
0.496615 0.728087 0.004186
0.530867 0.728087 0.004186
0.560370 0.728087 0.004186
0.588833 0.728087 0.004186
0.617297 0.728087 0.004186
0.645761 0.728087 0.004186
0.674224 0.728087 0.004186
0.702688 0.728087 0.004186
0.731158 0.728094 0.004229
0.759680 0.728152 0.004624
0.788202 0.728211 0.005018
0.816725 0.728270 0.005413
0.845247 0.728328 0.005808
0.873769 0.728387 0.006203
0.902291 0.728446 0.006597
0.930814 0.728505 0.006992
0.959336 0.728563 0.007387
0.004579 0.756490 0.004579
0.035356 0.756490 0.004579
0.066133 0.756490 0.004579
0.096910 0.756490 0.004579
0.127687 0.756490 0.004579
0.158463 0.756490 0.004579
0.189240 0.756490 0.004579
0.220017 0.756490 0.004579
0.250794 0.756490 0.004579
0.281571 0.756490 0.004579
0.312347 0.756490 0.004579
0.343124 0.756490 0.004579
0.373901 0.756490 0.004579
0.404678 0.756490 0.004579
0.435455 0.756490 0.004579
0.466231 0.756490 0.004579
0.497008 0.756490 0.004579
0.531260 0.756490 0.004579
0.560428 0.756490 0.004579
0.588892 0.756490 0.004579
0.617355 0.756490 0.004579
0.645819 0.756490 0.004579
0.674283 0.756490 0.004579
0.702746 0.756490 0.004579
0.731210 0.756490 0.004579
0.759680 0.756497 0.004624
0.788202 0.756556 0.005018
0.816725 0.756614 0.005413
0.845247 0.756673 0.005808
0.873769 0.756732 0.006203
0.902291 0.756791 0.006597
0.930814 0.756849 0.006992
0.959336 0.756908 0.007387
0.004973 0.784893 0.004973
0.035749 0.784893 0.004973
0.066526 0.784893 0.004973
0.097303 0.784893 0.004973
0.128080 0.784893 0.004973
0.158857 0.784893 0.004973
0.189633 0.784893 0.004973
0.220410 0.784893 0.004973
0.251187 0.784893 0.004973
0.281964 0.784893 0.004973
0.312741 0.784893 0.004973
0.343517 0.784893 0.004973
0.374294 0.784893 0.004973
0.405071 0.784893 0.004973
0.435848 0.784893 0.004973
0.466625 0.784893 0.004973
0.497401 0.784893 0.004973
0.531653 0.784893 0.004973
0.560487 0.784893 0.004973
0.588950 0.784893 0.004973
0.617414 0.784893 0.004973
0.645877 0.784893 0.004973
0.674341 0.784893 0.004973
0.702805 0.784893 0.004973
