docs/luts/fuji_recipes/Classic_RR_Kodak_Gold_200.cube
TITLE "Fujifilm Recipe: RR Kodak Gold 200 (Classic)"
# FilmSim=Classic HL=-2 SH=1 Col=3 WB=Daylight WBR=4 WBB=-5
LUT_3D_SIZE 5
DOMAIN_MIN 0.0 0.0 0.0
DOMAIN_MAX 1.0 1.0 1.0
0.000000 0.000000 0.000000
0.368870 0.000000 0.000000
0.726598 0.000000 0.000000
0.940110 0.000000 0.000000
0.940110 0.000000 0.000000
0.000000 0.333717 0.000000
0.368870 0.333717 0.000000
0.726598 0.332327 0.000000
0.940110 0.334819 0.000000
0.940110 0.334819 0.000000
0.000000 0.664278 0.000000
0.366208 0.664278 0.000000
0.726598 0.665290 0.000000
0.940110 0.666722 0.000000
0.940110 0.666722 0.000000
0.000000 0.936277 0.000000
0.370050 0.936277 0.000000
0.728477 0.936277 0.000000
0.940110 0.936311 0.000000
0.940110 0.936311 0.000000
0.000000 0.936277 0.000000
0.370050 0.936277 0.000000
0.728477 0.936277 0.000000
0.940110 0.936311 0.000000
0.940110 0.936311 0.000000
0.000000 0.000000 0.289059
0.368870 0.000000 0.289059
0.726598 0.000000 0.287855
0.940110 0.000000 0.290014
0.940110 0.000000 0.290014
0.000000 0.333717 0.289059
0.373827 0.334307 0.284102
0.751347 0.311262 0.261057
0.974671 0.301451 0.251247
0.974671 0.301451 0.251247
0.000000 0.664278 0.286972
0.353645 0.686164 0.263921
0.751347 0.682137 0.261057
0.974671 0.668340 0.251247
0.974671 0.668340 0.251247
0.000000 0.936277 0.289983
0.341147 0.970662 0.251423
0.737798 0.970662 0.251423
0.974671 0.970414 0.251247
0.974671 0.970414 0.251247
0.000000 0.936277 0.289983
0.341147 0.970662 0.251423
0.737798 0.970662 0.251423
0.974671 0.970414 0.251247
0.974671 0.970414 0.251247
0.000000 0.000000 0.585252
0.364449 0.000000 0.585252
0.726598 0.000000 0.587547
0.940110 0.000000 0.588396
0.940110 0.000000 0.588396
0.000000 0.329716 0.585252
0.354639 0.315119 0.600095
0.747936 0.308624 0.590961
0.971259 0.298813 0.577164
0.971259 0.298813 0.577164
0.000000 0.664278 0.586774
0.348931 0.680067 0.592303
0.727187 0.657977 0.570213
0.951210 0.644878 0.557114
0.951210 0.644878 0.557114
0.000000 0.936277 0.588398
0.336433 0.964565 0.574727
0.714324 0.947188 0.557349
0.951210 0.946953 0.557114
0.951210 0.946953 0.557114
0.000000 0.936277 0.588398
0.336433 0.964565 0.574727
0.714324 0.947188 0.557349
0.951210 0.946953 0.557114
0.951210 0.946953 0.557114
0.000000 0.000000 0.821236
0.368727 0.000000 0.821236
0.727782 0.000000 0.821236
0.940110 0.000000 0.822289
0.940110 0.000000 0.822289
0.000000 0.333587 0.821236
0.343795 0.304275 0.846923
0.741820 0.304275 0.846923
0.971259 0.298813 0.839241
0.971259 0.298813 0.839241
0.000000 0.666241 0.821236
0.341719 0.669925 0.844237
0.716533 0.647323 0.821636
0.946362 0.640030 0.814343
0.946362 0.640030 0.814343
0.000000 0.936277 0.822267
0.336433 0.964565 0.836803
0.705653 0.938517 0.810755
0.936733 0.932476 0.804714
0.936733 0.932476 0.804714
0.000000 0.936277 0.822267
0.336433 0.964565 0.836803
0.705653 0.938517 0.810755
0.936733 0.932476 0.804714
0.936733 0.932476 0.804714
0.000000 0.000000 0.821236
0.368727 0.000000 0.821236
0.727782 0.000000 0.821236
0.940110 0.000000 0.822289
0.940110 0.000000 0.822289
0.000000 0.333587 0.821236
0.343795 0.304275 0.846923
0.741820 0.304275 0.846923
0.971259 0.298813 0.839241
0.971259 0.298813 0.839241
0.000000 0.666241 0.821236
0.341719 0.669925 0.844237
0.716533 0.647323 0.821636
0.946362 0.640030 0.814343
0.946362 0.640030 0.814343
0.000000 0.936277 0.822267
0.336433 0.964565 0.836803
0.705653 0.938517 0.810755
0.936733 0.932476 0.804714
0.936733 0.932476 0.804714
0.000000 0.936277 0.822267
0.336433 0.964565 0.836803
0.705653 0.938517 0.810755
0.936733 0.932476 0.804714
0.936733 0.932476 0.804714
