docs/luts/fuji_recipes/Classic_RR_Kodacolor.cube
TITLE "Fujifilm Recipe: RR Kodacolor (Classic)"
# FilmSim=Classic HL=-1 SH=2 Col=-2 WB=6300K WBR=-1 WBB=-4
LUT_3D_SIZE 5
DOMAIN_MIN 0.0 0.0 0.0
DOMAIN_MAX 1.0 1.0 1.0
0.000000 0.000000 0.000000
0.212633 0.077216 0.077216
0.451114 0.159023 0.159023
0.655758 0.232733 0.232733
0.688615 0.244567 0.244567
0.076237 0.209938 0.076237
0.212633 0.210917 0.077216
0.451114 0.292725 0.159023
0.655758 0.366434 0.232733
0.688615 0.378269 0.244567
0.157523 0.446947 0.157523
0.292940 0.446947 0.157523
0.451114 0.448458 0.159023
0.655758 0.522681 0.232733
0.688615 0.534598 0.244567
0.230706 0.650131 0.230706
0.366123 0.650131 0.230706
0.523296 0.650131 0.230706
0.655758 0.652172 0.232733
0.688615 0.664089 0.244567
0.249556 0.702464 0.249556
0.384973 0.702464 0.249556
0.542276 0.702464 0.249556
0.672698 0.702464 0.249556
0.693638 0.702464 0.249556
0.065683 0.065683 0.180875
0.212633 0.077216 0.192407
0.451114 0.159023 0.274215
0.655758 0.232733 0.347925
0.688615 0.244567 0.359759
0.076237 0.209938 0.191429
0.278316 0.276600 0.258090
0.517390 0.358538 0.340029
0.722035 0.432248 0.413738
0.754891 0.444082 0.425573
0.157523 0.446947 0.272714
0.358753 0.513223 0.338528
0.517390 0.514735 0.340029
0.722035 0.588958 0.413738
0.754891 0.600874 0.425573
0.230706 0.650131 0.345898
0.431937 0.716408 0.411711
0.589572 0.716408 0.411711
0.722035 0.718448 0.413738
0.754891 0.730365 0.425573
0.249556 0.702464 0.364747
0.450786 0.768740 0.430561
0.608553 0.768740 0.430561
0.738974 0.768740 0.430561
0.759914 0.768740 0.430561
0.130254 0.130254 0.358687
0.265671 0.130254 0.358687
0.451114 0.159023 0.387457
0.655758 0.232733 0.486915
0.688615 0.244567 0.498832
0.130254 0.263955 0.358687
0.349114 0.347398 0.467752
0.528040 0.369113 0.489618
0.732684 0.442823 0.563841
0.765541 0.454657 0.575758
0.157523 0.446947 0.385956
0.370308 0.524860 0.489094
0.589900 0.587245 0.551479
0.794689 0.661612 0.625846
0.827569 0.673552 0.637786
0.230706 0.650131 0.484874
0.443492 0.728044 0.562787
0.662222 0.789058 0.623801
0.794689 0.791103 0.625846
0.827569 0.803043 0.637786
0.249556 0.702464 0.503855
0.462341 0.780377 0.581768
0.681240 0.841427 0.642818
0.811662 0.841427 0.642818
0.832601 0.841427 0.642818
0.200795 0.200795 0.567086
0.336212 0.200795 0.567086
0.493176 0.200795 0.567086
0.655758 0.232733 0.599247
0.688615 0.244567 0.611163
0.200795 0.334496 0.567086
0.412600 0.410884 0.644012
0.570102 0.410884 0.644012
0.732684 0.442823 0.676172
0.765541 0.454657 0.688089
0.200795 0.490520 0.567086
0.413580 0.568433 0.644999
0.652438 0.649783 0.726348
0.815083 0.682006 0.758571
0.847963 0.693946 0.770511
0.230706 0.650131 0.597206
0.443492 0.728044 0.675119
0.684131 0.810966 0.758041
0.858741 0.855155 0.802229
0.891621 0.867095 0.814169
0.249556 0.702464 0.616186
0.462341 0.780377 0.694099
0.703148 0.863336 0.777058
0.875714 0.905479 0.819202
0.896653 0.905479 0.819202
0.217146 0.217146 0.612483
0.352563 0.217146 0.612483
0.509641 0.217146 0.612483
0.655758 0.232733 0.628179
0.688615 0.244567 0.640096
0.217146 0.350847 0.612483
0.428952 0.427236 0.689409
0.586567 0.427236 0.689409
0.732684 0.442823 0.705105
0.765541 0.454657 0.717022
0.217146 0.506986 0.612483
0.429932 0.584899 0.690397
0.668935 0.666280 0.771778
0.815083 0.682006 0.787504
0.847963 0.693946 0.799444
0.230706 0.650131 0.626138
0.443492 0.728044 0.704051
0.684131 0.810966 0.786973
0.875238 0.871652 0.847659
0.908118 0.883592 0.859599
0.249556 0.702464 0.645119
0.462341 0.780377 0.723032
0.703148 0.863336 0.805990
0.892211 0.921977 0.864632
0.913151 0.921977 0.864632
