docs/luts/fuji_recipes/Classic_RR_Kodachrome_64.cube
TITLE "Fujifilm Recipe: RR Kodachrome 64 (Classic)"
# FilmSim=Classic HL=1 SH=2 Col=0 WB=Daylight WBR=2 WBB=-5
LUT_3D_SIZE 33
DOMAIN_MIN 0.0 0.0 0.0
DOMAIN_MAX 1.0 1.0 1.0
0.000000 0.000000 0.000000
0.031435 0.004009 0.004009
0.059419 0.007577 0.007577
0.086928 0.011085 0.011085
0.114436 0.014593 0.014593
0.141945 0.018101 0.018101
0.169454 0.021609 0.021609
0.196963 0.025117 0.025117
0.224472 0.028625 0.028625
0.251980 0.032133 0.032133
0.279489 0.035641 0.035641
0.306998 0.039149 0.039149
0.334507 0.042657 0.042657
0.362016 0.046165 0.046165
0.392461 0.050048 0.050048
0.419526 0.053499 0.053499
0.484930 0.055721 0.055721
0.515471 0.059062 0.059062
0.546011 0.062402 0.062402
0.576551 0.065742 0.065742
0.607092 0.069082 0.069082
0.637632 0.072423 0.072423
0.668172 0.075763 0.075763
0.698713 0.079103 0.079103
0.729253 0.082444 0.082444
0.759793 0.085784 0.085784
0.790333 0.089124 0.089124
0.820874 0.092464 0.092464
0.837540 0.094287 0.094287
0.837540 0.094287 0.094287
0.837540 0.094287 0.094287
0.837540 0.094287 0.094287
0.837540 0.094287 0.094287
0.003780 0.029639 0.003780
0.031435 0.029868 0.004009
0.059419 0.033437 0.007577
0.086928 0.036945 0.011085
0.114436 0.040453 0.014593
0.141945 0.043961 0.018101
0.169454 0.047469 0.021609
0.196963 0.050977 0.025117
0.224472 0.054485 0.028625
0.251980 0.057993 0.032133
0.279489 0.061501 0.035641
0.306998 0.065009 0.039149
0.334507 0.068517 0.042657
0.362016 0.072025 0.046165
0.392461 0.075907 0.050048
0.419526 0.079359 0.053499
0.484930 0.081539 0.055721
0.515471 0.084878 0.059062
0.546011 0.088218 0.062402
0.576551 0.091557 0.065742
0.607092 0.094897 0.069082
0.637632 0.098236 0.072423
0.668172 0.101576 0.075763
0.698713 0.104915 0.079103
0.729253 0.108255 0.082444
0.759793 0.111595 0.085784
0.790333 0.114935 0.089124
0.820874 0.118275 0.092464
0.837540 0.120097 0.094287
0.837540 0.120097 0.094287
0.837540 0.120097 0.094287
0.837540 0.120097 0.094287
0.837540 0.120097 0.094287
0.007164 0.056178 0.007164
0.034591 0.056178 0.007164
0.059419 0.056591 0.007577
0.086928 0.060099 0.011085
0.114436 0.063607 0.014593
0.141945 0.067115 0.018101
0.169454 0.070623 0.021609
0.196963 0.074131 0.025117
0.224472 0.077639 0.028625
0.251980 0.081147 0.032133
0.279489 0.084655 0.035641
0.306998 0.088163 0.039149
0.334507 0.091671 0.042657
0.362016 0.095179 0.046165
0.392461 0.099062 0.050048
0.419526 0.102513 0.053499
0.484930 0.104656 0.055721
0.515471 0.107995 0.059062
0.546011 0.111333 0.062402
0.576551 0.114672 0.065742
0.607092 0.118010 0.069082
0.637632 0.121349 0.072423
0.668172 0.124688 0.075763
0.698713 0.128027 0.079103
0.729253 0.131367 0.082444
0.759793 0.134706 0.085784
0.790333 0.138046 0.089124
0.820874 0.141385 0.092464
0.837540 0.143207 0.094287
0.837540 0.143207 0.094287
0.837540 0.143207 0.094287
0.837540 0.143207 0.094287
0.837540 0.143207 0.094287
0.010491 0.082267 0.010491
0.037918 0.082267 0.010491
0.062333 0.082267 0.010491
0.086928 0.082861 0.011085
0.114436 0.086369 0.014593
0.141945 0.089877 0.018101
0.169454 0.093385 0.021609
0.196963 0.096893 0.025117
0.224472 0.100401 0.028625
0.251980 0.103909 0.032133
0.279489 0.107417 0.035641
0.306998 0.110925 0.039149
0.334507 0.114433 0.042657
0.362016 0.117941 0.046165
0.392461 0.121824 0.050048
0.419526 0.125275 0.053499
0.484930 0.127382 0.055721
0.515471 0.130719 0.059062
0.546011 0.134057 0.062402
0.576551 0.137395 0.065742
0.607092 0.140733 0.069082
0.637632 0.144071 0.072423
0.668172 0.147410 0.075763
0.698713 0.150748 0.079103
0.729253 0.154087 0.082444
0.759793 0.157426 0.085784
0.790333 0.160765 0.089124
0.820874 0.164104 0.092464
0.837540 0.165926 0.094287
0.837540 0.165926 0.094287
0.837540 0.165926 0.094287
0.837540 0.165926 0.094287
0.837540 0.165926 0.094287
0.013818 0.108357 0.013818
0.041245 0.108357 0.013818
0.065660 0.108357 0.013818
0.089660 0.108357 0.013818
0.114436 0.109132 0.014593
0.141945 0.112640 0.018101
0.169454 0.116148 0.021609
0.196963 0.119656 0.025117
0.224472 0.123164 0.028625
0.251980 0.126672 0.032133
0.279489 0.130180 0.035641
0.306998 0.133688 0.039149
0.334507 0.137196 0.042657
0.362016 0.140704 0.046165
0.392461 0.144586 0.050048
0.419526 0.148038 0.053499
0.484930 0.150108 0.055721
0.515471 0.153444 0.059062
0.546011 0.156781 0.062402
0.576551 0.160118 0.065742
0.607092 0.163455 0.069082
0.637632 0.166793 0.072423
0.668172 0.170131 0.075763
0.698713 0.173469 0.079103
0.729253 0.176807 0.082444
0.759793 0.180146 0.085784
0.790333 0.183484 0.089124
0.820874 0.186823 0.092464
0.837540 0.188645 0.094287
0.837540 0.188645 0.094287
0.837540 0.188645 0.094287
0.837540 0.188645 0.094287
0.837540 0.188645 0.094287
0.017145 0.134446 0.017145
0.044572 0.134446 0.017145
0.068987 0.134446 0.017145
0.092987 0.134446 0.017145
0.116988 0.134446 0.017145
0.141945 0.135402 0.018101
0.169454 0.138910 0.021609
0.196963 0.142418 0.025117
0.224472 0.145926 0.028625
0.251980 0.149434 0.032133
0.279489 0.152942 0.035641
0.306998 0.156450 0.039149
0.334507 0.159958 0.042657
0.362016 0.163466 0.046165
0.392461 0.167349 0.050048
0.419526 0.170800 0.053499
0.484930 0.172834 0.055721
0.515471 0.176169 0.059062
0.546011 0.179505 0.062402
0.576551 0.182841 0.065742
0.607092 0.186178 0.069082
0.637632 0.189515 0.072423
0.668172 0.192852 0.075763
0.698713 0.196190 0.079103
0.729253 0.199528 0.082444
0.759793 0.202866 0.085784
0.790333 0.206204 0.089124
0.820874 0.209542 0.092464
0.837540 0.211364 0.094287
0.837540 0.211364 0.094287
0.837540 0.211364 0.094287
0.837540 0.211364 0.094287
0.837540 0.211364 0.094287
0.020472 0.160535 0.020472
0.047899 0.160535 0.020472
0.072314 0.160535 0.020472
0.096314 0.160535 0.020472
0.120315 0.160535 0.020472
0.144316 0.160535 0.020472
0.169454 0.161673 0.021609
0.196963 0.165181 0.025117
0.224472 0.168689 0.028625
0.251980 0.172197 0.032133
0.279489 0.175705 0.035641
0.306998 0.179213 0.039149
0.334507 0.182721 0.042657
0.362016 0.186229 0.046165
0.392461 0.190111 0.050048
0.419526 0.193563 0.053499
0.484930 0.195559 0.055721
0.515471 0.198894 0.059062
0.546011 0.202229 0.062402
0.576551 0.205564 0.065742
0.607092 0.208900 0.069082
0.637632 0.212237 0.072423
0.668172 0.215573 0.075763
0.698713 0.218911 0.079103
0.729253 0.222248 0.082444
0.759793 0.225586 0.085784
0.790333 0.228923 0.089124
0.820874 0.232261 0.092464
0.837540 0.234083 0.094287
0.837540 0.234083 0.094287
0.837540 0.234083 0.094287
0.837540 0.234083 0.094287
0.837540 0.234083 0.094287
0.023799 0.186625 0.023799
0.051226 0.186625 0.023799
0.075641 0.186625 0.023799
0.099641 0.186625 0.023799
0.123642 0.186625 0.023799
0.147643 0.186625 0.023799
0.171644 0.186625 0.023799
0.196963 0.187943 0.025117
0.224472 0.191451 0.028625
0.251980 0.194959 0.032133
0.279489 0.198467 0.035641
0.306998 0.201975 0.039149
0.334507 0.205483 0.042657
0.362016 0.208991 0.046165
0.392461 0.212873 0.050048
0.419526 0.216325 0.053499
0.484930 0.218285 0.055721
0.515471 0.221618 0.059062
0.546011 0.224953 0.062402
0.576551 0.228287 0.065742
0.607092 0.231623 0.069082
0.637632 0.234959 0.072423
0.668172 0.238295 0.075763
0.698713 0.241631 0.079103
0.729253 0.244968 0.082444
0.759793 0.248305 0.085784
0.790333 0.251643 0.089124
0.820874 0.254981 0.092464
0.837540 0.256802 0.094287
0.837540 0.256802 0.094287
0.837540 0.256802 0.094287
0.837540 0.256802 0.094287
0.837540 0.256802 0.094287
0.027126 0.212714 0.027126
0.054553 0.212714 0.027126
0.078968 0.212714 0.027126
0.102968 0.212714 0.027126
0.126969 0.212714 0.027126
0.150970 0.212714 0.027126
0.174971 0.212714 0.027126
0.198971 0.212714 0.027126
0.224472 0.214213 0.028625
0.251980 0.217721 0.032133
0.279489 0.221229 0.035641
0.306998 0.224737 0.039149
0.334507 0.228245 0.042657
0.362016 0.231753 0.046165
0.392461 0.235636 0.050048
0.419526 0.239087 0.053499
0.484930 0.241011 0.055721
0.515471 0.244343 0.059062
0.546011 0.247677 0.062402
0.576551 0.251011 0.065742
0.607092 0.254345 0.069082
0.637632 0.257680 0.072423
0.668172 0.261016 0.075763
0.698713 0.264352 0.079103
0.729253 0.267689 0.082444
0.759793 0.271025 0.085784
0.790333 0.274362 0.089124
0.820874 0.277700 0.092464
0.837540 0.279521 0.094287
0.837540 0.279521 0.094287
0.837540 0.279521 0.094287
0.837540 0.279521 0.094287
0.837540 0.279521 0.094287
0.030453 0.238803 0.030453
0.057880 0.238803 0.030453
0.082295 0.238803 0.030453
0.106295 0.238803 0.030453
0.130296 0.238803 0.030453
0.154297 0.238803 0.030453
0.178298 0.238803 0.030453
0.202298 0.238803 0.030453
0.226299 0.238803 0.030453
0.251980 0.240484 0.032133
0.279489 0.243992 0.035641
0.306998 0.247500 0.039149
0.334507 0.251008 0.042657
0.362016 0.254516 0.046165
0.392461 0.258398 0.050048
0.419526 0.261850 0.053499
0.484930 0.263737 0.055721
0.515471 0.267068 0.059062
0.546011 0.270400 0.062402
0.576551 0.273734 0.065742
0.607092 0.277068 0.069082
0.637632 0.280402 0.072423
0.668172 0.283737 0.075763
0.698713 0.287073 0.079103
0.729253 0.290409 0.082444
0.759793 0.293745 0.085784
0.790333 0.297082 0.089124
0.820874 0.300419 0.092464
0.837540 0.302240 0.094287
0.837540 0.302240 0.094287
0.837540 0.302240 0.094287
0.837540 0.302240 0.094287
0.837540 0.302240 0.094287
0.033780 0.264893 0.033780
0.061207 0.264893 0.033780
0.085621 0.264893 0.033780
0.109622 0.264893 0.033780
0.133623 0.264893 0.033780
0.157624 0.264893 0.033780
0.181625 0.264893 0.033780
0.205625 0.264893 0.033780
0.229626 0.264893 0.033780
0.253627 0.264893 0.033780
0.279489 0.266754 0.035641
0.306998 0.270262 0.039149
0.334507 0.273770 0.042657
0.362016 0.277278 0.046165
0.392461 0.281161 0.050048
0.419526 0.284612 0.053499
0.484930 0.286462 0.055721
0.515471 0.289793 0.059062
0.546011 0.293124 0.062402
0.576551 0.296457 0.065742
0.607092 0.299790 0.069082
0.637632 0.303124 0.072423
0.668172 0.306459 0.075763
0.698713 0.309794 0.079103
0.729253 0.313129 0.082444
0.759793 0.316465 0.085784
0.790333 0.319801 0.089124
0.820874 0.323138 0.092464
0.837540 0.324959 0.094287
0.837540 0.324959 0.094287
0.837540 0.324959 0.094287
0.837540 0.324959 0.094287
0.837540 0.324959 0.094287
0.037107 0.290982 0.037107
0.064534 0.290982 0.037107
0.088948 0.290982 0.037107
0.112949 0.290982 0.037107
0.136950 0.290982 0.037107
0.160951 0.290982 0.037107
0.184952 0.290982 0.037107
0.208952 0.290982 0.037107
0.232953 0.290982 0.037107
0.256954 0.290982 0.037107
0.280955 0.290982 0.037107
0.306998 0.293024 0.039149
0.334507 0.296532 0.042657
0.362016 0.300040 0.046165
0.392461 0.303923 0.050048
0.419526 0.307374 0.053499
0.484930 0.309188 0.055721
0.515471 0.312518 0.059062
0.546011 0.315848 0.062402
0.576551 0.319180 0.065742
0.607092 0.322513 0.069082
0.637632 0.325846 0.072423
0.668172 0.329180 0.075763
0.698713 0.332514 0.079103
0.729253 0.335850 0.082444
0.759793 0.339185 0.085784
0.790333 0.342521 0.089124
0.820874 0.345857 0.092464
0.837540 0.347678 0.094287
0.837540 0.347678 0.094287
0.837540 0.347678 0.094287
0.837540 0.347678 0.094287
0.837540 0.347678 0.094287
0.040434 0.317071 0.040434
0.067861 0.317071 0.040434
0.092275 0.317071 0.040434
0.116276 0.317071 0.040434
0.140277 0.317071 0.040434
0.164278 0.317071 0.040434
0.188279 0.317071 0.040434
0.212279 0.317071 0.040434
0.236280 0.317071 0.040434
0.260281 0.317071 0.040434
0.284282 0.317071 0.040434
0.308283 0.317071 0.040434
0.334507 0.319295 0.042657
0.362016 0.322803 0.046165
0.392461 0.326685 0.050048
0.419526 0.330137 0.053499
0.484930 0.331914 0.055721
0.515471 0.335242 0.059062
0.546011 0.338572 0.062402
0.576551 0.341903 0.065742
0.607092 0.345235 0.069082
0.637632 0.348568 0.072423
0.668172 0.351901 0.075763
0.698713 0.355235 0.079103
0.729253 0.358570 0.082444
0.759793 0.361905 0.085784
0.790333 0.365240 0.089124
0.820874 0.368576 0.092464
0.837540 0.370396 0.094287
0.837540 0.370396 0.094287
0.837540 0.370396 0.094287
0.837540 0.370396 0.094287
0.837540 0.370396 0.094287
0.043761 0.343161 0.043761
0.071188 0.343161 0.043761
0.095602 0.343161 0.043761
0.119603 0.343161 0.043761
0.143604 0.343161 0.043761
0.167605 0.343161 0.043761
0.191606 0.343161 0.043761
0.215606 0.343161 0.043761
0.239607 0.343161 0.043761
0.263608 0.343161 0.043761
0.287609 0.343161 0.043761
0.311610 0.343161 0.043761
0.335610 0.343161 0.043761
0.362016 0.345565 0.046165
0.392461 0.349448 0.050048
0.419526 0.352899 0.053499
0.484930 0.354640 0.055721
0.515471 0.357967 0.059062
0.546011 0.361296 0.062402
0.576551 0.364626 0.065742
0.607092 0.367958 0.069082
0.637632 0.371290 0.072423
0.668172 0.374623 0.075763
0.698713 0.377956 0.079103
0.729253 0.381290 0.082444
0.759793 0.384625 0.085784
0.790333 0.387960 0.089124
0.820874 0.391295 0.092464
0.837540 0.393115 0.094287
0.837540 0.393115 0.094287
0.837540 0.393115 0.094287
0.837540 0.393115 0.094287
0.837540 0.393115 0.094287
0.047088 0.369250 0.047088
0.074515 0.369250 0.047088
0.098929 0.369250 0.047088
0.122930 0.369250 0.047088
0.146931 0.369250 0.047088
0.170932 0.369250 0.047088
0.194933 0.369250 0.047088
0.218933 0.369250 0.047088
0.242934 0.369250 0.047088
0.266935 0.369250 0.047088
0.290936 0.369250 0.047088
0.314937 0.369250 0.047088
0.338937 0.369250 0.047088
0.362938 0.369250 0.047088
0.392461 0.372210 0.050048
0.419526 0.375662 0.053499
0.484930 0.377365 0.055721
0.515471 0.380692 0.059062
0.546011 0.384020 0.062402
0.576551 0.387350 0.065742
0.607092 0.390680 0.069082
0.637632 0.394012 0.072423
0.668172 0.397344 0.075763
0.698713 0.400677 0.079103
0.729253 0.404010 0.082444
0.759793 0.407345 0.085784
0.790333 0.410679 0.089124
0.820874 0.414014 0.092464
0.837540 0.415834 0.094287
0.837540 0.415834 0.094287
0.837540 0.415834 0.094287
0.837540 0.415834 0.094287
0.837540 0.415834 0.094287
0.050777 0.398183 0.050777
0.078204 0.398183 0.050777
0.102619 0.398183 0.050777
0.126620 0.398183 0.050777
0.150621 0.398183 0.050777
0.174621 0.398183 0.050777
0.198622 0.398183 0.050777
0.222623 0.398183 0.050777
0.246624 0.398183 0.050777
0.270625 0.398183 0.050777
0.294625 0.398183 0.050777
0.318626 0.398183 0.050777
0.342627 0.398183 0.050777
0.366628 0.398183 0.050777
0.393191 0.398183 0.050777
0.419526 0.400904 0.053499
0.484930 0.402568 0.055721
0.515471 0.405893 0.059062
0.546011 0.409220 0.062402
0.576551 0.412549 0.065742
0.607092 0.415879 0.069082
0.637632 0.419210 0.072423
0.668172 0.422541 0.075763
0.698713 0.425874 0.079103
0.729253 0.429207 0.082444
0.759793 0.432540 0.085784
0.790333 0.476245 0.089124
0.820874 0.480147 0.092464
0.837540 0.482277 0.094287
0.837540 0.482277 0.094287
0.837540 0.482277 0.094287
0.837540 0.482277 0.094287
0.837540 0.482277 0.094287
0.054051 0.423851 0.054051
0.081477 0.423851 0.054051
0.105892 0.423851 0.054051
0.129893 0.423851 0.054051
0.153894 0.423851 0.054051
0.177895 0.423851 0.054051
0.201896 0.423851 0.054051
0.225896 0.423851 0.054051
0.249897 0.423851 0.054051
0.273898 0.423851 0.054051
0.297899 0.423851 0.054051
0.321899 0.423851 0.054051
0.345900 0.423851 0.054051
0.369901 0.423851 0.054051
0.396464 0.423851 0.054051
0.420078 0.423851 0.054051
0.484930 0.424927 0.055721
0.515471 0.428252 0.059062
0.546011 0.431578 0.062402
0.576551 0.434906 0.065742
0.607092 0.478115 0.069082
0.637632 0.482012 0.072423
0.668172 0.485911 0.075763
0.698713 0.489811 0.079103
0.729253 0.493711 0.082444
0.759793 0.497612 0.085784
0.790333 0.501513 0.089124
0.820874 0.505415 0.092464
0.837540 0.507545 0.094287
0.837540 0.507545 0.094287
0.837540 0.507545 0.094287
0.837540 0.507545 0.094287
0.837540 0.507545 0.094287
0.056083 0.488234 0.056083
0.083465 0.488234 0.056083
0.107841 0.488234 0.056083
0.131803 0.488234 0.056083
0.155765 0.488234 0.056083
0.179727 0.488234 0.056083
0.203689 0.488234 0.056083
0.227651 0.488234 0.056083
0.251613 0.488234 0.056083
0.275575 0.488234 0.056083
0.299537 0.488234 0.056083
0.323499 0.488234 0.056083
0.347461 0.488234 0.056083
0.371423 0.488234 0.056083
0.397944 0.488234 0.056083
0.421519 0.488234 0.056083
0.485351 0.488234 0.056083
0.515471 0.491704 0.059062
0.546011 0.495597 0.062402
0.576551 0.499491 0.065742
0.607092 0.503387 0.069082
0.637632 0.507284 0.072423
0.668172 0.511182 0.075763
0.698713 0.515081 0.079103
0.729253 0.518980 0.082444
0.759793 0.522881 0.085784
0.790333 0.526782 0.089124
0.820874 0.530684 0.092464
0.837540 0.532813 0.094287
0.837540 0.532813 0.094287
0.837540 0.532813 0.094287
0.837540 0.532813 0.094287
0.837540 0.532813 0.094287
0.059251 0.517199 0.059251
0.086632 0.517199 0.059251
0.111007 0.517199 0.059251
0.134968 0.517199 0.059251
0.158929 0.517199 0.059251
0.182890 0.517199 0.059251
0.206851 0.517199 0.059251
0.230812 0.517199 0.059251
0.254773 0.517199 0.059251
0.278734 0.517199 0.059251
0.302695 0.517199 0.059251
0.326657 0.517199 0.059251
0.350618 0.517199 0.059251
0.374579 0.517199 0.059251
0.401098 0.517199 0.059251
0.424673 0.517199 0.059251
0.489041 0.517199 0.059251
0.515691 0.517199 0.059251
0.546011 0.520870 0.062402
0.576551 0.524764 0.065742
0.607092 0.528659 0.069082
0.637632 0.532555 0.072423
0.668172 0.536452 0.075763
0.698713 0.540351 0.079103
0.729253 0.544250 0.082444
0.759793 0.548150 0.085784
0.790333 0.552051 0.089124
0.820874 0.555952 0.092464
0.837540 0.558081 0.094287
0.837540 0.558081 0.094287
0.837540 0.558081 0.094287
0.837540 0.558081 0.094287
0.837540 0.558081 0.094287
0.062419 0.546163 0.062419
0.089799 0.546163 0.062419
0.114173 0.546163 0.062419
0.138133 0.546163 0.062419
0.162093 0.546163 0.062419
0.186053 0.546163 0.062419
0.210014 0.546163 0.062419
0.233974 0.546163 0.062419
0.257934 0.546163 0.062419
0.281894 0.546163 0.062419
0.305855 0.546163 0.062419
0.329815 0.546163 0.062419
0.353775 0.546163 0.062419
0.377735 0.546163 0.062419
0.404254 0.546163 0.062419
0.427828 0.546163 0.062419
0.492733 0.546163 0.062419
0.519382 0.546163 0.062419
0.546030 0.546163 0.062419
0.576551 0.550037 0.065742
0.607092 0.553931 0.069082
0.637632 0.557826 0.072423
0.668172 0.561723 0.075763
0.698713 0.565621 0.079103
0.729253 0.569520 0.082444
0.759793 0.573419 0.085784
0.790333 0.577319 0.089124
0.820874 0.581220 0.092464
0.837540 0.583349 0.094287
0.837540 0.583349 0.094287
0.837540 0.583349 0.094287
0.837540 0.583349 0.094287
0.837540 0.583349 0.094287
0.065586 0.575128 0.065586
0.092966 0.575128 0.065586
0.117339 0.575128 0.065586
0.141298 0.575128 0.065586
0.165258 0.575128 0.065586
0.189217 0.575128 0.065586
0.213177 0.575128 0.065586
0.237136 0.575128 0.065586
0.261096 0.575128 0.065586
0.285055 0.575128 0.065586
0.309015 0.575128 0.065586
0.332974 0.575128 0.065586
0.356934 0.575128 0.065586
0.380893 0.575128 0.065586
0.407411 0.575128 0.065586
0.430984 0.575128 0.065586
0.496426 0.575128 0.065586
0.523074 0.575128 0.065586
0.549722 0.575128 0.065586
0.576551 0.575309 0.065742
0.607092 0.579203 0.069082
0.637632 0.583098 0.072423
0.668172 0.586994 0.075763
0.698713 0.590891 0.079103
0.729253 0.594789 0.082444
0.759793 0.598688 0.085784
0.790333 0.602588 0.089124
0.820874 0.606488 0.092464
0.837540 0.608617 0.094287
0.837540 0.608617 0.094287
0.837540 0.608617 0.094287
0.837540 0.608617 0.094287
0.837540 0.608617 0.094287
0.068754 0.604092 0.068754
0.096133 0.604092 0.068754
0.120505 0.604092 0.068754
0.144464 0.604092 0.068754
0.168423 0.604092 0.068754
0.192382 0.604092 0.068754
0.216340 0.604092 0.068754
0.240299 0.604092 0.068754
0.264258 0.604092 0.068754
0.288217 0.604092 0.068754
0.312176 0.604092 0.068754
0.336134 0.604092 0.068754
0.360093 0.604092 0.068754
0.384052 0.604092 0.068754
0.410569 0.604092 0.068754
0.434141 0.604092 0.068754
0.500121 0.604092 0.068754
0.526768 0.604092 0.068754
0.553415 0.604092 0.068754
0.580062 0.604092 0.068754
0.607092 0.604475 0.069082
0.637632 0.608369 0.072423
0.668172 0.612264 0.075763
0.698713 0.616161 0.079103
0.729253 0.620059 0.082444
0.759793 0.623957 0.085784
0.790333 0.627857 0.089124
0.820874 0.631757 0.092464
0.837540 0.633885 0.094287
0.837540 0.633885 0.094287
0.837540 0.633885 0.094287
0.837540 0.633885 0.094287
0.837540 0.633885 0.094287
0.071922 0.633057 0.071922
0.099300 0.633057 0.071922
0.123672 0.633057 0.071922
0.147630 0.633057 0.071922
0.171588 0.633057 0.071922
0.195546 0.633057 0.071922
0.219505 0.633057 0.071922
0.243463 0.633057 0.071922
0.267421 0.633057 0.071922
0.291379 0.633057 0.071922
0.315337 0.633057 0.071922
0.339295 0.633057 0.071922
0.363254 0.633057 0.071922
0.387212 0.633057 0.071922
0.413728 0.633057 0.071922
0.477171 0.633057 0.071922
0.503817 0.633057 0.071922
0.530463 0.633057 0.071922
0.557110 0.633057 0.071922
0.583756 0.633057 0.071922
0.610402 0.633057 0.071922
0.637632 0.633640 0.072423
0.668172 0.637535 0.075763
0.698713 0.641431 0.079103
0.729253 0.645328 0.082444
0.759793 0.649226 0.085784
0.790333 0.653125 0.089124
0.820874 0.657025 0.092464
0.837540 0.659153 0.094287
0.837540 0.659153 0.094287
0.837540 0.659153 0.094287
0.837540 0.659153 0.094287
0.837540 0.659153 0.094287
0.075090 0.662021 0.075090
0.102468 0.662021 0.075090
0.126839 0.662021 0.075090
0.150796 0.662021 0.075090
0.174754 0.662021 0.075090
0.198711 0.662021 0.075090
0.222669 0.662021 0.075090
0.246626 0.662021 0.075090
0.270584 0.662021 0.075090
0.294542 0.662021 0.075090
0.318499 0.662021 0.075090
0.342457 0.662021 0.075090
0.366414 0.662021 0.075090
0.390372 0.662021 0.075090
0.416887 0.662021 0.075090
0.480868 0.662021 0.075090
0.507514 0.662021 0.075090
0.534159 0.662021 0.075090
0.560805 0.662021 0.075090
0.587451 0.662021 0.075090
0.614096 0.662021 0.075090
0.640742 0.662021 0.075090
0.668172 0.662806 0.075763
0.698713 0.666701 0.079103
0.729253 0.670598 0.082444
0.759793 0.674495 0.085784
0.790333 0.678394 0.089124
0.820874 0.682293 0.092464
0.837540 0.684421 0.094287
0.837540 0.684421 0.094287
0.837540 0.684421 0.094287
0.837540 0.684421 0.094287
0.837540 0.684421 0.094287
0.078258 0.690986 0.078258
0.105635 0.690986 0.078258
0.130005 0.690986 0.078258
0.153962 0.690986 0.078258
0.177919 0.690986 0.078258
0.201877 0.690986 0.078258
0.225834 0.690986 0.078258
0.249791 0.690986 0.078258
0.273748 0.690986 0.078258
0.297705 0.690986 0.078258
0.321662 0.690986 0.078258
0.345619 0.690986 0.078258
0.369576 0.690986 0.078258
0.393533 0.690986 0.078258
0.420048 0.690986 0.078258
0.484566 0.690986 0.078258
0.511211 0.690986 0.078258
0.537856 0.690986 0.078258
0.564502 0.690986 0.078258
0.591147 0.690986 0.078258
0.617792 0.690986 0.078258
0.644437 0.690986 0.078258
0.671082 0.690986 0.078258
0.698713 0.691971 0.079103
0.729253 0.695867 0.082444
0.759793 0.699765 0.085784
0.790333 0.703662 0.089124
0.820874 0.707561 0.092464
0.837540 0.709689 0.094287
0.837540 0.709689 0.094287
0.837540 0.709689 0.094287
0.837540 0.709689 0.094287
0.837540 0.709689 0.094287
0.081426 0.719950 0.081426
0.108802 0.719950 0.081426
0.133172 0.719950 0.081426
0.157129 0.719950 0.081426
0.181085 0.719950 0.081426
0.205042 0.719950 0.081426
0.228999 0.719950 0.081426
0.252955 0.719950 0.081426
0.276912 0.719950 0.081426
0.300868 0.719950 0.081426
0.324825 0.719950 0.081426
0.348781 0.719950 0.081426
0.372738 0.719950 0.081426
0.396695 0.719950 0.081426
0.423209 0.719950 0.081426
0.488265 0.719950 0.081426
0.514910 0.719950 0.081426
0.541554 0.719950 0.081426
0.568199 0.719950 0.081426
0.594843 0.719950 0.081426
0.621488 0.719950 0.081426
0.648133 0.719950 0.081426
0.674777 0.719950 0.081426
0.701422 0.719950 0.081426
0.729253 0.721137 0.082444
0.759793 0.725034 0.085784
0.790333 0.728931 0.089124
0.820874 0.732829 0.092464
0.837540 0.734957 0.094287
0.837540 0.734957 0.094287
0.837540 0.734957 0.094287
0.837540 0.734957 0.094287
0.837540 0.734957 0.094287
0.084594 0.748915 0.084594
0.111970 0.748915 0.084594
0.136339 0.748915 0.084594
0.160295 0.748915 0.084594
0.184251 0.748915 0.084594
0.208208 0.748915 0.084594
0.232164 0.748915 0.084594
0.256120 0.748915 0.084594
0.280076 0.748915 0.084594
0.304032 0.748915 0.084594
0.327988 0.748915 0.084594
0.351944 0.748915 0.084594
0.375900 0.748915 0.084594
0.399857 0.748915 0.084594
0.426370 0.748915 0.084594
0.491965 0.748915 0.084594
0.518609 0.748915 0.084594
0.545253 0.748915 0.084594
0.571897 0.748915 0.084594
0.598541 0.748915 0.084594
0.625185 0.748915 0.084594
0.651829 0.748915 0.084594
0.678473 0.748915 0.084594
0.705117 0.748915 0.084594
