docs/luts/fuji_recipes/Classic_RR_Kodak_Portra_160.cube
TITLE "Fujifilm Recipe: RR Kodak Portra 160 (Classic)"
# FilmSim=Classic HL=-2 SH=-2 Col=1 WB=Daylight WBR=4 WBB=-5
LUT_3D_SIZE 5
DOMAIN_MIN 0.0 0.0 0.0
DOMAIN_MAX 1.0 1.0 1.0
0.080000 0.080000 0.080000
0.409003 0.104498 0.104498
0.670717 0.131840 0.131840
0.866908 0.147868 0.147868
0.866908 0.147868 0.147868
0.102163 0.377649 0.102163
0.409003 0.379983 0.104498
0.670717 0.407326 0.131840
0.866908 0.423353 0.147868
0.866908 0.423353 0.147868
0.127162 0.613453 0.127162
0.431667 0.613453 0.127162
0.670717 0.617686 0.131840
0.866908 0.632186 0.147868
0.866908 0.632186 0.147868
0.147580 0.863386 0.147580
0.452085 0.863386 0.147580
0.684957 0.863386 0.147580
0.866908 0.863646 0.147868
0.866908 0.863646 0.147868
0.147580 0.863386 0.147580
0.452085 0.863386 0.147580
0.684957 0.863386 0.147580
0.866908 0.863646 0.147868
0.866908 0.863646 0.147868
0.099197 0.099197 0.337818
0.409003 0.104498 0.343118
0.670717 0.131840 0.370460
0.866908 0.147868 0.386488
0.866908 0.147868 0.386488
0.102163 0.377649 0.340783
0.428200 0.399181 0.362315
0.688142 0.426669 0.389804
0.884332 0.442697 0.405831
0.884332 0.442697 0.405831
0.127162 0.613453 0.365782
0.451011 0.630878 0.385125
0.688142 0.635111 0.389804
0.884332 0.649611 0.405831
0.884332 0.649611 0.405831
0.147580 0.863386 0.386200
0.471429 0.880810 0.405544
0.702382 0.880810 0.405544
0.884332 0.881071 0.405831
0.884332 0.881071 0.405831
0.147580 0.863386 0.386200
0.471429 0.880810 0.405544
0.702382 0.880810 0.405544
0.884332 0.881071 0.405831
0.884332 0.881071 0.405831
0.121229 0.121229 0.540839
0.425735 0.121229 0.540839
0.670717 0.131840 0.550438
0.866908 0.147868 0.564939
0.866908 0.147868 0.564939
0.121229 0.396715 0.540839
0.448067 0.419047 0.560955
0.690834 0.429657 0.570555
0.887024 0.445685 0.585055
0.887024 0.445685 0.585055
0.127162 0.613453 0.546206
0.456352 0.635689 0.568442
0.708840 0.655808 0.588560
0.905146 0.670425 0.603177
0.905146 0.670425 0.603177
0.147580 0.863386 0.564678
0.476770 0.885622 0.586914
0.723194 0.901622 0.602915
0.905146 0.901885 0.603177
0.905146 0.901885 0.603177
0.147580 0.863386 0.564678
0.476770 0.885622 0.586914
0.723194 0.901622 0.602915
0.905146 0.901885 0.603177
0.905146 0.901885 0.603177
0.138944 0.138944 0.757677
0.443450 0.138944 0.757677
0.677144 0.138944 0.757677
0.866908 0.147868 0.765751
0.866908 0.147868 0.765751
0.138944 0.414430 0.757677
0.465782 0.436762 0.777794
0.697261 0.436762 0.777794
0.887024 0.445685 0.785867
0.887024 0.445685 0.785867
0.138944 0.624113 0.757677
0.468134 0.646349 0.779913
0.720729 0.667697 0.801261
0.910557 0.675835 0.809400
0.910557 0.675835 0.809400
0.147580 0.863386 0.765490
0.476770 0.885622 0.787726
0.732871 0.911299 0.813404
0.921302 0.918040 0.820145
0.921302 0.918040 0.820145
0.147580 0.863386 0.765490
0.476770 0.885622 0.787726
0.732871 0.911299 0.813404
0.921302 0.918040 0.820145
0.921302 0.918040 0.820145
0.138944 0.138944 0.757677
0.443450 0.138944 0.757677
0.677144 0.138944 0.757677
0.866908 0.147868 0.765751
0.866908 0.147868 0.765751
0.138944 0.414430 0.757677
0.465782 0.436762 0.777794
0.697261 0.436762 0.777794
0.887024 0.445685 0.785867
0.887024 0.445685 0.785867
0.138944 0.624113 0.757677
0.468134 0.646349 0.779913
0.720729 0.667697 0.801261
0.910557 0.675835 0.809400
0.910557 0.675835 0.809400
0.147580 0.863386 0.765490
0.476770 0.885622 0.787726
0.732871 0.911299 0.813404
0.921302 0.918040 0.820145
0.921302 0.918040 0.820145
0.147580 0.863386 0.765490
0.476770 0.885622 0.787726
0.732871 0.911299 0.813404
0.921302 0.918040 0.820145
0.921302 0.918040 0.820145
