docs/luts/fuji_recipes/Classic_PS_Kodak_Portra_160.cube
TITLE "Fujifilm Recipe: PS Kodak Portra 160 (Classic)"
# FilmSim=Classic HL=-2 SH=0 Col=2 WB=FLight1 WBR=-1 WBB=-1
LUT_3D_SIZE 5
DOMAIN_MIN 0.0 0.0 0.0
DOMAIN_MAX 1.0 1.0 1.0
0.000000 0.000000 0.000000
0.310262 0.001121 0.001121
0.605965 0.002846 0.002846
0.847859 0.009014 0.009014
0.847859 0.009014 0.009014
0.001251 0.346370 0.001251
0.310392 0.346370 0.001251
0.605965 0.347965 0.002846
0.847859 0.354133 0.009014
0.847859 0.354133 0.009014
0.004316 0.663625 0.004316
0.313457 0.663625 0.004316
0.605981 0.663625 0.004316
0.847859 0.663678 0.009014
0.847859 0.663678 0.009014
0.011121 0.930469 0.011121
0.320261 0.930469 0.011121
0.606058 0.930469 0.011121
0.847883 0.930469 0.011121
0.847883 0.930469 0.011121
0.011121 0.930469 0.011121
0.320261 0.930469 0.011121
0.606058 0.930469 0.011121
0.847883 0.930469 0.011121
0.847883 0.930469 0.011121
0.001320 0.001320 0.365407
0.310461 0.001320 0.365407
0.605965 0.002846 0.366933
0.847859 0.009014 0.373101
0.847859 0.009014 0.373101
0.001320 0.346439 0.365407
0.311582 0.347560 0.366528
0.600571 0.350230 0.369198
0.842466 0.356398 0.375366
0.842466 0.356398 0.375366
0.004316 0.663625 0.368403
0.315486 0.658793 0.370432
0.600291 0.657935 0.370793
0.842169 0.657988 0.375490
0.842169 0.657988 0.375490
0.011121 0.930469 0.375207
0.322290 0.925637 0.377236
0.600368 0.924778 0.377597
0.842193 0.924778 0.377597
0.842193 0.924778 0.377597
0.011121 0.930469 0.375207
0.322290 0.925637 0.377236
0.600368 0.924778 0.377597
0.842193 0.924778 0.377597
0.842193 0.924778 0.377597
0.005054 0.005054 0.692568
0.314195 0.005054 0.692568
0.605990 0.005054 0.692568
0.847859 0.009014 0.692613
0.847859 0.009014 0.692613
0.005054 0.350173 0.692568
0.316224 0.352202 0.687737
0.600596 0.352438 0.687174
0.842466 0.356398 0.687219
0.842466 0.356398 0.687219
0.005054 0.663633 0.692568
0.316224 0.658802 0.687737
0.599204 0.656848 0.685783
0.841801 0.657620 0.686555
0.841801 0.657620 0.686555
0.011121 0.930469 0.692637
0.322290 0.925637 0.687805
0.600067 0.924477 0.686645
0.842206 0.924791 0.686959
0.842206 0.924791 0.686959
0.011121 0.930469 0.692637
0.322290 0.925637 0.687805
0.600067 0.924477 0.686645
0.842206 0.924791 0.686959
0.842206 0.924791 0.686959
0.010390 0.010390 0.901826
0.319531 0.010390 0.901826
0.606050 0.010390 0.901826
0.847875 0.010390 0.901826
0.847875 0.010390 0.901826
0.010390 0.355509 0.901826
0.321560 0.357538 0.896995
0.600656 0.357774 0.896432
0.842481 0.357774 0.896432
0.842481 0.357774 0.896432
0.010390 0.663694 0.901826
0.321560 0.658862 0.896995
0.599963 0.657606 0.895739
0.841997 0.657815 0.895948
0.841997 0.657815 0.895948
0.011121 0.930469 0.901834
0.322290 0.925637 0.897003
0.600067 0.924477 0.895843
0.842769 0.925354 0.896720
0.842769 0.925354 0.896720
0.011121 0.930469 0.901834
0.322290 0.925637 0.897003
0.600067 0.924477 0.895843
0.842769 0.925354 0.896720
0.842769 0.925354 0.896720
0.010390 0.010390 0.901826
0.319531 0.010390 0.901826
0.606050 0.010390 0.901826
0.847875 0.010390 0.901826
0.847875 0.010390 0.901826
0.010390 0.355509 0.901826
0.321560 0.357538 0.896995
0.600656 0.357774 0.896432
0.842481 0.357774 0.896432
0.842481 0.357774 0.896432
0.010390 0.663694 0.901826
0.321560 0.658862 0.896995
0.599963 0.657606 0.895739
0.841997 0.657815 0.895948
0.841997 0.657815 0.895948
0.011121 0.930469 0.901834
0.322290 0.925637 0.897003
0.600067 0.924477 0.895843
0.842769 0.925354 0.896720
0.842769 0.925354 0.896720
0.011121 0.930469 0.901834
0.322290 0.925637 0.897003
0.600067 0.924477 0.895843
0.842769 0.925354 0.896720
0.842769 0.925354 0.896720
