docs/luts/fuji_recipes/Classic_RR_Kodak_Portra_160.cube
TITLE "Fujifilm Recipe: RR Kodak Portra 160 (Classic)"
# FilmSim=Classic HL=-2 SH=-2 Col=1 WB=Daylight WBR=4 WBB=-5
LUT_3D_SIZE 9
DOMAIN_MIN 0.0 0.0 0.0
DOMAIN_MAX 1.0 1.0 1.0
0.080000 0.080000 0.080000
0.253105 0.092889 0.092889
0.409003 0.104498 0.104498
0.567355 0.116289 0.116289
0.670717 0.131840 0.131840
0.817345 0.143819 0.143819
0.866908 0.147868 0.147868
0.866908 0.147868 0.147868
0.866908 0.147868 0.147868
0.091654 0.236515 0.091654
0.253105 0.237751 0.092889
0.409003 0.249359 0.104498
0.567355 0.261150 0.116289
0.670717 0.276701 0.131840
0.817345 0.288680 0.143819
0.866908 0.292729 0.147868
0.866908 0.292729 0.147868
0.866908 0.292729 0.147868
0.102163 0.377649 0.102163
0.262379 0.377649 0.102163
0.409003 0.379983 0.104498
0.567355 0.391774 0.116289
0.670717 0.407326 0.131840
0.817345 0.419304 0.143819
0.866908 0.423353 0.147868
0.866908 0.423353 0.147868
0.866908 0.423353 0.147868
0.112910 0.521980 0.112910
0.273126 0.521980 0.112910
0.417415 0.521980 0.112910
0.567355 0.525359 0.116289
0.670717 0.540910 0.131840
0.817345 0.505593 0.143819
0.866908 0.509256 0.147868
0.866908 0.509256 0.147868
0.866908 0.509256 0.147868
0.127162 0.613453 0.127162
0.287377 0.613453 0.127162
0.431667 0.613453 0.127162
0.530694 0.613453 0.127162
0.670717 0.617686 0.131840
0.817345 0.628523 0.143819
0.866908 0.632186 0.147868
0.866908 0.632186 0.147868
0.866908 0.632186 0.147868
0.138006 0.746194 0.138006
0.298222 0.746194 0.138006
0.442512 0.746194 0.138006
0.540505 0.746194 0.138006
0.676296 0.746194 0.138006
0.817345 0.751453 0.143819
0.866908 0.755116 0.147868
0.866908 0.755116 0.147868
0.866908 0.755116 0.147868
0.147580 0.863386 0.147580
0.307795 0.863386 0.147580
0.452085 0.863386 0.147580
0.549167 0.863386 0.147580
0.684957 0.863386 0.147580
0.820748 0.863386 0.147580
0.866908 0.863646 0.147868
0.866908 0.863646 0.147868
0.866908 0.863646 0.147868
0.147580 0.863386 0.147580
0.307795 0.863386 0.147580
0.452085 0.863386 0.147580
0.549167 0.863386 0.147580
0.684957 0.863386 0.147580
0.820748 0.863386 0.147580
0.866908 0.863646 0.147868
0.866908 0.863646 0.147868
0.866908 0.863646 0.147868
0.147580 0.863386 0.147580
0.307795 0.863386 0.147580
0.452085 0.863386 0.147580
0.549167 0.863386 0.147580
0.684957 0.863386 0.147580
0.820748 0.863386 0.147580
0.866908 0.863646 0.147868
0.866908 0.863646 0.147868
0.866908 0.863646 0.147868
0.090080 0.090080 0.215372
0.253105 0.092889 0.218181
0.409003 0.104498 0.229789
0.567355 0.116289 0.241580
0.670717 0.131840 0.257131
0.817345 0.143819 0.269110
0.866908 0.147868 0.273159
0.866908 0.147868 0.273159
0.866908 0.147868 0.273159
0.091654 0.236515 0.216946
0.263185 0.247830 0.228261
0.419083 0.259439 0.239869
0.533239 0.274879 0.255309
0.679866 0.286858 0.267288
0.826494 0.298836 0.279267
0.876057 0.302885 0.283316
0.876057 0.302885 0.283316
0.876057 0.302885 0.283316
0.102163 0.377649 0.227455
0.272458 0.387729 0.237534
0.419083 0.390063 0.239869
0.533239 0.405503 0.255309
0.679866 0.417482 0.267288
0.826494 0.429461 0.279267
0.876057 0.433510 0.283316
0.876057 0.433510 0.283316
0.876057 0.433510 0.283316
0.112910 0.521980 0.238202
0.283205 0.532060 0.248281
0.427495 0.532060 0.248281
0.532792 0.538642 0.254863
0.679866 0.551066 0.267288
0.826494 0.514742 0.279267
0.876057 0.518406 0.283316
0.876057 0.518406 0.283316
0.876057 0.518406 0.283316
0.127162 0.613453 0.252453
0.297534 0.622603 0.262610
0.441824 0.622603 0.262610
0.539844 0.622603 0.262610
0.679866 0.626835 0.267288
0.826494 0.637672 0.279267
0.876057 0.641336 0.283316
0.876057 0.641336 0.283316
0.876057 0.641336 0.283316
0.138006 0.746194 0.263298
0.308378 0.755344 0.273454
0.452668 0.755344 0.273454
0.549655 0.755344 0.273454
0.685445 0.755344 0.273454
0.826494 0.760602 0.279267
0.876057 0.764266 0.283316
0.876057 0.764266 0.283316
0.876057 0.764266 0.283316
0.147580 0.863386 0.272872
0.317952 0.872535 0.283028
0.462242 0.872535 0.283028
0.558316 0.872535 0.283028
0.694107 0.872535 0.283028
0.829897 0.872535 0.283028
0.876057 0.872795 0.283316
0.876057 0.872795 0.283316
0.876057 0.872795 0.283316
0.147580 0.863386 0.272872
0.317952 0.872535 0.283028
0.462242 0.872535 0.283028
0.558316 0.872535 0.283028
0.694107 0.872535 0.283028
0.829897 0.872535 0.283028
0.876057 0.872795 0.283316
0.876057 0.872795 0.283316
0.876057 0.872795 0.283316
0.147580 0.863386 0.272872
0.317952 0.872535 0.283028
0.462242 0.872535 0.283028
0.558316 0.872535 0.283028
0.694107 0.872535 0.283028
0.829897 0.872535 0.283028
0.876057 0.872795 0.283316
0.876057 0.872795 0.283316
0.876057 0.872795 0.283316
0.099197 0.099197 0.337818
0.259413 0.099197 0.337818
0.409003 0.104498 0.343118
0.567355 0.116289 0.354909
0.670717 0.131840 0.370460
0.817345 0.143819 0.382439
0.866908 0.147868 0.386488
0.866908 0.147868 0.386488
0.866908 0.147868 0.386488
0.099197 0.244058 0.337818
0.271067 0.255713 0.349472
0.420657 0.261013 0.354772
0.534668 0.276465 0.370224
0.681295 0.288444 0.382203
0.827923 0.300423 0.394182
0.877486 0.304472 0.398231
0.877486 0.304472 0.398231
0.877486 0.304472 0.398231
0.102163 0.377649 0.340783
0.275268 0.390538 0.353673
0.428200 0.399181 0.362315
0.541514 0.414690 0.377825
0.688142 0.426669 0.389804
0.834770 0.438648 0.401782
0.884332 0.442697 0.405831
0.884332 0.442697 0.405831
0.884332 0.442697 0.405831
0.112910 0.521980 0.351530
0.286015 0.534869 0.364420
0.436613 0.541177 0.370727
0.540999 0.547759 0.377309
0.688142 0.512181 0.389804
0.834770 0.523018 0.401782
0.884332 0.526681 0.405831
0.884332 0.526681 0.405831
0.884332 0.526681 0.405831
0.127162 0.613453 0.365782
0.300365 0.625153 0.378770
0.451011 0.630878 0.385125
0.548119 0.630878 0.385125
0.688142 0.635111 0.389804
0.834770 0.645948 0.401782
0.884332 0.649611 0.405831
0.884332 0.649611 0.405831
0.884332 0.649611 0.405831
0.138006 0.746194 0.376626
0.311209 0.757894 0.389614
0.461855 0.763619 0.395970
0.557930 0.763619 0.395970
0.693721 0.763619 0.395970
0.834770 0.768878 0.401782
0.884332 0.772541 0.405831
0.884332 0.772541 0.405831
0.884332 0.772541 0.405831
0.147580 0.863386 0.386200
0.320783 0.875085 0.399188
0.471429 0.880810 0.405544
0.566592 0.880810 0.405544
0.702382 0.880810 0.405544
0.838173 0.880810 0.405544
0.884332 0.881071 0.405831
0.884332 0.881071 0.405831
0.884332 0.881071 0.405831
0.147580 0.863386 0.386200
0.320783 0.875085 0.399188
0.471429 0.880810 0.405544
0.566592 0.880810 0.405544
0.702382 0.880810 0.405544
0.838173 0.880810 0.405544
0.884332 0.881071 0.405831
0.884332 0.881071 0.405831
0.884332 0.881071 0.405831
0.147580 0.863386 0.386200
0.320783 0.875085 0.399188
0.471429 0.880810 0.405544
0.566592 0.880810 0.405544
0.702382 0.880810 0.405544
0.838173 0.880810 0.405544
0.884332 0.881071 0.405831
0.884332 0.881071 0.405831
0.884332 0.881071 0.405831
0.108314 0.108314 0.460264
0.268530 0.108314 0.460264
0.412820 0.108314 0.460264
0.567355 0.116289 0.468238
0.670717 0.131840 0.483789
0.817345 0.143819 0.495768
0.866908 0.147868 0.499817
0.866908 0.147868 0.499817
0.866908 0.147868 0.499817
0.108314 0.253176 0.460264
0.280184 0.264830 0.471918
0.424474 0.264830 0.471918
0.534668 0.276465 0.483553
0.681295 0.288444 0.495532
0.827923 0.300423 0.507511
0.877486 0.304472 0.511560
0.877486 0.304472 0.511560
0.877486 0.304472 0.511560
0.108314 0.383800 0.460264
0.281420 0.396690 0.473153
0.434983 0.405963 0.482427
0.544206 0.417679 0.494142
0.690834 0.429657 0.506121
0.837462 0.441636 0.518100
0.887024 0.445685 0.474736
0.887024 0.445685 0.474736
0.887024 0.445685 0.474736
0.112910 0.521980 0.464859
0.286015 0.534869 0.477748
0.441913 0.546478 0.489357
0.549790 0.509619 0.500340
0.696418 0.520456 0.512319
0.846679 0.534927 0.480290
0.896271 0.538620 0.483983
0.896271 0.538620 0.483983
0.896271 0.538620 0.483983
0.127162 0.613453 0.479111
0.300365 0.625153 0.492098
0.456352 0.635689 0.503795
0.556395 0.639154 0.507641
0.696418 0.643386 0.512319
0.846679 0.657857 0.480290
0.896271 0.661550 0.483983
0.896271 0.661550 0.483983
0.896271 0.661550 0.483983
0.138006 0.746194 0.489955
0.311209 0.757894 0.502943
0.467196 0.768430 0.514639
0.566206 0.771895 0.518485
0.701996 0.771895 0.518485
0.846679 0.780787 0.480290
0.896271 0.784480 0.483983
0.896271 0.784480 0.483983
0.896271 0.784480 0.483983
0.147580 0.863386 0.499529
0.320783 0.875085 0.512517
0.476783 0.885635 0.476608
0.578528 0.892747 0.483720
0.714319 0.892747 0.483720
0.850109 0.892747 0.483720
0.896271 0.893009 0.483983
0.896271 0.893009 0.483983
0.896271 0.893009 0.483983
0.147580 0.863386 0.499529
0.320783 0.875085 0.512517
0.476783 0.885635 0.476608
0.578528 0.892747 0.483720
0.714319 0.892747 0.483720
0.850109 0.892747 0.483720
0.896271 0.893009 0.483983
0.896271 0.893009 0.483983
0.896271 0.893009 0.483983
0.147580 0.863386 0.499529
0.320783 0.875085 0.512517
0.476783 0.885635 0.476608
0.578528 0.892747 0.483720
0.714319 0.892747 0.483720
0.850109 0.892747 0.483720
0.896271 0.893009 0.483983
0.896271 0.893009 0.483983
0.896271 0.893009 0.483983
0.121229 0.121229 0.540839
0.281445 0.121229 0.540839
0.425735 0.121229 0.540839
0.569897 0.118830 0.538439
0.670717 0.131840 0.550438
0.817345 0.143819 0.561275
0.866908 0.147868 0.564939
0.866908 0.147868 0.564939
0.866908 0.147868 0.564939
0.121229 0.266091 0.540839
0.293188 0.277833 0.551417
0.437478 0.277833 0.551417
0.535906 0.277833 0.551417
0.681295 0.288444 0.561016
0.827923 0.300423 0.571854
0.877486 0.304472 0.575517
0.877486 0.304472 0.575517
0.877486 0.304472 0.575517
0.121229 0.396715 0.540839
0.294433 0.409703 0.552538
0.448067 0.419047 0.560955
0.545444 0.419047 0.560955
0.690834 0.429657 0.570555
0.837462 0.441636 0.581392
0.887024 0.445685 0.585055
0.887024 0.445685 0.585055
0.887024 0.445685 0.585055
0.121229 0.530299 0.540839
0.294433 0.543287 0.552538
0.450419 0.507392 0.563075
0.558893 0.518722 0.574404
0.704360 0.528399 0.584081
0.851075 0.539323 0.595005
0.900667 0.543016 0.598698
0.900667 0.543016 0.598698
0.900667 0.543016 0.598698
0.127162 0.613453 0.546206
0.300365 0.625153 0.557905
0.456352 0.635689 0.568442
0.567535 0.650294 0.583046
0.708840 0.655808 0.588560
0.855554 0.666733 0.599485
0.905146 0.670425 0.603177
0.905146 0.670425 0.603177
0.905146 0.670425 0.603177
0.138006 0.746194 0.556017
0.311209 0.757894 0.567716
0.467196 0.768430 0.578253
0.577425 0.783114 0.592936
0.714463 0.784362 0.594184
0.855554 0.789663 0.599485
0.905146 0.793355 0.603177
0.905146 0.793355 0.603177
0.905146 0.793355 0.603177
0.147580 0.863386 0.564678
0.320783 0.875085 0.576378
0.476770 0.885622 0.586914
0.586156 0.900374 0.601667
0.723194 0.901622 0.602915
0.858985 0.901622 0.602915
0.905146 0.901885 0.603177
0.905146 0.901885 0.603177
0.905146 0.901885 0.603177
0.147580 0.863386 0.564678
0.320783 0.875085 0.576378
0.476770 0.885622 0.586914
0.586156 0.900374 0.601667
0.723194 0.901622 0.602915
0.858985 0.901622 0.602915
0.905146 0.901885 0.603177
0.905146 0.901885 0.603177
0.905146 0.901885 0.603177
0.147580 0.863386 0.564678
0.320783 0.875085 0.576378
0.476770 0.885622 0.586914
0.586156 0.900374 0.601667
0.723194 0.901622 0.602915
0.858985 0.901622 0.602915
0.905146 0.901885 0.603177
0.905146 0.901885 0.603177
0.905146 0.901885 0.603177
0.130638 0.130638 0.656003
0.290853 0.130638 0.656003
0.435143 0.130638 0.656003
0.533839 0.130638 0.656003
0.670717 0.131840 0.657091
0.817345 0.143819 0.667928
0.866908 0.147868 0.671591
0.866908 0.147868 0.671591
0.866908 0.147868 0.671591
0.130638 0.275499 0.656003
0.302596 0.287242 0.666582
0.446886 0.287242 0.666582
0.544417 0.287242 0.666582
0.681295 0.288444 0.667669
0.827923 0.300423 0.678506
0.877486 0.304472 0.682170
0.877486 0.304472 0.682170
0.877486 0.304472 0.682170
0.130638 0.406123 0.656003
0.303841 0.419111 0.667703
0.457475 0.428455 0.676120
0.553956 0.428455 0.676120
0.690834 0.429657 0.677208
0.837462 0.441636 0.688045
0.887024 0.445685 0.691708
0.887024 0.445685 0.691708
0.887024 0.445685 0.691708
0.130638 0.539708 0.656003
0.303841 0.505368 0.667703
0.459828 0.515904 0.678239
0.567473 0.527302 0.689637
0.704360 0.528399 0.690734
0.851075 0.539323 0.701658
0.900667 0.543016 0.705351
0.900667 0.543016 0.705351
0.900667 0.543016 0.705351
0.130638 0.616598 0.656003
0.303841 0.628298 0.667703
0.459828 0.638834 0.678239
0.570705 0.653464 0.692869
0.714250 0.661218 0.700623
0.860964 0.672143 0.711548
0.910557 0.675835 0.715240
0.910557 0.675835 0.715240
0.910557 0.675835 0.715240
0.138006 0.746194 0.662669
0.311209 0.757894 0.674369
0.467196 0.768430 0.684905
0.577425 0.783114 0.699589
0.723043 0.792942 0.709417
0.864135 0.798243 0.714718
0.913727 0.801936 0.718411
0.913727 0.801936 0.718411
0.913727 0.801936 0.718411
0.147580 0.863386 0.671331
0.320783 0.875085 0.683031
0.476770 0.885622 0.693567
0.586156 0.900374 0.708320
0.731774 0.910203 0.718148
0.867565 0.910203 0.718148
0.913727 0.910465 0.718411
0.913727 0.910465 0.718411
0.913727 0.910465 0.718411
0.147580 0.863386 0.671331
0.320783 0.875085 0.683031
0.476770 0.885622 0.693567
0.586156 0.900374 0.708320
0.731774 0.910203 0.718148
0.867565 0.910203 0.718148
0.913727 0.910465 0.718411
0.913727 0.910465 0.718411
0.913727 0.910465 0.718411
0.147580 0.863386 0.671331
0.320783 0.875085 0.683031
0.476770 0.885622 0.693567
0.586156 0.900374 0.708320
0.731774 0.910203 0.718148
0.867565 0.910203 0.718148
0.913727 0.910465 0.718411
0.913727 0.910465 0.718411
0.913727 0.910465 0.718411
0.138944 0.138944 0.757677
0.299160 0.138944 0.757677
0.443450 0.138944 0.757677
0.541354 0.138944 0.757677
0.677144 0.138944 0.757677
0.817345 0.143819 0.762087
0.866908 0.147868 0.765751
0.866908 0.147868 0.765751
0.866908 0.147868 0.765751
0.138944 0.283805 0.757677
0.310903 0.295548 0.768256
0.455193 0.295548 0.768256
0.551932 0.295548 0.768256
0.687723 0.295548 0.768256
0.827923 0.300423 0.772666
0.877486 0.304472 0.776329
0.877486 0.304472 0.776329
0.877486 0.304472 0.776329
0.138944 0.414430 0.757677
0.312147 0.427417 0.769377
0.465782 0.436762 0.777794
0.561471 0.436762 0.777794
0.697261 0.436762 0.777794
0.837462 0.441636 0.782204
0.887024 0.445685 0.785867
0.887024 0.445685 0.785867
0.887024 0.445685 0.785867
0.138944 0.548014 0.757677
0.312147 0.512883 0.769377
0.468134 0.523419 0.779913
0.575048 0.534877 0.791372
0.710839 0.534877 0.791372
0.851075 0.539323 0.795817
0.900667 0.543016 0.799510
0.900667 0.543016 0.799510
0.900667 0.543016 0.799510
0.138944 0.624113 0.757677
0.312147 0.635813 0.769377
0.468134 0.646349 0.779913
0.578280 0.661039 0.794603
0.720729 0.667697 0.801261
0.860964 0.672143 0.805707
0.910557 0.675835 0.809400
0.910557 0.675835 0.809400
0.910557 0.675835 0.809400
0.138944 0.747043 0.757677
0.312147 0.758743 0.769377
0.468134 0.769279 0.779913
0.578280 0.783969 0.794603
0.724995 0.794894 0.805528
0.870854 0.804963 0.815597
0.920446 0.808655 0.819289
0.920446 0.808655 0.819289
0.920446 0.808655 0.819289
0.147580 0.863386 0.765490
0.320783 0.875085 0.777190
0.476770 0.885622 0.787726
0.586156 0.900374 0.802479
0.732871 0.911299 0.813404
0.875140 0.917778 0.819882
0.921302 0.918040 0.820145
0.921302 0.918040 0.820145
0.921302 0.918040 0.820145
0.147580 0.863386 0.765490
0.320783 0.875085 0.777190
0.476770 0.885622 0.787726
0.586156 0.900374 0.802479
0.732871 0.911299 0.813404
0.875140 0.917778 0.819882
0.921302 0.918040 0.820145
0.921302 0.918040 0.820145
0.921302 0.918040 0.820145
0.147580 0.863386 0.765490
0.320783 0.875085 0.777190
0.476770 0.885622 0.787726
0.586156 0.900374 0.802479
0.732871 0.911299 0.813404
0.875140 0.917778 0.819882
0.921302 0.918040 0.820145
0.921302 0.918040 0.820145
0.921302 0.918040 0.820145
0.138944 0.138944 0.757677
0.299160 0.138944 0.757677
0.443450 0.138944 0.757677
0.541354 0.138944 0.757677
0.677144 0.138944 0.757677
0.817345 0.143819 0.762087
0.866908 0.147868 0.765751
0.866908 0.147868 0.765751
0.866908 0.147868 0.765751
0.138944 0.283805 0.757677
0.310903 0.295548 0.768256
0.455193 0.295548 0.768256
0.551932 0.295548 0.768256
0.687723 0.295548 0.768256
0.827923 0.300423 0.772666
0.877486 0.304472 0.776329
0.877486 0.304472 0.776329
0.877486 0.304472 0.776329
0.138944 0.414430 0.757677
0.312147 0.427417 0.769377
0.465782 0.436762 0.777794
0.561471 0.436762 0.777794
0.697261 0.436762 0.777794
0.837462 0.441636 0.782204
0.887024 0.445685 0.785867
0.887024 0.445685 0.785867
0.887024 0.445685 0.785867
0.138944 0.548014 0.757677
0.312147 0.512883 0.769377
0.468134 0.523419 0.779913
0.575048 0.534877 0.791372
0.710839 0.534877 0.791372
0.851075 0.539323 0.795817
0.900667 0.543016 0.799510
0.900667 0.543016 0.799510
0.900667 0.543016 0.799510
0.138944 0.624113 0.757677
0.312147 0.635813 0.769377
0.468134 0.646349 0.779913
0.578280 0.661039 0.794603
0.720729 0.667697 0.801261
0.860964 0.672143 0.805707
0.910557 0.675835 0.809400
0.910557 0.675835 0.809400
0.910557 0.675835 0.809400
0.138944 0.747043 0.757677
0.312147 0.758743 0.769377
0.468134 0.769279 0.779913
0.578280 0.783969 0.794603
0.724995 0.794894 0.805528
0.870854 0.804963 0.815597
0.920446 0.808655 0.819289
0.920446 0.808655 0.819289
0.920446 0.808655 0.819289
0.147580 0.863386 0.765490
0.320783 0.875085 0.777190
0.476770 0.885622 0.787726
0.586156 0.900374 0.802479
0.732871 0.911299 0.813404
0.875140 0.917778 0.819882
0.921302 0.918040 0.820145
0.921302 0.918040 0.820145
0.921302 0.918040 0.820145
0.147580 0.863386 0.765490
0.320783 0.875085 0.777190
0.476770 0.885622 0.787726
0.586156 0.900374 0.802479
0.732871 0.911299 0.813404
0.875140 0.917778 0.819882
0.921302 0.918040 0.820145
0.921302 0.918040 0.820145
0.921302 0.918040 0.820145
0.147580 0.863386 0.765490
0.320783 0.875085 0.777190
0.476770 0.885622 0.787726
0.586156 0.900374 0.802479
0.732871 0.911299 0.813404
0.875140 0.917778 0.819882
0.921302 0.918040 0.820145
0.921302 0.918040 0.820145
0.921302 0.918040 0.820145
0.138944 0.138944 0.757677
0.299160 0.138944 0.757677
0.443450 0.138944 0.757677
0.541354 0.138944 0.757677
0.677144 0.138944 0.757677
0.817345 0.143819 0.762087
0.866908 0.147868 0.765751
0.866908 0.147868 0.765751
0.866908 0.147868 0.765751
0.138944 0.283805 0.757677
0.310903 0.295548 0.768256
0.455193 0.295548 0.768256
0.551932 0.295548 0.768256
0.687723 0.295548 0.768256
0.827923 0.300423 0.772666
0.877486 0.304472 0.776329
0.877486 0.304472 0.776329
0.877486 0.304472 0.776329
0.138944 0.414430 0.757677
0.312147 0.427417 0.769377
0.465782 0.436762 0.777794
0.561471 0.436762 0.777794
0.697261 0.436762 0.777794
0.837462 0.441636 0.782204
0.887024 0.445685 0.785867
0.887024 0.445685 0.785867
0.887024 0.445685 0.785867
0.138944 0.548014 0.757677
0.312147 0.512883 0.769377
0.468134 0.523419 0.779913
0.575048 0.534877 0.791372
0.710839 0.534877 0.791372
0.851075 0.539323 0.795817
0.900667 0.543016 0.799510
0.900667 0.543016 0.799510
0.900667 0.543016 0.799510
0.138944 0.624113 0.757677
0.312147 0.635813 0.769377
0.468134 0.646349 0.779913
0.578280 0.661039 0.794603
0.720729 0.667697 0.801261
0.860964 0.672143 0.805707
0.910557 0.675835 0.809400
0.910557 0.675835 0.809400
0.910557 0.675835 0.809400
0.138944 0.747043 0.757677
0.312147 0.758743 0.769377
0.468134 0.769279 0.779913
0.578280 0.783969 0.794603
0.724995 0.794894 0.805528
0.870854 0.804963 0.815597
0.920446 0.808655 0.819289
0.920446 0.808655 0.819289
0.920446 0.808655 0.819289
0.147580 0.863386 0.765490
0.320783 0.875085 0.777190
0.476770 0.885622 0.787726
0.586156 0.900374 0.802479
0.732871 0.911299 0.813404
0.875140 0.917778 0.819882
0.921302 0.918040 0.820145
0.921302 0.918040 0.820145
0.921302 0.918040 0.820145
0.147580 0.863386 0.765490
0.320783 0.875085 0.777190
0.476770 0.885622 0.787726
0.586156 0.900374 0.802479
0.732871 0.911299 0.813404
0.875140 0.917778 0.819882
0.921302 0.918040 0.820145
0.921302 0.918040 0.820145
0.921302 0.918040 0.820145
0.147580 0.863386 0.765490
0.320783 0.875085 0.777190
0.476770 0.885622 0.787726
0.586156 0.900374 0.802479
0.732871 0.911299 0.813404
0.875140 0.917778 0.819882
0.921302 0.918040 0.820145
0.921302 0.918040 0.820145
0.921302 0.918040 0.820145
