docs/luts/fuji_recipes/Eterna_RR_Polaroid.cube
TITLE "Fujifilm Recipe: RR Polaroid (Eterna)"
# FilmSim=Eterna HL=4 SH=-2 Col=-2 WB=Auto WBR=5 WBB=-5
LUT_3D_SIZE 9
DOMAIN_MIN 0.0 0.0 0.0
DOMAIN_MAX 1.0 1.0 1.0
0.116800 0.116800 0.116800
0.261679 0.155034 0.155034
0.392302 0.189506 0.189506
0.485545 0.215105 0.215105
0.648525 0.256631 0.256631
0.811505 0.298157 0.298157
0.846862 0.307166 0.307166
0.846862 0.307166 0.307166
0.846862 0.307166 0.307166
0.150966 0.246265 0.150966
0.261679 0.250333 0.155034
0.392302 0.284805 0.189506
0.485545 0.310404 0.215105
0.648525 0.351930 0.256631
0.811505 0.393456 0.298157
0.846862 0.402465 0.307166
0.846862 0.402465 0.307166
0.846862 0.402465 0.307166
0.181736 0.362861 0.181736
0.288381 0.362861 0.181736
0.392302 0.370631 0.189506
0.485545 0.396230 0.215105
0.648525 0.437756 0.256631
0.811505 0.479282 0.298157
0.846862 0.488291 0.307166
0.846862 0.488291 0.307166
0.846862 0.488291 0.307166
0.208635 0.464789 0.208635
0.315280 0.464789 0.208635
0.411431 0.464789 0.208635
0.485545 0.471259 0.215105
0.648525 0.488295 0.256631
0.811505 0.531052 0.298157
0.846862 0.540327 0.307166
0.846862 0.540327 0.307166
0.846862 0.540327 0.307166
0.238354 0.576790 0.238354
0.344999 0.576790 0.238354
0.441150 0.576790 0.238354
0.509483 0.576790 0.238354
0.648525 0.595609 0.256631
0.811505 0.638365 0.298157
0.846862 0.647641 0.307166
0.846862 0.647641 0.307166
0.846862 0.647641 0.307166
0.275421 0.722269 0.275421
0.382066 0.722269 0.275421
0.478217 0.722269 0.275421
0.547648 0.722269 0.275421
0.667871 0.722269 0.275421
0.811505 0.745679 0.298157
0.846862 0.754955 0.307166
0.846862 0.754955 0.307166
0.846862 0.754955 0.307166
0.307551 0.847999 0.307551
0.414196 0.847999 0.307551
0.510347 0.847999 0.307551
0.580748 0.847999 0.307551
0.700971 0.847999 0.307551
0.821195 0.847999 0.307551
0.847276 0.847999 0.307551
0.847276 0.847999 0.307551
0.847276 0.847999 0.307551
0.307551 0.847999 0.307551
0.414196 0.847999 0.307551
0.510347 0.847999 0.307551
0.580748 0.847999 0.307551
0.700971 0.847999 0.307551
0.821195 0.847999 0.307551
0.847276 0.847999 0.307551
0.847276 0.847999 0.307551
0.847276 0.847999 0.307551
0.307551 0.847999 0.307551
0.414196 0.847999 0.307551
0.510347 0.847999 0.307551
0.580748 0.847999 0.307551
0.700971 0.847999 0.307551
0.821195 0.847999 0.307551
0.847276 0.847999 0.307551
0.847276 0.847999 0.307551
0.847276 0.847999 0.307551
0.146862 0.146862 0.230712
0.261679 0.155034 0.238885
0.392302 0.189506 0.273356
0.485545 0.215105 0.298956
0.648525 0.256631 0.340482
0.811505 0.298157 0.382008
0.846862 0.307166 0.391017
0.846862 0.307166 0.391017
0.846862 0.307166 0.391017
0.150966 0.246265 0.234817
0.291741 0.280395 0.268946
0.422364 0.314867 0.303418
0.516993 0.340770 0.329322
0.679973 0.382296 0.370848
0.842952 0.423822 0.412374
0.872717 0.431603 0.420155
0.872717 0.431603 0.420155
0.872717 0.431603 0.420155
0.181736 0.362861 0.265587
0.318443 0.392923 0.295649
0.422364 0.400693 0.303418
0.516993 0.426596 0.329322
0.679973 0.468122 0.370848
0.842952 0.509648 0.412374
0.872717 0.517430 0.420155
0.872717 0.517430 0.420155
0.872717 0.517430 0.420155
0.208635 0.464789 0.292486
0.338298 0.462759 0.315503
0.434449 0.462759 0.315503
0.516993 0.476987 0.329322
0.679973 0.519743 0.370848
0.842952 0.562499 0.412374
0.872717 0.570547 0.420155
0.872717 0.570547 0.420155
0.872717 0.570547 0.420155
0.238354 0.576790 0.322204
0.375365 0.608238 0.352570
0.471516 0.608238 0.352570
0.540930 0.608238 0.352570
0.679973 0.627057 0.370848
0.842952 0.669813 0.412374
0.872717 0.677861 0.420155
0.872717 0.677861 0.420155
0.872717 0.677861 0.420155
0.275421 0.722269 0.359271
0.412432 0.753717 0.389637
0.508583 0.753717 0.389637
0.579095 0.753717 0.389637
0.699319 0.753717 0.389637
0.842952 0.777127 0.412374
0.872717 0.785175 0.420155
0.872717 0.785175 0.420155
0.872717 0.785175 0.420155
0.307551 0.847999 0.391402
0.443092 0.872748 0.420298
0.539243 0.872748 0.420298
0.610725 0.872748 0.420298
0.730948 0.872748 0.420298
0.851172 0.872748 0.420298
0.872748 0.872748 0.420298
0.872748 0.872748 0.420298
0.872748 0.872748 0.420298
0.307551 0.847999 0.391402
0.443092 0.872748 0.420298
0.539243 0.872748 0.420298
0.610725 0.872748 0.420298
0.730948 0.872748 0.420298
0.851172 0.872748 0.420298
0.872748 0.872748 0.420298
0.872748 0.872748 0.420298
0.872748 0.872748 0.420298
0.307551 0.847999 0.391402
0.443092 0.872748 0.420298
0.539243 0.872748 0.420298
0.610725 0.872748 0.420298
0.730948 0.872748 0.420298
0.851172 0.872748 0.420298
0.872748 0.872748 0.420298
0.872748 0.872748 0.420298
0.872748 0.872748 0.420298
0.173898 0.173898 0.333158
0.280543 0.173898 0.333158
0.392302 0.189506 0.348766
0.485545 0.215105 0.374366
0.648525 0.256631 0.415892
0.811505 0.298157 0.457418
0.846862 0.307166 0.466427
0.846862 0.307166 0.466427
0.846862 0.307166 0.466427
0.173898 0.269196 0.333158
0.314709 0.303363 0.367324
0.426468 0.318971 0.382932
0.521287 0.344916 0.408878
0.684266 0.386442 0.450404
0.847246 0.427968 0.491930
0.876096 0.435549 0.499510
0.876096 0.435549 0.499510
0.876096 0.435549 0.499510
0.181736 0.362861 0.340997
0.326615 0.401096 0.379231
0.449399 0.427728 0.405864
0.545275 0.453906 0.432041
0.708255 0.495432 0.473567
0.871235 0.536958 0.515093
0.894975 0.543416 0.521552
0.894975 0.543416 0.521552
0.894975 0.543416 0.521552
0.208635 0.464789 0.367896
0.346553 0.471308 0.399168
0.461758 0.491041 0.418222
0.545275 0.505269 0.432041
0.708255 0.548025 0.473567
0.871235 0.590781 0.515093
0.894975 0.597507 0.521552
0.894975 0.597507 0.521552
0.894975 0.597507 0.521552
0.238354 0.576790 0.397614
0.383620 0.616787 0.436235
0.498825 0.636520 0.455289
0.569212 0.636520 0.455289
0.708255 0.655339 0.473567
0.871235 0.698095 0.515093
0.894975 0.704821 0.521552
0.894975 0.704821 0.521552
0.894975 0.704821 0.521552
0.275421 0.722269 0.434681
0.420687 0.762266 0.473302
0.535892 0.781999 0.492356
0.607377 0.781999 0.492356
0.727601 0.781999 0.492356
0.871235 0.805409 0.515093
0.894975 0.812134 0.521552
0.894975 0.812134 0.521552
0.894975 0.812134 0.521552
0.307551 0.847999 0.466812
0.450947 0.879476 0.503563
0.565230 0.895006 0.521694
0.637685 0.895006 0.521694
0.757908 0.895006 0.521694
0.878132 0.895006 0.521694
0.895006 0.895006 0.521694
0.895006 0.895006 0.521694
0.895006 0.895006 0.521694
0.307551 0.847999 0.466812
0.450947 0.879476 0.503563
0.565230 0.895006 0.521694
0.637685 0.895006 0.521694
0.757908 0.895006 0.521694
0.878132 0.895006 0.521694
0.895006 0.895006 0.521694
0.895006 0.895006 0.521694
0.895006 0.895006 0.521694
0.307551 0.847999 0.466812
0.450947 0.879476 0.503563
0.565230 0.895006 0.521694
0.637685 0.895006 0.521694
0.757908 0.895006 0.521694
0.878132 0.895006 0.521694
0.895006 0.895006 0.521694
0.895006 0.895006 0.521694
0.895006 0.895006 0.521694
0.200933 0.200933 0.435604
0.307578 0.200933 0.435604
0.403729 0.200933 0.435604
0.485545 0.215105 0.449775
0.648525 0.256631 0.491302
0.811505 0.298157 0.532828
0.846862 0.307166 0.541836
0.846862 0.307166 0.541836
0.846862 0.307166 0.541836
0.200933 0.296232 0.435604
0.341745 0.330398 0.469770
0.437895 0.330398 0.469770
0.521287 0.344916 0.484287
0.684266 0.386442 0.525814
0.847246 0.427968 0.567340
0.876096 0.435549 0.574920
0.876096 0.435549 0.574920
0.876096 0.435549 0.574920
0.200933 0.382058 0.435604
0.345812 0.420292 0.473838
0.468666 0.446995 0.500540
0.553475 0.461824 0.515369
0.716455 0.503350 0.556895
0.879435 0.544876 0.598421
0.901428 0.550951 0.604496
0.901428 0.550951 0.604496
0.901428 0.550951 0.604496
0.208635 0.464789 0.443306
0.347472 0.472228 0.475498
0.478095 0.507940 0.509969
0.573217 0.533211 0.534420
0.736537 0.576307 0.576286
0.899517 0.619063 0.617812
0.910041 0.617275 0.590187
0.910041 0.617275 0.590187
0.910041 0.617275 0.590187
0.238354 0.576790 0.473024
0.383620 0.616787 0.511645
0.514591 0.652848 0.546465
0.597495 0.664802 0.558009
0.736537 0.683621 0.576286
0.899517 0.726377 0.617812
0.910041 0.724589 0.590187
0.910041 0.724589 0.590187
0.910041 0.724589 0.590187
0.275421 0.722269 0.510091
0.420687 0.762266 0.548712
0.551658 0.798327 0.583532
0.635659 0.810281 0.595076
0.755883 0.810281 0.595076
0.899517 0.833691 0.617812
0.910041 0.831903 0.590187
0.910041 0.831903 0.590187
0.910041 0.831903 0.590187
0.307551 0.847999 0.542222
0.450947 0.879476 0.578972
0.580233 0.907856 0.612107
0.657461 0.910081 0.590367
0.777684 0.910081 0.590367
0.897908 0.910081 0.590367
0.910081 0.910081 0.590367
0.910081 0.910081 0.590367
0.910081 0.910081 0.590367
0.307551 0.847999 0.542222
0.450947 0.879476 0.578972
0.580233 0.907856 0.612107
0.657461 0.910081 0.590367
0.777684 0.910081 0.590367
0.897908 0.910081 0.590367
0.910081 0.910081 0.590367
0.910081 0.910081 0.590367
0.910081 0.910081 0.590367
0.307551 0.847999 0.542222
0.450947 0.879476 0.578972
0.580233 0.907856 0.612107
0.657461 0.910081 0.590367
0.777684 0.910081 0.590367
0.897908 0.910081 0.590367
0.910081 0.910081 0.590367
0.910081 0.910081 0.590367
0.910081 0.910081 0.590367
0.219913 0.219913 0.504417
0.326558 0.219913 0.504417
0.422709 0.219913 0.504417
0.490496 0.219913 0.504417
0.648525 0.256631 0.542222
0.811505 0.298157 0.584978
0.846862 0.307166 0.594254
0.846862 0.307166 0.594254
0.846862 0.307166 0.594254
0.219913 0.315212 0.504417
0.361070 0.349724 0.540158
0.457221 0.349724 0.540158
0.526238 0.349724 0.540158
0.684266 0.386442 0.577964
0.847246 0.427968 0.620720
0.876096 0.435549 0.628567
0.876096 0.435549 0.628567
0.876096 0.435549 0.628567
0.219913 0.401038 0.504417
0.365179 0.439659 0.544413
0.488303 0.466632 0.572347
0.558426 0.466632 0.572347
0.716455 0.503350 0.610152
0.879435 0.544876 0.652908
0.901428 0.550951 0.659251
0.901428 0.550951 0.659251
0.901428 0.550951 0.659251
0.219913 0.450490 0.504417
0.365179 0.490487 0.544413
0.496151 0.526548 0.580474
0.580301 0.540295 0.594222
0.738636 0.578406 0.632333
0.901962 0.621508 0.675435
0.918036 0.626610 0.680537
0.918036 0.626610 0.680537
0.918036 0.626610 0.680537
0.238354 0.576790 0.523403
0.383620 0.616787 0.563400
0.514591 0.652848 0.599461
0.613784 0.681092 0.627705
0.757970 0.705054 0.651667
0.921295 0.748156 0.694769
0.933953 0.752507 0.699120
0.933953 0.752507 0.699120
0.933953 0.752507 0.699120
0.275421 0.722269 0.561568
0.420687 0.762266 0.601565
0.551658 0.798327 0.637626
0.652258 0.826879 0.666178
0.777472 0.831870 0.671169
0.921295 0.855470 0.694769
0.933953 0.859821 0.699120
0.933953 0.859821 0.699120
0.933953 0.859821 0.699120
0.307551 0.847999 0.594668
0.450947 0.879476 0.632795
0.580233 0.907856 0.667170
0.680582 0.929884 0.694503
0.805603 0.933993 0.699300
0.925826 0.933993 0.699300
0.933993 0.933993 0.699300
0.933993 0.933993 0.699300
0.933993 0.933993 0.699300
0.307551 0.847999 0.594668
0.450947 0.879476 0.632795
0.580233 0.907856 0.667170
0.680582 0.929884 0.694503
0.805603 0.933993 0.699300
0.925826 0.933993 0.699300
0.933993 0.933993 0.699300
0.933993 0.933993 0.699300
0.933993 0.933993 0.699300
0.307551 0.847999 0.594668
0.450947 0.879476 0.632795
0.580233 0.907856 0.667170
0.680582 0.929884 0.694503
0.805603 0.933993 0.699300
0.925826 0.933993 0.699300
0.933993 0.933993 0.699300
0.933993 0.933993 0.699300
0.933993 0.933993 0.699300
0.252482 0.252482 0.632240
0.359127 0.252482 0.632240
0.455278 0.252482 0.632240
0.524029 0.252482 0.632240
0.648525 0.256631 0.636512
0.811505 0.298157 0.679268
0.846862 0.307166 0.688544
0.846862 0.307166 0.688544
0.846862 0.307166 0.688544
0.252482 0.347781 0.632240
0.393639 0.382293 0.667981
0.489790 0.382293 0.667981
0.559771 0.382293 0.667981
0.684266 0.386442 0.672253
0.847246 0.427968 0.715009
0.876096 0.435549 0.722857
0.876096 0.435549 0.722857
0.876096 0.435549 0.722857
0.252482 0.433607 0.632240
0.397748 0.472228 0.672236
0.520871 0.499200 0.700170
0.591959 0.499200 0.700170
0.716455 0.503350 0.704442
0.879435 0.544876 0.747198
0.901428 0.550951 0.753540
0.901428 0.550951 0.753540
0.901428 0.550951 0.753540
0.252482 0.484023 0.632240
0.397748 0.524020 0.672236
0.528719 0.560081 0.708297
0.614105 0.574099 0.722316
0.738636 0.578406 0.726623
0.901962 0.621508 0.769725
0.918036 0.626610 0.774826
0.918036 0.626610 0.774826
0.918036 0.626610 0.774826
0.252482 0.591337 0.632240
0.397748 0.631334 0.672236
0.528719 0.667394 0.708297
0.628448 0.695756 0.736659
0.777110 0.724194 0.765096
0.940435 0.767296 0.808199
0.949711 0.770905 0.811808
0.949711 0.770905 0.811808
0.949711 0.770905 0.811808
0.275421 0.722269 0.655858
0.420687 0.762266 0.695855
0.551658 0.798327 0.731915
0.652258 0.826879 0.760468
0.811277 0.865674 0.799263
0.955100 0.889274 0.822863
0.961784 0.892314 0.825903
0.961784 0.892314 0.825903
0.961784 0.892314 0.825903
0.307551 0.847999 0.688958
0.450947 0.879476 0.727084
0.580233 0.907856 0.761459
0.680582 0.929884 0.788792
0.838096 0.961823 0.826083
0.958319 0.961823 0.826083
0.961823 0.961823 0.826083
0.961823 0.961823 0.826083
0.961823 0.961823 0.826083
0.307551 0.847999 0.688958
0.450947 0.879476 0.727084
0.580233 0.907856 0.761459
0.680582 0.929884 0.788792
0.838096 0.961823 0.826083
0.958319 0.961823 0.826083
0.961823 0.961823 0.826083
0.961823 0.961823 0.826083
0.961823 0.961823 0.826083
0.307551 0.847999 0.688958
0.450947 0.879476 0.727084
0.580233 0.907856 0.761459
0.680582 0.929884 0.788792
0.838096 0.961823 0.826083
0.958319 0.961823 0.826083
0.961823 0.961823 0.826083
0.961823 0.961823 0.826083
0.961823 0.961823 0.826083
0.281235 0.281235 0.745089
0.387880 0.281235 0.745089
0.484031 0.281235 0.745089
0.553634 0.281235 0.745089
0.673858 0.281235 0.745089
0.811505 0.298157 0.762512
0.846862 0.307166 0.771788
0.846862 0.307166 0.771788
0.846862 0.307166 0.771788
0.281235 0.376534 0.745089
0.422392 0.411046 0.780830
0.518543 0.411046 0.780830
0.589376 0.411046 0.780830
0.709599 0.411046 0.780830
0.847246 0.427968 0.798254
0.876096 0.435549 0.806101
0.876096 0.435549 0.806101
0.876096 0.435549 0.806101
0.281235 0.462360 0.745089
0.426501 0.500981 0.785085
0.549624 0.527954 0.813019
0.621564 0.527954 0.813019
0.741788 0.527954 0.813019
0.879435 0.544876 0.830442
0.901428 0.550951 0.836784
0.901428 0.550951 0.836784
0.901428 0.550951 0.836784
0.281235 0.513628 0.745089
0.426501 0.553625 0.785085
0.557472 0.589686 0.821146
0.643950 0.603944 0.835404
0.764173 0.603944 0.835404
0.901962 0.621508 0.852969
0.918036 0.626610 0.858070
0.918036 0.626610 0.858070
0.918036 0.626610 0.858070
0.281235 0.620942 0.745089
0.426501 0.660938 0.785085
0.557472 0.696999 0.821146
0.658293 0.725600 0.849747
0.802647 0.749731 0.873878
0.940435 0.767296 0.891443
0.949711 0.770905 0.895052
0.949711 0.770905 0.895052
0.949711 0.770905 0.895052
0.281235 0.728255 0.745089
0.426501 0.768252 0.785085
0.557472 0.804313 0.821146
0.658293 0.832914 0.849747
0.821618 0.876016 0.892849
0.978909 0.913083 0.929917
0.981385 0.915200 0.932033
0.981385 0.915200 0.932033
0.981385 0.915200 0.932033
0.307551 0.847999 0.772202
0.450947 0.879476 0.810329
0.580233 0.907856 0.844703
0.680582 0.929884 0.872037
0.842236 0.965369 0.913467
0.986393 0.986393 0.938013
0.986393 0.986393 0.938013
0.986393 0.986393 0.938013
0.986393 0.986393 0.938013
0.307551 0.847999 0.772202
0.450947 0.879476 0.810329
0.580233 0.907856 0.844703
0.680582 0.929884 0.872037
0.842236 0.965369 0.913467
0.986393 0.986393 0.938013
0.986393 0.986393 0.938013
0.986393 0.986393 0.938013
0.986393 0.986393 0.938013
0.307551 0.847999 0.772202
0.450947 0.879476 0.810329
0.580233 0.907856 0.844703
0.680582 0.929884 0.872037
0.842236 0.965369 0.913467
0.986393 0.986393 0.938013
0.986393 0.986393 0.938013
0.986393 0.986393 0.938013
0.986393 0.986393 0.938013
0.281235 0.281235 0.745089
0.387880 0.281235 0.745089
0.484031 0.281235 0.745089
0.553634 0.281235 0.745089
0.673858 0.281235 0.745089
0.811505 0.298157 0.762512
0.846862 0.307166 0.771788
0.846862 0.307166 0.771788
0.846862 0.307166 0.771788
0.281235 0.376534 0.745089
0.422392 0.411046 0.780830
0.518543 0.411046 0.780830
0.589376 0.411046 0.780830
0.709599 0.411046 0.780830
0.847246 0.427968 0.798254
0.876096 0.435549 0.806101
0.876096 0.435549 0.806101
0.876096 0.435549 0.806101
0.281235 0.462360 0.745089
0.426501 0.500981 0.785085
0.549624 0.527954 0.813019
0.621564 0.527954 0.813019
0.741788 0.527954 0.813019
0.879435 0.544876 0.830442
0.901428 0.550951 0.836784
0.901428 0.550951 0.836784
0.901428 0.550951 0.836784
0.281235 0.513628 0.745089
0.426501 0.553625 0.785085
0.557472 0.589686 0.821146
0.643950 0.603944 0.835404
0.764173 0.603944 0.835404
0.901962 0.621508 0.852969
0.918036 0.626610 0.858070
0.918036 0.626610 0.858070
0.918036 0.626610 0.858070
0.281235 0.620942 0.745089
0.426501 0.660938 0.785085
0.557472 0.696999 0.821146
0.658293 0.725600 0.849747
0.802647 0.749731 0.873878
0.940435 0.767296 0.891443
0.949711 0.770905 0.895052
0.949711 0.770905 0.895052
0.949711 0.770905 0.895052
0.281235 0.728255 0.745089
0.426501 0.768252 0.785085
0.557472 0.804313 0.821146
0.658293 0.832914 0.849747
0.821618 0.876016 0.892849
0.978909 0.913083 0.929917
0.981385 0.915200 0.932033
0.981385 0.915200 0.932033
0.981385 0.915200 0.932033
0.307551 0.847999 0.772202
0.450947 0.879476 0.810329
0.580233 0.907856 0.844703
0.680582 0.929884 0.872037
0.842236 0.965369 0.913467
0.986393 0.986393 0.938013
0.986393 0.986393 0.938013
0.986393 0.986393 0.938013
0.986393 0.986393 0.938013
0.307551 0.847999 0.772202
0.450947 0.879476 0.810329
0.580233 0.907856 0.844703
0.680582 0.929884 0.872037
0.842236 0.965369 0.913467
0.986393 0.986393 0.938013
0.986393 0.986393 0.938013
0.986393 0.986393 0.938013
0.986393 0.986393 0.938013
0.307551 0.847999 0.772202
0.450947 0.879476 0.810329
0.580233 0.907856 0.844703
0.680582 0.929884 0.872037
0.842236 0.965369 0.913467
0.986393 0.986393 0.938013
0.986393 0.986393 0.938013
0.986393 0.986393 0.938013
0.986393 0.986393 0.938013
0.281235 0.281235 0.745089
0.387880 0.281235 0.745089
0.484031 0.281235 0.745089
0.553634 0.281235 0.745089
0.673858 0.281235 0.745089
0.811505 0.298157 0.762512
0.846862 0.307166 0.771788
0.846862 0.307166 0.771788
0.846862 0.307166 0.771788
0.281235 0.376534 0.745089
0.422392 0.411046 0.780830
0.518543 0.411046 0.780830
0.589376 0.411046 0.780830
0.709599 0.411046 0.780830
0.847246 0.427968 0.798254
0.876096 0.435549 0.806101
0.876096 0.435549 0.806101
0.876096 0.435549 0.806101
0.281235 0.462360 0.745089
0.426501 0.500981 0.785085
0.549624 0.527954 0.813019
0.621564 0.527954 0.813019
0.741788 0.527954 0.813019
0.879435 0.544876 0.830442
0.901428 0.550951 0.836784
0.901428 0.550951 0.836784
0.901428 0.550951 0.836784
0.281235 0.513628 0.745089
0.426501 0.553625 0.785085
0.557472 0.589686 0.821146
0.643950 0.603944 0.835404
0.764173 0.603944 0.835404
0.901962 0.621508 0.852969
0.918036 0.626610 0.858070
0.918036 0.626610 0.858070
0.918036 0.626610 0.858070
0.281235 0.620942 0.745089
0.426501 0.660938 0.785085
0.557472 0.696999 0.821146
0.658293 0.725600 0.849747
0.802647 0.749731 0.873878
0.940435 0.767296 0.891443
0.949711 0.770905 0.895052
0.949711 0.770905 0.895052
0.949711 0.770905 0.895052
0.281235 0.728255 0.745089
0.426501 0.768252 0.785085
0.557472 0.804313 0.821146
0.658293 0.832914 0.849747
0.821618 0.876016 0.892849
0.978909 0.913083 0.929917
0.981385 0.915200 0.932033
0.981385 0.915200 0.932033
0.981385 0.915200 0.932033
0.307551 0.847999 0.772202
0.450947 0.879476 0.810329
0.580233 0.907856 0.844703
0.680582 0.929884 0.872037
0.842236 0.965369 0.913467
0.986393 0.986393 0.938013
0.986393 0.986393 0.938013
0.986393 0.986393 0.938013
0.986393 0.986393 0.938013
0.307551 0.847999 0.772202
0.450947 0.879476 0.810329
0.580233 0.907856 0.844703
0.680582 0.929884 0.872037
0.842236 0.965369 0.913467
0.986393 0.986393 0.938013
0.986393 0.986393 0.938013
0.986393 0.986393 0.938013
0.986393 0.986393 0.938013
0.307551 0.847999 0.772202
0.450947 0.879476 0.810329
0.580233 0.907856 0.844703
0.680582 0.929884 0.872037
0.842236 0.965369 0.913467
0.986393 0.986393 0.938013
0.986393 0.986393 0.938013
0.986393 0.986393 0.938013
0.986393 0.986393 0.938013
