docs/luts/fuji_recipes/Eterna_MT_Eterna.cube
TITLE "Fujifilm Recipe: MT Eterna (Eterna)"
# FilmSim=Eterna HL=0 SH=0 Col=0 WB=Auto WBR=2 WBB=-1
LUT_3D_SIZE 9
DOMAIN_MIN 0.0 0.0 0.0
DOMAIN_MAX 1.0 1.0 1.0
0.040000 0.040000 0.040000
0.159616 0.045636 0.045636
0.279444 0.051283 0.051283
0.399271 0.056929 0.056929
0.499825 0.061667 0.061667
0.618654 0.067266 0.067266
0.737483 0.072866 0.072866
0.856311 0.078465 0.078465
0.929872 0.081931 0.081931
0.045400 0.154600 0.045400
0.159616 0.154836 0.045636
0.279444 0.160483 0.051283
0.399271 0.166129 0.056929
0.499825 0.170867 0.061667
0.618654 0.176466 0.067266
0.737483 0.182066 0.072866
0.856311 0.187665 0.078465
0.929872 0.191131 0.081931
0.050800 0.269200 0.050800
0.164780 0.269200 0.050800
0.279444 0.269683 0.051283
0.399271 0.275329 0.056929
0.499825 0.280067 0.061667
0.618654 0.285666 0.067266
0.737483 0.291266 0.072866
0.856311 0.296865 0.078465
0.929872 0.300331 0.081931
0.056200 0.383800 0.056200
0.170180 0.383800 0.056200
0.284361 0.383800 0.056200
0.399271 0.384529 0.056929
0.499825 0.389267 0.061667
0.618654 0.394866 0.067266
0.737483 0.400466 0.072866
0.856311 0.406065 0.078465
0.929872 0.409531 0.081931
0.061557 0.497483 0.061557
0.175537 0.497483 0.061557
0.289718 0.497483 0.061557
0.403899 0.497483 0.061557
0.499825 0.497594 0.061667
0.618654 0.503193 0.067266
0.737483 0.508792 0.072866
0.856311 0.514391 0.078465
0.929872 0.517858 0.081931
0.066055 0.592945 0.066055
0.180035 0.592945 0.066055
0.294216 0.592945 0.066055
0.408397 0.592945 0.066055
0.504213 0.592945 0.066055
0.618654 0.594156 0.067266
0.737483 0.599756 0.072866
0.856311 0.605355 0.078465
0.929872 0.608821 0.081931
0.071410 0.706590 0.071410
0.185390 0.706590 0.071410
0.299571 0.706590 0.071410
0.413752 0.706590 0.071410
0.509568 0.706590 0.071410
0.622798 0.706590 0.071410
0.737483 0.708046 0.072866
0.856311 0.713645 0.078465
0.929872 0.717111 0.081931
0.076765 0.820235 0.076765
0.190745 0.820235 0.076765
0.304926 0.820235 0.076765
0.419107 0.820235 0.076765
0.514923 0.820235 0.076765
0.628153 0.820235 0.076765
0.741382 0.820235 0.076765
0.856311 0.821935 0.078465
0.929872 0.825401 0.081931
0.082120 0.933880 0.082120
0.196100 0.933880 0.082120
0.310281 0.933880 0.082120
0.424462 0.933880 0.082120
0.520278 0.933880 0.082120
0.633508 0.933880 0.082120
0.746737 0.933880 0.082120
0.859966 0.933880 0.082120
0.930061 0.933880 0.082120
0.045297 0.045297 0.152409
0.159616 0.045636 0.152748
0.279444 0.051283 0.158395
0.399271 0.056929 0.164041
0.499825 0.061667 0.168779
0.618654 0.067266 0.174378
0.737483 0.072866 0.179978
0.856311 0.078465 0.185577
0.929872 0.081931 0.189043
0.045400 0.154600 0.152512
0.164913 0.160133 0.158045
0.284740 0.165779 0.163691
0.404567 0.171426 0.169338
0.505122 0.176164 0.174076
0.623951 0.181763 0.179675
0.742779 0.187362 0.185274
0.861608 0.192962 0.190874
0.935169 0.196428 0.194340
0.050800 0.269200 0.157912
0.170077 0.274497 0.163209
0.284740 0.274979 0.163691
0.404567 0.280626 0.169338
0.505122 0.285364 0.174076
0.623951 0.290963 0.179675
0.742779 0.296562 0.185274
0.861608 0.302162 0.190874
0.935169 0.305628 0.194340
0.056200 0.383800 0.163312
0.175477 0.389097 0.168609
0.289658 0.389097 0.168609
0.404567 0.389826 0.169338
0.505122 0.394564 0.174076
0.623951 0.400163 0.179675
0.742779 0.405762 0.185274
0.861608 0.411362 0.190874
0.935169 0.414828 0.194340
0.061557 0.497483 0.168669
0.180834 0.502780 0.173966
0.295014 0.502780 0.173966
0.409195 0.502780 0.173966
0.505122 0.502890 0.174076
0.623951 0.508490 0.179675
0.742779 0.514089 0.185274
0.861608 0.519688 0.190874
0.935169 0.523154 0.194340
0.066055 0.592945 0.173167
0.185332 0.598242 0.178464
0.299513 0.598242 0.178464
0.413694 0.598242 0.178464
0.509510 0.598242 0.178464
0.623951 0.599453 0.179675
0.742779 0.605052 0.185274
0.861608 0.610652 0.190874
0.935169 0.614118 0.194340
0.071410 0.706590 0.178522
0.190687 0.711887 0.183819
0.304868 0.711887 0.183819
0.419049 0.711887 0.183819
0.514865 0.711887 0.183819
0.628094 0.711887 0.183819
0.742779 0.713342 0.185274
0.861608 0.718942 0.190874
0.935169 0.722408 0.194340
0.076765 0.820235 0.183877
0.196042 0.825532 0.189174
0.310223 0.825532 0.189174
0.424404 0.825532 0.189174
0.520220 0.825532 0.189174
0.633449 0.825532 0.189174
0.746679 0.825532 0.189174
0.861608 0.827232 0.190874
0.935169 0.830698 0.194340
0.082120 0.933880 0.189232
0.201397 0.939177 0.194529
0.315578 0.939177 0.194529
0.429759 0.939177 0.194529
0.525575 0.939177 0.194529
0.638804 0.939177 0.194529
0.752034 0.939177 0.194529
0.865263 0.939177 0.194529
0.935357 0.939177 0.194529
0.050584 0.050584 0.264608
0.164564 0.050584 0.264608
0.279444 0.051283 0.265307
0.399271 0.056929 0.270953
0.499825 0.061667 0.275691
0.618654 0.067266 0.281291
0.737483 0.072866 0.286890
0.856311 0.078465 0.292489
0.929872 0.081931 0.295955
0.050584 0.159784 0.264608
0.169964 0.165184 0.270008
0.284844 0.165883 0.270707
0.404671 0.171529 0.276353
0.505225 0.176267 0.281091
0.624054 0.181866 0.286691
0.742883 0.187466 0.292290
0.861711 0.193065 0.297889
0.935272 0.196531 0.301355
0.050800 0.269200 0.264824
0.170416 0.274836 0.270461
0.290027 0.280266 0.275891
0.409854 0.285913 0.281537
0.510409 0.290651 0.286275
0.629238 0.296250 0.291874
0.748066 0.301849 0.297474
0.866895 0.307449 0.303073
0.940455 0.310915 0.306539
0.056200 0.383800 0.270224
0.175816 0.389436 0.275861
0.294945 0.394384 0.280808
0.409854 0.395113 0.281537
0.510409 0.399851 0.286275
0.629238 0.405450 0.291874
0.748066 0.411049 0.297474
0.866895 0.416649 0.303073
0.940455 0.420115 0.306539
0.061557 0.497483 0.275581
0.181173 0.503120 0.281217
0.300301 0.508067 0.286165
0.414482 0.508067 0.286165
0.510409 0.508177 0.286275
0.629238 0.513776 0.291874
0.748066 0.519376 0.297474
0.866895 0.524975 0.303073
0.940455 0.528441 0.306539
0.066055 0.592945 0.280079
0.185671 0.598581 0.285716
0.304800 0.603529 0.290663
0.418980 0.603529 0.290663
0.514797 0.603529 0.290663
0.629238 0.604740 0.291874
0.748066 0.610339 0.297474
0.866895 0.615939 0.303073
0.940455 0.619405 0.306539
0.071410 0.706590 0.285434
0.191026 0.712226 0.291071
0.310155 0.717174 0.296018
0.424335 0.717174 0.296018
0.520152 0.717174 0.296018
0.633381 0.717174 0.296018
0.748066 0.718629 0.297474
0.866895 0.724229 0.303073
0.940455 0.727695 0.306539
0.076765 0.820235 0.290789
0.196381 0.825871 0.296426
0.315510 0.830819 0.301373
0.429690 0.830819 0.301373
0.525507 0.830819 0.301373
0.638736 0.830819 0.301373
0.751966 0.830819 0.301373
0.866895 0.832519 0.303073
0.940455 0.835985 0.306539
0.082120 0.933880 0.296144
0.201736 0.939516 0.301781
0.320865 0.944464 0.306728
0.435045 0.944464 0.306728
0.530862 0.944464 0.306728
0.644091 0.944464 0.306728
0.757321 0.944464 0.306728
0.870550 0.944464 0.306728
0.940644 0.944464 0.306728
0.055870 0.055870 0.376807
0.169851 0.055870 0.376807
0.284031 0.055870 0.376807
0.399271 0.056929 0.377866
0.499825 0.061667 0.382604
0.618654 0.067266 0.388203
0.737483 0.072866 0.393802
0.856311 0.078465 0.399402
0.929872 0.081931 0.402868
0.055870 0.165070 0.376807
0.175251 0.170470 0.382207
0.289431 0.170470 0.382207
0.404671 0.171529 0.383266
0.505225 0.176267 0.388004
0.624054 0.181866 0.393603
0.742883 0.187466 0.399202
0.861711 0.193065 0.404802
0.935272 0.196531 0.408268
0.055870 0.274270 0.376807
0.175487 0.279907 0.382444
0.294831 0.285070 0.387607
0.410071 0.286129 0.388666
0.510625 0.290867 0.393404
0.629454 0.296466 0.399003
0.748283 0.302066 0.404602
0.867111 0.307665 0.410202
0.940672 0.311131 0.413668
0.056200 0.383800 0.377137
0.175816 0.389436 0.382773
0.295644 0.395083 0.388419
0.415141 0.400399 0.393736
0.515696 0.405138 0.398474
0.634525 0.410737 0.404074
0.753353 0.416336 0.409673
0.872182 0.421935 0.415272
0.945742 0.425402 0.418738
0.061557 0.497483 0.382493
0.181173 0.503120 0.388130
0.301000 0.508766 0.393776
0.419769 0.513354 0.398364
0.515696 0.513464 0.398474
0.634525 0.519063 0.404074
0.753353 0.524663 0.409673
0.872182 0.530262 0.415272
0.945742 0.533728 0.418738
0.066055 0.592945 0.386992
0.185671 0.598581 0.392628
0.305499 0.604228 0.398274
0.424267 0.608815 0.402862
0.520084 0.608815 0.402862
0.634525 0.610027 0.404074
0.753353 0.615626 0.409673
0.872182 0.621225 0.415272
0.945742 0.624692 0.418738
0.071410 0.706590 0.392347
0.191026 0.712226 0.397983
0.310854 0.717873 0.403629
0.429622 0.722460 0.408217
0.525439 0.722460 0.408217
0.638668 0.722460 0.408217
0.753353 0.723916 0.409673
0.872182 0.729515 0.415272
0.945742 0.732982 0.418738
0.076765 0.820235 0.397702
0.196381 0.825871 0.403338
0.316209 0.831518 0.408984
0.434977 0.836105 0.413572
0.530794 0.836105 0.413572
0.644023 0.836105 0.413572
0.757252 0.836105 0.413572
0.872182 0.837805 0.415272
0.945742 0.841272 0.418738
0.082120 0.933880 0.403057
0.201736 0.939516 0.408693
0.321564 0.945163 0.414339
0.440332 0.949750 0.418927
0.536149 0.949750 0.418927
0.649378 0.949750 0.418927
0.762607 0.949750 0.418927
0.875837 0.949750 0.418927
0.945931 0.949750 0.418927
0.061135 0.061135 0.488540
0.175115 0.061135 0.488540
0.289296 0.061135 0.488540
0.403477 0.061135 0.488540
0.499825 0.061667 0.489072
0.618654 0.067266 0.494671
0.737483 0.072866 0.500271
0.856311 0.078465 0.505870
0.929872 0.081931 0.509336
0.061135 0.170335 0.488540
0.180515 0.175735 0.493940
0.294696 0.175735 0.493940
0.408877 0.175735 0.493940
0.505225 0.176267 0.494472
0.624054 0.181866 0.500071
0.742883 0.187466 0.505671
0.861711 0.193065 0.511270
0.935272 0.196531 0.514736
0.061135 0.279535 0.488540
0.180752 0.285172 0.494177
0.300096 0.290335 0.499340
0.414277 0.290335 0.499340
0.510625 0.290867 0.499872
0.629454 0.296466 0.505471
0.748283 0.302066 0.511071
0.867111 0.307665 0.516670
0.940672 0.311131 0.520136
0.061135 0.388735 0.488540
0.180752 0.394372 0.494177
0.300579 0.400018 0.499823
0.419677 0.404935 0.504740
0.516025 0.405467 0.505272
0.634854 0.411066 0.510871
0.753683 0.416666 0.516471
0.872511 0.422265 0.522070
0.946072 0.425731 0.525536
0.061557 0.497483 0.488962
0.181173 0.503120 0.494598
0.301000 0.508766 0.500245
0.420828 0.514412 0.505891
0.520961 0.518729 0.510208
0.639789 0.524328 0.515807
0.758618 0.529927 0.521406
0.877447 0.535527 0.527005
0.951007 0.538993 0.530472
0.066055 0.592945 0.493460
0.185671 0.598581 0.499096
0.305499 0.604228 0.504743
0.425326 0.609874 0.510389
0.525349 0.614080 0.514595
0.639789 0.615292 0.515807
0.758618 0.620891 0.521406
0.877447 0.626490 0.527005
0.951007 0.629957 0.530472
0.071410 0.706590 0.498815
0.191026 0.712226 0.504451
0.310854 0.717873 0.510098
0.430681 0.723519 0.515744
0.530704 0.727725 0.519950
0.643933 0.727725 0.519950
0.758618 0.729181 0.521406
0.877447 0.734780 0.527005
0.951007 0.738247 0.530472
0.076765 0.820235 0.504170
0.196381 0.825871 0.509806
0.316209 0.831518 0.515453
0.436036 0.837164 0.521099
0.536059 0.841370 0.525305
0.649288 0.841370 0.525305
0.762517 0.841370 0.525305
0.877447 0.843070 0.527005
0.951007 0.846537 0.530472
0.082120 0.933880 0.509525
0.201736 0.939516 0.515161
0.321564 0.945163 0.520808
0.441391 0.950809 0.526454
0.541414 0.955015 0.530660
0.654643 0.955015 0.530660
0.767872 0.955015 0.530660
0.881102 0.955015 0.530660
0.951196 0.955015 0.530660
0.065504 0.065504 0.581249
0.179484 0.065504 0.581249
0.293665 0.065504 0.581249
0.407846 0.065504 0.581249
0.503662 0.065504 0.581249
0.618654 0.067266 0.583011
0.737483 0.072866 0.588611
0.856311 0.078465 0.594210
0.929872 0.081931 0.597676
0.065504 0.174704 0.581249
0.184884 0.180104 0.586649
0.299065 0.180104 0.586649
0.413246 0.180104 0.586649
0.509062 0.180104 0.586649
0.624054 0.181866 0.588411
0.742883 0.187466 0.594011
0.861711 0.193065 0.599610
0.935272 0.196531 0.603076
0.065504 0.283904 0.581249
0.185120 0.289540 0.586885
0.304465 0.294704 0.592049
0.418646 0.294704 0.592049
0.514462 0.294704 0.592049
0.629454 0.296466 0.593811
0.748283 0.302066 0.599411
0.867111 0.307665 0.605010
0.940672 0.311131 0.608476
0.065504 0.393104 0.581249
0.185120 0.398740 0.586885
0.304947 0.404387 0.592532
0.424046 0.409304 0.597449
0.519862 0.409304 0.597449
0.634854 0.411066 0.599211
0.753683 0.416666 0.604811
0.872511 0.422265 0.610410
0.946072 0.425731 0.613876
0.065504 0.501430 0.581249
0.185120 0.507067 0.586885
0.304947 0.512713 0.592532
0.424775 0.518359 0.598178
0.525219 0.522987 0.602806
0.640211 0.524750 0.604568
0.759039 0.530349 0.610167
0.877868 0.535948 0.615767
0.951429 0.539414 0.619233
0.066055 0.592945 0.581800
0.185671 0.598581 0.587436
0.305499 0.604228 0.593083
0.425326 0.609874 0.598729
0.525880 0.614612 0.603467
0.644158 0.619660 0.608515
0.762986 0.625260 0.614115
0.881815 0.630859 0.619714
0.955376 0.634325 0.623180
0.071410 0.706590 0.587155
0.191026 0.712226 0.592791
0.310854 0.717873 0.598438
0.430681 0.723519 0.604084
0.531235 0.728257 0.608822
0.648301 0.732094 0.612659
0.762986 0.733550 0.614115
0.881815 0.739149 0.619714
0.955376 0.742615 0.623180
0.076765 0.820235 0.592510
0.196381 0.825871 0.598146
0.316209 0.831518 0.603793
0.436036 0.837164 0.609439
0.536590 0.841902 0.614177
0.653656 0.845739 0.618014
0.766886 0.845739 0.618014
0.881815 0.847439 0.619714
0.955376 0.850905 0.623180
0.082120 0.933880 0.597865
0.201736 0.939516 0.603501
0.321564 0.945163 0.609148
0.441391 0.950809 0.614794
0.541945 0.955547 0.619532
0.659011 0.959384 0.623369
0.772241 0.959384 0.623369
0.885470 0.959384 0.623369
0.955565 0.959384 0.623369
0.070747 0.070747 0.692513
0.184727 0.070747 0.692513
0.298908 0.070747 0.692513
0.413088 0.070747 0.692513
0.508905 0.070747 0.692513
0.622134 0.070747 0.692513
0.737483 0.072866 0.694632
0.856311 0.078465 0.700231
0.929872 0.081931 0.703697
0.070747 0.179947 0.692513
0.190127 0.185347 0.697913
0.304308 0.185347 0.697913
0.418488 0.185347 0.697913
0.514305 0.185347 0.697913
0.627534 0.185347 0.697913
0.742883 0.187466 0.700032
0.861711 0.193065 0.705631
0.935272 0.196531 0.709097
0.070747 0.289147 0.692513
0.190363 0.294783 0.698149
0.309708 0.299947 0.703313
0.423888 0.299947 0.703313
0.519705 0.299947 0.703313
0.632934 0.299947 0.703313
0.748283 0.302066 0.705432
0.867111 0.307665 0.711031
0.940672 0.311131 0.714497
0.070747 0.398347 0.692513
0.190363 0.403983 0.698149
0.310190 0.409629 0.703796
0.429288 0.414547 0.708713
0.525105 0.414547 0.708713
0.638334 0.414547 0.708713
0.753683 0.416666 0.710832
0.872511 0.422265 0.716431
0.946072 0.425731 0.719897
0.070747 0.506673 0.692513
0.190363 0.512309 0.698149
0.310190 0.517956 0.703796
0.430017 0.523602 0.709442
0.530462 0.528230 0.714070
0.643691 0.528230 0.714070
0.759039 0.530349 0.716189
0.877868 0.535948 0.721788
0.951429 0.539414 0.725254
0.070747 0.597637 0.692513
0.190363 0.603273 0.698149
0.310190 0.608919 0.703796
0.430017 0.614566 0.709442
0.530572 0.619304 0.714180
0.648189 0.623692 0.718568
0.763538 0.625811 0.720687
0.882366 0.631410 0.726286
0.955927 0.634876 0.729752
0.071410 0.706590 0.693176
0.191026 0.712226 0.698813
0.310854 0.717873 0.704459
0.430681 0.723519 0.710105
0.531235 0.728257 0.714844
0.650064 0.733856 0.720443
0.768229 0.738792 0.725379
0.887058 0.744392 0.730978
0.960618 0.747858 0.734444
0.076765 0.820235 0.698531
0.196381 0.825871 0.704168
0.316209 0.831518 0.709814
0.436036 0.837164 0.715460
0.536590 0.841902 0.720199
0.655419 0.847501 0.725798
0.772129 0.850982 0.729278
0.887058 0.852682 0.730978
0.960618 0.856148 0.734444
0.082120 0.933880 0.703886
0.201736 0.939516 0.709523
0.321564 0.945163 0.715169
0.441391 0.950809 0.720815
0.541945 0.955547 0.725554
0.660774 0.961146 0.731153
0.777484 0.964627 0.734633
0.890713 0.964627 0.734633
0.960807 0.964627 0.734633
0.075990 0.075990 0.803777
0.189970 0.075990 0.803777
0.304150 0.075990 0.803777
0.418331 0.075990 0.803777
0.514148 0.075990 0.803777
0.627377 0.075990 0.803777
0.740606 0.075990 0.803777
0.856311 0.078465 0.806253
0.929872 0.081931 0.809719
0.075990 0.185190 0.803777
0.195370 0.190590 0.809177
0.309550 0.190590 0.809177
0.423731 0.190590 0.809177
0.519548 0.190590 0.809177
0.632777 0.190590 0.809177
0.746006 0.190590 0.809177
0.861711 0.193065 0.811653
0.935272 0.196531 0.815119
0.075990 0.294390 0.803777
0.195606 0.300026 0.809414
0.314950 0.305190 0.814577
0.429131 0.305190 0.814577
0.524948 0.305190 0.814577
0.638177 0.305190 0.814577
0.751406 0.305190 0.814577
0.867111 0.307665 0.817053
0.940672 0.311131 0.820519
0.075990 0.403590 0.803777
0.195606 0.409226 0.809414
0.315433 0.414872 0.815060
0.434531 0.419790 0.819977
0.530348 0.419790 0.819977
0.643577 0.419790 0.819977
0.756806 0.419790 0.819977
0.872511 0.422265 0.822453
0.946072 0.425731 0.825919
0.075990 0.511916 0.803777
0.195606 0.517552 0.809414
0.315433 0.523199 0.815060
0.435260 0.528845 0.820706
0.535705 0.533473 0.825334
0.648934 0.533473 0.825334
0.762163 0.533473 0.825334
0.877868 0.535948 0.827809
0.951429 0.539414 0.831276
0.075990 0.602880 0.803777
0.195606 0.608516 0.809414
0.315433 0.614162 0.815060
0.435260 0.619808 0.820706
0.535815 0.624547 0.825444
0.653432 0.628935 0.829832
0.766661 0.628935 0.829832
0.882366 0.631410 0.832308
0.955927 0.634876 0.835774
0.075990 0.711170 0.803777
0.195606 0.716806 0.809414
0.315433 0.722452 0.815060
0.435260 0.728098 0.820706
0.535815 0.732837 0.825444
0.654644 0.738436 0.831044
0.772016 0.742580 0.835187
0.887721 0.745055 0.837663
0.961282 0.748521 0.841129
0.076765 0.820235 0.804553
0.196381 0.825871 0.810189
0.316209 0.831518 0.815835
0.436036 0.837164 0.821482
0.536590 0.841902 0.826220
0.655419 0.847501 0.831819
0.774248 0.853101 0.837418
0.892301 0.857924 0.842242
0.965861 0.861391 0.845708
0.082120 0.933880 0.809908
0.201736 0.939516 0.815544
0.321564 0.945163 0.821190
0.441391 0.950809 0.826837
0.541945 0.955547 0.831575
0.660774 0.961146 0.837174
0.779603 0.966746 0.842773
0.895956 0.969870 0.845897
0.966050 0.969870 0.845897
0.081232 0.081232 0.915041
0.195212 0.081232 0.915041
0.309393 0.081232 0.915041
0.423574 0.081232 0.915041
0.519391 0.081232 0.915041
0.632620 0.081232 0.915041
0.745849 0.081232 0.915041
0.859079 0.081232 0.915041
0.929872 0.081931 0.915740
0.081232 0.190432 0.915041
0.200612 0.195832 0.920441
0.314793 0.195832 0.920441
0.428974 0.195832 0.920441
0.524791 0.195832 0.920441
0.638020 0.195832 0.920441
0.751249 0.195832 0.920441
0.864479 0.195832 0.920441
0.935272 0.196531 0.921140
0.081232 0.299632 0.915041
0.200849 0.305269 0.920678
0.320193 0.310432 0.925841
0.434374 0.310432 0.925841
0.530191 0.310432 0.925841
0.643420 0.310432 0.925841
0.756649 0.310432 0.925841
0.869879 0.310432 0.925841
0.940672 0.311131 0.926540
0.081232 0.408832 0.915041
0.200849 0.414469 0.920678
0.320676 0.420115 0.926324
0.439774 0.425032 0.931241
0.535591 0.425032 0.931241
0.648820 0.425032 0.931241
0.762049 0.425032 0.931241
0.875279 0.425032 0.931241
0.946072 0.425731 0.931940
0.081232 0.517159 0.915041
0.200849 0.522795 0.920678
0.320676 0.528441 0.926324
0.440503 0.534088 0.931970
0.540947 0.538716 0.936598
0.654177 0.538716 0.936598
0.767406 0.538716 0.936598
0.880635 0.538716 0.936598
0.951429 0.539414 0.937297
0.081232 0.608122 0.915041
0.200849 0.613759 0.920678
0.320676 0.619405 0.926324
0.440503 0.625051 0.931970
0.541058 0.629789 0.936709
0.658675 0.634177 0.941096
0.771904 0.634177 0.941096
0.885134 0.634177 0.941096
0.955927 0.634876 0.941795
0.081232 0.716412 0.915041
0.200849 0.722049 0.920678
0.320676 0.727695 0.926324
0.440503 0.733341 0.931970
0.541058 0.738079 0.936709
0.659886 0.743679 0.942308
0.777259 0.747822 0.946451
0.890489 0.747822 0.946451
0.961282 0.748521 0.947150
0.081232 0.824702 0.915041
0.200849 0.830339 0.920678
0.320676 0.835985 0.926324
0.440503 0.841631 0.931970
0.541058 0.846369 0.936709
0.659886 0.851969 0.942308
0.778715 0.857568 0.947907
0.895844 0.861467 0.951806
0.966637 0.862166 0.952505
0.082120 0.933880 0.915929
0.201736 0.939516 0.921566
0.321564 0.945163 0.927212
0.441391 0.950809 0.932858
0.541945 0.955547 0.937596
0.660774 0.961146 0.943196
0.779603 0.966746 0.948795
0.898431 0.972345 0.954394
0.971293 0.975112 0.957161
