docs/luts/fuji_recipes/Eterna_RS_Kodak_Vision3_250D.cube
TITLE "Fujifilm Recipe: RS Kodak Vision3 250D (Eterna)"
# FilmSim=Eterna HL=3 SH=4 Col=3 WB=FLight1 WBR=-3 WBB=-1
LUT_3D_SIZE 33
DOMAIN_MIN 0.0 0.0 0.0
DOMAIN_MAX 1.0 1.0 1.0
0.033600 0.033600 0.033600
0.060755 0.025151 0.025151
0.086210 0.018111 0.018111
0.110950 0.011710 0.011710
0.135348 0.005653 0.005653
0.159340 0.000000 0.000000
0.177680 0.000000 0.000000
0.196020 0.000000 0.000000
0.215791 0.000000 0.000000
0.235649 0.000000 0.000000
0.255508 0.000000 0.000000
0.275366 0.000000 0.000000
0.295224 0.000000 0.000000
0.315082 0.000000 0.000000
0.334941 0.000000 0.000000
0.354799 0.000000 0.000000
0.374657 0.000000 0.000000
0.393868 0.000000 0.000000
0.468505 0.000000 0.000000
0.494467 0.000000 0.000000
0.520429 0.000000 0.000000
0.546390 0.000000 0.000000
0.572352 0.000000 0.000000
0.598313 0.000000 0.000000
0.624275 0.000000 0.000000
0.650237 0.000000 0.000000
0.676198 0.000000 0.000000
0.702160 0.000000 0.000000
0.728121 0.000000 0.000000
0.752291 0.000000 0.000000
0.752291 0.000000 0.000000
0.752291 0.000000 0.000000
0.752291 0.000000 0.000000
0.022813 0.068961 0.022813
0.057940 0.068961 0.022813
0.086210 0.063193 0.018111
0.110950 0.055683 0.011710
0.135348 0.048839 0.005653
0.159340 0.042496 0.000000
0.177680 0.039521 0.000000
0.196020 0.037393 0.000000
0.215791 0.036035 0.000000
0.235649 0.034990 0.000000
0.255508 0.034154 0.000000
0.275366 0.033469 0.000000
0.295224 0.032899 0.000000
0.315082 0.032416 0.000000
0.334941 0.032002 0.000000
0.354799 0.031643 0.000000
0.374657 0.031329 0.000000
0.393868 0.031060 0.000000
0.468505 0.029765 0.000000
0.494467 0.029539 0.000000
0.520429 0.029339 0.000000
0.546390 0.029161 0.000000
0.572352 0.029000 0.000000
0.598313 0.028855 0.000000
0.624275 0.028723 0.000000
0.650237 0.028603 0.000000
0.676198 0.028493 0.000000
0.702160 0.028392 0.000000
0.728121 0.028298 0.000000
0.752291 0.028218 0.000000
0.752291 0.028218 0.000000
0.752291 0.028218 0.000000
0.752291 0.028218 0.000000
0.014800 0.098849 0.014800
0.048647 0.098849 0.014800
0.081969 0.098849 0.014800
0.110950 0.094826 0.011710
0.135348 0.087282 0.005653
0.159340 0.080326 0.000000
0.177680 0.074703 0.000000
0.196020 0.070680 0.000000
0.215791 0.068112 0.000000
0.235649 0.066138 0.000000
0.255508 0.064557 0.000000
0.275366 0.063264 0.000000
0.295224 0.062185 0.000000
0.315082 0.061272 0.000000
0.334941 0.060489 0.000000
0.354799 0.059811 0.000000
0.374657 0.059217 0.000000
0.393868 0.058709 0.000000
0.468505 0.056261 0.000000
0.494467 0.055835 0.000000
0.520429 0.055457 0.000000
0.546390 0.055119 0.000000
0.572352 0.054816 0.000000
0.598313 0.054541 0.000000
0.624275 0.054292 0.000000
0.650237 0.054065 0.000000
0.676198 0.053857 0.000000
0.702160 0.053666 0.000000
0.728121 0.053489 0.000000
0.752291 0.053337 0.000000
0.752291 0.053337 0.000000
0.752291 0.053337 0.000000
0.752291 0.053337 0.000000
0.007556 0.127598 0.007556
0.040599 0.127598 0.007556
0.073130 0.127598 0.007556
0.105528 0.127598 0.007556
0.135348 0.125073 0.005653
0.159340 0.117514 0.000000
0.177680 0.109287 0.000000
0.196020 0.103403 0.000000
0.215791 0.099646 0.000000
0.235649 0.096757 0.000000
0.255508 0.094445 0.000000
0.275366 0.092552 0.000000
0.295224 0.090974 0.000000
0.315082 0.089639 0.000000
0.334941 0.088494 0.000000
0.354799 0.087501 0.000000
0.374657 0.086632 0.000000
0.393868 0.085889 0.000000
0.468505 0.082308 0.000000
0.494467 0.081685 0.000000
0.520429 0.081132 0.000000
0.546390 0.080637 0.000000
0.572352 0.080193 0.000000
0.598313 0.079792 0.000000
0.624275 0.079428 0.000000
0.650237 0.079095 0.000000
0.676198 0.078791 0.000000
0.702160 0.078511 0.000000
0.728121 0.078253 0.000000
0.752291 0.078030 0.000000
0.752291 0.078030 0.000000
0.752291 0.078030 0.000000
0.752291 0.078030 0.000000
0.000652 0.156006 0.000652
0.033136 0.156006 0.000652
0.065116 0.156006 0.000652
0.096965 0.156006 0.000652
0.128814 0.156006 0.000652
0.159340 0.154702 0.000000
0.177680 0.143872 0.000000
0.196020 0.136125 0.000000
0.215791 0.131179 0.000000
0.235649 0.127377 0.000000
0.255508 0.124333 0.000000
0.275366 0.121841 0.000000
0.295224 0.119764 0.000000
0.315082 0.118006 0.000000
0.334941 0.116498 0.000000
0.354799 0.115191 0.000000
0.374657 0.114047 0.000000
0.393868 0.113069 0.000000
0.468505 0.108355 0.000000
0.494467 0.107534 0.000000
0.520429 0.106806 0.000000
0.546390 0.106156 0.000000
0.572352 0.105571 0.000000
0.598313 0.105043 0.000000
0.624275 0.104563 0.000000
0.650237 0.104125 0.000000
0.676198 0.103725 0.000000
0.702160 0.103356 0.000000
0.728121 0.103016 0.000000
0.752291 0.102723 0.000000
0.752291 0.102723 0.000000
0.752291 0.102723 0.000000
0.752291 0.102723 0.000000
0.000000 0.178163 0.000000
0.030033 0.178163 0.000000
0.059601 0.178163 0.000000
0.089048 0.178163 0.000000
0.118495 0.178163 0.000000
0.147941 0.178163 0.000000
0.177388 0.178163 0.000000
0.196020 0.168847 0.000000
0.215791 0.162713 0.000000
0.235649 0.157996 0.000000
0.255508 0.154220 0.000000
0.275366 0.151130 0.000000
0.295224 0.148553 0.000000
0.315082 0.146372 0.000000
0.334941 0.144502 0.000000
0.354799 0.142881 0.000000
0.374657 0.141463 0.000000
0.393868 0.140249 0.000000
0.468505 0.134402 0.000000
0.494467 0.133384 0.000000
0.520429 0.132481 0.000000
0.546390 0.131674 0.000000
0.572352 0.130949 0.000000
0.598313 0.130293 0.000000
0.624275 0.129698 0.000000
0.650237 0.129156 0.000000
0.676198 0.128658 0.000000
0.702160 0.128202 0.000000
0.728121 0.127780 0.000000
0.752291 0.127416 0.000000
0.752291 0.127416 0.000000
0.752291 0.127416 0.000000
0.752291 0.127416 0.000000
0.000000 0.199882 0.000000
0.028225 0.199882 0.000000
0.056012 0.199882 0.000000
0.083685 0.199882 0.000000
0.111359 0.199882 0.000000
0.139032 0.199882 0.000000
0.166705 0.199882 0.000000
0.194379 0.199882 0.000000
0.215791 0.194246 0.000000
0.235649 0.188615 0.000000
0.255508 0.184108 0.000000
0.275366 0.180418 0.000000
0.295224 0.177343 0.000000
0.315082 0.174739 0.000000
0.334941 0.172507 0.000000
0.354799 0.170572 0.000000
0.374657 0.168878 0.000000
0.393868 0.167429 0.000000
0.468505 0.160449 0.000000
0.494467 0.159234 0.000000
0.520429 0.158155 0.000000
0.546390 0.157192 0.000000
0.572352 0.156326 0.000000
0.598313 0.155544 0.000000
0.624275 0.154834 0.000000
0.650237 0.154186 0.000000
0.676198 0.153592 0.000000
0.702160 0.153047 0.000000
0.728121 0.152544 0.000000
0.752291 0.152109 0.000000
0.752291 0.152109 0.000000
0.752291 0.152109 0.000000
0.752291 0.152109 0.000000
0.000000 0.223167 0.000000
0.027111 0.223167 0.000000
0.053803 0.223167 0.000000
0.080385 0.223167 0.000000
0.106966 0.223167 0.000000
0.133548 0.223167 0.000000
0.160130 0.223167 0.000000
0.186712 0.223167 0.000000
0.213294 0.223167 0.000000
0.235649 0.219235 0.000000
0.255508 0.213996 0.000000
0.275366 0.209707 0.000000
0.295224 0.206132 0.000000
0.315082 0.203106 0.000000
0.334941 0.200511 0.000000
0.354799 0.198262 0.000000
0.374657 0.196293 0.000000
0.393868 0.194610 0.000000
0.468505 0.186496 0.000000
0.494467 0.185083 0.000000
0.520429 0.183830 0.000000
0.546390 0.182710 0.000000
0.572352 0.181704 0.000000
0.598313 0.180795 0.000000
0.624275 0.179969 0.000000
0.650237 0.179216 0.000000
0.676198 0.178526 0.000000
0.702160 0.177892 0.000000
0.728121 0.177307 0.000000
0.752291 0.176802 0.000000
0.752291 0.176802 0.000000
0.752291 0.176802 0.000000
0.752291 0.176802 0.000000
0.000000 0.246451 0.000000
0.026271 0.246451 0.000000
0.052135 0.246451 0.000000
0.077893 0.246451 0.000000
0.103651 0.246451 0.000000
0.129409 0.246451 0.000000
0.155167 0.246451 0.000000
0.180924 0.246451 0.000000
0.206682 0.246451 0.000000
0.232440 0.246451 0.000000
0.255508 0.243883 0.000000
0.275366 0.238996 0.000000
0.295224 0.234921 0.000000
0.315082 0.231472 0.000000
0.334941 0.228515 0.000000
0.354799 0.225952 0.000000
0.374657 0.223709 0.000000
0.393868 0.221790 0.000000
0.468505 0.212543 0.000000
0.494467 0.210933 0.000000
0.520429 0.209505 0.000000
0.546390 0.208229 0.000000
0.572352 0.207082 0.000000
0.598313 0.206045 0.000000
0.624275 0.205104 0.000000
0.650237 0.204246 0.000000
0.676198 0.203460 0.000000
0.702160 0.202737 0.000000
0.728121 0.202071 0.000000
0.752291 0.201495 0.000000
0.752291 0.201495 0.000000
0.752291 0.201495 0.000000
0.752291 0.201495 0.000000
0.000000 0.269736 0.000000
0.025614 0.269736 0.000000
0.050831 0.269736 0.000000
0.075945 0.269736 0.000000
0.101059 0.269736 0.000000
0.126173 0.269736 0.000000
0.151287 0.269736 0.000000
0.176400 0.269736 0.000000
0.201514 0.269736 0.000000
0.226628 0.269736 0.000000
0.251742 0.269736 0.000000
0.275366 0.268285 0.000000
0.295224 0.263711 0.000000
0.315082 0.259839 0.000000
0.334941 0.256520 0.000000
0.354799 0.253642 0.000000
0.374657 0.251124 0.000000
0.393868 0.248970 0.000000
0.468505 0.238589 0.000000
0.494467 0.236783 0.000000
0.520429 0.235179 0.000000
0.546390 0.233747 0.000000
0.572352 0.232459 0.000000
0.598313 0.231296 0.000000
0.624275 0.230240 0.000000
0.650237 0.229276 0.000000
0.676198 0.228394 0.000000
0.702160 0.227583 0.000000
0.728121 0.226835 0.000000
0.752291 0.226188 0.000000
0.752291 0.226188 0.000000
0.752291 0.226188 0.000000
0.752291 0.226188 0.000000
0.000000 0.293021 0.000000
0.025087 0.293021 0.000000
0.049784 0.293021 0.000000
0.074381 0.293021 0.000000
0.098977 0.293021 0.000000
0.123574 0.293021 0.000000
0.148170 0.293021 0.000000
0.172767 0.293021 0.000000
0.197364 0.293021 0.000000
0.221960 0.293021 0.000000
0.246557 0.293021 0.000000
0.271153 0.293021 0.000000
0.295224 0.292500 0.000000
0.315082 0.288206 0.000000
0.334941 0.284524 0.000000
0.354799 0.281333 0.000000
0.374657 0.278539 0.000000
0.393868 0.276150 0.000000
0.468505 0.264636 0.000000
0.494467 0.262632 0.000000
0.520429 0.260854 0.000000
0.546390 0.259265 0.000000
0.572352 0.257837 0.000000
0.598313 0.256547 0.000000
0.624275 0.255375 0.000000
0.650237 0.254306 0.000000
0.676198 0.253328 0.000000
0.702160 0.252428 0.000000
0.728121 0.251598 0.000000
0.752291 0.250881 0.000000
0.752291 0.250881 0.000000
0.752291 0.250881 0.000000
0.752291 0.250881 0.000000
0.000000 0.316306 0.000000
0.024653 0.316306 0.000000
0.048925 0.316306 0.000000
0.073097 0.316306 0.000000
0.097269 0.316306 0.000000
0.121441 0.316306 0.000000
0.145613 0.316306 0.000000
0.169785 0.316306 0.000000
0.193957 0.316306 0.000000
0.218129 0.316306 0.000000
0.242301 0.316306 0.000000
0.266473 0.316306 0.000000
0.290645 0.316306 0.000000
0.314817 0.316306 0.000000
0.334941 0.312529 0.000000
0.354799 0.309023 0.000000
0.374657 0.305955 0.000000
0.393868 0.303330 0.000000
0.468505 0.290683 0.000000
0.494467 0.288482 0.000000
0.520429 0.286528 0.000000
0.546390 0.284783 0.000000
0.572352 0.283215 0.000000
0.598313 0.281797 0.000000
0.624275 0.280510 0.000000
0.650237 0.279337 0.000000
0.676198 0.278261 0.000000
0.702160 0.277273 0.000000
0.728121 0.276362 0.000000
0.752291 0.275575 0.000000
0.752291 0.275575 0.000000
0.752291 0.275575 0.000000
0.752291 0.275575 0.000000
0.000000 0.339590 0.000000
0.024292 0.339590 0.000000
0.048207 0.339590 0.000000
0.072024 0.339590 0.000000
0.095841 0.339590 0.000000
0.119659 0.339590 0.000000
0.143476 0.339590 0.000000
0.167293 0.339590 0.000000
0.191110 0.339590 0.000000
0.214927 0.339590 0.000000
0.238745 0.339590 0.000000
0.262562 0.339590 0.000000
0.286379 0.339590 0.000000
0.310196 0.339590 0.000000
0.334014 0.339590 0.000000
0.354799 0.336713 0.000000
0.374657 0.333370 0.000000
0.393868 0.330510 0.000000
0.468505 0.316730 0.000000
0.494467 0.314331 0.000000
0.520429 0.312203 0.000000
0.546390 0.310301 0.000000
0.572352 0.308592 0.000000
0.598313 0.307048 0.000000
0.624275 0.305646 0.000000
0.650237 0.304367 0.000000
0.676198 0.303195 0.000000
0.702160 0.302118 0.000000
0.728121 0.301125 0.000000
0.752291 0.300268 0.000000
0.752291 0.300268 0.000000
0.752291 0.300268 0.000000
0.752291 0.300268 0.000000
0.000000 0.362875 0.000000
0.023985 0.362875 0.000000
0.047598 0.362875 0.000000
0.071114 0.362875 0.000000
0.094631 0.362875 0.000000
0.118147 0.362875 0.000000
0.141664 0.362875 0.000000
0.165180 0.362875 0.000000
0.188696 0.362875 0.000000
0.212213 0.362875 0.000000
0.235729 0.362875 0.000000
0.259245 0.362875 0.000000
0.282762 0.362875 0.000000
0.306278 0.362875 0.000000
0.329795 0.362875 0.000000
0.353311 0.362875 0.000000
0.374657 0.360785 0.000000
0.393868 0.357690 0.000000
0.468505 0.342777 0.000000
0.494467 0.340181 0.000000
0.520429 0.337878 0.000000
0.546390 0.335820 0.000000
0.572352 0.333970 0.000000
0.598313 0.332299 0.000000
0.624275 0.330781 0.000000
0.650237 0.329397 0.000000
0.676198 0.328129 0.000000
0.702160 0.326964 0.000000
0.728121 0.325889 0.000000
0.752291 0.324961 0.000000
0.752291 0.324961 0.000000
0.752291 0.324961 0.000000
0.752291 0.324961 0.000000
0.000000 0.385913 0.000000
0.023724 0.385913 0.000000
0.047080 0.385913 0.000000
0.070341 0.385913 0.000000
0.093601 0.385913 0.000000
0.116862 0.385913 0.000000
0.140123 0.385913 0.000000
0.163383 0.385913 0.000000
0.186644 0.385913 0.000000
0.209904 0.385913 0.000000
0.233165 0.385913 0.000000
0.256425 0.385913 0.000000
0.279686 0.385913 0.000000
0.302947 0.385913 0.000000
0.326207 0.385913 0.000000
0.349468 0.385913 0.000000
0.372728 0.385913 0.000000
0.393868 0.384583 0.000000
0.468505 0.368548 0.000000
0.494467 0.365757 0.000000
0.520429 0.363280 0.000000
0.546390 0.361068 0.000000
0.572352 0.359079 0.000000
0.598313 0.357282 0.000000
0.624275 0.355650 0.000000
0.650237 0.354162 0.000000
0.676198 0.352799 0.000000
0.702160 0.351546 0.000000
0.728121 0.350390 0.000000
0.752291 0.427856 0.000000
0.752291 0.427856 0.000000
0.752291 0.427856 0.000000
0.752291 0.427856 0.000000
0.000000 0.395213 0.000000
0.023629 0.395213 0.000000
0.046891 0.395213 0.000000
0.070058 0.395213 0.000000
0.093226 0.395213 0.000000
0.116393 0.395213 0.000000
0.139560 0.395213 0.000000
0.162727 0.395213 0.000000
0.185894 0.395213 0.000000
0.209061 0.395213 0.000000
0.232229 0.395213 0.000000
0.255396 0.395213 0.000000
0.278563 0.395213 0.000000
0.301730 0.395213 0.000000
0.324897 0.395213 0.000000
0.348065 0.395213 0.000000
0.371232 0.395213 0.000000
0.393643 0.395213 0.000000
0.468505 0.378951 0.000000
0.494467 0.458083 0.000000
0.520429 0.455339 0.000000
0.546390 0.452921 0.000000
0.572352 0.450781 0.000000
0.598313 0.448877 0.000000
0.624275 0.447177 0.000000
0.650237 0.445655 0.000000
0.676198 0.444287 0.000000
0.702160 0.443055 0.000000
0.728121 0.441944 0.000000
0.752291 0.441006 0.000000
0.752291 0.441006 0.000000
0.752291 0.441006 0.000000
0.752291 0.441006 0.000000
0.000000 0.492503 0.000000
0.022497 0.492503 0.000000
0.044646 0.492503 0.000000
0.066703 0.492503 0.000000
0.088761 0.492503 0.000000
0.110819 0.492503 0.000000
0.132876 0.492503 0.000000
0.154934 0.492503 0.000000
0.176992 0.492503 0.000000
0.199049 0.492503 0.000000
0.221107 0.492503 0.000000
0.243165 0.492503 0.000000
0.265223 0.492503 0.000000
0.287280 0.492503 0.000000
0.309338 0.492503 0.000000
0.331396 0.492503 0.000000
0.353453 0.492503 0.000000
0.374792 0.492503 0.000000
0.465544 0.492503 0.000000
0.494467 0.492262 0.000000
0.520429 0.489286 0.000000
0.546390 0.486662 0.000000
0.572352 0.484336 0.000000
0.598313 0.482264 0.000000
0.624275 0.480412 0.000000
0.650237 0.478750 0.000000
0.676198 0.477255 0.000000
0.702160 0.475906 0.000000
0.728121 0.474687 0.000000
0.752291 0.473656 0.000000
0.752291 0.473656 0.000000
0.752291 0.473656 0.000000
0.752291 0.473656 0.000000
0.000000 0.522944 0.000000
0.022319 0.522944 0.000000
0.044292 0.522944 0.000000
0.066174 0.522944 0.000000
0.088057 0.522944 0.000000
0.109940 0.522944 0.000000
0.131823 0.522944 0.000000
0.153706 0.522944 0.000000
0.175589 0.522944 0.000000
0.197471 0.522944 0.000000
0.219354 0.522944 0.000000
0.241237 0.522944 0.000000
0.263120 0.522944 0.000000
0.285003 0.522944 0.000000
0.306886 0.522944 0.000000
0.328768 0.522944 0.000000
0.350651 0.522944 0.000000
0.371820 0.522944 0.000000
0.462273 0.522944 0.000000
0.491207 0.522944 0.000000
0.520141 0.522944 0.000000
0.546390 0.520403 0.000000
0.572352 0.517891 0.000000
0.598313 0.515651 0.000000
0.624275 0.513646 0.000000
0.650237 0.511845 0.000000
0.676198 0.510223 0.000000
0.702160 0.508757 0.000000
0.728121 0.507430 0.000000
0.752291 0.506305 0.000000
0.752291 0.506305 0.000000
0.752291 0.506305 0.000000
0.752291 0.506305 0.000000
0.000000 0.553385 0.000000
0.022162 0.553385 0.000000
0.043981 0.553385 0.000000
0.065711 0.553385 0.000000
0.087440 0.553385 0.000000
0.109170 0.553385 0.000000
0.130899 0.553385 0.000000
0.152629 0.553385 0.000000
0.174358 0.553385 0.000000
0.196088 0.553385 0.000000
0.217817 0.553385 0.000000
0.239547 0.553385 0.000000
0.261276 0.553385 0.000000
0.283006 0.553385 0.000000
0.304735 0.553385 0.000000
0.326465 0.553385 0.000000
0.348194 0.553385 0.000000
0.450356 0.553385 0.000000
0.459450 0.553385 0.000000
0.488181 0.553385 0.000000
0.516913 0.553385 0.000000
0.545644 0.553385 0.000000
0.572352 0.551445 0.000000
0.598313 0.549038 0.000000
0.624275 0.546881 0.000000
0.650237 0.544941 0.000000
0.676198 0.543191 0.000000
0.702160 0.541608 0.000000
0.728121 0.540173 0.000000
0.752291 0.538955 0.000000
0.752291 0.538955 0.000000
0.752291 0.538955 0.000000
0.752291 0.538955 0.000000
0.000000 0.583827 0.000000
0.022024 0.583827 0.000000
0.043707 0.583827 0.000000
0.065301 0.583827 0.000000
0.086895 0.583827 0.000000
0.108489 0.583827 0.000000
0.130083 0.583827 0.000000
0.151677 0.583827 0.000000
0.173271 0.583827 0.000000
0.194865 0.583827 0.000000
0.216459 0.583827 0.000000
0.238053 0.583827 0.000000
0.259647 0.583827 0.000000
0.281241 0.583827 0.000000
0.302835 0.583827 0.000000
0.324429 0.583827 0.000000
0.346023 0.583827 0.000000
0.447961 0.583827 0.000000
0.456999 0.583827 0.000000
0.485551 0.583827 0.000000
0.514103 0.583827 0.000000
0.542655 0.583827 0.000000
0.571207 0.583827 0.000000
0.598313 0.582425 0.000000
0.624275 0.580115 0.000000
0.650237 0.578036 0.000000
0.676198 0.576159 0.000000
0.702160 0.574459 0.000000
0.728121 0.572916 0.000000
0.752291 0.571605 0.000000
0.752291 0.571605 0.000000
0.752291 0.571605 0.000000
0.752291 0.571605 0.000000
0.000000 0.614268 0.000000
0.021901 0.614268 0.000000
0.043463 0.614268 0.000000
0.064936 0.614268 0.000000
0.086409 0.614268 0.000000
0.107883 0.614268 0.000000
0.129356 0.614268 0.000000
0.150829 0.614268 0.000000
0.172303 0.614268 0.000000
0.193776 0.614268 0.000000
0.215249 0.614268 0.000000
0.236723 0.614268 0.000000
0.258196 0.614268 0.000000
0.279669 0.614268 0.000000
0.301143 0.614268 0.000000
0.322616 0.614268 0.000000
0.344089 0.614268 0.000000
0.445870 0.614268 0.000000
0.454857 0.614268 0.000000
0.483249 0.614268 0.000000
0.511642 0.614268 0.000000
0.540034 0.614268 0.000000
0.568427 0.614268 0.000000
0.596819 0.614268 0.000000
0.624275 0.613350 0.000000
0.650237 0.611132 0.000000
0.676198 0.609127 0.000000
0.702160 0.607310 0.000000
0.728121 0.605659 0.000000
0.752291 0.604254 0.000000
0.752291 0.604254 0.000000
0.752291 0.604254 0.000000
0.752291 0.604254 0.000000
0.000000 0.644709 0.000000
0.021791 0.644709 0.000000
0.043244 0.644709 0.000000
0.064609 0.644709 0.000000
0.085974 0.644709 0.000000
0.107340 0.644709 0.000000
0.128705 0.644709 0.000000
0.150070 0.644709 0.000000
0.171435 0.644709 0.000000
0.192801 0.644709 0.000000
0.214166 0.644709 0.000000
0.235531 0.644709 0.000000
0.256896 0.644709 0.000000
0.278262 0.644709 0.000000
0.299627 0.644709 0.000000
0.320992 0.644709 0.000000
0.342357 0.644709 0.000000
0.444035 0.644709 0.000000
0.452977 0.644709 0.000000
0.481226 0.644709 0.000000
0.509476 0.644709 0.000000
0.537725 0.644709 0.000000
0.565975 0.644709 0.000000
0.594225 0.644709 0.000000
0.622474 0.644709 0.000000
0.650237 0.644227 0.000000
0.676198 0.642095 0.000000
0.702160 0.640161 0.000000
0.728121 0.638402 0.000000
0.752291 0.636904 0.000000
0.752291 0.636904 0.000000
0.752291 0.636904 0.000000
0.752291 0.636904 0.000000
0.000000 0.675150 0.000000
0.021692 0.675150 0.000000
0.043047 0.675150 0.000000
0.064315 0.675150 0.000000
0.085582 0.675150 0.000000
0.106850 0.675150 0.000000
0.128118 0.675150 0.000000
0.149386 0.675150 0.000000
0.170654 0.675150 0.000000
0.191922 0.675150 0.000000
0.213189 0.675150 0.000000
0.234457 0.675150 0.000000
0.255725 0.675150 0.000000
0.276993 0.675150 0.000000
0.298261 0.675150 0.000000
0.319529 0.675150 0.000000
0.340796 0.675150 0.000000
0.442418 0.675150 0.000000
0.451319 0.675150 0.000000
0.479440 0.675150 0.000000
0.507561 0.675150 0.000000
0.535681 0.675150 0.000000
0.563802 0.675150 0.000000
0.591923 0.675150 0.000000
0.620044 0.675150 0.000000
0.648165 0.675150 0.000000
0.676198 0.675063 0.000000
0.702160 0.673012 0.000000
0.728121 0.671145 0.000000
0.752291 0.669554 0.000000
0.752291 0.669554 0.000000
0.752291 0.669554 0.000000
0.752291 0.669554 0.000000
0.000000 0.705592 0.000000
0.021602 0.705592 0.000000
0.042868 0.705592 0.000000
0.064048 0.705592 0.000000
0.085227 0.705592 0.000000
0.106407 0.705592 0.000000
0.127587 0.705592 0.000000
0.148766 0.705592 0.000000
0.169946 0.705592 0.000000
0.191125 0.705592 0.000000
0.212305 0.705592 0.000000
0.233485 0.705592 0.000000
0.254664 0.705592 0.000000
0.275844 0.705592 0.000000
0.297023 0.705592 0.000000
0.318203 0.705592 0.000000
0.339383 0.705592 0.000000
0.440988 0.705592 0.000000
0.449853 0.705592 0.000000
0.477857 0.705592 0.000000
0.505861 0.705592 0.000000
0.533865 0.705592 0.000000
0.561869 0.705592 0.000000
0.589873 0.705592 0.000000
0.617877 0.705592 0.000000
0.645882 0.705592 0.000000
0.673886 0.705592 0.000000
0.701890 0.705592 0.000000
0.728121 0.703888 0.000000
0.752291 0.702204 0.000000
0.752291 0.702204 0.000000
0.752291 0.702204 0.000000
0.752291 0.702204 0.000000
0.000000 0.736033 0.000000
0.021520 0.736033 0.000000
0.042706 0.736033 0.000000
0.063805 0.736033 0.000000
0.084904 0.736033 0.000000
0.106004 0.736033 0.000000
0.127103 0.736033 0.000000
0.148202 0.736033 0.000000
0.169302 0.736033 0.000000
0.190401 0.736033 0.000000
0.211500 0.736033 0.000000
0.232599 0.736033 0.000000
0.253699 0.736033 0.000000
0.274798 0.736033 0.000000
0.295897 0.736033 0.000000
0.316997 0.736033 0.000000
0.338096 0.736033 0.000000
0.439721 0.736033 0.000000
0.448552 0.736033 0.000000
0.476450 0.736033 0.000000
0.504348 0.736033 0.000000
0.532246 0.736033 0.000000
0.560144 0.736033 0.000000
0.588041 0.736033 0.000000
0.615939 0.736033 0.000000
0.643837 0.736033 0.000000
0.671735 0.736033 0.000000
0.699633 0.736033 0.000000
0.727531 0.736033 0.000000
0.752291 0.734853 0.000000
0.752291 0.734853 0.000000
0.752291 0.734853 0.000000
0.752291 0.734853 0.000000
0.000000 0.766474 0.000000
0.021445 0.766474 0.000000
0.042557 0.766474 0.000000
0.063583 0.766474 0.000000
0.084609 0.766474 0.000000
0.105635 0.766474 0.000000
0.126661 0.766474 0.000000
0.147687 0.766474 0.000000
0.168713 0.766474 0.000000
0.189739 0.766474 0.000000
0.210765 0.766474 0.000000
0.231791 0.766474 0.000000
0.252816 0.766474 0.000000
0.273842 0.766474 0.000000
0.294868 0.766474 0.000000
0.315894 0.766474 0.000000
0.336920 0.766474 0.000000
0.438595 0.766474 0.000000
0.447395 0.766474 0.000000
0.475196 0.766474 0.000000
0.502997 0.766474 0.000000
0.530798 0.766474 0.000000
0.558598 0.766474 0.000000
0.586399 0.766474 0.000000
0.614200 0.766474 0.000000
0.642001 0.766474 0.000000
0.669802 0.766474 0.000000
0.697603 0.766474 0.000000
0.725404 0.766474 0.000000
0.751286 0.766474 0.000000
0.751286 0.766474 0.000000
0.751286 0.766474 0.000000
0.751286 0.766474 0.000000
0.000000 0.796915 0.000000
0.021376 0.796915 0.000000
0.042421 0.796915 0.000000
0.063380 0.796915 0.000000
0.084338 0.796915 0.000000
0.105297 0.796915 0.000000
0.126255 0.796915 0.000000
0.147214 0.796915 0.000000
0.168173 0.796915 0.000000
0.189131 0.796915 0.000000
0.210090 0.796915 0.000000
0.231048 0.796915 0.000000
0.252007 0.796915 0.000000
0.272966 0.796915 0.000000
0.293924 0.796915 0.000000
0.314883 0.796915 0.000000
0.335841 0.796915 0.000000
0.437592 0.796915 0.000000
0.446364 0.796915 0.000000
0.474076 0.796915 0.000000
0.501788 0.796915 0.000000
0.529500 0.796915 0.000000
0.557212 0.796915 0.000000
0.584924 0.796915 0.000000
