docs/luts/fuji_recipes/Eterna_MT_Eterna.cube
TITLE "Fujifilm Recipe: MT Eterna (Eterna)"
# FilmSim=Eterna HL=0 SH=0 Col=0 WB=Auto WBR=2 WBB=-1
LUT_3D_SIZE 33
DOMAIN_MIN 0.0 0.0 0.0
DOMAIN_MAX 1.0 1.0 1.0
0.040000 0.040000 0.040000
0.069782 0.041403 0.041403
0.099703 0.042813 0.042813
0.129660 0.044225 0.044225
0.159616 0.045636 0.045636
0.189573 0.047048 0.047048
0.219530 0.048460 0.048460
0.249487 0.049871 0.049871
0.279444 0.051283 0.051283
0.309400 0.052694 0.052694
0.339357 0.054106 0.054106
0.369314 0.055517 0.055517
0.399271 0.056929 0.056929
0.429228 0.058341 0.058341
0.459184 0.059752 0.059752
0.488669 0.061141 0.061141
0.499825 0.061667 0.061667
0.529533 0.063067 0.063067
0.559240 0.064467 0.064467
0.588947 0.065867 0.065867
0.618654 0.067266 0.067266
0.648361 0.068666 0.068666
0.678068 0.070066 0.070066
0.707775 0.071466 0.071466
0.737483 0.072866 0.072866
0.767190 0.074265 0.074265
0.796897 0.075665 0.075665
0.826604 0.077065 0.077065
0.856311 0.078465 0.078465
0.886018 0.079865 0.079865
0.915726 0.081265 0.081265
0.929872 0.081931 0.081931
0.929872 0.081931 0.081931
0.041350 0.068650 0.041350
0.069782 0.068703 0.041403
0.099703 0.070113 0.042813
0.129660 0.071525 0.044225
0.159616 0.072936 0.045636
0.189573 0.074348 0.047048
0.219530 0.075760 0.048460
0.249487 0.077171 0.049871
0.279444 0.078583 0.051283
0.309400 0.079994 0.052694
0.339357 0.081406 0.054106
0.369314 0.082817 0.055517
0.399271 0.084229 0.056929
0.429228 0.085641 0.058341
0.459184 0.087052 0.059752
0.488669 0.088441 0.061141
0.499825 0.088967 0.061667
0.529533 0.090367 0.063067
0.559240 0.091767 0.064467
0.588947 0.093167 0.065867
0.618654 0.094566 0.067266
0.648361 0.095966 0.068666
0.678068 0.097366 0.070066
0.707775 0.098766 0.071466
0.737483 0.100166 0.072866
0.767190 0.101565 0.074265
0.796897 0.102965 0.075665
0.826604 0.104365 0.077065
0.856311 0.105765 0.078465
0.886018 0.107165 0.079865
0.915726 0.108565 0.081265
0.929872 0.109231 0.081931
0.929872 0.109231 0.081931
0.042700 0.097300 0.042700
0.071078 0.097300 0.042700
0.099703 0.097413 0.042813
0.129660 0.098825 0.044225
0.159616 0.100236 0.045636
0.189573 0.101648 0.047048
0.219530 0.103060 0.048460
0.249487 0.104471 0.049871
0.279444 0.105883 0.051283
0.309400 0.107294 0.052694
0.339357 0.108706 0.054106
0.369314 0.110117 0.055517
0.399271 0.111529 0.056929
0.429228 0.112941 0.058341
0.459184 0.114352 0.059752
0.488669 0.115741 0.061141
0.499825 0.116267 0.061667
0.529533 0.117667 0.063067
0.559240 0.119067 0.064467
0.588947 0.120467 0.065867
0.618654 0.121866 0.067266
0.648361 0.123266 0.068666
0.678068 0.124666 0.070066
0.707775 0.126066 0.071466
0.737483 0.127466 0.072866
0.767190 0.128865 0.074265
0.796897 0.130265 0.075665
0.826604 0.131665 0.077065
0.856311 0.133065 0.078465
0.886018 0.134465 0.079865
0.915726 0.135865 0.081265
0.929872 0.136531 0.081931
0.929872 0.136531 0.081931
0.044050 0.125950 0.044050
0.072428 0.125950 0.044050
0.100940 0.125950 0.044050
0.129660 0.126125 0.044225
0.159616 0.127536 0.045636
0.189573 0.128948 0.047048
0.219530 0.130360 0.048460
0.249487 0.131771 0.049871
0.279444 0.133183 0.051283
0.309400 0.134594 0.052694
0.339357 0.136006 0.054106
0.369314 0.137417 0.055517
0.399271 0.138829 0.056929
0.429228 0.140241 0.058341
0.459184 0.141652 0.059752
0.488669 0.143041 0.061141
0.499825 0.143567 0.061667
0.529533 0.144967 0.063067
0.559240 0.146367 0.064467
0.588947 0.147767 0.065867
0.618654 0.149166 0.067266
0.648361 0.150566 0.068666
0.678068 0.151966 0.070066
0.707775 0.153366 0.071466
0.737483 0.154766 0.072866
0.767190 0.156165 0.074265
0.796897 0.157565 0.075665
0.826604 0.158965 0.077065
0.856311 0.160365 0.078465
0.886018 0.161765 0.079865
0.915726 0.163165 0.081265
0.929872 0.163831 0.081931
0.929872 0.163831 0.081931
0.045400 0.154600 0.045400
0.073778 0.154600 0.045400
0.102290 0.154600 0.045400
0.130835 0.154600 0.045400
0.159616 0.154836 0.045636
0.189573 0.156248 0.047048
0.219530 0.157660 0.048460
0.249487 0.159071 0.049871
0.279444 0.160483 0.051283
0.309400 0.161894 0.052694
0.339357 0.163306 0.054106
0.369314 0.164717 0.055517
0.399271 0.166129 0.056929
0.429228 0.167541 0.058341
0.459184 0.168952 0.059752
0.488669 0.170341 0.061141
0.499825 0.170867 0.061667
0.529533 0.172267 0.063067
0.559240 0.173667 0.064467
0.588947 0.175067 0.065867
0.618654 0.176466 0.067266
0.648361 0.177866 0.068666
0.678068 0.179266 0.070066
0.707775 0.180666 0.071466
0.737483 0.182066 0.072866
0.767190 0.183465 0.074265
0.796897 0.184865 0.075665
0.826604 0.186265 0.077065
0.856311 0.187665 0.078465
0.886018 0.189065 0.079865
0.915726 0.190465 0.081265
0.929872 0.191131 0.081931
0.929872 0.191131 0.081931
0.046750 0.183250 0.046750
0.075128 0.183250 0.046750
0.103640 0.183250 0.046750
0.132185 0.183250 0.046750
0.160730 0.183250 0.046750
0.189573 0.183548 0.047048
0.219530 0.184960 0.048460
0.249487 0.186371 0.049871
0.279444 0.187783 0.051283
0.309400 0.189194 0.052694
0.339357 0.190606 0.054106
0.369314 0.192017 0.055517
0.399271 0.193429 0.056929
0.429228 0.194841 0.058341
0.459184 0.196252 0.059752
0.488669 0.197641 0.061141
0.499825 0.198167 0.061667
0.529533 0.199567 0.063067
0.559240 0.200967 0.064467
0.588947 0.202367 0.065867
0.618654 0.203766 0.067266
0.648361 0.205166 0.068666
0.678068 0.206566 0.070066
0.707775 0.207966 0.071466
0.737483 0.209366 0.072866
0.767190 0.210765 0.074265
0.796897 0.212165 0.075665
0.826604 0.213565 0.077065
0.856311 0.214965 0.078465
0.886018 0.216365 0.079865
0.915726 0.217765 0.081265
0.929872 0.218431 0.081931
0.929872 0.218431 0.081931
0.048100 0.211900 0.048100
0.076478 0.211900 0.048100
0.104990 0.211900 0.048100
0.133535 0.211900 0.048100
0.162080 0.211900 0.048100
0.190625 0.211900 0.048100
0.219530 0.212260 0.048460
0.249487 0.213671 0.049871
0.279444 0.215083 0.051283
0.309400 0.216494 0.052694
0.339357 0.217906 0.054106
0.369314 0.219317 0.055517
0.399271 0.220729 0.056929
0.429228 0.222141 0.058341
0.459184 0.223552 0.059752
0.488669 0.224941 0.061141
0.499825 0.225467 0.061667
0.529533 0.226867 0.063067
0.559240 0.228267 0.064467
0.588947 0.229667 0.065867
0.618654 0.231066 0.067266
0.648361 0.232466 0.068666
0.678068 0.233866 0.070066
0.707775 0.235266 0.071466
0.737483 0.236666 0.072866
0.767190 0.238065 0.074265
0.796897 0.239465 0.075665
0.826604 0.240865 0.077065
0.856311 0.242265 0.078465
0.886018 0.243665 0.079865
0.915726 0.245065 0.081265
0.929872 0.245731 0.081931
0.929872 0.245731 0.081931
0.049450 0.240550 0.049450
0.077828 0.240550 0.049450
0.106340 0.240550 0.049450
0.134885 0.240550 0.049450
0.163430 0.240550 0.049450
0.191975 0.240550 0.049450
0.220520 0.240550 0.049450
0.249487 0.240971 0.049871
0.279444 0.242383 0.051283
0.309400 0.243794 0.052694
0.339357 0.245206 0.054106
0.369314 0.246617 0.055517
0.399271 0.248029 0.056929
0.429228 0.249441 0.058341
0.459184 0.250852 0.059752
0.488669 0.252241 0.061141
0.499825 0.252767 0.061667
0.529533 0.254167 0.063067
0.559240 0.255567 0.064467
0.588947 0.256967 0.065867
0.618654 0.258366 0.067266
0.648361 0.259766 0.068666
0.678068 0.261166 0.070066
0.707775 0.262566 0.071466
0.737483 0.263966 0.072866
0.767190 0.265365 0.074265
0.796897 0.266765 0.075665
0.826604 0.268165 0.077065
0.856311 0.269565 0.078465
0.886018 0.270965 0.079865
0.915726 0.272365 0.081265
0.929872 0.273031 0.081931
0.929872 0.273031 0.081931
0.050800 0.269200 0.050800
0.079178 0.269200 0.050800
0.107690 0.269200 0.050800
0.136235 0.269200 0.050800
0.164780 0.269200 0.050800
0.193325 0.269200 0.050800
0.221870 0.269200 0.050800
0.250416 0.269200 0.050800
0.279444 0.269683 0.051283
0.309400 0.271094 0.052694
0.339357 0.272506 0.054106
0.369314 0.273917 0.055517
0.399271 0.275329 0.056929
0.429228 0.276741 0.058341
0.459184 0.278152 0.059752
0.488669 0.279541 0.061141
0.499825 0.280067 0.061667
0.529533 0.281467 0.063067
0.559240 0.282867 0.064467
0.588947 0.284267 0.065867
0.618654 0.285666 0.067266
0.648361 0.287066 0.068666
0.678068 0.288466 0.070066
0.707775 0.289866 0.071466
0.737483 0.291266 0.072866
0.767190 0.292665 0.074265
0.796897 0.294065 0.075665
0.826604 0.295465 0.077065
0.856311 0.296865 0.078465
0.886018 0.298265 0.079865
0.915726 0.299665 0.081265
0.929872 0.300331 0.081931
0.929872 0.300331 0.081931
0.052150 0.297850 0.052150
0.080528 0.297850 0.052150
0.109040 0.297850 0.052150
0.137585 0.297850 0.052150
0.166130 0.297850 0.052150
0.194675 0.297850 0.052150
0.223220 0.297850 0.052150
0.251766 0.297850 0.052150
0.280311 0.297850 0.052150
0.309400 0.298394 0.052694
0.339357 0.299806 0.054106
0.369314 0.301217 0.055517
0.399271 0.302629 0.056929
0.429228 0.304041 0.058341
0.459184 0.305452 0.059752
0.488669 0.306841 0.061141
0.499825 0.307367 0.061667
0.529533 0.308767 0.063067
0.559240 0.310167 0.064467
0.588947 0.311567 0.065867
0.618654 0.312966 0.067266
0.648361 0.314366 0.068666
0.678068 0.315766 0.070066
0.707775 0.317166 0.071466
0.737483 0.318566 0.072866
0.767190 0.319965 0.074265
0.796897 0.321365 0.075665
0.826604 0.322765 0.077065
0.856311 0.324165 0.078465
0.886018 0.325565 0.079865
0.915726 0.326965 0.081265
0.929872 0.327631 0.081931
0.929872 0.327631 0.081931
0.053500 0.326500 0.053500
0.081878 0.326500 0.053500
0.110390 0.326500 0.053500
0.138935 0.326500 0.053500
0.167480 0.326500 0.053500
0.196025 0.326500 0.053500
0.224570 0.326500 0.053500
0.253116 0.326500 0.053500
0.281661 0.326500 0.053500
0.310206 0.326500 0.053500
0.339357 0.327106 0.054106
0.369314 0.328517 0.055517
0.399271 0.329929 0.056929
0.429228 0.331341 0.058341
0.459184 0.332752 0.059752
0.488669 0.334141 0.061141
0.499825 0.334667 0.061667
0.529533 0.336067 0.063067
0.559240 0.337467 0.064467
0.588947 0.338867 0.065867
0.618654 0.340266 0.067266
0.648361 0.341666 0.068666
0.678068 0.343066 0.070066
0.707775 0.344466 0.071466
0.737483 0.345866 0.072866
0.767190 0.347265 0.074265
0.796897 0.348665 0.075665
0.826604 0.350065 0.077065
0.856311 0.351465 0.078465
0.886018 0.352865 0.079865
0.915726 0.354265 0.081265
0.929872 0.354931 0.081931
0.929872 0.354931 0.081931
0.054850 0.355150 0.054850
0.083228 0.355150 0.054850
0.111740 0.355150 0.054850
0.140285 0.355150 0.054850
0.168830 0.355150 0.054850
0.197375 0.355150 0.054850
0.225920 0.355150 0.054850
0.254466 0.355150 0.054850
0.283011 0.355150 0.054850
0.311556 0.355150 0.054850
0.340101 0.355150 0.054850
0.369314 0.355817 0.055517
0.399271 0.357229 0.056929
0.429228 0.358641 0.058341
0.459184 0.360052 0.059752
0.488669 0.361441 0.061141
0.499825 0.361967 0.061667
0.529533 0.363367 0.063067
0.559240 0.364767 0.064467
0.588947 0.366167 0.065867
0.618654 0.367566 0.067266
0.648361 0.368966 0.068666
0.678068 0.370366 0.070066
0.707775 0.371766 0.071466
0.737483 0.373166 0.072866
0.767190 0.374565 0.074265
0.796897 0.375965 0.075665
0.826604 0.377365 0.077065
0.856311 0.378765 0.078465
0.886018 0.380165 0.079865
0.915726 0.381565 0.081265
0.929872 0.382231 0.081931
0.929872 0.382231 0.081931
0.056200 0.383800 0.056200
0.084578 0.383800 0.056200
0.113090 0.383800 0.056200
0.141635 0.383800 0.056200
0.170180 0.383800 0.056200
0.198725 0.383800 0.056200
0.227270 0.383800 0.056200
0.255816 0.383800 0.056200
0.284361 0.383800 0.056200
0.312906 0.383800 0.056200
0.341451 0.383800 0.056200
0.369997 0.383800 0.056200
0.399271 0.384529 0.056929
0.429228 0.385941 0.058341
0.459184 0.387352 0.059752
0.488669 0.388741 0.061141
0.499825 0.389267 0.061667
0.529533 0.390667 0.063067
0.559240 0.392067 0.064467
0.588947 0.393467 0.065867
0.618654 0.394866 0.067266
0.648361 0.396266 0.068666
0.678068 0.397666 0.070066
0.707775 0.399066 0.071466
0.737483 0.400466 0.072866
0.767190 0.401865 0.074265
0.796897 0.403265 0.075665
0.826604 0.404665 0.077065
0.856311 0.406065 0.078465
0.886018 0.407465 0.079865
0.915726 0.408865 0.081265
0.929872 0.409531 0.081931
0.929872 0.409531 0.081931
0.057550 0.412450 0.057550
0.085928 0.412450 0.057550
0.114440 0.412450 0.057550
0.142985 0.412450 0.057550
0.171530 0.412450 0.057550
0.200075 0.412450 0.057550
0.228620 0.412450 0.057550
0.257166 0.412450 0.057550
0.285711 0.412450 0.057550
0.314256 0.412450 0.057550
0.342801 0.412450 0.057550
0.371347 0.412450 0.057550
0.399892 0.412450 0.057550
0.429228 0.413241 0.058341
0.459184 0.414652 0.059752
0.488669 0.416041 0.061141
0.499825 0.416567 0.061667
0.529533 0.417967 0.063067
0.559240 0.419367 0.064467
0.588947 0.420767 0.065867
0.618654 0.422166 0.067266
0.648361 0.423566 0.068666
0.678068 0.424966 0.070066
0.707775 0.426366 0.071466
0.737483 0.427766 0.072866
0.767190 0.429165 0.074265
0.796897 0.430565 0.075665
0.826604 0.431965 0.077065
0.856311 0.433365 0.078465
0.886018 0.434765 0.079865
0.915726 0.436165 0.081265
0.929872 0.436831 0.081931
0.929872 0.436831 0.081931
0.058900 0.441100 0.058900
0.087278 0.441100 0.058900
0.115790 0.441100 0.058900
0.144335 0.441100 0.058900
0.172880 0.441100 0.058900
0.201425 0.441100 0.058900
0.229970 0.441100 0.058900
0.258516 0.441100 0.058900
0.287061 0.441100 0.058900
0.315606 0.441100 0.058900
0.344151 0.441100 0.058900
0.372697 0.441100 0.058900
0.401242 0.441100 0.058900
0.429787 0.441100 0.058900
0.459184 0.441952 0.059752
0.488669 0.443341 0.061141
0.499825 0.443867 0.061667
0.529533 0.445267 0.063067
0.559240 0.446667 0.064467
0.588947 0.448067 0.065867
0.618654 0.449466 0.067266
0.648361 0.450866 0.068666
0.678068 0.452266 0.070066
0.707775 0.453666 0.071466
0.737483 0.455066 0.072866
0.767190 0.456465 0.074265
0.796897 0.457865 0.075665
0.826604 0.459265 0.077065
0.856311 0.460665 0.078465
0.886018 0.462065 0.079865
0.915726 0.463465 0.081265
0.929872 0.464131 0.081931
0.929872 0.464131 0.081931
0.060250 0.469750 0.060250
0.088628 0.469750 0.060250
0.117140 0.469750 0.060250
0.145685 0.469750 0.060250
0.174230 0.469750 0.060250
0.202775 0.469750 0.060250
0.231320 0.469750 0.060250
0.259866 0.469750 0.060250
0.288411 0.469750 0.060250
0.316956 0.469750 0.060250
0.345501 0.469750 0.060250
0.374047 0.469750 0.060250
0.402592 0.469750 0.060250
0.431137 0.469750 0.060250
0.459682 0.469750 0.060250
0.488669 0.470641 0.061141
0.499825 0.471167 0.061667
0.529533 0.472567 0.063067
0.559240 0.473967 0.064467
0.588947 0.475367 0.065867
0.618654 0.476766 0.067266
0.648361 0.478166 0.068666
0.678068 0.479566 0.070066
0.707775 0.480966 0.071466
0.737483 0.482366 0.072866
0.767190 0.483765 0.074265
0.796897 0.485165 0.075665
0.826604 0.486565 0.077065
0.856311 0.487965 0.078465
0.886018 0.489365 0.079865
0.915726 0.490765 0.081265
0.929872 0.491431 0.081931
0.929872 0.491431 0.081931
0.061557 0.497483 0.061557
0.089935 0.497483 0.061557
0.118446 0.497483 0.061557
0.146992 0.497483 0.061557
0.175537 0.497483 0.061557
0.204082 0.497483 0.061557
0.232627 0.497483 0.061557
0.261172 0.497483 0.061557
0.289718 0.497483 0.061557
0.318263 0.497483 0.061557
0.346808 0.497483 0.061557
0.375353 0.497483 0.061557
0.403899 0.497483 0.061557
0.432444 0.497483 0.061557
0.460989 0.497483 0.061557
0.489084 0.497483 0.061557
0.499825 0.497594 0.061667
0.529533 0.498993 0.063067
0.559240 0.500393 0.064467
0.588947 0.501793 0.065867
0.618654 0.503193 0.067266
0.648361 0.504593 0.068666
0.678068 0.505992 0.070066
0.707775 0.507392 0.071466
0.737483 0.508792 0.072866
0.767190 0.510192 0.074265
0.796897 0.511592 0.075665
0.826604 0.512992 0.077065
0.856311 0.514391 0.078465
0.886018 0.515791 0.079865
0.915726 0.517191 0.081265
0.929872 0.517858 0.081931
0.929872 0.517858 0.081931
0.062039 0.507711 0.062039
0.090417 0.507711 0.062039
0.118928 0.507711 0.062039
0.147474 0.507711 0.062039
0.176019 0.507711 0.062039
0.204564 0.507711 0.062039
0.233109 0.507711 0.062039
0.261654 0.507711 0.062039
0.290200 0.507711 0.062039
0.318745 0.507711 0.062039
0.347290 0.507711 0.062039
0.375835 0.507711 0.062039
0.404381 0.507711 0.062039
0.432926 0.507711 0.062039
0.461471 0.507711 0.062039
0.489566 0.507711 0.062039
0.500197 0.507711 0.062039
0.529533 0.508739 0.063067
0.559240 0.510139 0.064467
0.588947 0.511539 0.065867
0.618654 0.512939 0.067266
0.648361 0.514339 0.068666
0.678068 0.515739 0.070066
0.707775 0.517138 0.071466
0.737483 0.518538 0.072866
0.767190 0.519938 0.074265
0.796897 0.521338 0.075665
0.826604 0.522738 0.077065
0.856311 0.524137 0.078465
0.886018 0.525537 0.079865
0.915726 0.526937 0.081265
0.929872 0.527604 0.081931
0.929872 0.527604 0.081931
0.063378 0.536122 0.063378
0.091756 0.536122 0.063378
0.120267 0.536122 0.063378
0.148812 0.536122 0.063378
0.177358 0.536122 0.063378
0.205903 0.536122 0.063378
0.234448 0.536122 0.063378
0.262993 0.536122 0.063378
0.291538 0.536122 0.063378
0.320084 0.536122 0.063378
0.348629 0.536122 0.063378
0.377174 0.536122 0.063378
0.405719 0.536122 0.063378
0.434264 0.536122 0.063378
0.462810 0.536122 0.063378
0.490905 0.536122 0.063378
0.501536 0.536122 0.063378
0.529843 0.536122 0.063378
0.559240 0.537212 0.064467
0.588947 0.538612 0.065867
0.618654 0.540011 0.067266
0.648361 0.541411 0.068666
0.678068 0.542811 0.070066
0.707775 0.544211 0.071466
0.737483 0.545611 0.072866
0.767190 0.547010 0.074265
0.796897 0.548410 0.075665
0.826604 0.549810 0.077065
0.856311 0.551210 0.078465
0.886018 0.552610 0.079865
0.915726 0.554010 0.081265
0.929872 0.554676 0.081931
0.929872 0.554676 0.081931
0.064716 0.564534 0.064716
0.093095 0.564534 0.064716
0.121606 0.564534 0.064716
0.150151 0.564534 0.064716
0.178696 0.564534 0.064716
0.207242 0.564534 0.064716
0.235787 0.564534 0.064716
0.264332 0.564534 0.064716
0.292877 0.564534 0.064716
0.321422 0.564534 0.064716
0.349968 0.564534 0.064716
0.378513 0.564534 0.064716
0.407058 0.564534 0.064716
0.435603 0.564534 0.064716
0.464148 0.564534 0.064716
0.492244 0.564534 0.064716
0.502875 0.564534 0.064716
0.531182 0.564534 0.064716
0.559489 0.564534 0.064716
0.588947 0.565684 0.065867
0.618654 0.567084 0.067266
0.648361 0.568484 0.068666
0.678068 0.569884 0.070066
0.707775 0.571283 0.071466
0.737483 0.572683 0.072866
0.767190 0.574083 0.074265
0.796897 0.575483 0.075665
0.826604 0.576883 0.077065
0.856311 0.578282 0.078465
0.886018 0.579682 0.079865
0.915726 0.581082 0.081265
0.929872 0.581749 0.081931
0.929872 0.581749 0.081931
0.066055 0.592945 0.066055
0.094433 0.592945 0.066055
0.122945 0.592945 0.066055
0.151490 0.592945 0.066055
0.180035 0.592945 0.066055
0.208580 0.592945 0.066055
0.237125 0.592945 0.066055
0.265671 0.592945 0.066055
0.294216 0.592945 0.066055
0.322761 0.592945 0.066055
0.351306 0.592945 0.066055
0.379852 0.592945 0.066055
0.408397 0.592945 0.066055
0.436942 0.592945 0.066055
0.465487 0.592945 0.066055
0.493582 0.592945 0.066055
0.504213 0.592945 0.066055
0.532521 0.592945 0.066055
0.560828 0.592945 0.066055
0.589135 0.592945 0.066055
0.618654 0.594156 0.067266
0.648361 0.595556 0.068666
0.678068 0.596956 0.070066
0.707775 0.598356 0.071466
0.737483 0.599756 0.072866
0.767190 0.601155 0.074265
0.796897 0.602555 0.075665
0.826604 0.603955 0.077065
0.856311 0.605355 0.078465
0.886018 0.606755 0.079865
0.915726 0.608155 0.081265
0.929872 0.608821 0.081931
0.929872 0.608821 0.081931
0.067394 0.621356 0.067394
0.095772 0.621356 0.067394
0.124283 0.621356 0.067394
0.152829 0.621356 0.067394
0.181374 0.621356 0.067394
0.209919 0.621356 0.067394
0.238464 0.621356 0.067394
0.267009 0.621356 0.067394
0.295555 0.621356 0.067394
0.324100 0.621356 0.067394
0.352645 0.621356 0.067394
0.381190 0.621356 0.067394
0.409736 0.621356 0.067394
0.438281 0.621356 0.067394
0.466826 0.621356 0.067394
0.494921 0.621356 0.067394
0.505552 0.621356 0.067394
0.533859 0.621356 0.067394
0.562167 0.621356 0.067394
0.590474 0.621356 0.067394
0.618781 0.621356 0.067394
0.648361 0.622629 0.068666
0.678068 0.624029 0.070066
0.707775 0.625428 0.071466
0.737483 0.626828 0.072866
0.767190 0.628228 0.074265
0.796897 0.629628 0.075665
0.826604 0.631028 0.077065
0.856311 0.632427 0.078465
0.886018 0.633827 0.079865
0.915726 0.635227 0.081265
0.929872 0.635894 0.081931
0.929872 0.635894 0.081931
0.068732 0.649768 0.068732
0.097111 0.649768 0.068732
0.125622 0.649768 0.068732
0.154167 0.649768 0.068732
0.182713 0.649768 0.068732
0.211258 0.649768 0.068732
0.239803 0.649768 0.068732
0.268348 0.649768 0.068732
0.296893 0.649768 0.068732
0.325439 0.649768 0.068732
0.353984 0.649768 0.068732
0.382529 0.649768 0.068732
0.411074 0.649768 0.068732
0.439619 0.649768 0.068732
0.468165 0.649768 0.068732
0.496260 0.649768 0.068732
0.506891 0.649768 0.068732
0.535198 0.649768 0.068732
0.563505 0.649768 0.068732
0.591813 0.649768 0.068732
0.620120 0.649768 0.068732
0.648427 0.649768 0.068732
0.678068 0.651101 0.070066
0.707775 0.652501 0.071466
0.737483 0.653901 0.072866
0.767190 0.655300 0.074265
0.796897 0.656700 0.075665
0.826604 0.658100 0.077065
0.856311 0.659500 0.078465
0.886018 0.660900 0.079865
0.915726 0.662300 0.081265
0.929872 0.662966 0.081931
0.929872 0.662966 0.081931
0.070071 0.678179 0.070071
0.098450 0.678179 0.070071
0.126961 0.678179 0.070071
0.155506 0.678179 0.070071
0.184051 0.678179 0.070071
0.212597 0.678179 0.070071
0.241142 0.678179 0.070071
0.269687 0.678179 0.070071
0.298232 0.678179 0.070071
0.326777 0.678179 0.070071
0.355323 0.678179 0.070071
0.383868 0.678179 0.070071
0.412413 0.678179 0.070071
0.440958 0.678179 0.070071
0.469503 0.678179 0.070071
0.497599 0.678179 0.070071
0.508230 0.678179 0.070071
0.536537 0.678179 0.070071
0.564844 0.678179 0.070071
0.593152 0.678179 0.070071
0.621459 0.678179 0.070071
0.649766 0.678179 0.070071
0.678074 0.678179 0.070071
0.707775 0.679573 0.071466
0.737483 0.680973 0.072866
0.767190 0.682373 0.074265
0.796897 0.683773 0.075665
0.826604 0.685173 0.077065
0.856311 0.686572 0.078465
0.886018 0.687972 0.079865
0.915726 0.689372 0.081265
0.929872 0.690039 0.081931
0.929872 0.690039 0.081931
0.071410 0.706590 0.071410
0.099788 0.706590 0.071410
0.128300 0.706590 0.071410
0.156845 0.706590 0.071410
0.185390 0.706590 0.071410
0.213935 0.706590 0.071410
0.242480 0.706590 0.071410
0.271026 0.706590 0.071410
0.299571 0.706590 0.071410
0.328116 0.706590 0.071410
0.356661 0.706590 0.071410
0.385207 0.706590 0.071410
0.413752 0.706590 0.071410
0.442297 0.706590 0.071410
0.470842 0.706590 0.071410
0.498937 0.706590 0.071410
0.509568 0.706590 0.071410
0.537876 0.706590 0.071410
0.566183 0.706590 0.071410
0.594490 0.706590 0.071410
0.622798 0.706590 0.071410
0.651105 0.706590 0.071410
0.679412 0.706590 0.071410
0.707775 0.706646 0.071466
0.737483 0.708046 0.072866
0.767190 0.709445 0.074265
0.796897 0.710845 0.075665
0.826604 0.712245 0.077065
0.856311 0.713645 0.078465
0.886018 0.715045 0.079865
0.915726 0.716445 0.081265
0.929872 0.717111 0.081931
0.929872 0.717111 0.081931
0.072749 0.735001 0.072749
0.101127 0.735001 0.072749
0.129638 0.735001 0.072749
0.158184 0.735001 0.072749
0.186729 0.735001 0.072749
0.215274 0.735001 0.072749
0.243819 0.735001 0.072749
0.272364 0.735001 0.072749
0.300910 0.735001 0.072749
0.329455 0.735001 0.072749
0.358000 0.735001 0.072749
0.386545 0.735001 0.072749
0.415091 0.735001 0.072749
0.443636 0.735001 0.072749
0.472181 0.735001 0.072749
0.500276 0.735001 0.072749
0.510907 0.735001 0.072749
0.539214 0.735001 0.072749
0.567522 0.735001 0.072749
0.595829 0.735001 0.072749
0.624136 0.735001 0.072749
0.652444 0.735001 0.072749
0.680751 0.735001 0.072749
0.709058 0.735001 0.072749
0.737483 0.735118 0.072866
0.767190 0.736518 0.074265
0.796897 0.737918 0.075665
0.826604 0.739318 0.077065
0.856311 0.740717 0.078465
0.886018 0.742117 0.079865
0.915726 0.743517 0.081265
0.929872 0.744184 0.081931
0.929872 0.744184 0.081931
0.074088 0.763412 0.074088
0.102466 0.763412 0.074088
0.130977 0.763412 0.074088
0.159522 0.763412 0.074088
0.188068 0.763412 0.074088
0.216613 0.763412 0.074088
0.245158 0.763412 0.074088
0.273703 0.763412 0.074088
0.302248 0.763412 0.074088
0.330794 0.763412 0.074088
0.359339 0.763412 0.074088
0.387884 0.763412 0.074088
0.416429 0.763412 0.074088
0.444974 0.763412 0.074088
0.473520 0.763412 0.074088
0.501615 0.763412 0.074088
0.512246 0.763412 0.074088
0.540553 0.763412 0.074088
0.568860 0.763412 0.074088
0.597168 0.763412 0.074088
0.625475 0.763412 0.074088
0.653782 0.763412 0.074088
0.682090 0.763412 0.074088
0.710397 0.763412 0.074088
0.738704 0.763412 0.074088
