docs/luts/fuji_recipes/Eterna_VM_Eterna.cube
TITLE "Fujifilm Recipe: VM Eterna (Eterna)"
# FilmSim=Eterna HL=1 SH=3 Col=3 WB=Auto WBR=0 WBB=-1
LUT_3D_SIZE 33
DOMAIN_MIN 0.0 0.0 0.0
DOMAIN_MAX 1.0 1.0 1.0
0.035200 0.035200 0.035200
0.074647 0.028606 0.028606
0.109967 0.022702 0.022702
0.144690 0.016898 0.016898
0.179412 0.011095 0.011095
0.214135 0.005291 0.005291
0.248344 0.000000 0.000000
0.277263 0.000000 0.000000
0.306181 0.000000 0.000000
0.335100 0.000000 0.000000
0.364018 0.000000 0.000000
0.392937 0.000000 0.000000
0.421856 0.000000 0.000000
0.450774 0.000000 0.000000
0.479477 0.000000 0.000000
0.490880 0.000000 0.000000
0.583947 0.000000 0.000000
0.617604 0.000000 0.000000
0.651261 0.000000 0.000000
0.684918 0.000000 0.000000
0.718575 0.000000 0.000000
0.752232 0.000000 0.000000
0.785889 0.000000 0.000000
0.819547 0.000000 0.000000
0.853204 0.000000 0.000000
0.886861 0.000000 0.000000
0.920518 0.000000 0.000000
0.954175 0.000000 0.000000
0.987832 0.000000 0.000000
1.000000 0.019166 0.019166
1.000000 0.019166 0.019166
1.000000 0.019166 0.019166
1.000000 0.019166 0.019166
0.028540 0.075045 0.028540
0.074580 0.075045 0.028540
0.109967 0.069208 0.022702
0.144690 0.063404 0.016898
0.179412 0.057600 0.011095
0.214135 0.051796 0.005291
0.248344 0.046314 0.000000
0.277263 0.044479 0.000000
0.306181 0.043094 0.000000
0.335100 0.042011 0.000000
0.364018 0.041142 0.000000
0.392937 0.040428 0.000000
0.421856 0.039832 0.000000
0.450774 0.039327 0.000000
0.479477 0.038896 0.000000
0.490880 0.038741 0.000000
0.583947 0.037272 0.000000
0.617604 0.036991 0.000000
0.651261 0.036742 0.000000
0.684918 0.036521 0.000000
0.718575 0.036322 0.000000
0.752232 0.036143 0.000000
0.785889 0.035982 0.000000
0.819547 0.035834 0.000000
0.853204 0.035700 0.000000
0.886861 0.035576 0.000000
0.920518 0.035462 0.000000
0.954175 0.035357 0.000000
0.987832 0.035260 0.000000
1.000000 0.053018 0.019166
1.000000 0.053018 0.019166
1.000000 0.053018 0.019166
1.000000 0.053018 0.019166
0.022611 0.110515 0.022611
0.068651 0.110515 0.022611
0.109876 0.110515 0.022611
0.144690 0.104803 0.016898
0.179412 0.098999 0.011095
0.214135 0.093195 0.005291
0.248344 0.087542 0.000000
0.277263 0.084073 0.000000
0.306181 0.081455 0.000000
0.335100 0.079409 0.000000
0.364018 0.077766 0.000000
0.392937 0.076417 0.000000
0.421856 0.075291 0.000000
0.450774 0.074336 0.000000
0.479477 0.073521 0.000000
0.490880 0.073228 0.000000
0.583947 0.070451 0.000000
0.617604 0.069919 0.000000
0.651261 0.069449 0.000000
0.684918 0.069031 0.000000
0.718575 0.068656 0.000000
0.752232 0.068318 0.000000
0.785889 0.068012 0.000000
0.819547 0.067733 0.000000
0.853204 0.067479 0.000000
0.886861 0.067245 0.000000
0.920518 0.067030 0.000000
0.954175 0.066832 0.000000
0.987832 0.066648 0.000000
1.000000 0.083153 0.019166
1.000000 0.083153 0.019166
1.000000 0.083153 0.019166
1.000000 0.083153 0.019166
0.016783 0.145384 0.016783
0.062823 0.145384 0.016783
0.104048 0.145384 0.016783
0.144574 0.145384 0.016783
0.179412 0.139695 0.011095
0.214135 0.133892 0.005291
0.248344 0.128071 0.000000
0.277263 0.122996 0.000000
0.306181 0.119166 0.000000
0.335100 0.116172 0.000000
0.364018 0.113769 0.000000
0.392937 0.111796 0.000000
0.421856 0.110148 0.000000
0.450774 0.108750 0.000000
0.479477 0.107559 0.000000
0.490880 0.107130 0.000000
0.583947 0.103068 0.000000
0.617604 0.102290 0.000000
0.651261 0.101602 0.000000
0.684918 0.100990 0.000000
0.718575 0.100441 0.000000
0.752232 0.099947 0.000000
0.785889 0.099499 0.000000
0.819547 0.099091 0.000000
0.853204 0.098719 0.000000
0.886861 0.098377 0.000000
0.920518 0.098063 0.000000
0.954175 0.097772 0.000000
0.987832 0.097503 0.000000
1.000000 0.112777 0.019166
1.000000 0.112777 0.019166
1.000000 0.112777 0.019166
1.000000 0.112777 0.019166
0.010954 0.180252 0.010954
0.056995 0.180252 0.010954
0.098219 0.180252 0.010954
0.138746 0.180252 0.010954
0.179272 0.180252 0.010954
0.214135 0.174588 0.005291
0.248344 0.168600 0.000000
0.277263 0.161919 0.000000
0.306181 0.156876 0.000000
0.335100 0.152936 0.000000
0.364018 0.149771 0.000000
0.392937 0.147174 0.000000
0.421856 0.145005 0.000000
0.450774 0.143165 0.000000
0.479477 0.141596 0.000000
0.490880 0.141032 0.000000
0.583947 0.135684 0.000000
0.617604 0.134660 0.000000
0.651261 0.133754 0.000000
0.684918 0.132948 0.000000
0.718575 0.132226 0.000000
0.752232 0.131575 0.000000
0.785889 0.130986 0.000000
0.819547 0.130449 0.000000
0.853204 0.129959 0.000000
0.886861 0.129509 0.000000
0.920518 0.129095 0.000000
0.954175 0.128713 0.000000
0.987832 0.128358 0.000000
1.000000 0.142401 0.019166
1.000000 0.142401 0.019166
1.000000 0.142401 0.019166
1.000000 0.142401 0.019166
0.005126 0.215120 0.005126
0.051167 0.215120 0.005126
0.092391 0.215120 0.005126
0.132917 0.215120 0.005126
0.173444 0.215120 0.005126
0.213970 0.215120 0.005126
0.248344 0.209129 0.000000
0.277263 0.200842 0.000000
0.306181 0.194587 0.000000
0.335100 0.189699 0.000000
0.364018 0.185774 0.000000
0.392937 0.182553 0.000000
0.421856 0.179862 0.000000
0.450774 0.177580 0.000000
0.479477 0.175634 0.000000
0.490880 0.174934 0.000000
0.583947 0.168301 0.000000
0.617604 0.167030 0.000000
0.651261 0.165907 0.000000
0.684918 0.164907 0.000000
0.718575 0.164011 0.000000
0.752232 0.163204 0.000000
0.785889 0.162473 0.000000
0.819547 0.161807 0.000000
0.853204 0.161199 0.000000
0.886861 0.160641 0.000000
0.920518 0.160128 0.000000
0.954175 0.159653 0.000000
0.987832 0.159214 0.000000
1.000000 0.172025 0.019166
1.000000 0.172025 0.019166
1.000000 0.172025 0.019166
1.000000 0.172025 0.019166
0.000000 0.249286 0.000000
0.045783 0.249286 0.000000
0.086776 0.249286 0.000000
0.127075 0.249286 0.000000
0.167375 0.249286 0.000000
0.207674 0.249286 0.000000
0.247974 0.249286 0.000000
0.277263 0.239765 0.000000
0.306181 0.232298 0.000000
0.335100 0.226463 0.000000
0.364018 0.221777 0.000000
0.392937 0.217931 0.000000
0.421856 0.214718 0.000000
0.450774 0.211994 0.000000
0.479477 0.209671 0.000000
0.490880 0.208836 0.000000
0.583947 0.200917 0.000000
0.617604 0.199400 0.000000
0.651261 0.198059 0.000000
0.684918 0.196866 0.000000
0.718575 0.195796 0.000000
0.752232 0.194833 0.000000
0.785889 0.193960 0.000000
0.819547 0.193165 0.000000
0.853204 0.192440 0.000000
0.886861 0.191774 0.000000
0.920518 0.191160 0.000000
0.954175 0.190594 0.000000
0.987832 0.190069 0.000000
1.000000 0.201648 0.019166
1.000000 0.201648 0.019166
1.000000 0.201648 0.019166
1.000000 0.201648 0.019166
0.000000 0.278326 0.000000
0.043977 0.278326 0.000000
0.083353 0.278326 0.000000
0.122063 0.278326 0.000000
0.160773 0.278326 0.000000
0.199483 0.278326 0.000000
0.238193 0.278326 0.000000
0.276903 0.278326 0.000000
0.306181 0.270009 0.000000
0.335100 0.263226 0.000000
0.364018 0.257780 0.000000
0.392937 0.253310 0.000000
0.421856 0.249575 0.000000
0.450774 0.246409 0.000000
0.479477 0.243709 0.000000
0.490880 0.242738 0.000000
0.583947 0.233534 0.000000
0.617604 0.231770 0.000000
0.651261 0.230212 0.000000
0.684918 0.228825 0.000000
0.718575 0.227582 0.000000
0.752232 0.226461 0.000000
0.785889 0.225447 0.000000
0.819547 0.224524 0.000000
0.853204 0.223680 0.000000
0.886861 0.222906 0.000000
0.920518 0.222193 0.000000
0.954175 0.221535 0.000000
0.987832 0.220925 0.000000
1.000000 0.231272 0.019166
1.000000 0.231272 0.019166
1.000000 0.231272 0.019166
1.000000 0.231272 0.019166
0.000000 0.307366 0.000000
0.042614 0.307366 0.000000
0.080770 0.307366 0.000000
0.118280 0.307366 0.000000
0.155790 0.307366 0.000000
0.193299 0.307366 0.000000
0.230809 0.307366 0.000000
0.268319 0.307366 0.000000
0.305829 0.307366 0.000000
0.335100 0.299989 0.000000
0.364018 0.293782 0.000000
0.392937 0.288688 0.000000
0.421856 0.284432 0.000000
0.450774 0.280824 0.000000
0.479477 0.277746 0.000000
0.490880 0.276640 0.000000
0.583947 0.266150 0.000000
0.617604 0.264141 0.000000
0.651261 0.262364 0.000000
0.684918 0.260783 0.000000
0.718575 0.259367 0.000000
0.752232 0.258090 0.000000
0.785889 0.256934 0.000000
0.819547 0.255882 0.000000
0.853204 0.254920 0.000000
0.886861 0.254038 0.000000
0.920518 0.253225 0.000000
0.954175 0.252475 0.000000
0.987832 0.251780 0.000000
1.000000 0.260896 0.019166
1.000000 0.260896 0.019166
1.000000 0.260896 0.019166
1.000000 0.260896 0.019166
0.000000 0.336406 0.000000
0.041548 0.336406 0.000000
0.078750 0.336406 0.000000
0.115322 0.336406 0.000000
0.151894 0.336406 0.000000
0.188466 0.336406 0.000000
0.225038 0.336406 0.000000
0.261610 0.336406 0.000000
0.298182 0.336406 0.000000
0.334754 0.336406 0.000000
0.364018 0.329785 0.000000
0.392937 0.324067 0.000000
0.421856 0.319289 0.000000
0.450774 0.315238 0.000000
0.479477 0.311784 0.000000
0.490880 0.310542 0.000000
0.583947 0.298766 0.000000
0.617604 0.296511 0.000000
0.651261 0.294517 0.000000
0.684918 0.292742 0.000000
0.718575 0.291152 0.000000
0.752232 0.289719 0.000000
0.785889 0.288421 0.000000
0.819547 0.287240 0.000000
0.853204 0.286160 0.000000
0.886861 0.285170 0.000000
0.920518 0.284258 0.000000
0.954175 0.283416 0.000000
0.987832 0.282635 0.000000
1.000000 0.290520 0.019166
1.000000 0.290520 0.019166
1.000000 0.290520 0.019166
1.000000 0.290520 0.019166
0.000000 0.365446 0.000000
0.040692 0.365446 0.000000
0.077128 0.365446 0.000000
0.112947 0.365446 0.000000
0.148765 0.365446 0.000000
0.184584 0.365446 0.000000
0.220403 0.365446 0.000000
0.256222 0.365446 0.000000
0.292040 0.365446 0.000000
0.327859 0.365446 0.000000
0.363678 0.365446 0.000000
0.392937 0.359445 0.000000
0.421856 0.354146 0.000000
0.450774 0.349653 0.000000
0.479477 0.345821 0.000000
0.490880 0.344444 0.000000
0.583947 0.331383 0.000000
0.617604 0.328881 0.000000
0.651261 0.326670 0.000000
0.684918 0.324701 0.000000
0.718575 0.322937 0.000000
0.752232 0.321347 0.000000
0.785889 0.319908 0.000000
0.819547 0.318598 0.000000
0.853204 0.317400 0.000000
0.886861 0.316302 0.000000
0.920518 0.315291 0.000000
0.954175 0.314356 0.000000
0.987832 0.313491 0.000000
1.000000 0.320144 0.019166
1.000000 0.320144 0.019166
1.000000 0.320144 0.019166
1.000000 0.320144 0.019166
0.000000 0.394485 0.000000
0.039990 0.394485 0.000000
0.075797 0.394485 0.000000
0.110997 0.394485 0.000000
0.146197 0.394485 0.000000
0.181398 0.394485 0.000000
0.216598 0.394485 0.000000
0.251799 0.394485 0.000000
0.286999 0.394485 0.000000
0.322200 0.394485 0.000000
0.357400 0.394485 0.000000
0.392601 0.394485 0.000000
0.421856 0.389003 0.000000
0.450774 0.384068 0.000000
0.479477 0.379859 0.000000
0.490880 0.378346 0.000000
0.583947 0.363999 0.000000
0.617604 0.361251 0.000000
0.651261 0.358822 0.000000
0.684918 0.356660 0.000000
0.718575 0.354722 0.000000
0.752232 0.352976 0.000000
0.785889 0.351395 0.000000
0.819547 0.349956 0.000000
0.853204 0.348641 0.000000
0.886861 0.347434 0.000000
0.920518 0.346323 0.000000
0.954175 0.345297 0.000000
0.987832 0.344346 0.000000
1.000000 0.349767 0.019166
1.000000 0.349767 0.019166
1.000000 0.349767 0.019166
1.000000 0.349767 0.019166
0.000000 0.423525 0.000000
0.039403 0.423525 0.000000
0.074684 0.423525 0.000000
0.109368 0.423525 0.000000
0.144052 0.423525 0.000000
0.178736 0.423525 0.000000
0.213420 0.423525 0.000000
0.248103 0.423525 0.000000
0.282787 0.423525 0.000000
0.317471 0.423525 0.000000
0.352155 0.423525 0.000000
0.386839 0.423525 0.000000
0.421523 0.423525 0.000000
0.450774 0.418482 0.000000
0.479477 0.413896 0.000000
0.490880 0.412248 0.000000
0.583947 0.396616 0.000000
0.617604 0.393621 0.000000
0.651261 0.390975 0.000000
0.684918 0.388618 0.000000
0.718575 0.386507 0.000000
0.752232 0.384605 0.000000
0.785889 0.382882 0.000000
0.819547 0.381314 0.000000
0.853204 0.379881 0.000000
0.886861 0.378566 0.000000
0.920518 0.377356 0.000000
0.954175 0.376238 0.000000
0.987832 0.375202 0.000000
1.000000 0.379391 0.019166
1.000000 0.379391 0.019166
1.000000 0.379391 0.019166
1.000000 0.379391 0.019166
0.000000 0.452565 0.000000
0.038905 0.452565 0.000000
0.073741 0.452565 0.000000
0.107987 0.452565 0.000000
0.142232 0.452565 0.000000
0.176478 0.452565 0.000000
0.210724 0.452565 0.000000
0.244970 0.452565 0.000000
0.279215 0.452565 0.000000
0.313461 0.452565 0.000000
0.347707 0.452565 0.000000
0.381953 0.452565 0.000000
0.416198 0.452565 0.000000
0.450444 0.452565 0.000000
0.479477 0.447934 0.000000
0.490880 0.446150 0.000000
0.583947 0.429232 0.000000
0.617604 0.425991 0.000000
0.651261 0.423127 0.000000
0.684918 0.420577 0.000000
0.718575 0.418292 0.000000
0.752232 0.416234 0.000000
0.785889 0.414369 0.000000
0.819547 0.412672 0.000000
0.853204 0.411121 0.000000
0.886861 0.409698 0.000000
0.920518 0.408388 0.000000
0.954175 0.407178 0.000000
0.987832 0.406057 0.000000
1.000000 0.409015 0.019166
1.000000 0.409015 0.019166
1.000000 0.409015 0.019166
1.000000 0.409015 0.019166
0.000000 0.481298 0.000000
0.038482 0.481298 0.000000
0.072939 0.481298 0.000000
0.106812 0.481298 0.000000
0.140685 0.481298 0.000000
0.174558 0.481298 0.000000
0.208432 0.481298 0.000000
0.242305 0.481298 0.000000
0.276178 0.481298 0.000000
0.310051 0.481298 0.000000
0.343925 0.481298 0.000000
0.377798 0.481298 0.000000
0.411671 0.481298 0.000000
0.445544 0.481298 0.000000
0.479165 0.481298 0.000000
0.490880 0.479694 0.000000
0.583947 0.461503 0.000000
0.617604 0.458019 0.000000
0.651261 0.454939 0.000000
0.684918 0.452198 0.000000
0.718575 0.449741 0.000000
0.752232 0.447527 0.000000
0.785889 0.445522 0.000000
0.819547 0.443698 0.000000
0.853204 0.442030 0.000000
0.886861 0.511387 0.000000
0.920518 0.510027 0.000000
0.954175 0.508791 0.000000
0.987832 0.507664 0.000000
1.000000 0.506811 0.019166
1.000000 0.506811 0.019166
1.000000 0.506811 0.019166
1.000000 0.506811 0.019166
0.000000 0.492897 0.000000
0.038328 0.492897 0.000000
0.072646 0.492897 0.000000
0.106383 0.492897 0.000000
0.140120 0.492897 0.000000
0.173857 0.492897 0.000000
0.207595 0.492897 0.000000
0.241332 0.492897 0.000000
0.275069 0.492897 0.000000
0.308806 0.492897 0.000000
0.342544 0.492897 0.000000
0.376281 0.492897 0.000000
0.410018 0.492897 0.000000
0.443755 0.492897 0.000000
0.477241 0.492897 0.000000
0.490543 0.492897 0.000000
0.583947 0.474530 0.000000
0.617604 0.544705 0.000000
0.651261 0.541327 0.000000
0.684918 0.538349 0.000000
0.718575 0.535707 0.000000
0.752232 0.533351 0.000000
0.785889 0.531241 0.000000
0.819547 0.529344 0.000000
0.853204 0.527632 0.000000
0.886861 0.526082 0.000000
0.920518 0.524676 0.000000
0.954175 0.523396 0.000000
0.987832 0.522228 0.000000
1.000000 0.520794 0.019166
1.000000 0.520794 0.019166
1.000000 0.520794 0.019166
1.000000 0.520794 0.019166
0.000000 0.586456 0.000000
0.036877 0.586456 0.000000
0.069897 0.586456 0.000000
0.102358 0.586456 0.000000
0.134819 0.586456 0.000000
0.167279 0.586456 0.000000
0.199740 0.586456 0.000000
0.232201 0.586456 0.000000
0.264662 0.586456 0.000000
0.297122 0.586456 0.000000
0.329583 0.586456 0.000000
0.362044 0.586456 0.000000
0.394505 0.586456 0.000000
0.426965 0.586456 0.000000
0.459184 0.586456 0.000000
0.471983 0.586456 0.000000
0.583620 0.586456 0.000000
0.617604 0.582641 0.000000
0.651261 0.579009 0.000000
0.684918 0.575804 0.000000
0.718575 0.572958 0.000000
0.752232 0.570419 0.000000
0.785889 0.568143 0.000000
0.819547 0.566094 0.000000
0.853204 0.564244 0.000000
0.886861 0.562568 0.000000
0.920518 0.561045 0.000000
0.954175 0.559657 0.000000
0.987832 0.558390 0.000000
1.000000 0.555512 0.019166
1.000000 0.555512 0.019166
1.000000 0.555512 0.019166
1.000000 0.555512 0.019166
0.000000 0.620254 0.000000
0.036600 0.620254 0.000000
0.069372 0.620254 0.000000
0.101589 0.620254 0.000000
0.133806 0.620254 0.000000
0.166023 0.620254 0.000000
0.198240 0.620254 0.000000
0.230456 0.620254 0.000000
0.262673 0.620254 0.000000
0.294890 0.620254 0.000000
0.327107 0.620254 0.000000
0.359324 0.620254 0.000000
0.391541 0.620254 0.000000
0.423758 0.620254 0.000000
0.455734 0.620254 0.000000
0.468437 0.620254 0.000000
0.579524 0.620254 0.000000
0.617281 0.620254 0.000000
0.651261 0.616691 0.000000
0.684918 0.613258 0.000000
0.718575 0.610209 0.000000
0.752232 0.607486 0.000000
0.785889 0.605044 0.000000
0.819547 0.602845 0.000000
0.853204 0.600857 0.000000
0.886861 0.599054 0.000000
0.920518 0.597414 0.000000
0.954175 0.595918 0.000000
0.987832 0.594552 0.000000
1.000000 0.590231 0.019166
1.000000 0.590231 0.019166
1.000000 0.590231 0.019166
1.000000 0.590231 0.019166
0.000000 0.654052 0.000000
0.036355 0.654052 0.000000
0.068908 0.654052 0.000000
0.100909 0.654052 0.000000
0.132910 0.654052 0.000000
0.164912 0.654052 0.000000
0.196913 0.654052 0.000000
0.228914 0.654052 0.000000
0.260916 0.654052 0.000000
0.292917 0.654052 0.000000
0.324918 0.654052 0.000000
0.356920 0.654052 0.000000
0.388921 0.654052 0.000000
0.420922 0.654052 0.000000
0.452685 0.654052 0.000000
0.538429 0.654052 0.000000
0.575933 0.654052 0.000000
0.613438 0.654052 0.000000
0.650942 0.654052 0.000000
0.684918 0.650713 0.000000
0.718575 0.647460 0.000000
0.752232 0.644554 0.000000
0.785889 0.641946 0.000000
0.819547 0.639596 0.000000
0.853204 0.637469 0.000000
0.886861 0.635540 0.000000
0.920518 0.633783 0.000000
0.954175 0.632180 0.000000
0.987832 0.630713 0.000000
1.000000 0.624949 0.019166
1.000000 0.624949 0.019166
1.000000 0.624949 0.019166
1.000000 0.624949 0.019166
0.000000 0.687850 0.000000
0.036137 0.687850 0.000000
0.068495 0.687850 0.000000
0.100304 0.687850 0.000000
0.132113 0.687850 0.000000
0.163923 0.687850 0.000000
0.195732 0.687850 0.000000
0.227542 0.687850 0.000000
0.259351 0.687850 0.000000
0.291160 0.687850 0.000000
0.322970 0.687850 0.000000
0.354779 0.687850 0.000000
0.386589 0.687850 0.000000
0.418398 0.687850 0.000000
0.449970 0.687850 0.000000
0.535484 0.687850 0.000000
0.572764 0.687850 0.000000
0.610043 0.687850 0.000000
0.647323 0.687850 0.000000
0.684603 0.687850 0.000000
0.718575 0.684712 0.000000
0.752232 0.681622 0.000000
0.785889 0.678848 0.000000
0.819547 0.676346 0.000000
0.853204 0.674082 0.000000
0.886861 0.672026 0.000000
0.920518 0.670152 0.000000
0.954175 0.668441 0.000000
0.987832 0.666875 0.000000
1.000000 0.659667 0.019166
1.000000 0.659667 0.019166
1.000000 0.659667 0.019166
1.000000 0.659667 0.019166
0.000000 0.721649 0.000000
0.035942 0.721649 0.000000
0.068124 0.721649 0.000000
0.099762 0.721649 0.000000
0.131399 0.721649 0.000000
0.163037 0.721649 0.000000
0.194674 0.721649 0.000000
0.226311 0.721649 0.000000
0.257949 0.721649 0.000000
0.289586 0.721649 0.000000
0.321224 0.721649 0.000000
0.352861 0.721649 0.000000
0.384499 0.721649 0.000000
0.416136 0.721649 0.000000
0.447537 0.721649 0.000000
0.532872 0.721649 0.000000
0.569951 0.721649 0.000000
0.607029 0.721649 0.000000
0.644107 0.721649 0.000000
0.681185 0.721649 0.000000
0.718263 0.721649 0.000000
0.752232 0.718690 0.000000
0.785889 0.715750 0.000000
0.819547 0.713097 0.000000
0.853204 0.710695 0.000000
0.886861 0.708511 0.000000
0.920518 0.706522 0.000000
0.954175 0.704703 0.000000
0.987832 0.703036 0.000000
1.000000 0.694385 0.019166
1.000000 0.694385 0.019166
1.000000 0.694385 0.019166
1.000000 0.694385 0.019166
0.000000 0.755447 0.000000
0.035766 0.755447 0.000000
0.067791 0.755447 0.000000
0.099273 0.755447 0.000000
0.130755 0.755447 0.000000
0.162238 0.755447 0.000000
0.193720 0.755447 0.000000
0.225203 0.755447 0.000000
0.256685 0.755447 0.000000
0.288168 0.755447 0.000000
0.319650 0.755447 0.000000
0.351133 0.755447 0.000000
0.382615 0.755447 0.000000
0.414098 0.755447 0.000000
0.445345 0.755447 0.000000
0.530544 0.755447 0.000000
0.567441 0.755447 0.000000
0.604337 0.755447 0.000000
0.641234 0.755447 0.000000
0.678130 0.755447 0.000000
0.715027 0.755447 0.000000
0.751923 0.755447 0.000000
0.785889 0.752652 0.000000
0.819547 0.749848 0.000000
0.853204 0.747307 0.000000
0.886861 0.744997 0.000000
0.920518 0.742891 0.000000
0.954175 0.740964 0.000000
0.987832 0.739198 0.000000
1.000000 0.729103 0.019166
1.000000 0.729103 0.019166
1.000000 0.729103 0.019166
1.000000 0.729103 0.019166
0.000000 0.789245 0.000000
0.035607 0.789245 0.000000
0.067488 0.789245 0.000000
0.098830 0.789245 0.000000
0.130172 0.789245 0.000000
0.161515 0.789245 0.000000
0.192857 0.789245 0.000000
0.224199 0.789245 0.000000
0.255541 0.789245 0.000000
0.286883 0.789245 0.000000
0.318225 0.789245 0.000000
0.349567 0.789245 0.000000
0.380909 0.789245 0.000000
0.412251 0.789245 0.000000
0.443360 0.789245 0.000000
0.528459 0.789245 0.000000
0.565191 0.789245 0.000000
0.601923 0.789245 0.000000
0.638655 0.789245 0.000000
0.675387 0.789245 0.000000
0.712119 0.789245 0.000000
0.748851 0.789245 0.000000
0.785583 0.789245 0.000000
0.819547 0.786598 0.000000
0.853204 0.783920 0.000000
0.886861 0.781483 0.000000
0.920518 0.779260 0.000000
0.954175 0.777226 0.000000
0.987832 0.775359 0.000000
1.000000 0.763822 0.019166
1.000000 0.763822 0.019166
1.000000 0.763822 0.019166
1.000000 0.763822 0.019166
0.000000 0.823044 0.000000
0.035461 0.823044 0.000000
0.067213 0.823044 0.000000
0.098428 0.823044 0.000000
0.129642 0.823044 0.000000
0.160856 0.823044 0.000000
0.192071 0.823044 0.000000
0.223285 0.823044 0.000000
0.254499 0.823044 0.000000
0.285714 0.823044 0.000000
0.316928 0.823044 0.000000
0.348142 0.823044 0.000000
0.379357 0.823044 0.000000
0.410571 0.823044 0.000000
0.441552 0.823044 0.000000
0.526585 0.823044 0.000000
0.563167 0.823044 0.000000
0.599749 0.823044 0.000000
0.636331 0.823044 0.000000
0.672914 0.823044 0.000000
0.709496 0.823044 0.000000
0.746078 0.823044 0.000000
0.782660 0.823044 0.000000
0.819243 0.823044 0.000000
0.853204 0.820532 0.000000
0.886861 0.817969 0.000000
0.920518 0.815629 0.000000
0.954175 0.813487 0.000000
0.987832 0.811521 0.000000
1.000000 0.798540 0.019166
1.000000 0.798540 0.019166
1.000000 0.798540 0.019166
1.000000 0.798540 0.019166
0.000000 0.856842 0.000000
0.035329 0.856842 0.000000
0.066962 0.856842 0.000000
0.098059 0.856842 0.000000
0.129157 0.856842 0.000000
0.160255 0.856842 0.000000
0.191352 0.856842 0.000000
0.222450 0.856842 0.000000
0.253547 0.856842 0.000000
0.284645 0.856842 0.000000
0.315742 0.856842 0.000000
0.346840 0.856842 0.000000
0.377938 0.856842 0.000000
0.409035 0.856842 0.000000
0.439901 0.856842 0.000000
0.524893 0.856842 0.000000
0.561339 0.856842 0.000000
0.597784 0.856842 0.000000
0.634230 0.856842 0.000000
0.670675 0.856842 0.000000
0.707121 0.856842 0.000000
0.743566 0.856842 0.000000
0.780011 0.856842 0.000000
0.816457 0.856842 0.000000
0.852902 0.856842 0.000000
0.886861 0.854455 0.000000
0.920518 0.851998 0.000000
0.954175 0.849749 0.000000
0.987832 0.847683 0.000000
1.000000 0.833258 0.019166
1.000000 0.833258 0.019166
1.000000 0.833258 0.019166
1.000000 0.833258 0.019166
0.000000 0.890640 0.000000
0.035207 0.890640 0.000000
0.066731 0.890640 0.000000
0.097722 0.890640 0.000000
0.128712 0.890640 0.000000
0.159703 0.890640 0.000000
0.190693 0.890640 0.000000
0.221683 0.890640 0.000000
0.252674 0.890640 0.000000
0.283664 0.890640 0.000000
0.314655 0.890640 0.000000
0.345645 0.890640 0.000000
0.376636 0.890640 0.000000
0.407626 0.890640 0.000000
0.438386 0.890640 0.000000
0.523363 0.890640 0.000000
0.559683 0.890640 0.000000
0.596003 0.890640 0.000000
0.632323 0.890640 0.000000
0.668642 0.890640 0.000000
0.704962 0.890640 0.000000
0.741282 0.890640 0.000000
0.777602 0.890640 0.000000
0.813922 0.890640 0.000000
0.850242 0.890640 0.000000
0.886562 0.890640 0.000000
0.920518 0.888368 0.000000
0.954175 0.886010 0.000000
0.987832 0.883844 0.000000
1.000000 0.867976 0.019166
1.000000 0.867976 0.019166
1.000000 0.867976 0.019166
1.000000 0.867976 0.019166
0.000000 0.924439 0.000000
0.035095 0.924439 0.000000
0.066519 0.924439 0.000000
0.097411 0.924439 0.000000
0.128302 0.924439 0.000000
0.159194 0.924439 0.000000
0.190086 0.924439 0.000000
0.220978 0.924439 0.000000
0.251870 0.924439 0.000000
0.282762 0.924439 0.000000
0.313653 0.924439 0.000000
0.344545 0.924439 0.000000
0.375437 0.924439 0.000000
0.406329 0.924439 0.000000
0.507579 0.924439 0.000000
0.521974 0.924439 0.000000
0.558178 0.924439 0.000000
0.594382 0.924439 0.000000
0.630587 0.924439 0.000000
0.666791 0.924439 0.000000
0.702995 0.924439 0.000000
0.739200 0.924439 0.000000
0.775404 0.924439 0.000000
0.811608 0.924439 0.000000
0.847812 0.924439 0.000000
