docs/luts/fuji_recipes/Eterna_RR_Eterna_Low_Contrast.cube
TITLE "Fujifilm Recipe: RR Eterna Low Contrast (Eterna)"
# FilmSim=Eterna HL=-2 SH=-1 Col=4 WB=5900K WBR=-3 WBB=3
LUT_3D_SIZE 5
DOMAIN_MIN 0.0 0.0 0.0
DOMAIN_MAX 1.0 1.0 1.0
0.078400 0.078400 0.078400
0.338274 0.000000 0.000000
0.517814 0.000000 0.000000
0.682825 0.000000 0.000000
0.784657 0.000000 0.000000
0.000000 0.350569 0.000000
0.328325 0.350569 0.000000
0.517814 0.291223 0.000000
0.682825 0.270613 0.000000
0.784657 0.262585 0.000000
0.000000 0.526462 0.000000
0.272508 0.526462 0.000000
0.517365 0.526462 0.000000
0.682825 0.488756 0.000000
0.784657 0.473706 0.000000
0.000000 0.720776 0.000000
0.250337 0.720776 0.000000
0.451587 0.720776 0.000000
0.674250 0.720776 0.000000
0.784657 0.707723 0.000000
0.000000 0.840754 0.000000
0.242774 0.840754 0.000000
0.437304 0.840754 0.000000
0.653239 0.840754 0.000000
0.774308 0.840754 0.000000
0.000000 0.000000 0.362493
0.319812 0.000000 0.362493
0.517814 0.000000 0.309143
0.682825 0.000000 0.287265
0.784657 0.000000 0.278743
0.000000 0.341480 0.362493
0.311374 0.337048 0.361946
0.552912 0.256631 0.283059
0.845991 0.126087 0.155248
1.000000 0.063208 0.092261
0.000000 0.526462 0.308875
0.221717 0.589968 0.274686
0.535740 0.585442 0.266557
0.854436 0.501634 0.137490
1.000000 0.435134 0.083055
0.000000 0.720776 0.283745
0.057397 0.928178 0.119372
0.415480 0.927326 0.098563
0.838860 0.927326 0.098563
1.000000 0.860244 0.083055
0.000000 0.840754 0.275173
0.120542 1.000000 0.168272
0.398079 1.000000 0.157881
0.720240 1.000000 0.157881
0.900867 1.000000 0.157881
0.000000 0.000000 0.551054
0.268570 0.000000 0.551054
0.485482 0.000000 0.551054
0.682825 0.000000 0.519278
0.784657 0.000000 0.503323
0.000000 0.286766 0.551054
0.210259 0.236978 0.623433
0.524569 0.232705 0.621453
0.845991 0.126087 0.559593
1.000000 0.063208 0.494133
0.000000 0.518710 0.551054
0.210259 0.575939 0.623433
0.486039 0.539404 0.591350
0.788923 0.443026 0.497427
0.963778 0.358671 0.416305
0.000000 0.720776 0.512707
0.057397 0.928178 0.542198
0.364868 0.863355 0.478051
0.756155 0.841173 0.460963
0.951669 0.802789 0.407238
0.000000 0.840754 0.496577
0.120542 1.000000 0.492967
0.345088 1.000000 0.441306
0.680548 1.000000 0.413656
0.886802 1.000000 0.413656
0.000000 0.000000 0.757764
0.247672 0.000000 0.757764
0.446579 0.000000 0.757764
0.666871 0.000000 0.757764
0.784657 0.000000 0.752269
0.000000 0.264452 0.757764
0.018675 0.051021 1.000000
0.392540 0.039141 1.000000
0.822570 0.039141 1.000000
1.000000 0.063208 0.941762
0.000000 0.477221 0.757764
0.018675 0.459204 1.000000
0.333272 0.391817 0.927822
0.743074 0.382813 0.915735
0.963778 0.358671 0.900750
0.000000 0.712902 0.757764
0.018675 0.913520 1.000000
0.333272 0.842108 0.927822
0.683430 0.766232 0.846932
0.875049 0.735479 0.816291
0.000000 0.840754 0.742334
0.120542 1.000000 0.855011
0.345088 1.000000 0.840238
0.616081 0.987851 0.792722
0.824540 0.951665 0.763367
0.000000 0.000000 0.840754
0.242774 0.000000 0.840754
0.437304 0.000000 0.840754
0.653239 0.000000 0.840754
0.774308 0.000000 0.840754
0.000000 0.259222 0.840754
0.120542 0.144773 1.000000
0.401910 0.139498 1.000000
0.722021 0.139498 1.000000
0.901498 0.139498 1.000000
0.000000 0.467340 0.840754
0.120542 0.449895 1.000000
0.345088 0.393845 1.000000
0.688576 0.379834 1.000000
0.889647 0.379834 1.000000
0.000000 0.698359 0.840754
0.120542 0.790228 1.000000
0.345088 0.768854 1.000000
0.616081 0.705537 0.987851
0.839375 0.691083 0.969113
0.000000 0.840754 0.840754
0.120542 1.000000 1.000000
0.345088 1.000000 1.000000
0.616081 0.987851 0.987851
0.815153 0.939750 0.939750
