docs/luts/fuji_recipes/Eterna_RR_Polaroid.cube
TITLE "Fujifilm Recipe: RR Polaroid (Eterna)"
# FilmSim=Eterna HL=4 SH=-2 Col=-2 WB=Auto WBR=5 WBB=-5
LUT_3D_SIZE 5
DOMAIN_MIN 0.0 0.0 0.0
DOMAIN_MAX 1.0 1.0 1.0
0.116800 0.116800 0.116800
0.392302 0.189506 0.189506
0.648525 0.256631 0.256631
0.846862 0.307166 0.307166
0.846862 0.307166 0.307166
0.181736 0.362861 0.181736
0.392302 0.370631 0.189506
0.648525 0.437756 0.256631
0.846862 0.488291 0.307166
0.846862 0.488291 0.307166
0.238354 0.576790 0.238354
0.441150 0.576790 0.238354
0.648525 0.595609 0.256631
0.846862 0.647641 0.307166
0.846862 0.647641 0.307166
0.307551 0.847999 0.307551
0.510347 0.847999 0.307551
0.700971 0.847999 0.307551
0.847276 0.847999 0.307551
0.847276 0.847999 0.307551
0.307551 0.847999 0.307551
0.510347 0.847999 0.307551
0.700971 0.847999 0.307551
0.847276 0.847999 0.307551
0.847276 0.847999 0.307551
0.173898 0.173898 0.333158
0.392302 0.189506 0.348766
0.648525 0.256631 0.415892
0.846862 0.307166 0.466427
0.846862 0.307166 0.466427
0.181736 0.362861 0.340997
0.449399 0.427728 0.405864
0.708255 0.495432 0.473567
0.894975 0.543416 0.521552
0.894975 0.543416 0.521552
0.238354 0.576790 0.397614
0.498825 0.636520 0.455289
0.708255 0.655339 0.473567
0.894975 0.704821 0.521552
0.894975 0.704821 0.521552
0.307551 0.847999 0.466812
0.565230 0.895006 0.521694
0.757908 0.895006 0.521694
0.895006 0.895006 0.521694
0.895006 0.895006 0.521694
0.307551 0.847999 0.466812
0.565230 0.895006 0.521694
0.757908 0.895006 0.521694
0.895006 0.895006 0.521694
0.895006 0.895006 0.521694
0.219913 0.219913 0.504417
0.422709 0.219913 0.504417
0.648525 0.256631 0.542222
0.846862 0.307166 0.594254
0.846862 0.307166 0.594254
0.219913 0.401038 0.504417
0.488303 0.466632 0.572347
0.716455 0.503350 0.610152
0.901428 0.550951 0.659251
0.901428 0.550951 0.659251
0.238354 0.576790 0.523403
0.514591 0.652848 0.599461
0.757970 0.705054 0.651667
0.933953 0.752507 0.699120
0.933953 0.752507 0.699120
0.307551 0.847999 0.594668
0.580233 0.907856 0.667170
0.805603 0.933993 0.699300
0.933993 0.933993 0.699300
0.933993 0.933993 0.699300
0.307551 0.847999 0.594668
0.580233 0.907856 0.667170
0.805603 0.933993 0.699300
0.933993 0.933993 0.699300
0.933993 0.933993 0.699300
0.281235 0.281235 0.745089
0.484031 0.281235 0.745089
0.673858 0.281235 0.745089
0.846862 0.307166 0.771788
0.846862 0.307166 0.771788
0.281235 0.462360 0.745089
0.549624 0.527954 0.813019
0.741788 0.527954 0.813019
0.901428 0.550951 0.836784
0.901428 0.550951 0.836784
0.281235 0.620942 0.745089
0.557472 0.696999 0.821146
0.802647 0.749731 0.873878
0.949711 0.770905 0.895052
0.949711 0.770905 0.895052
0.307551 0.847999 0.772202
0.580233 0.907856 0.844703
0.842236 0.965369 0.913467
0.986393 0.986393 0.938013
0.986393 0.986393 0.938013
0.307551 0.847999 0.772202
0.580233 0.907856 0.844703
0.842236 0.965369 0.913467
0.986393 0.986393 0.938013
0.986393 0.986393 0.938013
0.281235 0.281235 0.745089
0.484031 0.281235 0.745089
0.673858 0.281235 0.745089
0.846862 0.307166 0.771788
0.846862 0.307166 0.771788
0.281235 0.462360 0.745089
0.549624 0.527954 0.813019
0.741788 0.527954 0.813019
0.901428 0.550951 0.836784
0.901428 0.550951 0.836784
0.281235 0.620942 0.745089
0.557472 0.696999 0.821146
0.802647 0.749731 0.873878
0.949711 0.770905 0.895052
0.949711 0.770905 0.895052
0.307551 0.847999 0.772202
0.580233 0.907856 0.844703
0.842236 0.965369 0.913467
0.986393 0.986393 0.938013
0.986393 0.986393 0.938013
0.307551 0.847999 0.772202
0.580233 0.907856 0.844703
0.842236 0.965369 0.913467
0.986393 0.986393 0.938013
0.986393 0.986393 0.938013
