docs/luts/fuji_recipes/Eterna_RR_Polaroid_Film.cube
TITLE "Fujifilm Recipe: RR Polaroid Film (Eterna)"
# FilmSim=Eterna HL=4 SH=4 Col=-3 WB=Shade WBR=4 WBB=6
LUT_3D_SIZE 33
DOMAIN_MIN 0.0 0.0 0.0
DOMAIN_MAX 1.0 1.0 1.0
0.033600 0.033600 0.033600
0.044965 0.038258 0.038258
0.057370 0.041712 0.041712
0.072616 0.047055 0.047055
0.087819 0.052434 0.052434
0.103000 0.057836 0.057836
0.118165 0.063254 0.063254
0.133320 0.068681 0.068681
0.148468 0.074116 0.074116
0.163611 0.079556 0.079556
0.178749 0.085000 0.085000
0.193884 0.090448 0.090448
0.209016 0.095898 0.095898
0.224146 0.101351 0.101351
0.239275 0.106805 0.106805
0.254402 0.112260 0.112260
0.269528 0.117717 0.117717
0.284653 0.123174 0.123174
0.299753 0.128624 0.128624
0.303349 0.129922 0.129922
0.377013 0.154023 0.154023
0.397598 0.161222 0.161222
0.418182 0.168423 0.168423
0.438765 0.175624 0.175624
0.459347 0.182825 0.182825
0.479929 0.190027 0.190027
0.500511 0.197229 0.197229
0.521093 0.204432 0.204432
0.541674 0.211635 0.211635
0.562254 0.218839 0.218839
0.582835 0.226042 0.226042
0.603415 0.233246 0.233246
0.623995 0.240450 0.240450
0.037263 0.042537 0.037263
0.044965 0.043532 0.038258
0.057370 0.047485 0.041712
0.072616 0.052782 0.047055
0.087819 0.058128 0.052434
0.103000 0.063507 0.057836
0.118165 0.068905 0.063254
0.133320 0.074318 0.068681
0.148468 0.079741 0.074116
0.163611 0.085172 0.079556
0.178749 0.090608 0.085000
0.193884 0.096048 0.090448
0.209016 0.101492 0.095898
0.224146 0.106939 0.101351
0.239275 0.112389 0.106805
0.254402 0.117840 0.112260
0.269528 0.123293 0.117717
0.284653 0.128747 0.123174
0.299753 0.134194 0.128624
0.303349 0.135491 0.129922
0.377013 0.159576 0.154023
0.397598 0.166773 0.161222
0.418182 0.173971 0.168423
0.438765 0.181169 0.175624
0.459347 0.188369 0.182825
0.479929 0.195569 0.190027
0.500511 0.202770 0.197229
0.521093 0.209971 0.204432
0.541674 0.217173 0.211635
0.562254 0.224375 0.218839
0.582835 0.231577 0.226042
0.603415 0.238780 0.233246
0.623995 0.245983 0.240450
0.039954 0.052305 0.039954
0.047322 0.052305 0.039954
0.057370 0.054019 0.041712
0.072616 0.059262 0.047055
0.087819 0.064572 0.052434
0.103000 0.069923 0.057836
0.118165 0.075301 0.063254
0.133320 0.080697 0.068681
0.148468 0.086107 0.074116
0.163611 0.091526 0.079556
0.178749 0.096953 0.085000
0.193884 0.102385 0.090448
0.209016 0.107823 0.095898
0.224146 0.113264 0.101351
0.239275 0.118708 0.106805
0.254402 0.124154 0.112260
0.269528 0.129603 0.117717
0.284653 0.135054 0.123174
0.299753 0.140497 0.128624
0.303349 0.141794 0.129922
0.377013 0.165859 0.154023
0.397598 0.173053 0.161222
0.418182 0.180248 0.168423
0.438765 0.187445 0.175624
0.459347 0.194642 0.182825
0.479929 0.201840 0.190027
0.500511 0.209039 0.197229
0.521093 0.216239 0.204432
0.541674 0.223439 0.211635
0.562254 0.230639 0.218839
0.582835 0.237840 0.226042
0.603415 0.245042 0.233246
0.623995 0.252244 0.240450
0.044451 0.065211 0.044451
0.051760 0.065211 0.044451
0.060038 0.065211 0.044451
0.072616 0.067740 0.047055
0.087819 0.073002 0.052434
0.103000 0.078317 0.057836
0.118165 0.083668 0.063254
0.133320 0.089042 0.068681
0.148468 0.094434 0.074116
0.163611 0.099839 0.079556
0.178749 0.105254 0.085000
0.193884 0.110676 0.090448
0.209016 0.116104 0.095898
0.224146 0.121537 0.101351
0.239275 0.126975 0.106805
0.254402 0.132415 0.112260
0.269528 0.137858 0.117717
0.284653 0.143304 0.123174
0.299753 0.148743 0.128624
0.303349 0.150039 0.129922
0.377013 0.174080 0.154023
0.397598 0.181270 0.161222
0.418182 0.188462 0.168423
0.438765 0.195655 0.175624
0.459347 0.202849 0.182825
0.479929 0.210045 0.190027
0.500511 0.217241 0.197229
0.521093 0.224438 0.204432
0.541674 0.231636 0.211635
0.562254 0.238835 0.218839
0.582835 0.246034 0.226042
0.603415 0.253234 0.233246
0.623995 0.260434 0.240450
0.049039 0.078237 0.049039
0.056305 0.078237 0.049039
0.064534 0.078237 0.049039
0.074541 0.078237 0.049039
0.087819 0.081534 0.052434
0.103000 0.086813 0.057836
0.118165 0.092136 0.063254
0.133320 0.097489 0.068681
0.148468 0.102863 0.074116
0.163611 0.108253 0.079556
0.178749 0.113655 0.085000
0.193884 0.119067 0.090448
0.209016 0.124486 0.095898
0.224146 0.129911 0.101351
0.239275 0.135342 0.106805
0.254402 0.140776 0.112260
0.269528 0.146214 0.117717
0.284653 0.151654 0.123174
0.299753 0.157089 0.128624
0.303349 0.158383 0.129922
0.377013 0.182399 0.154023
0.397598 0.189586 0.161222
0.418182 0.196774 0.168423
0.438765 0.203964 0.175624
0.459347 0.211156 0.182825
0.479929 0.218349 0.190027
0.500511 0.225543 0.197229
0.521093 0.232738 0.204432
0.541674 0.239933 0.211635
0.562254 0.247130 0.218839
0.582835 0.254328 0.226042
0.603415 0.261526 0.233246
0.623995 0.268724 0.240450
0.053650 0.091241 0.053650
0.060883 0.091241 0.053650
0.069076 0.091241 0.053650
0.079038 0.091241 0.053650
0.088997 0.091241 0.053650
0.103000 0.095309 0.057836
0.118165 0.100604 0.063254
0.133320 0.105935 0.068681
0.148468 0.111291 0.074116
0.163611 0.116667 0.079556
0.178749 0.122057 0.085000
0.193884 0.127458 0.090448
0.209016 0.132868 0.095898
0.224146 0.138285 0.101351
0.239275 0.143708 0.106805
0.254402 0.149137 0.112260
0.269528 0.154569 0.117717
0.284653 0.160005 0.123174
0.299753 0.165435 0.128624
0.303349 0.166728 0.129922
0.377013 0.190719 0.154023
0.397598 0.197902 0.161222
0.418182 0.205087 0.168423
0.438765 0.212274 0.175624
0.459347 0.219462 0.182825
0.479929 0.226652 0.190027
0.500511 0.233844 0.197229
0.521093 0.241037 0.204432
0.541674 0.248230 0.211635
0.562254 0.255425 0.218839
0.582835 0.262621 0.226042
0.603415 0.269817 0.233246
0.623995 0.277014 0.240450
0.058275 0.104230 0.058275
0.065484 0.104230 0.058275
0.073648 0.104230 0.058275
0.083576 0.104230 0.058275
0.093501 0.104230 0.058275
0.103425 0.104230 0.058275
0.118165 0.109072 0.063254
0.133320 0.114381 0.068681
0.148468 0.119720 0.074116
0.163611 0.125081 0.079556
0.178749 0.130458 0.085000
0.193884 0.135849 0.090448
0.209016 0.141250 0.095898
0.224146 0.146659 0.101351
0.239275 0.152075 0.106805
0.254402 0.157497 0.112260
0.269528 0.162924 0.117717
0.284653 0.168355 0.123174
0.299753 0.173780 0.128624
0.303349 0.175073 0.129922
0.377013 0.199039 0.154023
0.397598 0.206218 0.161222
0.418182 0.213399 0.168423
0.438765 0.220583 0.175624
0.459347 0.227769 0.182825
0.479929 0.234956 0.190027
0.500511 0.242145 0.197229
0.521093 0.249336 0.204432
0.541674 0.256527 0.211635
0.562254 0.263720 0.218839
0.582835 0.270914 0.226042
0.603415 0.278109 0.233246
0.623995 0.285304 0.240450
0.062911 0.117208 0.062911
0.070100 0.117208 0.062911
0.078241 0.117208 0.062911
0.088142 0.117208 0.062911
0.098039 0.117208 0.062911
0.107936 0.117208 0.062911
0.118165 0.117541 0.063254
0.133320 0.122828 0.068681
0.148468 0.128149 0.074116
0.163611 0.133495 0.079556
0.178749 0.138860 0.085000
0.193884 0.144240 0.090448
0.209016 0.149632 0.095898
0.224146 0.155033 0.101351
0.239275 0.160442 0.106805
0.254402 0.165858 0.112260
0.269528 0.171279 0.117717
0.284653 0.176705 0.123174
0.299753 0.182126 0.128624
0.303349 0.183418 0.129922
0.377013 0.207359 0.154023
0.397598 0.214534 0.161222
0.418182 0.221712 0.168423
0.438765 0.228892 0.175624
0.459347 0.236075 0.182825
0.479929 0.243260 0.190027
0.500511 0.250447 0.197229
0.521093 0.257635 0.204432
0.541674 0.264824 0.211635
0.562254 0.272015 0.218839
0.582835 0.279207 0.226042
0.603415 0.286400 0.233246
0.623995 0.293594 0.240450
0.067555 0.130179 0.067555
0.074727 0.130179 0.067555
0.082850 0.130179 0.067555
0.092728 0.130179 0.067555
0.102602 0.130179 0.067555
0.112477 0.130179 0.067555
0.122352 0.130179 0.067555
0.133320 0.131274 0.068681
0.148468 0.136577 0.074116
0.163611 0.141908 0.079556
0.178749 0.147261 0.085000
0.193884 0.152631 0.090448
0.209016 0.158013 0.095898
0.224146 0.163407 0.101351
0.239275 0.168809 0.106805
0.254402 0.174219 0.112260
0.269528 0.179635 0.117717
0.284653 0.185055 0.123174
0.299753 0.190472 0.128624
0.303349 0.191763 0.129922
0.377013 0.215679 0.154023
0.397598 0.222850 0.161222
0.418182 0.230024 0.168423
0.438765 0.237202 0.175624
0.459347 0.244382 0.182825
0.479929 0.251564 0.190027
0.500511 0.258748 0.197229
0.521093 0.265934 0.204432
0.541674 0.273121 0.211635
0.562254 0.280310 0.218839
0.582835 0.287500 0.226042
0.603415 0.294692 0.233246
0.623995 0.301884 0.240450
0.072204 0.143143 0.072204
0.079363 0.143143 0.072204
0.087470 0.143143 0.072204
0.097330 0.143143 0.072204
0.107185 0.143143 0.072204
0.117041 0.143143 0.072204
0.126897 0.143143 0.072204
0.136753 0.143143 0.072204
0.148468 0.145006 0.074116
0.163611 0.150322 0.079556
0.178749 0.155663 0.085000
0.193884 0.161022 0.090448
0.209016 0.166395 0.095898
0.224146 0.171781 0.101351
0.239275 0.177176 0.106805
0.254402 0.182580 0.112260
0.269528 0.187990 0.117717
0.284653 0.193406 0.123174
0.299753 0.198818 0.128624
0.303349 0.200107 0.129922
0.377013 0.223999 0.154023
0.397598 0.231166 0.161222
0.418182 0.238337 0.168423
0.438765 0.245511 0.175624
0.459347 0.252688 0.182825
0.479929 0.259867 0.190027
0.500511 0.267049 0.197229
0.521093 0.274233 0.204432
0.541674 0.281418 0.211635
0.562254 0.288605 0.218839
0.582835 0.295794 0.226042
0.603415 0.302983 0.233246
0.623995 0.310174 0.240450
0.076858 0.156104 0.076858
0.084005 0.156104 0.076858
0.092100 0.156104 0.076858
0.101943 0.156104 0.076858
0.111783 0.156104 0.076858
0.121623 0.156104 0.076858
0.131463 0.156104 0.076858
0.141302 0.156104 0.076858
0.151142 0.156104 0.076858
0.163611 0.158736 0.079556
0.178749 0.164064 0.085000
0.193884 0.169413 0.090448
0.209016 0.174777 0.095898
0.224146 0.180155 0.101351
0.239275 0.185543 0.106805
0.254402 0.190940 0.112260
0.269528 0.196345 0.117717
0.284653 0.201756 0.123174
0.299753 0.207164 0.128624
0.303349 0.208452 0.129922
0.377013 0.232319 0.154023
0.397598 0.239482 0.161222
0.418182 0.246650 0.168423
0.438765 0.253820 0.175624
0.459347 0.260994 0.182825
0.479929 0.268171 0.190027
0.500511 0.275350 0.197229
0.521093 0.282532 0.204432
0.541674 0.289715 0.211635
0.562254 0.296900 0.218839
0.582835 0.304087 0.226042
0.603415 0.311275 0.233246
0.623995 0.318464 0.240450
0.081516 0.169061 0.081516
0.088653 0.169061 0.081516
0.096736 0.169061 0.081516
0.106566 0.169061 0.081516
0.116392 0.169061 0.081516
0.126218 0.169061 0.081516
0.136044 0.169061 0.081516
0.145871 0.169061 0.081516
0.155697 0.169061 0.081516
0.165523 0.169061 0.081516
0.178749 0.172466 0.085000
0.193884 0.177804 0.090448
0.209016 0.183159 0.095898
0.224146 0.188529 0.101351
0.239275 0.193910 0.106805
0.254402 0.199301 0.112260
0.269528 0.204700 0.117717
0.284653 0.210106 0.123174
0.299753 0.215509 0.128624
0.303349 0.216797 0.129922
0.377013 0.240639 0.154023
0.397598 0.247798 0.161222
0.418182 0.254962 0.168423
0.438765 0.262130 0.175624
0.459347 0.269301 0.182825
0.479929 0.276475 0.190027
0.500511 0.283652 0.197229
0.521093 0.290831 0.204432
0.541674 0.298012 0.211635
0.562254 0.305195 0.218839
0.582835 0.312380 0.226042
0.603415 0.319566 0.233246
0.623995 0.326754 0.240450
0.086176 0.182015 0.086176
0.093304 0.182015 0.086176
0.101378 0.182015 0.086176
0.111196 0.182015 0.086176
0.121010 0.182015 0.086176
0.130825 0.182015 0.086176
0.140639 0.182015 0.086176
0.150454 0.182015 0.086176
0.160268 0.182015 0.086176
0.170083 0.182015 0.086176
0.179897 0.182015 0.086176
0.193884 0.186194 0.090448
0.209016 0.191541 0.095898
0.224146 0.196903 0.101351
0.239275 0.202277 0.106805
0.254402 0.207662 0.112260
0.269528 0.213055 0.117717
0.284653 0.218457 0.123174
0.299753 0.223855 0.128624
0.303349 0.225142 0.129922
0.377013 0.248959 0.154023
0.397598 0.256115 0.161222
0.418182 0.263275 0.168423
0.438765 0.270439 0.175624
0.459347 0.277607 0.182825
0.479929 0.284779 0.190027
0.500511 0.291953 0.197229
0.521093 0.299130 0.204432
0.541674 0.306309 0.211635
0.562254 0.313490 0.218839
0.582835 0.320673 0.226042
0.603415 0.327858 0.233246
0.623995 0.335044 0.240450
0.090838 0.194967 0.090838
0.097959 0.194967 0.090838
0.106024 0.194967 0.090838
0.115832 0.194967 0.090838
0.125636 0.194967 0.090838
0.135440 0.194967 0.090838
0.145244 0.194967 0.090838
0.155048 0.194967 0.090838
0.164853 0.194967 0.090838
0.174657 0.194967 0.090838
0.184461 0.194967 0.090838
0.194265 0.194967 0.090838
0.209016 0.199923 0.095898
0.224146 0.205277 0.101351
0.239275 0.210644 0.106805
0.254402 0.216023 0.112260
0.269528 0.221411 0.117717
0.284653 0.226807 0.123174
0.299753 0.232201 0.128624
0.303349 0.233487 0.129922
0.377013 0.257279 0.154023
0.397598 0.264431 0.161222
0.418182 0.271587 0.168423
0.438765 0.278749 0.175624
0.459347 0.285914 0.182825
0.479929 0.293083 0.190027
0.500511 0.300254 0.197229
0.521093 0.307429 0.204432
0.541674 0.314606 0.211635
0.562254 0.321785 0.218839
0.582835 0.328966 0.226042
0.603415 0.336149 0.233246
0.623995 0.343334 0.240450
0.095502 0.207917 0.095502
0.102617 0.207917 0.095502
0.110674 0.207917 0.095502
0.120473 0.207917 0.095502
0.130268 0.207917 0.095502
0.140063 0.207917 0.095502
0.149858 0.207917 0.095502
0.159653 0.207917 0.095502
0.169448 0.207917 0.095502
0.179243 0.207917 0.095502
0.189038 0.207917 0.095502
0.198833 0.207917 0.095502
0.209016 0.208305 0.095898
0.224146 0.213650 0.101351
0.239275 0.219011 0.106805
0.254402 0.224383 0.112260
0.269528 0.229766 0.117717
0.284653 0.235157 0.123174
0.299753 0.240547 0.128624
0.303349 0.241831 0.129922
0.377013 0.265599 0.154023
0.397598 0.272747 0.161222
0.418182 0.279900 0.168423
0.438765 0.287058 0.175624
0.459347 0.294220 0.182825
0.479929 0.301386 0.190027
0.500511 0.308556 0.197229
0.521093 0.315728 0.204432
0.541674 0.322903 0.211635
0.562254 0.330080 0.218839
0.582835 0.337260 0.226042
0.603415 0.344441 0.233246
0.623995 0.351624 0.240450
0.100168 0.220865 0.100168
0.107277 0.220865 0.100168
0.115327 0.220865 0.100168
0.125118 0.220865 0.100168
0.134905 0.220865 0.100168
0.144692 0.220865 0.100168
0.154479 0.220865 0.100168
0.164266 0.220865 0.100168
0.174053 0.220865 0.100168
0.183840 0.220865 0.100168
0.193627 0.220865 0.100168
0.203414 0.220865 0.100168
0.213201 0.220865 0.100168
0.224146 0.222024 0.101351
0.239275 0.227378 0.106805
0.254402 0.232744 0.112260
0.269528 0.238121 0.117717
0.284653 0.243507 0.123174
0.299753 0.248893 0.128624
0.303349 0.250176 0.129922
0.377013 0.273919 0.154023
0.397598 0.281063 0.161222
0.418182 0.288212 0.168423
0.438765 0.295367 0.175624
0.459347 0.302527 0.182825
0.479929 0.309690 0.190027
0.500511 0.316857 0.197229
0.521093 0.324027 0.204432
0.541674 0.331200 0.211635
0.562254 0.338375 0.218839
0.582835 0.345553 0.226042
0.603415 0.352732 0.233246
0.623995 0.359913 0.240450
0.104835 0.233813 0.104835
0.111938 0.233813 0.104835
0.119983 0.233813 0.104835
0.129766 0.233813 0.104835
0.139546 0.233813 0.104835
0.149326 0.233813 0.104835
0.159106 0.233813 0.104835
0.168885 0.233813 0.104835
0.178665 0.233813 0.104835
0.188445 0.233813 0.104835
0.198225 0.233813 0.104835
0.208005 0.233813 0.104835
0.217784 0.233813 0.104835
0.227564 0.233813 0.104835
0.239275 0.235745 0.106805
0.254402 0.241105 0.112260
0.269528 0.246476 0.117717
0.284653 0.251858 0.123174
0.299753 0.257238 0.128624
0.303349 0.258521 0.129922
0.377013 0.282239 0.154023
0.397598 0.289379 0.161222
0.418182 0.296525 0.168423
0.438765 0.303677 0.175624
0.459347 0.310833 0.182825
0.479929 0.317994 0.190027
0.500511 0.325158 0.197229
0.521093 0.332326 0.204432
0.541674 0.339497 0.211635
0.562254 0.346670 0.218839
0.582835 0.353846 0.226042
0.603415 0.361024 0.233246
0.623995 0.368203 0.240450
0.109503 0.246759 0.109503
0.116602 0.246759 0.109503
0.124641 0.246759 0.109503
0.134418 0.246759 0.109503
0.144191 0.246759 0.109503
0.153965 0.246759 0.109503
0.163738 0.246759 0.109503
0.173511 0.246759 0.109503
0.183284 0.246759 0.109503
0.193058 0.246759 0.109503
0.202831 0.246759 0.109503
0.212604 0.246759 0.109503
0.222377 0.246759 0.109503
0.232151 0.246759 0.109503
0.241924 0.246759 0.109503
0.254402 0.249466 0.112260
0.269528 0.254832 0.117717
0.284653 0.260208 0.123174
0.299753 0.265584 0.128624
0.303349 0.266866 0.129922
0.377013 0.290559 0.154023
0.397598 0.297695 0.161222
0.418182 0.304838 0.168423
0.438765 0.311986 0.175624
0.459347 0.319140 0.182825
0.479929 0.326298 0.190027
0.500511 0.333460 0.197229
0.521093 0.340625 0.204432
0.541674 0.347794 0.211635
0.562254 0.354965 0.218839
0.582835 0.362139 0.226042
0.603415 0.369315 0.233246
0.623995 0.376493 0.240450
0.114172 0.259704 0.114172
0.121267 0.259704 0.114172
0.129301 0.259704 0.114172
0.139072 0.259704 0.114172
0.148839 0.259704 0.114172
0.158607 0.259704 0.114172
0.168374 0.259704 0.114172
0.178142 0.259704 0.114172
0.187909 0.259704 0.114172
0.197676 0.259704 0.114172
0.207444 0.259704 0.114172
0.217211 0.259704 0.114172
0.226978 0.259704 0.114172
0.236746 0.259704 0.114172
0.246513 0.259704 0.114172
0.256280 0.259704 0.114172
0.269528 0.263187 0.117717
0.284653 0.268558 0.123174
0.299753 0.273930 0.128624
0.303349 0.275211 0.129922
0.377013 0.298879 0.154023
0.397598 0.306011 0.161222
0.418182 0.313150 0.168423
0.438765 0.320295 0.175624
0.459347 0.327446 0.182825
0.479929 0.334602 0.190027
0.500511 0.341761 0.197229
0.521093 0.348924 0.204432
0.541674 0.356091 0.211635
0.562254 0.363260 0.218839
0.582835 0.370432 0.226042
0.603415 0.377607 0.233246
0.623995 0.384783 0.240450
0.118842 0.272648 0.118842
0.125933 0.272648 0.118842
0.133963 0.272648 0.118842
0.143728 0.272648 0.118842
0.153490 0.272648 0.118842
0.163252 0.272648 0.118842
0.173014 0.272648 0.118842
0.182776 0.272648 0.118842
0.192538 0.272648 0.118842
0.202300 0.272648 0.118842
0.212062 0.272648 0.118842
0.221824 0.272648 0.118842
0.231586 0.272648 0.118842
0.241348 0.272648 0.118842
0.251111 0.272648 0.118842
0.260873 0.272648 0.118842
0.270635 0.272648 0.118842
0.284653 0.276908 0.123174
0.299753 0.282276 0.128624
0.303349 0.283556 0.129922
0.377013 0.307199 0.154023
0.397598 0.314327 0.161222
0.418182 0.321463 0.168423
0.438765 0.328605 0.175624
0.459347 0.335753 0.182825
0.479929 0.342905 0.190027
0.500511 0.350062 0.197229
0.521093 0.357223 0.204432
0.541674 0.364388 0.211635
0.562254 0.371555 0.218839
0.582835 0.378726 0.226042
0.603415 0.385898 0.233246
0.623995 0.393073 0.240450
0.123513 0.285592 0.123513
0.130600 0.285592 0.123513
0.138626 0.285592 0.123513
0.148387 0.285592 0.123513
0.158144 0.285592 0.123513
0.167901 0.285592 0.123513
0.177658 0.285592 0.123513
0.187415 0.285592 0.123513
0.197172 0.285592 0.123513
0.206929 0.285592 0.123513
0.216686 0.285592 0.123513
0.226444 0.285592 0.123513
0.236201 0.285592 0.123513
0.245958 0.285592 0.123513
0.255715 0.285592 0.123513
0.265472 0.285592 0.123513
0.275229 0.285592 0.123513
0.284986 0.285592 0.123513
0.299753 0.290622 0.128624
0.303349 0.291900 0.129922
0.377013 0.315519 0.154023
0.397598 0.322643 0.161222
0.418182 0.329775 0.168423
0.438765 0.336914 0.175624
0.459347 0.344059 0.182825
0.479929 0.351209 0.190027
0.500511 0.358364 0.197229
0.521093 0.365522 0.204432
0.541674 0.372685 0.211635
0.562254 0.379850 0.218839
0.582835 0.387019 0.226042
0.603415 0.394190 0.233246
0.623995 0.401363 0.240450
0.128184 0.298535 0.128184
0.135268 0.298535 0.128184
0.143290 0.298535 0.128184
0.153046 0.298535 0.128184
0.162799 0.298535 0.128184
0.172552 0.298535 0.128184
0.182304 0.298535 0.128184
0.192057 0.298535 0.128184
0.201810 0.298535 0.128184
0.211562 0.298535 0.128184
0.221315 0.298535 0.128184
0.231068 0.298535 0.128184
0.240820 0.298535 0.128184
0.250573 0.298535 0.128184
0.260326 0.298535 0.128184
0.270078 0.298535 0.128184
0.279831 0.298535 0.128184
0.289583 0.298535 0.128184
0.299753 0.298968 0.128624
0.303349 0.300245 0.129922
0.377013 0.323839 0.154023
0.397598 0.330959 0.161222
0.418182 0.338088 0.168423
0.438765 0.345224 0.175624
0.459347 0.352366 0.182825
0.479929 0.359513 0.190027
0.500511 0.366665 0.197229
0.521093 0.373822 0.204432
0.541674 0.380982 0.211635
0.562254 0.388145 0.218839
0.582835 0.395312 0.226042
0.603415 0.402481 0.233246
0.623995 0.409653 0.240450
0.128696 0.299954 0.128696
0.135780 0.299954 0.128696
0.143802 0.299954 0.128696
0.153557 0.299954 0.128696
0.163310 0.299954 0.128696
0.173062 0.299954 0.128696
0.182814 0.299954 0.128696
0.192566 0.299954 0.128696
0.202318 0.299954 0.128696
0.212071 0.299954 0.128696
0.221823 0.299954 0.128696
0.231575 0.299954 0.128696
0.241327 0.299954 0.128696
0.251079 0.299954 0.128696
0.260831 0.299954 0.128696
0.270584 0.299954 0.128696
0.280336 0.299954 0.128696
0.290088 0.299954 0.128696
0.299824 0.299954 0.128696
0.303349 0.301160 0.129922
0.377013 0.324751 0.154023
0.397598 0.331871 0.161222
0.418182 0.338999 0.168423
0.438765 0.346135 0.175624
0.459347 0.353276 0.182825
0.479929 0.360424 0.190027
0.500511 0.367575 0.197229
0.521093 0.374732 0.204432
0.541674 0.381892 0.211635
0.562254 0.389055 0.218839
0.582835 0.396221 0.226042
0.603415 0.403390 0.233246
0.623995 0.410562 0.240450
0.151355 0.369384 0.151355
0.158418 0.369384 0.151355
0.166416 0.369384 0.151355
0.176144 0.369384 0.151355
0.185868 0.369384 0.151355
0.195591 0.369384 0.151355
0.205315 0.369384 0.151355
0.215039 0.369384 0.151355
0.224763 0.369384 0.151355
0.234487 0.369384 0.151355
0.244211 0.369384 0.151355
0.253935 0.369384 0.151355
0.263658 0.369384 0.151355
0.273382 0.369384 0.151355
0.283106 0.369384 0.151355
0.292830 0.369384 0.151355
0.302554 0.369384 0.151355
0.312278 0.369384 0.151355
0.321986 0.369384 0.151355
0.324298 0.369384 0.151355
0.377013 0.372079 0.154023
0.397598 0.379358 0.161222
0.418182 0.386648 0.168423
0.438765 0.393946 0.175624
0.459347 0.401253 0.182825
0.479929 0.408565 0.190027
0.500511 0.415884 0.197229
0.521093 0.423208 0.204432
0.541674 0.430537 0.211635
0.562254 0.437870 0.218839
0.582835 0.445207 0.226042
0.603415 0.452547 0.233246
0.623995 0.459890 0.240450
0.157516 0.387001 0.157516
0.164576 0.387001 0.157516
0.172571 0.387001 0.157516
0.182294 0.387001 0.157516
0.192014 0.387001 0.157516
0.201734 0.387001 0.157516
0.211454 0.387001 0.157516
0.221173 0.387001 0.157516
0.230893 0.387001 0.157516
0.240613 0.387001 0.157516
0.250333 0.387001 0.157516
0.260053 0.387001 0.157516
0.269772 0.387001 0.157516
0.279492 0.387001 0.157516
0.289212 0.387001 0.157516
0.298932 0.387001 0.157516
0.308652 0.387001 0.157516
0.318371 0.387001 0.157516
0.328076 0.387001 0.157516
0.330387 0.387001 0.157516
0.380542 0.387001 0.157516
0.397598 0.390747 0.161222
0.418182 0.398032 0.168423
0.438765 0.405326 0.175624
0.459347 0.412628 0.182825
0.479929 0.419937 0.190027
0.500511 0.427253 0.197229
0.521093 0.434574 0.204432
0.541674 0.441900 0.211635
0.562254 0.449230 0.218839
0.582835 0.456564 0.226042
0.603415 0.463902 0.233246
0.623995 0.471243 0.240450
0.163677 0.404616 0.163677
0.170734 0.404616 0.163677
0.178727 0.404616 0.163677
0.188446 0.404616 0.163677
0.198162 0.404616 0.163677
0.207878 0.404616 0.163677
0.217595 0.404616 0.163677
0.227311 0.404616 0.163677
0.237027 0.404616 0.163677
0.246743 0.404616 0.163677
0.256459 0.404616 0.163677
0.266175 0.404616 0.163677
0.275891 0.404616 0.163677
0.285607 0.404616 0.163677
0.295323 0.404616 0.163677
0.305039 0.404616 0.163677
0.314755 0.404616 0.163677
0.324471 0.404616 0.163677
0.334172 0.404616 0.163677
0.336482 0.404616 0.163677
0.386774 0.404616 0.163677
0.400079 0.404616 0.163677
0.418182 0.409415 0.168423
0.438765 0.416705 0.175624
0.459347 0.424003 0.182825
0.479929 0.431309 0.190027
0.500511 0.438621 0.197229
0.521093 0.445939 0.204432
0.541674 0.453262 0.211635
0.562254 0.460589 0.218839
0.582835 0.467921 0.226042
0.603415 0.475257 0.233246
0.623995 0.482595 0.240450
0.169839 0.422231 0.169839
0.176894 0.422231 0.169839
0.184884 0.422231 0.169839
0.194600 0.422231 0.169839
0.204312 0.422231 0.169839
0.214025 0.422231 0.169839
0.223738 0.422231 0.169839
0.233450 0.422231 0.169839
0.243163 0.422231 0.169839
0.252875 0.422231 0.169839
0.262588 0.422231 0.169839
0.272301 0.422231 0.169839
0.282013 0.422231 0.169839
0.291726 0.422231 0.169839
0.301439 0.422231 0.169839
0.311151 0.422231 0.169839
0.320864 0.422231 0.169839
0.330577 0.422231 0.169839
0.340274 0.422231 0.169839
0.342583 0.422231 0.169839
0.393013 0.422231 0.169839
0.406313 0.422231 0.169839
0.419614 0.422231 0.169839
0.438765 0.428084 0.175624
