docs/luts/fuji_recipes/Eterna_RS_Kodak_Vision3_250D.cube
TITLE "Fujifilm Recipe: RS Kodak Vision3 250D (Eterna)"
# FilmSim=Eterna HL=3 SH=4 Col=3 WB=FLight1 WBR=-3 WBB=-1
LUT_3D_SIZE 5
DOMAIN_MIN 0.0 0.0 0.0
DOMAIN_MAX 1.0 1.0 1.0
0.033600 0.033600 0.033600
0.215791 0.000000 0.000000
0.374657 0.000000 0.000000
0.624275 0.000000 0.000000
0.752291 0.000000 0.000000
0.000000 0.246451 0.000000
0.206682 0.246451 0.000000
0.374657 0.223709 0.000000
0.624275 0.205104 0.000000
0.752291 0.201495 0.000000
0.000000 0.492503 0.000000
0.176992 0.492503 0.000000
0.353453 0.492503 0.000000
0.624275 0.480412 0.000000
0.752291 0.473656 0.000000
0.000000 0.736033 0.000000
0.169302 0.736033 0.000000
0.338096 0.736033 0.000000
0.615939 0.736033 0.000000
0.752291 0.734853 0.000000
0.000000 0.903715 0.000000
0.170127 0.903715 0.000000
0.339745 0.903715 0.000000
0.620948 0.903715 0.000000
0.759183 0.903715 0.000000
0.000000 0.000000 0.260442
0.203436 0.000000 0.260442
0.374657 0.000000 0.240181
0.624275 0.000000 0.220207
0.752291 0.000000 0.216332
0.000000 0.242580 0.260442
0.203192 0.259115 0.284634
0.432677 0.205316 0.230127
0.760570 0.107714 0.131048
0.985696 0.000000 0.026393
0.000000 0.492503 0.226588
0.109647 0.592682 0.184882
0.371654 0.593159 0.174846
0.761341 0.537686 0.127521
1.000000 0.486794 0.006275
0.000000 0.736033 0.216743
0.000000 0.925687 0.077111
0.230088 0.991363 0.000000
0.763662 0.991363 0.000000
1.000000 0.967882 0.006275
0.000000 0.903715 0.217800
0.127061 1.000000 0.183574
0.427170 1.000000 0.189047
0.667780 1.000000 0.189047
0.830485 1.000000 0.189047
0.000000 0.000000 0.524784
0.175510 0.000000 0.524784
0.350494 0.000000 0.524784
0.624275 0.000000 0.515655
0.752291 0.000000 0.508279
0.000000 0.209281 0.524784
0.098450 0.149757 0.633487
0.360337 0.142455 0.634579
0.760570 0.107714 0.592748
0.985696 0.000000 0.551633
0.000000 0.488823 0.524784
0.098450 0.578852 0.633487
0.333945 0.572206 0.631662
0.751353 0.490078 0.554085
0.956240 0.404765 0.473291
0.000000 0.736033 0.509028
0.000000 0.925687 0.556719
0.310864 0.950139 0.501588
0.683907 0.917023 0.476378
0.944177 0.909891 0.464411
0.000000 0.903715 0.513515
0.127061 1.000000 0.537446
0.436633 1.000000 0.550795
0.682889 1.000000 0.556440
0.845593 1.000000 0.556440
0.000000 0.000000 0.782305
0.168426 0.000000 0.782305
0.336348 0.000000 0.782305
0.613366 0.000000 0.782305
0.750219 0.000000 0.782305
0.000000 0.200834 0.782305
0.000000 0.051696 0.983671
0.252206 0.026647 1.000000
0.718806 0.026647 1.000000
0.946595 0.026647 1.000000
0.000000 0.472498 0.782305
0.000000 0.489476 0.983671
0.304223 0.419487 1.000000
0.666841 0.389039 1.000000
0.936726 0.389039 1.000000
0.000000 0.732839 0.782305
0.000000 0.904765 0.983671
0.304223 0.907311 1.000000
0.625283 0.860570 0.957987
0.860325 0.827998 0.920003
0.000000 0.903715 0.791592
0.127061 1.000000 0.867087
0.436633 1.000000 0.878094
0.689142 1.000000 0.889992
0.859892 1.000000 0.898038
0.000000 0.000000 0.878375
0.169111 0.000000 0.878375
0.337715 0.000000 0.878375
0.616993 0.000000 0.878375
0.754403 0.000000 0.878375
0.000000 0.201650 0.878375
0.101721 0.142771 1.000000
0.415686 0.144696 1.000000
0.671258 0.144696 1.000000
0.844079 0.144696 1.000000
0.000000 0.475553 0.878375
0.101721 0.491825 1.000000
0.421068 0.498033 1.000000
0.676493 0.501434 1.000000
0.846562 0.501434 1.000000
0.000000 0.736952 0.878375
0.101721 0.821589 1.000000
0.421068 0.823769 1.000000
0.685475 0.829823 1.000000
0.857717 0.837053 1.000000
0.000000 0.903715 0.883900
0.127061 1.000000 0.976511
0.436633 1.000000 0.986741
0.689142 1.000000 0.998639
0.859892 1.000000 1.000000
