docs/luts/fuji_recipes/Eterna_RR_Polaroid_Film.cube
TITLE "Fujifilm Recipe: RR Polaroid Film (Eterna)"
# FilmSim=Eterna HL=4 SH=4 Col=-3 WB=Shade WBR=4 WBB=6
LUT_3D_SIZE 9
DOMAIN_MIN 0.0 0.0 0.0
DOMAIN_MAX 1.0 1.0 1.0
0.033600 0.033600 0.033600
0.087819 0.052434 0.052434
0.148468 0.074116 0.074116
0.209016 0.095898 0.095898
0.269528 0.117717 0.117717
0.377013 0.154023 0.154023
0.459347 0.182825 0.182825
0.541674 0.211635 0.211635
0.623995 0.240450 0.240450
0.049039 0.078237 0.049039
0.087819 0.081534 0.052434
0.148468 0.102863 0.074116
0.209016 0.124486 0.095898
0.269528 0.146214 0.117717
0.377013 0.182399 0.154023
0.459347 0.211156 0.182825
0.541674 0.239933 0.211635
0.623995 0.268724 0.240450
0.067555 0.130179 0.067555
0.102602 0.130179 0.067555
0.148468 0.136577 0.074116
0.209016 0.158013 0.095898
0.269528 0.179635 0.117717
0.377013 0.215679 0.154023
0.459347 0.244382 0.182825
0.541674 0.273121 0.211635
0.623995 0.301884 0.240450
0.086176 0.182015 0.086176
0.121010 0.182015 0.086176
0.160268 0.182015 0.086176
0.209016 0.191541 0.095898
0.269528 0.213055 0.117717
0.377013 0.248959 0.154023
0.459347 0.277607 0.182825
0.541674 0.306309 0.211635
0.623995 0.335044 0.240450
0.104835 0.233813 0.104835
0.139546 0.233813 0.104835
0.178665 0.233813 0.104835
0.217784 0.233813 0.104835
0.269528 0.246476 0.117717
0.377013 0.282239 0.154023
0.459347 0.310833 0.182825
0.541674 0.339497 0.211635
0.623995 0.368203 0.240450
0.123513 0.285592 0.123513
0.158144 0.285592 0.123513
0.197172 0.285592 0.123513
0.236201 0.285592 0.123513
0.275229 0.285592 0.123513
0.377013 0.315519 0.154023
0.459347 0.344059 0.182825
0.541674 0.372685 0.211635
0.623995 0.401363 0.240450
0.157516 0.387001 0.157516
0.192014 0.387001 0.157516
0.230893 0.387001 0.157516
0.269772 0.387001 0.157516
0.308652 0.387001 0.157516
0.380542 0.387001 0.157516
0.459347 0.412628 0.182825
0.541674 0.441900 0.211635
0.623995 0.471243 0.240450
0.182165 0.457460 0.182165
0.216616 0.457460 0.182165
0.255442 0.457460 0.182165
0.294269 0.457460 0.182165
0.333095 0.457460 0.182165
0.405509 0.457460 0.182165
0.459347 0.458129 0.182825
0.541674 0.487348 0.211635
0.623995 0.516653 0.240450
0.206820 0.527914 0.206820
0.241236 0.527914 0.206820
0.280023 0.527914 0.206820
0.318810 0.527914 0.206820
0.357598 0.527914 0.206820
0.430558 0.527914 0.206820
0.483675 0.527914 0.206820
0.541674 0.532797 0.211635
0.623995 0.562064 0.240450
0.049598 0.049598 0.079818
0.087819 0.052434 0.082570
0.148468 0.074116 0.103887
0.209016 0.095898 0.125504
0.269528 0.117717 0.147228
0.377013 0.154023 0.183410
0.459347 0.182825 0.212165
0.541674 0.211635 0.240941
0.623995 0.240450 0.269731
0.049598 0.078779 0.079818
0.107854 0.102032 0.102992
0.169039 0.122247 0.123297
0.229965 0.143651 0.144690
0.290720 0.165226 0.166259
0.399298 0.201462 0.202487
0.481771 0.230126 0.231146
0.564199 0.258834 0.259853
0.646597 0.287572 0.288588
0.067555 0.130179 0.097403
0.122932 0.151298 0.117584
0.169753 0.157544 0.123979
0.230695 0.178584 0.145368
0.291460 0.199929 0.166933
0.400079 0.235892 0.203164
0.482559 0.264428 0.231821
0.564991 0.293045 0.260525
0.647394 0.321712 0.289259
0.086176 0.182015 0.115842
0.141088 0.203541 0.135798
0.181278 0.203541 0.135798
0.230695 0.212840 0.145368
0.291460 0.233959 0.166933
0.400079 0.269644 0.203164
0.482559 0.298057 0.231821
0.564991 0.326583 0.260525
0.647394 0.355182 0.289259
0.104835 0.233813 0.134397
0.159442 0.255607 0.154188
0.199349 0.255607 0.154188
0.239256 0.255607 0.154188
0.291460 0.267989 0.166933
0.400079 0.303397 0.203164
0.482559 0.331685 0.231821
0.564991 0.360121 0.260525
0.647394 0.388652 0.289259
0.123513 0.285592 0.153006
0.177903 0.307577 0.172676
0.217613 0.307577 0.172676
0.257323 0.307577 0.172676
0.297033 0.307577 0.172676
0.400079 0.337150 0.203164
0.482559 0.365314 0.231821
0.564991 0.393660 0.260525
0.647394 0.422122 0.289259
0.157516 0.387001 0.186896
0.211826 0.410087 0.206636
0.251246 0.410087 0.206636
0.290666 0.410087 0.206636
0.330086 0.410087 0.206636
0.403539 0.410087 0.206636
0.482559 0.435273 0.231821
0.564991 0.464163 0.260525
0.647394 0.493212 0.289259
0.182165 0.457460 0.211505
0.236336 0.480669 0.231163
0.275635 0.480669 0.231163
0.314933 0.480669 0.231163
0.354232 0.480669 0.231163
0.428085 0.480669 0.231163
0.482559 0.481325 0.231821
0.564991 0.510092 0.260525
0.647394 0.539047 0.289259
0.206820 0.527914 0.236130
0.260886 0.551216 0.255725
0.300091 0.551216 0.255725
0.339297 0.551216 0.255725
0.378503 0.551216 0.255725
0.452809 0.551216 0.255725
0.506500 0.551216 0.255725
0.564991 0.556021 0.260525
0.647394 0.584883 0.289259
0.069654 0.069654 0.136033
0.104670 0.069654 0.136033
0.148468 0.074116 0.140383
0.209016 0.095898 0.161798
0.269528 0.117717 0.183407
0.377013 0.154023 0.219436
0.459347 0.182825 0.248132
0.541674 0.211635 0.276868
0.623995 0.240450 0.305627
0.069654 0.098450 0.136033
0.124280 0.117890 0.156499
0.169039 0.122247 0.160743
0.229965 0.143651 0.181751
0.290720 0.165226 0.203077
0.399298 0.201462 0.239009
0.481771 0.230126 0.267536
0.564199 0.258834 0.296146
0.646597 0.287572 0.324809
0.069654 0.132221 0.136033
0.132285 0.158073 0.161641
0.192395 0.181246 0.184815
0.253574 0.200614 0.204544
0.314695 0.221823 0.225721
0.424680 0.257851 0.261708
0.507397 0.286271 0.290109
0.590010 0.314794 0.318617
0.689646 0.326295 0.330502
0.086176 0.182015 0.152211
0.144541 0.207192 0.176584
0.209083 0.229544 0.201502
0.257462 0.240986 0.212944
0.317358 0.258931 0.228256
0.427505 0.294605 0.264257
0.510252 0.322838 0.292647
0.592890 0.351219 0.321146
0.692178 0.366054 0.332993
0.104835 0.233813 0.170637
0.162876 0.259313 0.194683
0.224063 0.281285 0.215733
0.264653 0.281285 0.215733
0.317358 0.293508 0.228256
0.427505 0.328816 0.264257
0.510252 0.356871 0.292647
0.592890 0.385119 0.321146
0.692178 0.403321 0.332993
0.123513 0.285592 0.189162
0.181322 0.311324 0.212962
0.242189 0.333562 0.233912
0.282521 0.333562 0.233912
0.322853 0.333562 0.233912
0.427505 0.363026 0.264257
0.510252 0.390904 0.292647
0.592890 0.419019 0.321146
0.692178 0.440588 0.332993
0.157516 0.387001 0.222914
0.215263 0.414039 0.246658
0.275891 0.437550 0.267693
0.315838 0.437550 0.267693
0.355784 0.437550 0.267693
0.430915 0.437550 0.267693
0.510252 0.462398 0.292647
0.592890 0.490974 0.321146
0.692178 0.520504 0.332993
0.182165 0.457460 0.247474
0.239761 0.484649 0.271053
0.300157 0.508357 0.291994
0.339929 0.508357 0.291994
0.379701 0.508357 0.291994
0.455140 0.508357 0.291994
0.510252 0.509004 0.292647
0.592890 0.537399 0.321146
0.692178 0.571540 0.332993
0.206820 0.527914 0.272063
0.264300 0.555218 0.295513
0.324511 0.579084 0.316377
0.364147 0.579084 0.316377
0.403783 0.579084 0.316377
0.479597 0.579084 0.316377
0.533876 0.579084 0.316377
0.592890 0.583823 0.321146
0.692178 0.622575 0.332993
0.089820 0.089820 0.192139
0.124625 0.089820 0.192139
0.163850 0.089820 0.192139
0.209016 0.095898 0.198092
0.269528 0.117717 0.219586
0.377013 0.154023 0.255462
0.459347 0.182825 0.284100
0.541674 0.211635 0.312794
0.623995 0.240450 0.341523
0.089820 0.118442 0.192139
0.143981 0.137660 0.213000
0.184081 0.137660 0.213000
0.229965 0.143651 0.218811
0.290720 0.165226 0.239895
0.399298 0.201462 0.275531
0.481771 0.230126 0.303926
0.564199 0.258834 0.332440
0.646597 0.287572 0.361030
0.089820 0.152011 0.192139
0.148112 0.176213 0.217388
0.210895 0.199745 0.237533
0.253574 0.200614 0.242231
0.314695 0.221823 0.263099
0.424680 0.257851 0.298695
0.507397 0.286271 0.326908
0.590010 0.314794 0.355277
0.689646 0.326295 0.370849
0.089820 0.185579 0.192139
0.148112 0.210658 0.217388
0.218637 0.239098 0.245275
0.276936 0.260460 0.266637
0.339525 0.286112 0.292289
0.449478 0.314826 0.321570
0.532474 0.342966 0.349670
0.620982 0.365594 0.372578
0.712083 0.385630 0.392906
0.104835 0.233813 0.206877
0.162876 0.259313 0.231757
0.236300 0.288371 0.262938
0.291736 0.306871 0.281437
0.343815 0.322012 0.296578
0.454269 0.353829 0.326013
0.537321 0.381746 0.354097
0.628874 0.403208 0.373681
0.716468 0.427175 0.397224
0.123513 0.285592 0.225318
0.181322 0.311324 0.249843
0.247582 0.339215 0.276751
0.313688 0.360433 0.303389
0.350626 0.360433 0.303389
0.454269 0.388402 0.326013
0.537321 0.416110 0.354097
0.628874 0.439906 0.373681
0.716468 0.464401 0.397224
0.157516 0.387001 0.258932
0.215263 0.414039 0.283254
0.281316 0.443537 0.310197
0.340663 0.464355 0.329408
0.381028 0.464355 0.329408
0.457650 0.464355 0.329408
0.537321 0.489001 0.354097
0.628874 0.518548 0.373681
0.716468 0.544986 0.397224
0.182165 0.457460 0.283443
0.239761 0.484649 0.307527
0.305562 0.514400 0.334311
0.364649 0.535420 0.353451
0.404809 0.535420 0.353451
0.481684 0.535420 0.353451
0.537321 0.536061 0.354097
0.628874 0.568803 0.373681
0.716468 0.595964 0.397224
0.206820 0.527914 0.307995
0.264300 0.555218 0.331894
0.329899 0.585172 0.358545
0.385036 0.610500 0.373480
0.426480 0.610500 0.373480
0.506475 0.610500 0.373480
0.563230 0.610500 0.373480
0.628874 0.619059 0.373681
0.716468 0.646942 0.397224
0.110025 0.110025 0.248205
0.144710 0.110025 0.248205
0.183801 0.110025 0.248205
0.222891 0.110025 0.248205
0.269528 0.117717 0.255765
0.377013 0.154023 0.291489
0.459347 0.182825 0.320068
0.541674 0.211635 0.348721
0.623995 0.240450 0.377419
0.110025 0.138549 0.248205
0.163886 0.157609 0.269322
0.203710 0.157609 0.269322
0.243533 0.157609 0.269322
0.290720 0.165226 0.276714
0.399298 0.201462 0.312054
0.481771 0.230126 0.340316
0.564199 0.258834 0.368734
0.646597 0.287572 0.397251
0.110025 0.172002 0.248205
0.167994 0.195889 0.273777
0.226533 0.214323 0.293180
0.266985 0.214323 0.293180
0.314695 0.221823 0.300476
0.424680 0.257851 0.335682
0.507397 0.286271 0.363708
0.590010 0.314794 0.391937
0.689646 0.326295 0.411196
0.110025 0.205455 0.248205
0.167994 0.230082 0.273777
0.234489 0.256997 0.301433
0.293548 0.277072 0.317468
0.339525 0.286112 0.326508
0.449478 0.314826 0.358930
0.532474 0.342966 0.386810
0.620982 0.365594 0.411268
0.712083 0.385630 0.433212
0.110025 0.238907 0.248205
0.167994 0.264274 0.273777
0.234489 0.291769 0.301433
0.304990 0.320124 0.328909
0.361478 0.339674 0.348460
0.473846 0.372229 0.381899
0.557130 0.400081 0.409690
0.647075 0.421273 0.431454
0.734527 0.444957 0.455293
0.123513 0.285592 0.261475
0.181322 0.311324 0.286723
0.247582 0.339215 0.314221
0.320841 0.367586 0.344760
0.374389 0.384197 0.361372
0.482943 0.422074 0.399249
0.564148 0.440879 0.415790
0.653368 0.464137 0.437707
0.740767 0.488287 0.461444
0.157516 0.387001 0.294950
0.215263 0.414039 0.319850
0.281316 0.443537 0.347297
0.348082 0.472323 0.374292
0.405943 0.490685 0.391597
0.483923 0.490685 0.391597
0.564148 0.515290 0.415790
0.653368 0.543324 0.437707
0.740767 0.569520 0.461444
0.182165 0.457460 0.319412
0.239761 0.484649 0.344002
0.305562 0.514400 0.371242
0.372046 0.543468 0.398119
0.429645 0.562013 0.415377
0.507844 0.562013 0.415377
0.564148 0.562874 0.415790
0.653368 0.593451 0.437707
0.740767 0.620428 0.461444
0.206820 0.527914 0.343928
0.264300 0.555218 0.368276
0.329899 0.585172 0.395342
0.388885 0.621737 0.416576
0.448648 0.638892 0.433607
0.531770 0.638892 0.433607
0.590215 0.638892 0.433607
0.653368 0.643578 0.437707
0.740767 0.671337 0.461444
0.130162 0.130162 0.304014
0.164770 0.130162 0.304014
0.203774 0.130162 0.304014
0.242777 0.130162 0.304014
0.281781 0.130162 0.304014
0.377013 0.154023 0.327361
0.459347 0.182825 0.355882
0.541674 0.211635 0.384494
0.623995 0.240450 0.452128
0.130162 0.158623 0.304014
0.183815 0.177568 0.325308
0.223449 0.177568 0.325308
0.263083 0.177568 0.325308
0.302716 0.177568 0.325308
0.399298 0.201462 0.348420
0.481771 0.230126 0.376551
0.564199 0.258834 0.444078
0.646597 0.287572 0.473174
0.130162 0.192001 0.304014
0.187904 0.215656 0.329813
0.246133 0.233999 0.349450
0.286334 0.233999 0.349450
0.326534 0.233999 0.349450
0.424680 0.257851 0.372511
0.507397 0.286271 0.440001
0.590010 0.314794 0.468678
0.689646 0.326295 0.496469
0.130162 0.225380 0.304014
0.187904 0.249674 0.329813
0.254060 0.276422 0.357807
0.309171 0.291043 0.372978
0.349812 0.291043 0.372978
0.449478 0.314826 0.396132
0.532474 0.342966 0.464454
0.620982 0.365594 0.492932
0.712083 0.385630 0.519101
0.130162 0.258758 0.304014
0.187904 0.283691 0.329813
0.254060 0.310968 0.357807
0.338049 0.354676 0.442322
0.397937 0.376134 0.456197
0.473846 0.372229 0.460542
0.557130 0.400081 0.488585
0.647075 0.421273 0.515839
0.734527 0.444957 0.541778
0.130162 0.292137 0.304014
0.187904 0.317708 0.329813
0.254060 0.345514 0.357807
0.338049 0.389404 0.442322
0.413320 0.423127 0.471991
0.499477 0.438178 0.487391
0.583736 0.455247 0.512206
0.669734 0.480385 0.538853
0.756982 0.504273 0.564518
0.157516 0.387001 0.330814
0.215263 0.414039 0.356290
0.281316 0.443537 0.384238
0.348082 0.472323 0.452357
0.425579 0.502720 0.484499
0.534293 0.540429 0.522208
0.615745 0.571296 0.553075
0.700809 0.591659 0.570730
0.787972 0.617630 0.596314
0.182165 0.457460 0.355227
0.239761 0.484649 0.380320
0.305562 0.514400 0.448015
0.372046 0.543468 0.476419
0.436408 0.574658 0.504390
0.564356 0.613780 0.552270
0.615745 0.614585 0.553075
0.700809 0.641379 0.570730
0.787972 0.668269 0.596314
0.206820 0.527914 0.379707
0.264300 0.555218 0.443796
0.329899 0.585172 0.472475
0.388885 0.621737 0.500416
0.457935 0.648240 0.527295
0.580160 0.686382 0.566313
0.638114 0.686382 0.566313
0.700809 0.691099 0.570730
0.787972 0.718909 0.596314
0.168434 0.168434 0.418213
0.202909 0.168434 0.418213
0.241763 0.168434 0.418213
0.280616 0.168434 0.418213
0.319470 0.168434 0.418213
0.391589 0.168434 0.418213
0.459347 0.182825 0.432783
0.541674 0.211635 0.462032
0.623995 0.240450 0.491358
0.168434 0.196785 0.418213
0.221999 0.215798 0.440573
0.261346 0.215798 0.440573
0.300692 0.215798 0.440573
0.340038 0.215798 0.440573
0.413611 0.215798 0.440573
0.481771 0.230126 0.454895
0.564199 0.258834 0.483743
0.646597 0.287572 0.512759
0.168434 0.230035 0.418213
0.226108 0.253644 0.445323
0.284074 0.272056 0.466086
0.323891 0.272056 0.466086
0.363707 0.272056 0.466086
0.438802 0.272056 0.466086
0.507397 0.286271 0.480218
0.590010 0.314794 0.508743
0.689646 0.326295 0.540563
0.168434 0.263286 0.418213
0.226108 0.287397 0.445323
0.292043 0.314179 0.474941
0.346814 0.328882 0.491032
0.387015 0.328882 0.491032
0.463484 0.328882 0.491032
0.532474 0.342966 0.505044
0.620982 0.365594 0.535215
0.712083 0.385630 0.563150
0.168434 0.296536 0.418213
0.226108 0.321149 0.445323
0.292043 0.348376 0.474941
0.358677 0.375220 0.503858
0.410053 0.386134 0.515552
0.487784 0.386134 0.515552
0.557130 0.400081 0.529488
0.647075 0.421273 0.559174
0.734527 0.444957 0.585775
0.168434 0.329786 0.418213
0.226108 0.354902 0.445323
0.292043 0.382574 0.474941
0.358677 0.409772 0.503858
0.438481 0.448288 0.535059
0.516852 0.455207 0.542163
0.583736 0.455247 0.554890
0.669734 0.480385 0.582071
0.756982 0.504273 0.608449
0.168434 0.398043 0.418213
0.226108 0.424848 0.445323
0.292043 0.454196 0.474941
0.358677 0.482898 0.503858
0.438481 0.515883 0.535059
0.556003 0.562139 0.581314
0.628399 0.583950 0.603126
0.713424 0.604561 0.626527
0.800390 0.630341 0.652734
0.182165 0.457460 0.432114
0.239761 0.484649 0.458946
0.305562 0.514400 0.488376
0.372046 0.543468 0.517183
0.436408 0.574658 0.547111
0.572749 0.622173 0.598060
0.641715 0.640556 0.616443
0.726740 0.667655 0.640121
0.813474 0.694233 0.666134
0.206820 0.527914 0.457137
0.264300 0.555218 0.483557
0.329899 0.585172 0.512690
0.388885 0.621737 0.543709
0.457935 0.648240 0.570453
0.588733 0.694767 0.617681
0.664410 0.712388 0.635629
0.726740 0.717086 0.640121
0.813474 0.744677 0.666134
0.195120 0.195120 0.494484
0.229552 0.195120 0.494484
0.268356 0.195120 0.494484
0.307161 0.195120 0.494484
0.345965 0.195120 0.494484
0.418664 0.195120 0.494484
0.471804 0.195120 0.494484
0.541674 0.211635 0.511231
0.623995 0.240450 0.540516
0.195120 0.223436 0.494484
0.248558 0.242374 0.516954
0.287790 0.242374 0.516954
0.327023 0.242374 0.516954
0.366256 0.242374 0.516954
0.440297 0.242374 0.516954
0.494024 0.242374 0.516954
0.564199 0.258834 0.533445
0.646597 0.287572 0.562362
0.195120 0.256644 0.494484
0.252652 0.280101 0.521737
0.310403 0.298434 0.542665
0.350057 0.298434 0.542665
0.389711 0.298434 0.542665
0.465186 0.298434 0.542665
0.519489 0.298434 0.542665
0.590010 0.314794 0.558947
0.689646 0.326295 0.595816
0.195120 0.289852 0.494484
0.252652 0.313748 0.521737
0.318341 0.340380 0.551599
0.372874 0.355028 0.567843
0.412881 0.355028 0.567843
0.489673 0.355028 0.567843
0.544460 0.355028 0.567843
0.620982 0.365594 0.588198
0.712083 0.385630 0.618347
0.195120 0.323060 0.494484
0.252652 0.347394 0.521737
0.318341 0.374428 0.551599
0.384697 0.401156 0.580795
0.432212 0.407126 0.597517
0.514475 0.407126 0.597517
0.572677 0.407126 0.597517
0.647075 0.421273 0.613475
0.734527 0.444957 0.640905
0.195120 0.356268 0.494484
0.252652 0.381040 0.521737
0.318341 0.408475 0.551599
0.384697 0.435532 0.580795
0.447807 0.459068 0.613237
0.537536 0.466096 0.620318
0.595556 0.466096 0.620318
0.669734 0.480385 0.636226
0.756982 0.504273 0.663498
0.195120 0.425110 0.494484
0.252652 0.451447 0.521737
0.318341 0.480471 0.551599
0.384697 0.508980 0.580795
0.447807 0.537414 0.613237
0.588546 0.594682 0.660718
0.643391 0.598943 0.664979
0.713424 0.604561 0.680208
0.800390 0.630341 0.707458
0.195120 0.470586 0.494484
0.252652 0.497524 0.521737
0.318341 0.527098 0.551599
0.384697 0.556057 0.580795
0.447807 0.587118 0.613237
0.588546 0.637970 0.660718
0.673453 0.672294 0.695041
0.744173 0.692430 0.715177
0.829958 0.711112 0.737532
0.206820 0.527914 0.506345
0.264300 0.555218 0.533379
0.329899 0.585172 0.563083
0.388885 0.621737 0.597958
0.457935 0.648240 0.624534
0.588733 0.694767 0.671275
0.688523 0.730652 0.710111
0.759970 0.751516 0.730975
0.845552 0.777261 0.753500
0.221812 0.221812 0.570749
0.256211 0.221812 0.570749
0.294979 0.221812 0.570749
0.333747 0.221812 0.570749
0.372515 0.221812 0.570749
0.445817 0.221812 0.570749
0.498907 0.221812 0.570749
0.551998 0.221812 0.570749
0.623995 0.240450 0.589673
0.221812 0.250101 0.570749
0.275152 0.268982 0.593303
0.314299 0.268982 0.593303
0.353446 0.268982 0.593303
0.392593 0.268982 0.593303
0.467150 0.268982 0.593303
0.520759 0.268982 0.593303
0.574369 0.268982 0.593303
0.646597 0.287572 0.611965
0.221812 0.283278 0.570749
0.279235 0.306618 0.598111
0.336817 0.324886 0.619171
0.376344 0.324886 0.619171
0.415872 0.324886 0.619171
0.491791 0.324886 0.619171
0.545922 0.324886 0.619171
0.600052 0.324886 0.619171
0.689646 0.326295 0.651069
0.221812 0.316455 0.570749
0.279235 0.340184 0.598111
0.340369 0.363008 0.632528
0.389802 0.370578 0.655250
0.432899 0.370578 0.655250
0.516367 0.370578 0.655250
0.575386 0.370578 0.655250
0.634405 0.370578 0.655250
0.712083 0.385630 0.673544
0.221812 0.349632 0.570749
0.279235 0.373749 0.598111
0.340369 0.397982 0.632528
0.401450 0.419091 0.666999
0.455190 0.429801 0.677798
0.539189 0.429801 0.677798
0.598092 0.429801 0.677798
0.656995 0.429801 0.677798
0.734527 0.444957 0.696035
0.221812 0.382809 0.570749
0.279235 0.407314 0.598111
0.340369 0.432956 0.632528
0.401450 0.455936 0.666999
0.470633 0.482036 0.693368
0.562093 0.488995 0.700377
0.620858 0.488995 0.700377
0.679622 0.488995 0.700377
0.756982 0.504273 0.718547
0.221812 0.452257 0.570749
0.279235 0.478231 0.598111
0.340369 0.507618 0.632528
0.401450 0.535405 0.666999
0.470633 0.562110 0.693368
0.602437 0.609514 0.739729
0.665073 0.613850 0.743955
0.723366 0.613850 0.743955
0.800390 0.630341 0.762182
0.221812 0.497691 0.570749
0.279235 0.524197 0.598111
0.340369 0.555513 0.632528
0.401450 0.585863 0.666999
0.470633 0.612439 0.693368
0.602437 0.659443 0.739729
0.695584 0.694258 0.773887
0.753449 0.694258 0.773887
0.829958 0.711112 0.791958
0.221812 0.543125 0.570749
0.279235 0.570163 0.598111
0.340369 0.603408 0.632528
0.401450 0.636321 0.666999
0.470633 0.662768 0.693368
0.602437 0.709372 0.739729
0.696408 0.744590 0.774692
0.786642 0.778188 0.804507
0.859687 0.791723 0.822022
