docs/luts/fuji_recipes/Eterna_RR_Eterna_Expired.cube
TITLE "Fujifilm Recipe: RR Eterna Expired (Eterna)"
# FilmSim=Eterna HL=4 SH=4 Col=4 WB=Auto WBR=5 WBB=5
LUT_3D_SIZE 5
DOMAIN_MIN 0.0 0.0 0.0
DOMAIN_MAX 1.0 1.0 1.0
0.033600 0.033600 0.033600
0.269438 0.000000 0.000000
0.544939 0.000000 0.000000
0.825955 0.000000 0.000000
0.992871 0.000000 0.000000
0.000000 0.247296 0.000000
0.269438 0.240703 0.000000
0.544939 0.205689 0.000000
0.825955 0.196448 0.000000
0.992871 0.195894 0.000000
0.000000 0.432026 0.000000
0.242285 0.432026 0.000000
0.544939 0.410555 0.000000
0.825955 0.481610 0.000000
0.992871 0.482531 0.000000
0.000000 0.735658 0.000000
0.222277 0.735658 0.000000
0.528902 0.735658 0.000000
0.825955 0.729113 0.000000
0.992871 0.729336 0.000000
0.000000 0.994499 0.000000
0.219359 0.994499 0.000000
0.525620 0.994499 0.000000
0.826267 0.994499 0.000000
0.993293 0.994499 0.000000
0.000000 0.000000 0.271516
0.268825 0.000000 0.271516
0.544939 0.000000 0.232549
0.825955 0.000000 0.222102
0.992871 0.000000 0.221476
0.000000 0.240155 0.271516
0.265430 0.227760 0.268966
0.641885 0.113386 0.154758
1.000000 0.031060 0.070316
1.000000 0.202258 0.228132
0.000000 0.432026 0.244711
0.159643 0.585122 0.163231
0.638047 0.568357 0.147235
1.000000 0.467646 0.059980
1.000000 0.497669 0.229411
0.000000 0.735658 0.224502
0.049136 0.914232 0.052856
0.568541 0.915872 0.050072
1.000000 0.850282 0.059980
1.000000 0.747294 0.229411
0.000000 0.994499 0.221555
0.227252 1.000000 0.229473
0.541231 1.000000 0.229583
0.845204 1.000000 0.229583
1.000000 1.000000 0.229583
0.000000 0.000000 0.550102
0.229946 0.000000 0.550102
0.544312 0.000000 0.550102
0.825955 0.000000 0.530105
0.992871 0.000000 0.530889
0.000000 0.205422 0.550102
0.149255 0.111455 0.648706
0.639781 0.111455 0.648706
1.000000 0.031060 0.547288
1.000000 0.202258 0.544813
0.000000 0.410023 0.550102
0.142356 0.566651 0.645241
0.577023 0.508022 0.585917
0.991326 0.361974 0.450607
1.000000 0.509378 0.558289
0.000000 0.735658 0.534500
0.049136 0.914232 0.578003
0.476893 0.839073 0.486698
0.973835 0.797606 0.435464
1.000000 0.761422 0.560708
0.000000 0.994499 0.531144
0.227252 1.000000 0.546665
0.555083 1.000000 0.560668
0.859332 1.000000 0.560944
1.000000 1.000000 0.560944
0.000000 0.000000 0.833470
0.219727 0.000000 0.833470
0.524266 0.000000 0.833470
0.825417 0.000000 0.833470
0.992871 0.000000 0.833942
0.000000 0.196294 0.833470
0.074988 0.039882 1.000000
0.536769 0.039882 1.000000
0.987935 0.039882 1.000000
1.000000 0.202258 0.851329
0.000000 0.481342 0.833470
0.066320 0.467900 1.000000
0.438485 0.360536 1.000000
0.985375 0.360536 1.000000
1.000000 0.509378 0.864805
0.000000 0.728650 0.833470
0.066320 0.841607 1.000000
0.422591 0.796029 0.987549
0.901744 0.730323 0.916010
1.000000 0.771347 0.877149
0.000000 0.994499 0.834307
0.227252 1.000000 0.853181
0.555083 1.000000 0.867184
0.874087 1.000000 0.882216
1.000000 1.000000 0.882618
0.000000 0.000000 0.994499
0.219359 0.000000 0.994499
0.525620 0.000000 0.994499
0.826267 0.000000 0.994499
0.993293 0.000000 0.994499
0.000000 0.195965 0.994499
0.226082 0.202430 1.000000
0.539464 0.202430 1.000000
0.843437 0.202430 1.000000
1.000000 0.202430 1.000000
0.000000 0.482769 0.994499
0.227252 0.497754 1.000000
0.552941 0.509615 1.000000
0.856913 0.509615 1.000000
1.000000 0.509615 1.000000
0.000000 0.729662 0.994499
0.227252 0.747379 1.000000
0.555083 0.761382 1.000000
0.869257 0.771584 1.000000
1.000000 0.771584 1.000000
0.000000 0.994499 0.994499
0.227252 1.000000 1.000000
0.555083 1.000000 1.000000
0.874087 1.000000 1.000000
1.000000 1.000000 1.000000
