docs/luts/fuji_recipes/Eterna_RR_Eterna_Low_Contrast.cube
TITLE "Fujifilm Recipe: RR Eterna Low Contrast (Eterna)"
# FilmSim=Eterna HL=-2 SH=-1 Col=4 WB=5900K WBR=-3 WBB=3
LUT_3D_SIZE 9
DOMAIN_MIN 0.0 0.0 0.0
DOMAIN_MAX 1.0 1.0 1.0
0.078400 0.078400 0.078400
0.221166 0.028325 0.028325
0.338274 0.000000 0.000000
0.434575 0.000000 0.000000
0.517814 0.000000 0.000000
0.592011 0.000000 0.000000
0.682825 0.000000 0.000000
0.773638 0.000000 0.000000
0.784657 0.000000 0.000000
0.025489 0.230096 0.025489
0.217475 0.230096 0.025489
0.338274 0.184137 0.000000
0.434575 0.158846 0.000000
0.517814 0.148466 0.000000
0.592011 0.143131 0.000000
0.682825 0.137959 0.000000
0.773638 0.134247 0.000000
0.784657 0.133867 0.000000
0.000000 0.350569 0.000000
0.167698 0.350569 0.000000
0.328325 0.350569 0.000000
0.434575 0.311582 0.000000
0.517814 0.291223 0.000000
0.592011 0.280758 0.000000
0.682825 0.270613 0.000000
0.773638 0.263331 0.000000
0.784657 0.262585 0.000000
0.000000 0.455303 0.000000
0.146154 0.455303 0.000000
0.286146 0.455303 0.000000
0.426137 0.455303 0.000000
0.517814 0.433979 0.000000
0.592011 0.418385 0.000000
0.682825 0.403266 0.000000
0.773638 0.392415 0.000000
0.784657 0.391304 0.000000
0.000000 0.526462 0.000000
0.139188 0.526462 0.000000
0.272508 0.526462 0.000000
0.405827 0.526462 0.000000
0.517365 0.526462 0.000000
0.592011 0.507605 0.000000
0.682825 0.488756 0.000000
0.773638 0.475112 0.000000
0.784657 0.473706 0.000000
0.000000 0.623619 0.000000
0.132411 0.623619 0.000000
0.259239 0.623619 0.000000
0.386068 0.623619 0.000000
0.468202 0.623619 0.000000
0.583492 0.623619 0.000000
0.682825 0.609342 0.000000
0.773638 0.592453 0.000000
0.784657 0.590715 0.000000
0.000000 0.720776 0.000000
0.127864 0.720776 0.000000
0.250337 0.720776 0.000000
0.372810 0.720776 0.000000
0.451587 0.720776 0.000000
0.562919 0.720776 0.000000
0.674250 0.720776 0.000000
0.773638 0.709794 0.000000
0.784657 0.707723 0.000000
0.000000 0.817933 0.000000
0.124601 0.817933 0.000000
0.243949 0.817933 0.000000
0.363297 0.817933 0.000000
0.439543 0.817933 0.000000
0.548034 0.817933 0.000000
0.656525 0.817933 0.000000
0.765015 0.817933 0.000000
0.778180 0.817933 0.000000
0.000000 0.840754 0.000000
0.124001 0.840754 0.000000
0.242774 0.840754 0.000000
0.361546 0.840754 0.000000
0.437304 0.840754 0.000000
0.545271 0.840754 0.000000
0.653239 0.840754 0.000000
0.761207 0.840754 0.000000
0.774308 0.840754 0.000000
0.022787 0.022787 0.238661
0.213995 0.022787 0.238661
0.338274 0.000000 0.195068
0.434575 0.000000 0.168275
0.517814 0.000000 0.157280
0.592011 0.000000 0.151628
0.682825 0.000000 0.146149
0.773638 0.000000 0.142217
0.784657 0.000000 0.141814
0.022787 0.226564 0.238661
0.197551 0.210275 0.222520
0.343194 0.159873 0.172874
0.478742 0.113108 0.125612
0.565401 0.086031 0.098304
0.683411 0.049289 0.061308
0.799875 0.014094 0.025917
0.900658 0.000000 0.011235
0.915875 0.000000 0.011193
0.000000 0.350569 0.189331
0.141808 0.363389 0.168020
0.333983 0.361194 0.163950
0.478162 0.314344 0.123470
0.565109 0.283392 0.096085
0.683491 0.242354 0.058971
0.800254 0.203826 0.023476
0.909699 0.174654 0.000000
0.924916 0.173923 0.000000
0.000000 0.455303 0.165008
0.093384 0.506798 0.118597
0.277666 0.505923 0.114206
0.466567 0.505923 0.114206
0.565109 0.483023 0.096085
0.683491 0.437803 0.058971
0.800254 0.396042 0.023476
0.909699 0.360800 0.000000
0.924916 0.359290 0.000000
0.000000 0.526462 0.157143
0.065364 0.598534 0.090121
0.245987 0.598244 0.085558
0.431385 0.598244 0.085558
0.551359 0.598244 0.085558
0.683491 0.563622 0.058971
0.800254 0.519046 0.023476
0.909699 0.479209 0.000000
0.924916 0.477117 0.000000
0.000000 0.623619 0.149492
0.027024 0.723820 0.051281
0.203564 0.724283 0.046464
0.385116 0.724283 0.046464
0.501807 0.724283 0.046464
0.666843 0.724283 0.046464
0.800254 0.693777 0.023476
0.909699 0.648421 0.000000
0.924916 0.645620 0.000000
0.000000 0.720776 0.144359
0.000000 0.837788 0.023328
0.163540 0.848696 0.008996
0.342138 0.848696 0.008996
0.456149 0.848696 0.008996
0.618499 0.848696 0.008996
0.780849 0.848696 0.008996
0.909699 0.817633 0.000000
0.924916 0.814124 0.000000
0.000000 0.817933 0.140675
0.000000 0.952433 0.022097
0.148173 0.970868 0.000000
0.319409 0.970868 0.000000
0.427972 0.970868 0.000000
0.583629 0.970868 0.000000
0.739287 0.970868 0.000000
0.894945 0.970868 0.000000
0.913833 0.970868 0.000000
0.000000 0.840754 0.139997
0.000000 0.983661 0.021969
0.148574 1.000000 0.002096
0.317850 1.000000 0.002096
0.424999 1.000000 0.002096
0.578875 1.000000 0.002096
0.732752 1.000000 0.002096
0.886629 1.000000 0.002096
0.905301 1.000000 0.002096
0.000000 0.000000 0.362493
0.163350 0.000000 0.362493
0.319812 0.000000 0.362493
0.434575 0.000000 0.330755
0.517814 0.000000 0.309143
0.592011 0.000000 0.298034
0.682825 0.000000 0.287265
0.773638 0.000000 0.279535
0.784657 0.000000 0.278743
0.000000 0.174088 0.362493
0.135412 0.148693 0.381709
0.327679 0.146560 0.380726
0.478742 0.113108 0.341070
0.565401 0.086031 0.309775
0.683411 0.049289 0.268405
0.799875 0.014094 0.229640
0.900658 0.000000 0.204833
0.915875 0.000000 0.204061
0.000000 0.341480 0.362493
0.135412 0.355720 0.381709
0.311374 0.337048 0.361946
0.461648 0.288656 0.315623
0.552912 0.256631 0.283059
0.677073 0.213738 0.239551
0.845991 0.126087 0.155248
1.000000 0.053346 0.083470
1.000000 0.063208 0.092261
0.000000 0.455303 0.324333
0.093384 0.506798 0.331657
0.254431 0.493860 0.308482
0.446384 0.488173 0.300519
0.550357 0.464212 0.279033
0.675287 0.416222 0.235371
0.854436 0.348372 0.137490
1.000000 0.285422 0.073194
1.000000 0.287530 0.083055
0.000000 0.526462 0.308875
0.065364 0.598534 0.299323
0.221717 0.589968 0.274686
0.409481 0.585442 0.266557
0.535740 0.585442 0.266557
0.675287 0.548449 0.235371
0.854436 0.501634 0.137490
1.000000 0.438736 0.073194
1.000000 0.435134 0.083055
0.000000 0.623619 0.293836
0.027024 0.723820 0.256266
0.177607 0.721022 0.229355
0.356933 0.726063 0.212880
0.483323 0.726063 0.212880
0.663391 0.726063 0.212880
0.854436 0.720850 0.137490
1.000000 0.659351 0.073194
1.000000 0.647689 0.083055
0.000000 0.720776 0.283745
0.000000 0.837788 0.220457
0.057397 0.928178 0.119372
0.267913 0.927326 0.098563
0.415480 0.927326 0.098563
0.627170 0.927326 0.098563
0.838860 0.927326 0.098563
1.000000 0.879966 0.073194
1.000000 0.860244 0.083055
0.000000 0.817933 0.276506
0.000000 0.952433 0.208826
0.089315 1.000000 0.141059
0.266948 1.000000 0.126654
0.388354 1.000000 0.126654
0.563723 1.000000 0.126654
0.739092 1.000000 0.126654
0.914462 1.000000 0.126654
0.935741 1.000000 0.126654
0.000000 0.840754 0.275173
0.000000 0.983661 0.207614
0.120542 1.000000 0.168272
0.286745 1.000000 0.157881
0.398079 1.000000 0.157881
0.559159 1.000000 0.157881
0.720240 1.000000 0.157881
0.881321 1.000000 0.157881
0.900867 1.000000 0.157881
0.000000 0.000000 0.475456
0.143675 0.000000 0.475456
0.281293 0.000000 0.475456
0.418910 0.000000 0.475456
0.517814 0.000000 0.461006
0.592011 0.000000 0.444440
0.682825 0.000000 0.428381
0.773638 0.000000 0.416854
0.784657 0.000000 0.415673
0.000000 0.153120 0.475456
0.084740 0.097512 0.533425
0.269338 0.095205 0.533124
0.456303 0.095205 0.533124
0.565401 0.086031 0.521247
0.683411 0.049289 0.475501
0.799875 0.014094 0.433364
0.900658 0.000000 0.398430
0.915875 0.000000 0.396930
0.000000 0.300351 0.475456
0.084740 0.296621 0.533425
0.244245 0.271511 0.522028
0.438034 0.267339 0.519445
0.552912 0.256631 0.507017
0.677073 0.213738 0.458306
0.845991 0.126087 0.402367
1.000000 0.053346 0.338748
1.000000 0.063208 0.338475
0.000000 0.447582 0.475456
0.084740 0.495729 0.533425
0.244245 0.482149 0.522028
0.425197 0.463822 0.501372
0.530209 0.450238 0.487789
0.669228 0.379693 0.423579
0.817034 0.313154 0.358691
0.976209 0.235248 0.282950
0.996557 0.224761 0.272773
0.000000 0.526462 0.460606
0.065364 0.598534 0.508525
0.221717 0.589968 0.495684
0.389583 0.569888 0.472609
0.514798 0.561681 0.472743
0.661500 0.520101 0.417355
0.808038 0.457845 0.352084
0.965941 0.385403 0.275449
0.986143 0.375678 0.265108
0.000000 0.623619 0.438180
0.027024 0.723820 0.461250
0.177607 0.721022 0.445254
0.318191 0.728225 0.408748
0.444184 0.711484 0.395656
0.642470 0.711484 0.395656
0.808038 0.675440 0.352084
0.965941 0.613594 0.275449
0.986143 0.605391 0.265108
0.000000 0.720776 0.423132
0.000000 0.837788 0.417587
0.057397 0.928178 0.377944
0.241536 0.891825 0.335998
0.371435 0.872356 0.321729
0.578606 0.872356 0.321729
0.785778 0.872356 0.321729
0.965941 0.841785 0.275449
0.986143 0.835105 0.265108
0.000000 0.817933 0.412336
0.000000 0.952433 0.395556
0.089315 1.000000 0.356947
0.226197 1.000000 0.309938
0.327757 1.000000 0.282440
0.520501 1.000000 0.282440
0.713244 1.000000 0.282440
0.905987 1.000000 0.282440
0.929375 1.000000 0.282440
0.000000 0.840754 0.410348
0.000000 0.983661 0.393260
0.120542 1.000000 0.367410
0.257424 1.000000 0.333284
0.354113 1.000000 0.313667
0.526959 1.000000 0.313667
0.699806 1.000000 0.313667
0.872653 1.000000 0.313667
0.893626 1.000000 0.313667
0.000000 0.000000 0.551054
0.137177 0.000000 0.551054
0.268570 0.000000 0.551054
0.399963 0.000000 0.551054
0.485482 0.000000 0.551054
0.592011 0.000000 0.539272
0.682825 0.000000 0.519278
0.773638 0.000000 0.504813
0.784657 0.000000 0.503323
0.000000 0.146194 0.551054
0.055484 0.068028 0.630421
0.236601 0.065630 0.630418
0.420171 0.065630 0.630418
0.538807 0.065630 0.630418
0.683411 0.049289 0.608809
0.799875 0.014094 0.563769
0.900658 0.000000 0.521658
0.915875 0.000000 0.519610
0.000000 0.286766 0.551054
0.055484 0.263570 0.630421
0.210259 0.236978 0.623433
0.399958 0.232705 0.621453
0.524569 0.232705 0.621453
0.677073 0.213738 0.598271
0.845991 0.126087 0.559593
1.000000 0.053346 0.500249
1.000000 0.063208 0.494133
0.000000 0.427338 0.551054
0.055484 0.459112 0.630421
0.210259 0.443393 0.623433
0.373055 0.416169 0.608423
0.498666 0.407009 0.605259
0.669228 0.379693 0.580398
0.817034 0.313154 0.520493
0.976209 0.235248 0.451483
0.996557 0.224761 0.442281
0.000000 0.518710 0.551054
0.055484 0.585429 0.630421
0.210259 0.575939 0.623433
0.373055 0.557482 0.608423
0.486039 0.539404 0.591350
0.645340 0.505903 0.558215
0.788923 0.443026 0.497427
0.943902 0.368753 0.425976
0.963778 0.358671 0.416305
0.000000 0.623619 0.531495
0.027024 0.723820 0.592994
0.177607 0.721022 0.583230
0.318191 0.728225 0.568139
0.438090 0.703788 0.546295
0.617887 0.685437 0.530355
0.778879 0.648872 0.489529
0.932011 0.584970 0.417104
0.951669 0.576357 0.407238
0.000000 0.720776 0.512707
0.000000 0.837788 0.543525
0.057397 0.928178 0.542198
0.241536 0.891825 0.501257
0.364868 0.863355 0.478051
0.552715 0.841173 0.460963
0.756155 0.841173 0.460963
0.932011 0.809724 0.417104
0.951669 0.802789 0.407238
0.000000 0.817933 0.499104
0.000000 0.952433 0.514132
0.089315 1.000000 0.493257
0.226197 1.000000 0.455551
0.314566 1.000000 0.422457
0.482328 1.000000 0.388480
0.690416 1.000000 0.388480
0.898503 1.000000 0.388480
0.923753 1.000000 0.388480
0.000000 0.840754 0.496577
0.000000 0.983661 0.510981
0.120542 1.000000 0.492967
0.257424 1.000000 0.465004
0.345088 1.000000 0.441306
0.496612 1.000000 0.413656
0.680548 1.000000 0.413656
0.864483 1.000000 0.413656
0.886802 1.000000 0.413656
0.000000 0.000000 0.654409
0.130788 0.000000 0.654409
0.256061 0.000000 0.654409
0.381334 0.000000 0.654409
0.462287 0.000000 0.654409
0.576164 0.000000 0.654409
0.682825 0.000000 0.647557
0.773638 0.000000 0.629639
0.784657 0.000000 0.627796
0.000000 0.139385 0.654409
0.015208 0.027502 0.763189
0.192484 0.024973 0.763566
0.372339 0.024973 0.763566
0.487738 0.024973 0.763566
0.651231 0.024973 0.763566
0.799875 0.014094 0.748960
0.900658 0.000000 0.697644
0.915875 0.000000 0.694933
0.000000 0.273409 0.654409
0.015208 0.219150 0.763189
0.151839 0.179022 0.774344
0.339756 0.163984 0.782666
0.469766 0.163984 0.782666
0.655232 0.163984 0.782666
0.845991 0.126087 0.784230
1.000000 0.053346 0.732304
1.000000 0.063208 0.717948
0.000000 0.407434 0.654409
0.015208 0.410798 0.763189
0.151839 0.389020 0.774344
0.295193 0.341680 0.778776
0.429240 0.334989 0.769770
0.631084 0.334989 0.769770
0.817034 0.313154 0.753087
0.976209 0.235248 0.695135
0.996557 0.224761 0.687514
0.000000 0.493968 0.654409
0.015208 0.533766 0.763189
0.151839 0.522954 0.774344
0.295193 0.493009 0.778776
0.416178 0.471729 0.753063
0.606788 0.463696 0.743000
0.788923 0.443026 0.726063
0.943902 0.368753 0.666471
0.963778 0.358671 0.658527
0.000000 0.615799 0.654409
0.015208 0.707979 0.763189
0.151839 0.713848 0.774344
0.295193 0.710007 0.778776
0.416178 0.685361 0.753063
0.585321 0.652811 0.718555
0.751305 0.624683 0.690533
0.898172 0.558523 0.628232
0.917073 0.549415 0.619710
0.000000 0.720776 0.639414
0.000000 0.837788 0.722721
0.057397 0.928178 0.777246
0.241536 0.891825 0.739099
0.364868 0.863355 0.712688
0.539072 0.823785 0.677040
0.717400 0.799241 0.656123
0.884565 0.766281 0.617778
0.903077 0.758873 0.609058
0.000000 0.817933 0.622578
0.000000 0.952433 0.683874
0.089315 1.000000 0.689505
0.226197 1.000000 0.666401
0.314566 1.000000 0.646124
0.457261 0.991940 0.604934
0.646839 0.960928 0.580780
0.857954 0.960928 0.580780
0.883571 0.960928 0.580780
0.000000 0.840754 0.619456
0.000000 0.983661 0.679738
0.120542 1.000000 0.673989
0.257424 1.000000 0.656009
0.345088 1.000000 0.640772
0.469986 1.000000 0.603052
0.628699 1.000000 0.561804
0.842488 1.000000 0.561804
0.868429 1.000000 0.561804
0.000000 0.000000 0.757764
0.126503 0.000000 0.757764
0.247672 0.000000 0.757764
0.368841 0.000000 0.757764
0.446579 0.000000 0.757764
0.556725 0.000000 0.757764
0.666871 0.000000 0.757764
0.773638 0.000000 0.754466
0.784657 0.000000 0.752269
0.000000 0.134819 0.757764
0.000000 0.011482 0.870888
0.159751 0.000000 0.881031
0.331273 0.000000 0.881031
0.440529 0.000000 0.881031
0.596448 0.000000 0.881031
0.752367 0.000000 0.881031
0.900658 0.000000 0.873629
0.915875 0.000000 0.870255
0.000000 0.264452 0.757764
0.000000 0.190472 0.870888
0.018675 0.051021 1.000000
0.242917 0.039141 1.000000
0.392540 0.039141 1.000000
0.607555 0.039141 1.000000
0.822570 0.039141 1.000000
1.000000 0.053346 0.964359
1.000000 0.063208 0.941762
0.000000 0.394086 0.757764
0.000000 0.369463 0.870888
0.018675 0.300913 1.000000
0.208685 0.257498 0.957776
0.347901 0.249912 0.947339
0.560077 0.249912 0.947339
0.772252 0.249912 0.947339
0.976209 0.235248 0.938787
0.996557 0.224761 0.932746
0.000000 0.477221 0.757764
0.000000 0.483531 0.870888
0.018675 0.459204 1.000000
0.208685 0.415312 0.957776
0.333272 0.391817 0.927822
0.533840 0.382813 0.915735
0.743074 0.382813 0.915735
0.943902 0.368753 0.906965
0.963778 0.358671 0.900750
0.000000 0.595061 0.757764
0.000000 0.646238 0.870888
0.018675 0.686362 1.000000
0.208685 0.643171 0.957776
0.333272 0.616963 0.927822
0.510339 0.581858 0.885389
0.703685 0.571161 0.871427
0.898172 0.558523 0.862233
0.917073 0.549415 0.855674
0.000000 0.712902 0.757764
0.000000 0.808946 0.870888
0.018675 0.913520 1.000000
0.208685 0.871029 0.957776
0.333272 0.842108 0.927822
0.510339 0.801696 0.885389
0.683430 0.766232 0.846932
0.857550 0.743184 0.823207
0.875049 0.735479 0.816291
0.000000 0.817933 0.746051
0.000000 0.952433 0.853616
0.089315 1.000000 0.885752
0.226197 1.000000 0.877251
0.314566 1.000000 0.869790
0.457261 0.991940 0.849540
0.636533 0.947302 0.808904
0.816095 0.913886 0.781050
0.840423 0.913886 0.781050
0.000000 0.840754 0.742334
0.000000 0.983661 0.848495
0.120542 1.000000 0.855011
0.257424 1.000000 0.847014
0.345088 1.000000 0.840238
0.469986 1.000000 0.823463
0.616081 0.987851 0.792722
0.799474 0.951665 0.763367
0.824540 0.951665 0.763367
0.000000 0.000000 0.840754
0.124001 0.000000 0.840754
0.242774 0.000000 0.840754
0.361546 0.000000 0.840754
0.437304 0.000000 0.840754
0.545271 0.000000 0.840754
0.653239 0.000000 0.840754
0.761207 0.000000 0.840754
0.774308 0.000000 0.840754
0.000000 0.132152 0.840754
0.000000 0.011195 0.983661
0.155147 0.000000 0.993055
0.321727 0.000000 0.993055
0.427213 0.000000 0.993055
0.578639 0.000000 0.993055
0.730064 0.000000 0.993055
0.881490 0.000000 0.993055
0.899864 0.000000 0.993055
0.000000 0.259222 0.840754
0.000000 0.185708 0.983661
0.120542 0.144773 1.000000
0.291188 0.139498 1.000000
0.401910 0.139498 1.000000
0.561966 0.139498 1.000000
0.722021 0.139498 1.000000
0.882077 0.139498 1.000000
0.901498 0.139498 1.000000
0.000000 0.386291 0.840754
0.000000 0.360220 0.983661
0.120542 0.331970 1.000000
0.257424 0.295888 1.000000
0.363865 0.285942 1.000000
0.534102 0.285942 1.000000
0.704339 0.285942 1.000000
0.874575 0.285942 1.000000
0.895232 0.285942 1.000000
0.000000 0.467340 0.840754
0.000000 0.470828 0.983661
0.120542 0.449895 1.000000
0.257424 0.419556 1.000000
0.345088 0.393845 1.000000
0.509263 0.379834 1.000000
0.688576 0.379834 1.000000
0.867889 0.379834 1.000000
0.889647 0.379834 1.000000
0.000000 0.582850 0.840754
0.000000 0.629465 0.983661
0.120542 0.620061 1.000000
0.257424 0.599108 1.000000
0.345088 0.581350 1.000000
0.469986 0.537391 1.000000
0.648211 0.516157 1.000000
0.850765 0.516157 1.000000
0.875344 0.516157 1.000000
0.000000 0.698359 0.840754
0.000000 0.788102 0.983661
0.120542 0.790228 1.000000
0.257424 0.778659 1.000000
0.345088 0.768854 1.000000
0.469986 0.744584 1.000000
0.616081 0.705537 0.987851
0.813795 0.691083 0.969113
0.839375 0.691083 0.969113
0.000000 0.813869 0.840754
0.000000 0.946738 0.983661
0.120542 0.960394 1.000000
0.257424 0.958210 1.000000
0.345088 0.956359 1.000000
0.469986 0.951777 1.000000
0.616081 0.934549 0.987851
0.794033 0.893669 0.944533
0.815153 0.889337 0.939750
0.000000 0.840754 0.840754
0.000000 0.983661 0.983661
0.120542 1.000000 1.000000
0.257424 1.000000 1.000000
0.345088 1.000000 1.000000
0.469986 1.000000 1.000000
0.616081 0.987851 0.987851
0.794033 0.944533 0.944533
0.815153 0.939750 0.939750
0.000000 0.000000 0.840754
0.124001 0.000000 0.840754
0.242774 0.000000 0.840754
0.361546 0.000000 0.840754
0.437304 0.000000 0.840754
0.545271 0.000000 0.840754
0.653239 0.000000 0.840754
0.761207 0.000000 0.840754
0.774308 0.000000 0.840754
0.000000 0.132152 0.840754
0.000000 0.011195 0.983661
0.155147 0.000000 0.993055
0.321727 0.000000 0.993055
0.427213 0.000000 0.993055
0.578639 0.000000 0.993055
0.730064 0.000000 0.993055
0.881490 0.000000 0.993055
0.899864 0.000000 0.993055
0.000000 0.259222 0.840754
0.000000 0.185708 0.983661
0.120542 0.144773 1.000000
0.291188 0.139498 1.000000
0.401910 0.139498 1.000000
0.561966 0.139498 1.000000
0.722021 0.139498 1.000000
0.882077 0.139498 1.000000
0.901498 0.139498 1.000000
0.000000 0.386291 0.840754
0.000000 0.360220 0.983661
0.120542 0.331970 1.000000
0.257424 0.295888 1.000000
0.363865 0.285942 1.000000
0.534102 0.285942 1.000000
0.704339 0.285942 1.000000
0.874575 0.285942 1.000000
0.895232 0.285942 1.000000
0.000000 0.467340 0.840754
0.000000 0.470828 0.983661
0.120542 0.449895 1.000000
0.257424 0.419556 1.000000
0.345088 0.393845 1.000000
0.509263 0.379834 1.000000
0.688576 0.379834 1.000000
0.867889 0.379834 1.000000
0.889647 0.379834 1.000000
0.000000 0.582850 0.840754
0.000000 0.629465 0.983661
0.120542 0.620061 1.000000
0.257424 0.599108 1.000000
0.345088 0.581350 1.000000
0.469986 0.537391 1.000000
0.648211 0.516157 1.000000
0.850765 0.516157 1.000000
0.875344 0.516157 1.000000
0.000000 0.698359 0.840754
0.000000 0.788102 0.983661
0.120542 0.790228 1.000000
0.257424 0.778659 1.000000
0.345088 0.768854 1.000000
0.469986 0.744584 1.000000
0.616081 0.705537 0.987851
0.813795 0.691083 0.969113
0.839375 0.691083 0.969113
0.000000 0.813869 0.840754
0.000000 0.946738 0.983661
0.120542 0.960394 1.000000
0.257424 0.958210 1.000000
0.345088 0.956359 1.000000
0.469986 0.951777 1.000000
0.616081 0.934549 0.987851
0.794033 0.893669 0.944533
0.815153 0.889337 0.939750
0.000000 0.840754 0.840754
0.000000 0.983661 0.983661
0.120542 1.000000 1.000000
0.257424 1.000000 1.000000
0.345088 1.000000 1.000000
0.469986 1.000000 1.000000
0.616081 0.987851 0.987851
0.794033 0.944533 0.944533
0.815153 0.939750 0.939750
