docs/luts/fuji_recipes/Eterna_RS_Kodak_Vision3_250D.cube
TITLE "Fujifilm Recipe: RS Kodak Vision3 250D (Eterna)"
# FilmSim=Eterna HL=3 SH=4 Col=3 WB=FLight1 WBR=-3 WBB=-1
LUT_3D_SIZE 9
DOMAIN_MIN 0.0 0.0 0.0
DOMAIN_MAX 1.0 1.0 1.0
0.033600 0.033600 0.033600
0.135348 0.005653 0.005653
0.215791 0.000000 0.000000
0.295224 0.000000 0.000000
0.374657 0.000000 0.000000
0.520429 0.000000 0.000000
0.624275 0.000000 0.000000
0.728121 0.000000 0.000000
0.752291 0.000000 0.000000
0.000652 0.156006 0.000652
0.128814 0.156006 0.000652
0.215791 0.131179 0.000000
0.295224 0.119764 0.000000
0.374657 0.114047 0.000000
0.520429 0.106806 0.000000
0.624275 0.104563 0.000000
0.728121 0.103016 0.000000
0.752291 0.102723 0.000000
0.000000 0.246451 0.000000
0.103651 0.246451 0.000000
0.206682 0.246451 0.000000
0.295224 0.234921 0.000000
0.374657 0.223709 0.000000
0.520429 0.209505 0.000000
0.624275 0.205104 0.000000
0.728121 0.202071 0.000000
0.752291 0.201495 0.000000
0.000000 0.339590 0.000000
0.095841 0.339590 0.000000
0.191110 0.339590 0.000000
0.286379 0.339590 0.000000
0.374657 0.333370 0.000000
0.520429 0.312203 0.000000
0.624275 0.305646 0.000000
0.728121 0.301125 0.000000
0.752291 0.300268 0.000000
0.000000 0.492503 0.000000
0.088761 0.492503 0.000000
0.176992 0.492503 0.000000
0.265223 0.492503 0.000000
0.353453 0.492503 0.000000
0.520429 0.489286 0.000000
0.624275 0.480412 0.000000
0.728121 0.474687 0.000000
0.752291 0.473656 0.000000
0.000000 0.614268 0.000000
0.086409 0.614268 0.000000
0.172303 0.614268 0.000000
0.258196 0.614268 0.000000
0.344089 0.614268 0.000000
0.511642 0.614268 0.000000
0.624275 0.613350 0.000000
0.728121 0.605659 0.000000
0.752291 0.604254 0.000000
0.000000 0.736033 0.000000
0.084904 0.736033 0.000000
0.169302 0.736033 0.000000
0.253699 0.736033 0.000000
0.338096 0.736033 0.000000
0.504348 0.736033 0.000000
0.615939 0.736033 0.000000
0.727531 0.736033 0.000000
0.752291 0.734853 0.000000
0.000000 0.864578 0.000000
0.084521 0.864578 0.000000
0.168538 0.864578 0.000000
0.252554 0.864578 0.000000
0.336570 0.864578 0.000000
0.503682 0.864578 0.000000
0.614770 0.864578 0.000000
0.725858 0.864578 0.000000
0.751714 0.864578 0.000000
0.000000 0.903715 0.000000
0.085318 0.903715 0.000000
0.170127 0.903715 0.000000
0.254936 0.903715 0.000000
0.339745 0.903715 0.000000
0.508811 0.903715 0.000000
0.620948 0.903715 0.000000
0.733084 0.903715 0.000000
0.759183 0.903715 0.000000
0.000000 0.000000 0.164638
0.124698 0.000000 0.164638
0.215791 0.000000 0.142880
0.295224 0.000000 0.130447
0.374657 0.000000 0.124220
0.520429 0.000000 0.116333
0.624275 0.000000 0.113890
0.728121 0.000000 0.112205
0.752291 0.000000 0.111886
0.000000 0.151155 0.164638
0.117205 0.148133 0.163895
0.233522 0.122009 0.137431
0.336269 0.092622 0.107456
0.436154 0.066097 0.080542
0.621929 0.014115 0.028055
0.731288 0.000000 0.013081
0.826533 0.000000 0.012117
0.854650 0.000000 0.012024
0.000000 0.246451 0.136849
0.084493 0.274646 0.128699
0.218709 0.272914 0.123525
0.335968 0.251630 0.105516
0.436405 0.220644 0.078438
0.623129 0.162738 0.025623
0.743997 0.132478 0.000000
0.839242 0.122083 0.000000
0.866761 0.120934 0.000000
0.000000 0.339590 0.126538
0.053331 0.391826 0.095960
0.181716 0.392338 0.090119
0.316857 0.392338 0.090119
0.436405 0.377391 0.078438
0.623129 0.313874 0.025623
0.743997 0.278501 0.000000
0.839242 0.256650 0.000000
0.866761 0.254234 0.000000
0.000000 0.492503 0.117190
0.000527 0.584967 0.041532
0.122389 0.588573 0.034567
0.251961 0.588573 0.034567
0.381534 0.588573 0.034567
0.623129 0.577299 0.025623
0.743997 0.535053 0.000000
0.839242 0.494948 0.000000
0.866761 0.490722 0.000000
0.000000 0.614268 0.114086
0.000000 0.697173 0.036455
0.085207 0.734819 0.000000
0.210920 0.734819 0.000000
0.336634 0.734819 0.000000
0.584616 0.734819 0.000000
0.743997 0.728129 0.000000
0.839242 0.672875 0.000000
0.866761 0.666975 0.000000
0.000000 0.736033 0.112098
0.000000 0.817142 0.034054
0.077379 0.846498 0.000000
0.191543 0.846498 0.000000
0.305708 0.846498 0.000000
0.533096 0.846498 0.000000
0.684047 0.846498 0.000000
0.834998 0.846498 0.000000
0.866761 0.843227 0.000000
0.000000 0.864578 0.111592
0.000000 0.976585 0.033831
0.086962 1.000000 0.012460
0.196881 1.000000 0.012460
0.306799 1.000000 0.012460
0.527839 1.000000 0.012460
0.673176 1.000000 0.012460
0.818513 1.000000 0.012460
0.852339 1.000000 0.012460
0.000000 0.903715 0.112645
0.015722 1.000000 0.048531
0.120350 1.000000 0.051597
0.221788 1.000000 0.051597
0.323227 1.000000 0.051597
0.527664 1.000000 0.051597
0.661788 1.000000 0.051597
0.795912 1.000000 0.051597
0.827129 1.000000 0.051597
0.000000 0.000000 0.260442
0.102022 0.000000 0.260442
0.203436 0.000000 0.260442
0.295224 0.000000 0.252220
0.374657 0.000000 0.240181
0.520429 0.000000 0.224932
0.624275 0.000000 0.220207
0.728121 0.000000 0.216950
0.752291 0.000000 0.216332
0.000000 0.123668 0.260442
0.079579 0.108669 0.292481
0.213920 0.105025 0.291743
0.336269 0.092622 0.276553
0.436154 0.066097 0.245203
0.621929 0.014115 0.186963
0.731288 0.000000 0.162186
0.826533 0.000000 0.150239
0.854650 0.000000 0.149090
0.000000 0.242580 0.260442
0.079579 0.268475 0.292481
0.203192 0.259115 0.284634
0.326856 0.237777 0.263330
0.432677 0.205316 0.230127
0.629018 0.144021 0.167820
0.760570 0.107714 0.131048
0.963528 0.000000 0.027082
0.985696 0.000000 0.026393
0.000000 0.339590 0.244663
0.053331 0.391826 0.260000
0.171235 0.389688 0.250025
0.304336 0.384530 0.241467
0.431176 0.368553 0.227207
0.629123 0.300017 0.164495
0.761341 0.260347 0.127521
0.984107 0.160928 0.000000
1.000000 0.160871 0.006275
0.000000 0.492503 0.226588
0.000527 0.584967 0.199320
0.109647 0.592682 0.184882
0.234780 0.593159 0.174846
0.371654 0.593159 0.174846
0.629123 0.580763 0.164495
0.761341 0.537686 0.127521
0.984107 0.499585 0.000000
1.000000 0.486794 0.006275
0.000000 0.614268 0.220586
0.000000 0.697173 0.176737
0.068372 0.745636 0.141888
0.189467 0.748689 0.130995
0.323001 0.748689 0.130995
0.589141 0.748689 0.130995
0.761341 0.744356 0.127521
0.984107 0.749980 0.000000
1.000000 0.727338 0.006275
0.000000 0.736033 0.216743
0.000000 0.817142 0.165098
0.000000 0.925687 0.077111
0.070069 0.991363 0.000000
0.230088 0.991363 0.000000
0.552081 0.991363 0.000000
0.763662 0.991363 0.000000
0.975244 0.991363 0.000000
1.000000 0.967882 0.006275
0.000000 0.864578 0.215765
0.000000 0.976585 0.164017
0.087924 1.000000 0.149564
0.198415 1.000000 0.150510
0.411002 1.000000 0.150510
0.530055 1.000000 0.150510
0.674710 1.000000 0.150510
0.819365 1.000000 0.150510
0.853033 1.000000 0.150510
0.000000 0.903715 0.217800
0.015722 1.000000 0.174784
0.127061 1.000000 0.183574
0.232756 1.000000 0.189047
0.427170 1.000000 0.189047
0.535795 1.000000 0.189047
0.667780 1.000000 0.189047
0.799765 1.000000 0.189047
0.830485 1.000000 0.189047
0.000000 0.000000 0.358932
0.094823 0.000000 0.358932
0.189079 0.000000 0.358932
0.283335 0.000000 0.358932
0.374657 0.000000 0.356142
0.520429 0.000000 0.333530
0.624275 0.000000 0.326525
0.728121 0.000000 0.321695
0.752291 0.000000 0.320779
0.000000 0.114941 0.358932
0.047214 0.075291 0.415805
0.176127 0.071192 0.416536
0.309537 0.071192 0.416536
0.436154 0.066097 0.409864
0.621929 0.014115 0.345871
0.731288 0.000000 0.311291
0.826533 0.000000 0.288361
0.854650 0.000000 0.286155
0.000000 0.225461 0.358932
0.047214 0.229533 0.415805
0.163943 0.217684 0.414843
0.298422 0.211476 0.411993
0.432677 0.205316 0.404790
0.629018 0.144021 0.335357
0.760570 0.107714 0.295312
0.963528 0.000000 0.217729
0.985696 0.000000 0.212189
0.000000 0.335981 0.358932
0.047214 0.383774 0.415805
0.163943 0.380940 0.414843
0.289178 0.370097 0.405373
0.420799 0.362296 0.394564
0.626097 0.283937 0.318136
0.807279 0.198000 0.237303
0.981734 0.118789 0.159883
1.000000 0.122691 0.162069
0.000000 0.492503 0.335987
0.000527 0.584967 0.357108
0.109647 0.592682 0.350832
0.227137 0.592028 0.338602
0.353887 0.587163 0.325707
0.624552 0.574273 0.313931
0.801283 0.531318 0.232444
0.974867 0.469658 0.154105
1.000000 0.458510 0.151140
0.000000 0.614268 0.327086
0.000000 0.697173 0.317019
0.068372 0.745636 0.304046
0.169778 0.761065 0.282824
0.271011 0.785270 0.239279
0.593753 0.785270 0.239279
0.801283 0.780781 0.232444
0.974867 0.730744 0.154105
1.000000 0.712311 0.151140
0.000000 0.736033 0.321388
0.000000 0.817142 0.296142
0.000000 0.925687 0.247198
0.042522 1.000000 0.175737
0.340626 0.988752 0.147476
0.524614 0.988752 0.147476
0.748167 0.988752 0.147476
0.971721 0.988752 0.147476
1.000000 0.966112 0.151140
0.000000 0.864578 0.319938
0.000000 0.976585 0.294202
0.087924 1.000000 0.285527
0.199262 1.000000 0.286828
0.414816 1.000000 0.288560
0.533098 1.000000 0.288560
0.676816 1.000000 0.288560
0.820534 1.000000 0.288560
0.853984 1.000000 0.288560
0.000000 0.903715 0.322956
0.015722 1.000000 0.301036
0.127061 1.000000 0.308228
0.234918 1.000000 0.314978
0.435330 1.000000 0.318936
0.543956 1.000000 0.318936
0.675941 1.000000 0.318936
0.807926 1.000000 0.318936
0.838645 1.000000 0.318936
0.000000 0.000000 0.524784
0.088018 0.000000 0.524784
0.175510 0.000000 0.524784
0.263002 0.000000 0.524784
0.350494 0.000000 0.524784
0.519932 0.000000 0.524784
0.624275 0.000000 0.515655
0.728121 0.000000 0.509409
0.752291 0.000000 0.508279
0.000000 0.106692 0.524784
0.000000 0.026212 0.615101
0.113476 0.012746 0.627293
0.241540 0.012746 0.627293
0.369605 0.012746 0.627293
0.620190 0.012746 0.627293
0.731288 0.000000 0.578954
0.826533 0.000000 0.538129
0.854650 0.000000 0.534433
0.000000 0.209281 0.524784
0.000000 0.170210 0.615101
0.098450 0.149757 0.633487
0.225343 0.142455 0.634579
0.360337 0.142455 0.634579
0.627092 0.142455 0.634579
0.760570 0.107714 0.592748
0.963528 0.000000 0.565450
0.985696 0.000000 0.551633
0.000000 0.311869 0.524784
0.000000 0.314208 0.615101
0.098450 0.305616 0.633487
0.214602 0.291648 0.634170
0.344108 0.282166 0.631863
0.624081 0.282166 0.631863
0.807279 0.198000 0.602810
0.981734 0.118789 0.544803
1.000000 0.122691 0.531539
0.000000 0.488823 0.524784
0.000000 0.564625 0.615101
0.098450 0.578852 0.633487
0.214602 0.577473 0.634170
0.333945 0.572206 0.631662
0.598493 0.551374 0.605843
0.751353 0.490078 0.554085
0.915533 0.422896 0.490391
0.956240 0.404765 0.473291
0.000000 0.614268 0.516406
0.000000 0.697173 0.568268
0.068372 0.745636 0.596630
0.169778 0.761065 0.600476
0.267151 0.780527 0.598399
0.544752 0.728494 0.553281
0.742206 0.722552 0.546808
0.904003 0.667718 0.482009
0.944177 0.653113 0.464411
0.000000 0.736033 0.509028
0.000000 0.817142 0.532870
0.000000 0.925687 0.556719
0.042522 1.000000 0.553248
0.310864 0.950139 0.501588
0.468394 0.918588 0.477489
0.683907 0.917023 0.476378
0.900520 0.917023 0.476378
0.944177 0.909891 0.464411
0.000000 0.864578 0.508341
0.000000 0.976585 0.531393
0.087924 1.000000 0.535051
0.199262 1.000000 0.537069
0.407114 1.000000 0.533060
0.526483 1.000000 0.532596
0.672216 1.000000 0.532566
0.817980 1.000000 0.532566
0.851906 1.000000 0.532566
0.000000 0.903715 0.513515
0.015722 1.000000 0.531515
0.127061 1.000000 0.537446
0.234918 1.000000 0.544213
0.436633 1.000000 0.550795
0.550630 1.000000 0.556166
0.682889 1.000000 0.556440
0.814874 1.000000 0.556440
0.845593 1.000000 0.556440
0.000000 0.000000 0.653544
0.085857 0.000000 0.653544
0.171200 0.000000 0.653544
0.256544 0.000000 0.653544
0.341888 0.000000 0.653544
0.508896 0.000000 0.653544
0.621739 0.000000 0.653544
0.728121 0.000000 0.647906
0.752291 0.000000 0.646381
0.000000 0.104072 0.653544
0.000000 0.023515 0.734653
0.092331 0.000000 0.758133
0.209718 0.000000 0.758133
0.327104 0.000000 0.758133
0.559176 0.000000 0.758133
0.714387 0.000000 0.758133
0.826533 0.000000 0.720756
0.854650 0.000000 0.715663
0.000000 0.204142 0.653544
0.000000 0.152694 0.734653
0.055529 0.105704 0.794502
0.174642 0.092440 0.802689
0.308519 0.092440 0.802689
0.575781 0.092440 0.802689
0.752796 0.092440 0.802689
0.963528 0.000000 0.817527
0.985696 0.000000 0.797296
0.000000 0.304212 0.653544
0.000000 0.281874 0.734653
0.055529 0.258123 0.794502
0.122050 0.207918 0.844816
0.249184 0.177105 0.855019
0.578286 0.177105 0.855019
0.794171 0.177105 0.855019
0.981734 0.118789 0.821483
1.000000 0.122691 0.796670
0.000000 0.478551 0.653544
0.000000 0.508754 0.734653
0.055529 0.527963 0.794502
0.122050 0.529586 0.844816
0.369339 0.486557 0.814616
0.528708 0.472598 0.796172
0.737362 0.472598 0.796172
0.915533 0.422896 0.759606
0.956240 0.404765 0.746622
0.000000 0.610865 0.653544
0.000000 0.679559 0.734653
0.055529 0.729496 0.794502
0.122050 0.767935 0.844816
0.369339 0.734605 0.814616
0.522275 0.709355 0.787657
0.705568 0.686286 0.761965
0.873861 0.644049 0.723328
0.912169 0.628316 0.709091
0.000000 0.736033 0.647392
0.000000 0.817142 0.706139
0.000000 0.925687 0.781612
0.042522 1.000000 0.825552
0.310864 0.950139 0.774989
0.468394 0.918588 0.746347
0.657012 0.883038 0.716208
0.858144 0.873939 0.709254
0.899129 0.866219 0.699250
0.000000 0.864578 0.646081
0.000000 0.976585 0.703527
0.087924 1.000000 0.714824
0.199262 1.000000 0.716062
0.407114 1.000000 0.713603
0.526483 1.000000 0.713319
0.671521 1.000000 0.712693
0.817409 1.000000 0.712401
0.851441 1.000000 0.712401
0.000000 0.903715 0.652554
0.015722 1.000000 0.698449
0.127061 1.000000 0.702267
0.234918 1.000000 0.707863
0.436633 1.000000 0.714444
0.550630 1.000000 0.719816
0.689142 1.000000 0.726343
0.822967 1.000000 0.728182
0.853686 1.000000 0.728182
0.000000 0.000000 0.782305
0.084465 0.000000 0.782305
0.168426 0.000000 0.782305
0.252387 0.000000 0.782305
0.336348 0.000000 0.782305
0.502351 0.000000 0.782305
0.613366 0.000000 0.782305
0.724381 0.000000 0.782305
0.750219 0.000000 0.782305
0.000000 0.102386 0.782305
0.000000 0.022357 0.872333
0.086822 0.000000 0.896097
0.197204 0.000000 0.896097
0.307586 0.000000 0.896097
0.528047 0.000000 0.896097
0.673996 0.000000 0.896097
0.819946 0.000000 0.896097
0.853915 0.000000 0.896097
0.000000 0.200834 0.782305
0.000000 0.145177 0.872333
0.000000 0.051696 0.983671
0.112455 0.026647 1.000000
0.252206 0.026647 1.000000
0.534025 0.026647 1.000000
0.718806 0.026647 1.000000
0.903588 0.026647 1.000000
0.946595 0.026647 1.000000
0.000000 0.299282 0.782305
0.000000 0.267997 0.872333
0.000000 0.208738 0.983671
0.095010 0.174474 1.000000
0.358651 0.157197 1.000000
0.516461 0.157197 1.000000
0.708207 0.157197 1.000000
0.899954 0.157197 1.000000
0.944582 0.157197 1.000000
0.000000 0.472498 0.782305
0.000000 0.485831 0.872333
0.000000 0.489476 0.983671
0.095010 0.475036 1.000000
0.304223 0.419487 1.000000
0.447912 0.389039 1.000000
0.666841 0.389039 1.000000
0.885771 0.389039 1.000000
0.936726 0.389039 1.000000
0.000000 0.602668 0.782305
0.000000 0.648226 0.872333
0.000000 0.697120 0.983671
0.095010 0.695608 1.000000
0.304223 0.663399 1.000000
0.432603 0.635061 0.997598
0.627961 0.606828 0.961692
0.847266 0.606828 0.961692
0.898309 0.606828 0.961692
0.000000 0.732839 0.782305
0.000000 0.810621 0.872333
0.000000 0.904765 0.983671
0.095010 0.916180 1.000000
0.304223 0.907311 1.000000
0.432603 0.897767 0.997598
0.625283 0.860570 0.957987
0.813965 0.829794 0.922374
0.860325 0.827998 0.920003
0.000000 0.864578 0.783820
0.000000 0.976585 0.875662
0.087924 1.000000 0.894597
0.199262 1.000000 0.895055
0.407114 1.000000 0.894146
0.526483 1.000000 0.894041
0.671521 1.000000 0.893810
0.816560 1.000000 0.893208
0.850317 1.000000 0.892897
0.000000 0.903715 0.791592
0.015722 1.000000 0.865383
0.127061 1.000000 0.867087
0.234918 1.000000 0.871512
0.436633 1.000000 0.878094
0.550630 1.000000 0.883466
0.689142 1.000000 0.889992
0.827654 1.000000 0.896519
0.859892 1.000000 0.898038
0.000000 0.000000 0.878375
0.084809 0.000000 0.878375
0.169111 0.000000 0.878375
0.253413 0.000000 0.878375
0.337715 0.000000 0.878375
0.505527 0.000000 0.878375
0.616993 0.000000 0.878375
0.728460 0.000000 0.878375
0.754403 0.000000 0.878375
0.000000 0.102802 0.878375
0.000000 0.022417 0.990382
0.098249 0.014146 1.000000
0.205175 0.014146 1.000000
0.312100 0.014146 1.000000
0.527096 0.014146 1.000000
0.668475 0.014146 1.000000
0.809854 0.014146 1.000000
0.842759 0.014146 1.000000
0.000000 0.201650 0.878375
0.000000 0.145564 0.990382
0.101721 0.142771 1.000000
0.209798 0.144696 1.000000
0.415686 0.144696 1.000000
0.531066 0.144696 1.000000
0.671258 0.144696 1.000000
0.811450 0.144696 1.000000
0.844079 0.144696 1.000000
0.000000 0.300499 0.878375
0.000000 0.268711 0.990382
0.101721 0.267471 1.000000
0.213059 0.271955 1.000000
0.422283 0.275246 1.000000
0.536361 0.275246 1.000000
0.674970 0.275246 1.000000
0.813579 0.275246 1.000000
0.845840 0.275246 1.000000
0.000000 0.475553 0.878375
0.000000 0.488538 0.990382
0.101721 0.491825 1.000000
0.213059 0.496141 1.000000
0.421068 0.498033 1.000000
0.538533 0.501434 1.000000
0.676493 0.501434 1.000000
0.814452 0.501434 1.000000
0.846562 0.501434 1.000000
0.000000 0.606252 0.878375
0.000000 0.651366 0.990382
0.101721 0.656707 1.000000
0.213059 0.659623 1.000000
0.421068 0.660901 1.000000
0.540436 0.664588 1.000000
0.684465 0.671498 1.000000
0.819025 0.671498 1.000000
0.850343 0.671498 1.000000
0.000000 0.736952 0.878375
0.000000 0.814194 0.990382
0.101721 0.821589 1.000000
0.213059 0.823105 1.000000
0.421068 0.823769 1.000000
0.540436 0.825685 1.000000
0.685475 0.829823 1.000000
0.826501 0.836556 1.000000
0.857717 0.837053 1.000000
0.000000 0.867651 0.878375
0.000000 0.977022 0.990382
0.101721 0.986472 1.000000
0.213059 0.986586 1.000000
0.421068 0.986637 1.000000
0.540436 0.986782 1.000000
0.685475 0.987096 1.000000
0.826501 0.991315 1.000000
0.858739 0.992834 1.000000
0.000000 0.903715 0.883900
0.015722 1.000000 0.976210
0.127061 1.000000 0.976511
0.234918 1.000000 0.980159
0.436633 1.000000 0.986741
0.550630 1.000000 0.992113
0.689142 1.000000 0.998639
0.827654 1.000000 1.000000
0.859892 1.000000 1.000000
0.000000 0.000000 0.878375
0.084809 0.000000 0.878375
0.169111 0.000000 0.878375
0.253413 0.000000 0.878375
0.337715 0.000000 0.878375
0.505527 0.000000 0.878375
0.616993 0.000000 0.878375
0.728460 0.000000 0.878375
0.754403 0.000000 0.878375
0.000000 0.102802 0.878375
0.000000 0.022417 0.990382
0.098249 0.014146 1.000000
0.205175 0.014146 1.000000
0.312100 0.014146 1.000000
0.527096 0.014146 1.000000
0.668475 0.014146 1.000000
0.809854 0.014146 1.000000
0.842759 0.014146 1.000000
0.000000 0.201650 0.878375
0.000000 0.145564 0.990382
0.101721 0.142771 1.000000
0.209798 0.144696 1.000000
0.415686 0.144696 1.000000
0.531066 0.144696 1.000000
0.671258 0.144696 1.000000
0.811450 0.144696 1.000000
0.844079 0.144696 1.000000
0.000000 0.300499 0.878375
0.000000 0.268711 0.990382
0.101721 0.267471 1.000000
0.213059 0.271955 1.000000
0.422283 0.275246 1.000000
0.536361 0.275246 1.000000
0.674970 0.275246 1.000000
0.813579 0.275246 1.000000
0.845840 0.275246 1.000000
0.000000 0.475553 0.878375
0.000000 0.488538 0.990382
0.101721 0.491825 1.000000
0.213059 0.496141 1.000000
0.421068 0.498033 1.000000
0.538533 0.501434 1.000000
0.676493 0.501434 1.000000
0.814452 0.501434 1.000000
0.846562 0.501434 1.000000
0.000000 0.606252 0.878375
0.000000 0.651366 0.990382
0.101721 0.656707 1.000000
0.213059 0.659623 1.000000
0.421068 0.660901 1.000000
0.540436 0.664588 1.000000
0.684465 0.671498 1.000000
0.819025 0.671498 1.000000
0.850343 0.671498 1.000000
0.000000 0.736952 0.878375
0.000000 0.814194 0.990382
0.101721 0.821589 1.000000
0.213059 0.823105 1.000000
0.421068 0.823769 1.000000
0.540436 0.825685 1.000000
0.685475 0.829823 1.000000
0.826501 0.836556 1.000000
0.857717 0.837053 1.000000
0.000000 0.867651 0.878375
0.000000 0.977022 0.990382
0.101721 0.986472 1.000000
0.213059 0.986586 1.000000
0.421068 0.986637 1.000000
0.540436 0.986782 1.000000
0.685475 0.987096 1.000000
0.826501 0.991315 1.000000
0.858739 0.992834 1.000000
0.000000 0.903715 0.883900
0.015722 1.000000 0.976210
0.127061 1.000000 0.976511
0.234918 1.000000 0.980159
0.436633 1.000000 0.986741
0.550630 1.000000 0.992113
0.689142 1.000000 0.998639
0.827654 1.000000 1.000000
0.859892 1.000000 1.000000
