docs/luts/fuji_recipes/Eterna_MT_Eterna.cube
TITLE "Fujifilm Recipe: MT Eterna (Eterna)"
# FilmSim=Eterna HL=0 SH=0 Col=0 WB=Auto WBR=2 WBB=-1
LUT_3D_SIZE 5
DOMAIN_MIN 0.0 0.0 0.0
DOMAIN_MAX 1.0 1.0 1.0
0.040000 0.040000 0.040000
0.279444 0.051283 0.051283
0.499825 0.061667 0.061667
0.737483 0.072866 0.072866
0.929872 0.081931 0.081931
0.050800 0.269200 0.050800
0.279444 0.269683 0.051283
0.499825 0.280067 0.061667
0.737483 0.291266 0.072866
0.929872 0.300331 0.081931
0.061557 0.497483 0.061557
0.289718 0.497483 0.061557
0.499825 0.497594 0.061667
0.737483 0.508792 0.072866
0.929872 0.517858 0.081931
0.071410 0.706590 0.071410
0.299571 0.706590 0.071410
0.509568 0.706590 0.071410
0.737483 0.708046 0.072866
0.929872 0.717111 0.081931
0.082120 0.933880 0.082120
0.310281 0.933880 0.082120
0.520278 0.933880 0.082120
0.746737 0.933880 0.082120
0.930061 0.933880 0.082120
0.050584 0.050584 0.264608
0.279444 0.051283 0.265307
0.499825 0.061667 0.275691
0.737483 0.072866 0.286890
0.929872 0.081931 0.295955
0.050800 0.269200 0.264824
0.290027 0.280266 0.275891
0.510409 0.290651 0.286275
0.748066 0.301849 0.297474
0.940455 0.310915 0.306539
0.061557 0.497483 0.275581
0.300301 0.508067 0.286165
0.510409 0.508177 0.286275
0.748066 0.519376 0.297474
0.940455 0.528441 0.306539
0.071410 0.706590 0.285434
0.310155 0.717174 0.296018
0.520152 0.717174 0.296018
0.748066 0.718629 0.297474
0.940455 0.727695 0.306539
0.082120 0.933880 0.296144
0.320865 0.944464 0.306728
0.530862 0.944464 0.306728
0.757321 0.944464 0.306728
0.940644 0.944464 0.306728
0.061135 0.061135 0.488540
0.289296 0.061135 0.488540
0.499825 0.061667 0.489072
0.737483 0.072866 0.500271
0.929872 0.081931 0.509336
0.061135 0.279535 0.488540
0.300096 0.290335 0.499340
0.510625 0.290867 0.499872
0.748283 0.302066 0.511071
0.940672 0.311131 0.520136
0.061557 0.497483 0.488962
0.301000 0.508766 0.500245
0.520961 0.518729 0.510208
0.758618 0.529927 0.521406
0.951007 0.538993 0.530472
0.071410 0.706590 0.498815
0.310854 0.717873 0.510098
0.530704 0.727725 0.519950
0.758618 0.729181 0.521406
0.951007 0.738247 0.530472
0.082120 0.933880 0.509525
0.321564 0.945163 0.520808
0.541414 0.955015 0.530660
0.767872 0.955015 0.530660
0.951196 0.955015 0.530660
0.070747 0.070747 0.692513
0.298908 0.070747 0.692513
0.508905 0.070747 0.692513
0.737483 0.072866 0.694632
0.929872 0.081931 0.703697
0.070747 0.289147 0.692513
0.309708 0.299947 0.703313
0.519705 0.299947 0.703313
0.748283 0.302066 0.705432
0.940672 0.311131 0.714497
0.070747 0.506673 0.692513
0.310190 0.517956 0.703796
0.530462 0.528230 0.714070
0.759039 0.530349 0.716189
0.951429 0.539414 0.725254
0.071410 0.706590 0.693176
0.310854 0.717873 0.704459
0.531235 0.728257 0.714844
0.768229 0.738792 0.725379
0.960618 0.747858 0.734444
0.082120 0.933880 0.703886
0.321564 0.945163 0.715169
0.541945 0.955547 0.725554
0.777484 0.964627 0.734633
0.960807 0.964627 0.734633
0.081232 0.081232 0.915041
0.309393 0.081232 0.915041
0.519391 0.081232 0.915041
0.745849 0.081232 0.915041
0.929872 0.081931 0.915740
0.081232 0.299632 0.915041
0.320193 0.310432 0.925841
0.530191 0.310432 0.925841
0.756649 0.310432 0.925841
0.940672 0.311131 0.926540
0.081232 0.517159 0.915041
0.320676 0.528441 0.926324
0.540947 0.538716 0.936598
0.767406 0.538716 0.936598
0.951429 0.539414 0.937297
0.081232 0.716412 0.915041
0.320676 0.727695 0.926324
0.541058 0.738079 0.936709
0.777259 0.747822 0.946451
0.961282 0.748521 0.947150
0.082120 0.933880 0.915929
0.321564 0.945163 0.927212
0.541945 0.955547 0.937596
0.779603 0.966746 0.948795
0.971293 0.975112 0.957161
