docs/luts/fuji_recipes/Eterna_GB_The_Cinema.cube
TITLE "Fujifilm Recipe: GB The Cinema (Eterna)"
# FilmSim=Eterna HL=1 SH=2 Col=2 WB=Auto WBR=0 WBB=0
LUT_3D_SIZE 33
DOMAIN_MIN 0.0 0.0 0.0
DOMAIN_MAX 1.0 1.0 1.0
0.036800 0.036800 0.036800
0.066552 0.031667 0.031667
0.095877 0.027067 0.027067
0.124985 0.022722 0.022722
0.153949 0.018522 0.018522
0.182824 0.014411 0.014411
0.211641 0.010357 0.010357
0.240418 0.006343 0.006343
0.269167 0.002358 0.002358
0.296288 0.000000 0.000000
0.321052 0.000000 0.000000
0.345815 0.000000 0.000000
0.370956 0.000000 0.000000
0.396242 0.000000 0.000000
0.421528 0.000000 0.000000
0.446814 0.000000 0.000000
0.471377 0.000000 0.000000
0.517668 0.000000 0.000000
0.545866 0.000000 0.000000
0.574065 0.000000 0.000000
0.602264 0.000000 0.000000
0.630462 0.000000 0.000000
0.658661 0.000000 0.000000
0.686860 0.000000 0.000000
0.715058 0.000000 0.000000
0.743257 0.000000 0.000000
0.771456 0.000000 0.000000
0.799654 0.000000 0.000000
0.827853 0.000000 0.000000
0.856052 0.000000 0.000000
0.884250 0.000000 0.000000
0.912449 0.000000 0.000000
0.944239 0.000000 0.000000
0.035296 0.067679 0.033521
0.067679 0.066235 0.033521
0.098073 0.062404 0.030294
0.128822 0.059084 0.027029
0.153949 0.052584 0.018522
0.182824 0.048285 0.014411
0.211641 0.044087 0.010357
0.240418 0.039958 0.006343
0.269167 0.035880 0.002358
0.296288 0.033086 0.000000
0.321052 0.032264 0.000000
0.345815 0.031591 0.000000
0.370956 0.031062 0.000000
0.396242 0.030625 0.000000
0.421528 0.030251 0.000000
0.446814 0.029927 0.000000
0.471377 0.029651 0.000000
0.517668 0.028975 0.000000
0.545866 0.028747 0.000000
0.574065 0.028544 0.000000
0.602264 0.028363 0.000000
0.630462 0.028200 0.000000
0.658661 0.028053 0.000000
0.686860 0.027919 0.000000
0.715058 0.027796 0.000000
0.743257 0.027684 0.000000
0.771456 0.027581 0.000000
0.799654 0.027486 0.000000
0.827853 0.027398 0.000000
0.856052 0.027316 0.000000
0.884250 0.027240 0.000000
0.912449 0.027169 0.000000
0.944239 0.027206 0.000000
0.033792 0.098558 0.030242
0.068157 0.098558 0.030242
0.098558 0.095528 0.030242
0.128822 0.091396 0.027029
0.159572 0.087982 0.023763
0.190322 0.084647 0.020498
0.221072 0.081344 0.017233
0.240418 0.073573 0.006343
0.269167 0.069402 0.002358
0.296288 0.066172 0.000000
0.321052 0.064527 0.000000
0.345815 0.063182 0.000000
0.370956 0.062124 0.000000
0.396242 0.061251 0.000000
0.421528 0.060503 0.000000
0.446814 0.059855 0.000000
0.471377 0.059303 0.000000
0.517668 0.057950 0.000000
0.545866 0.057494 0.000000
0.574065 0.057088 0.000000
0.602264 0.056726 0.000000
0.630462 0.056400 0.000000
0.658661 0.056105 0.000000
0.686860 0.055837 0.000000
0.715058 0.055593 0.000000
0.743257 0.055368 0.000000
0.771456 0.055162 0.000000
0.799654 0.054972 0.000000
0.827853 0.054796 0.000000
0.856052 0.054633 0.000000
0.884250 0.054481 0.000000
0.912449 0.054339 0.000000
0.944239 0.054413 0.000000
0.032288 0.129437 0.026963
0.066831 0.129437 0.026963
0.100803 0.129437 0.026963
0.129437 0.124770 0.026963
0.159572 0.120447 0.023763
0.190322 0.116953 0.020498
0.221072 0.113561 0.017233
0.251822 0.110219 0.013968
0.282572 0.106903 0.010703
0.313321 0.103603 0.007438
0.344071 0.100313 0.004172
0.345815 0.094773 0.000000
0.370956 0.093186 0.000000
0.396242 0.091876 0.000000
0.421528 0.090754 0.000000
0.446814 0.089782 0.000000
0.471377 0.088954 0.000000
0.517668 0.086925 0.000000
0.545866 0.086240 0.000000
0.574065 0.085633 0.000000
0.602264 0.085089 0.000000
0.630462 0.084600 0.000000
0.658661 0.084158 0.000000
0.686860 0.083756 0.000000
0.715058 0.083389 0.000000
0.743257 0.083053 0.000000
0.771456 0.082744 0.000000
0.799654 0.082458 0.000000
0.827853 0.082194 0.000000
0.856052 0.081949 0.000000
0.884250 0.081721 0.000000
0.912449 0.081508 0.000000
0.944239 0.081619 0.000000
0.030784 0.160316 0.023684
0.065414 0.160316 0.023684
0.099661 0.160316 0.023684
0.133408 0.160316 0.023684
0.160316 0.154012 0.023684
0.190322 0.149525 0.020498
0.221072 0.145967 0.017233
0.251822 0.142523 0.013968
0.282572 0.139140 0.010703
0.313321 0.135793 0.007438
0.344071 0.132470 0.004172
0.374821 0.129161 0.000907
0.403213 0.126739 0.000000
0.430698 0.124933 0.000000
0.421528 0.121006 0.000000
0.446814 0.119709 0.000000
0.471377 0.118605 0.000000
0.517668 0.115900 0.000000
0.545866 0.114987 0.000000
0.574065 0.114177 0.000000
0.602264 0.113452 0.000000
0.630462 0.112800 0.000000
0.658661 0.112210 0.000000
0.686860 0.111674 0.000000
0.715058 0.111185 0.000000
0.743257 0.110737 0.000000
0.771456 0.110325 0.000000
0.799654 0.109944 0.000000
0.827853 0.109592 0.000000
0.856052 0.109265 0.000000
0.884250 0.108961 0.000000
0.912449 0.108677 0.000000
0.944239 0.108825 0.000000
0.029280 0.191194 0.020406
0.063961 0.191194 0.020406
0.098372 0.191194 0.020406
0.132395 0.191194 0.020406
0.165976 0.191194 0.020406
0.191194 0.183255 0.020406
0.221072 0.178616 0.017233
0.251822 0.175009 0.013968
0.282572 0.171518 0.010703
0.313321 0.168096 0.007438
0.344071 0.164719 0.004172
0.374821 0.161370 0.000907
0.403213 0.158544 0.000000
0.430698 0.156268 0.000000
0.458182 0.154321 0.000000
0.485667 0.152637 0.000000
0.512367 0.151205 0.000000
0.517668 0.144875 0.000000
0.545866 0.143734 0.000000
0.574065 0.142721 0.000000
0.602264 0.141815 0.000000
0.630462 0.141000 0.000000
0.658661 0.140263 0.000000
0.686860 0.139593 0.000000
0.715058 0.138981 0.000000
0.743257 0.138421 0.000000
0.771456 0.137906 0.000000
0.799654 0.137430 0.000000
0.827853 0.136990 0.000000
0.856052 0.136582 0.000000
0.884250 0.136201 0.000000
0.912449 0.135846 0.000000
0.944239 0.136032 0.000000
0.027776 0.222073 0.017127
0.062491 0.222073 0.017127
0.097010 0.222073 0.017127
0.131217 0.222073 0.017127
0.165054 0.222073 0.017127
0.198526 0.222073 0.017127
0.222073 0.212497 0.017127
0.251822 0.207715 0.013968
0.282572 0.204069 0.010703
0.313321 0.200538 0.007438
0.344071 0.197081 0.004172
0.374821 0.193672 0.000907
0.403213 0.190428 0.000000
0.430698 0.187669 0.000000
0.458182 0.185312 0.000000
0.485667 0.183274 0.000000
0.512367 0.181542 0.000000
0.562682 0.177337 0.000000
0.593333 0.175913 0.000000
0.623984 0.174650 0.000000
0.602264 0.170178 0.000000
0.630462 0.169200 0.000000
0.658661 0.168315 0.000000
0.686860 0.167511 0.000000
0.715058 0.166778 0.000000
0.743257 0.166105 0.000000
0.771456 0.165487 0.000000
0.799654 0.164917 0.000000
0.827853 0.164388 0.000000
0.856052 0.163898 0.000000
0.884250 0.163442 0.000000
0.912449 0.163016 0.000000
0.944239 0.163238 0.000000
0.026272 0.252952 0.013848
0.061011 0.252952 0.013848
0.095606 0.252952 0.013848
0.129945 0.252952 0.013848
0.163967 0.252952 0.013848
0.197672 0.252952 0.013848
0.231067 0.252952 0.013848
0.252952 0.241739 0.013848
0.282572 0.236819 0.010703
0.313321 0.233141 0.007438
0.344071 0.229576 0.004172
0.374821 0.226086 0.000907
0.403213 0.222405 0.000000
0.430698 0.219149 0.000000
0.458182 0.216370 0.000000
0.485667 0.213968 0.000000
0.512367 0.211930 0.000000
0.562682 0.206995 0.000000
0.593333 0.205322 0.000000
0.623984 0.203838 0.000000
0.654635 0.202513 0.000000
0.685285 0.201324 0.000000
0.715936 0.200249 0.000000
0.686860 0.195430 0.000000
0.715058 0.194574 0.000000
0.743257 0.193790 0.000000
0.771456 0.193068 0.000000
0.799654 0.192403 0.000000
0.827853 0.191786 0.000000
0.856052 0.191214 0.000000
0.884250 0.190682 0.000000
0.912449 0.190185 0.000000
0.944239 0.190444 0.000000
0.024768 0.283831 0.010569
0.059525 0.283831 0.010569
0.094176 0.283831 0.010569
0.128613 0.283831 0.010569
0.162773 0.283831 0.010569
0.196656 0.283831 0.010569
0.230263 0.283831 0.010569
0.263600 0.283831 0.010569
0.283831 0.270982 0.010569
0.313321 0.265927 0.007438
0.344071 0.262222 0.004172
0.374821 0.258627 0.000907
0.403213 0.254490 0.000000
0.430698 0.250721 0.000000
0.458182 0.247506 0.000000
0.485667 0.244731 0.000000
0.512367 0.242377 0.000000
0.562682 0.236699 0.000000
0.593333 0.234771 0.000000
0.623984 0.233062 0.000000
0.654635 0.231537 0.000000
0.685285 0.230168 0.000000
0.715936 0.228931 0.000000
0.746587 0.227809 0.000000
0.777237 0.226787 0.000000
0.807888 0.225851 0.000000
0.771456 0.220649 0.000000
0.799654 0.219889 0.000000
0.827853 0.219184 0.000000
0.856052 0.218531 0.000000
0.884250 0.217922 0.000000
0.912449 0.217354 0.000000
0.944239 0.217651 0.000000
0.023264 0.314710 0.007290
0.058034 0.314710 0.007290
0.092729 0.314710 0.007290
0.127241 0.314710 0.007290
0.161510 0.314710 0.007290
0.195531 0.314710 0.007290
0.229306 0.314710 0.007290
0.262837 0.314710 0.007290
0.296130 0.314710 0.007290
0.314710 0.300224 0.007290
0.344071 0.295038 0.004172
0.374821 0.291311 0.000907
0.403213 0.286694 0.000000
0.430698 0.282394 0.000000
0.458182 0.278729 0.000000
0.485667 0.275570 0.000000
0.512367 0.272891 0.000000
0.562682 0.266455 0.000000
0.593333 0.264266 0.000000
0.623984 0.262327 0.000000
0.654635 0.260597 0.000000
0.685285 0.259045 0.000000
0.715936 0.257643 0.000000
0.746587 0.256373 0.000000
0.777237 0.255215 0.000000
0.807888 0.254155 0.000000
0.838539 0.253182 0.000000
0.869190 0.252285 0.000000
0.899840 0.251456 0.000000
0.856052 0.245847 0.000000
0.884250 0.245162 0.000000
0.912449 0.244523 0.000000
0.944239 0.244857 0.000000
0.021760 0.345589 0.004011
0.056541 0.345589 0.004011
0.091271 0.345589 0.004011
0.125843 0.345589 0.004011
0.160197 0.345589 0.004011
0.194330 0.345589 0.004011
0.228240 0.345589 0.004011
0.261928 0.345589 0.004011
0.295399 0.345589 0.004011
0.328657 0.345589 0.004011
0.345589 0.329466 0.004011
0.374821 0.324150 0.000907
0.403213 0.319031 0.000000
0.430698 0.314179 0.000000
0.458182 0.310050 0.000000
0.485667 0.306493 0.000000
0.512367 0.303480 0.000000
0.562682 0.296270 0.000000
0.593333 0.293813 0.000000
0.623984 0.291637 0.000000
0.654635 0.289698 0.000000
0.685285 0.287958 0.000000
0.715936 0.286389 0.000000
0.746587 0.284966 0.000000
0.777237 0.283670 0.000000
0.807888 0.282484 0.000000
0.838539 0.281396 0.000000
0.869190 0.280393 0.000000
0.899840 0.279466 0.000000
0.930491 0.278606 0.000000
0.961142 0.277807 0.000000
0.991793 0.277062 0.000000
0.944239 0.272063 0.000000
0.020256 0.376468 0.000732
0.055046 0.376468 0.000732
0.089804 0.376468 0.000732
0.124425 0.376468 0.000732
0.158848 0.376468 0.000732
0.193072 0.376468 0.000732
0.227093 0.376468 0.000732
0.260912 0.376468 0.000732
0.294530 0.376468 0.000732
0.327952 0.376468 0.000732
0.361182 0.376468 0.000732
0.376468 0.358708 0.000732
0.403213 0.351510 0.000000
0.430698 0.346088 0.000000
0.458182 0.341477 0.000000
0.485667 0.337509 0.000000
0.512367 0.334150 0.000000
0.562682 0.326149 0.000000
0.593333 0.323416 0.000000
0.623984 0.320999 0.000000
0.654635 0.318844 0.000000
0.685285 0.316913 0.000000
0.715936 0.315171 0.000000
0.746587 0.313593 0.000000
0.777237 0.312156 0.000000
0.807888 0.310842 0.000000
0.838539 0.309635 0.000000
0.869190 0.308524 0.000000
0.899840 0.307498 0.000000
0.930491 0.306546 0.000000
0.961142 0.305661 0.000000
0.991793 0.304837 0.000000
1.000000 0.313161 0.022443
0.021034 0.404800 0.000000
0.055399 0.404800 0.000000
0.089748 0.404800 0.000000
0.123978 0.404800 0.000000
0.158031 0.404800 0.000000
0.191904 0.404800 0.000000
0.225594 0.404800 0.000000
0.259101 0.404800 0.000000
0.292425 0.404800 0.000000
0.325568 0.404800 0.000000
0.358534 0.404800 0.000000
0.391328 0.404800 0.000000
0.404800 0.385645 0.000000
0.430698 0.378127 0.000000
0.458182 0.373018 0.000000
0.485667 0.368624 0.000000
0.512367 0.364909 0.000000
0.562682 0.356097 0.000000
0.593333 0.353081 0.000000
0.623984 0.350415 0.000000
0.654635 0.348040 0.000000
0.685285 0.345912 0.000000
0.715936 0.343994 0.000000
0.746587 0.342257 0.000000
0.777237 0.340675 0.000000
0.807888 0.339230 0.000000
0.838539 0.337903 0.000000
0.869190 0.336682 0.000000
0.899840 0.335554 0.000000
0.930491 0.334508 0.000000
0.961142 0.333537 0.000000
0.991793 0.332631 0.000000
1.000000 0.339663 0.022443
0.022468 0.432400 0.000000
0.056359 0.432400 0.000000
0.090247 0.432400 0.000000
0.124031 0.432400 0.000000
0.157655 0.432400 0.000000
0.191116 0.432400 0.000000
0.224411 0.432400 0.000000
0.257539 0.432400 0.000000
0.290501 0.432400 0.000000
0.323297 0.432400 0.000000
0.355929 0.432400 0.000000
0.388401 0.432400 0.000000
0.420716 0.432400 0.000000
0.432400 0.411919 0.000000
0.458182 0.404681 0.000000
0.485667 0.399847 0.000000
0.512367 0.395762 0.000000
0.562682 0.386121 0.000000
0.593333 0.382813 0.000000
0.623984 0.379890 0.000000
0.654635 0.377289 0.000000
0.685285 0.374959 0.000000
0.715936 0.372860 0.000000
0.746587 0.370960 0.000000
0.777237 0.369231 0.000000
0.807888 0.367651 0.000000
0.838539 0.366202 0.000000
0.869190 0.364868 0.000000
0.899840 0.363636 0.000000
0.930491 0.362495 0.000000
0.961142 0.361434 0.000000
0.991793 0.360447 0.000000
1.000000 0.366184 0.022443
0.023902 0.460000 0.000000
0.057386 0.460000 0.000000
0.090878 0.460000 0.000000
0.124280 0.460000 0.000000
0.157535 0.460000 0.000000
0.190641 0.460000 0.000000
0.223595 0.460000 0.000000
0.256397 0.460000 0.000000
0.289046 0.460000 0.000000
0.321542 0.460000 0.000000
0.353887 0.460000 0.000000
0.386083 0.460000 0.000000
0.418132 0.460000 0.000000
0.450038 0.460000 0.000000
0.460000 0.438194 0.000000
0.485667 0.431183 0.000000
0.512367 0.426716 0.000000
0.562682 0.416225 0.000000
0.593333 0.412616 0.000000
0.623984 0.409429 0.000000
0.654635 0.406595 0.000000
0.685285 0.404058 0.000000
0.715936 0.401773 0.000000
0.746587 0.399706 0.000000
0.777237 0.397825 0.000000
0.807888 0.396108 0.000000
0.838539 0.394533 0.000000
0.869190 0.393084 0.000000
0.899840 0.391746 0.000000
0.930491 0.390507 0.000000
0.961142 0.389357 0.000000
0.991793 0.388285 0.000000
1.000000 0.392726 0.022443
0.025336 0.487600 0.000000
0.058468 0.487600 0.000000
0.091616 0.487600 0.000000
0.124685 0.487600 0.000000
0.157619 0.487600 0.000000
0.190417 0.487600 0.000000
0.223075 0.487600 0.000000
0.255592 0.487600 0.000000
0.287968 0.487600 0.000000
0.320204 0.487600 0.000000
0.352298 0.487600 0.000000
0.384253 0.487600 0.000000
0.416071 0.487600 0.000000
0.447754 0.487600 0.000000
0.479306 0.487600 0.000000
0.487600 0.464469 0.000000
0.512367 0.457777 0.000000
0.562682 0.446413 0.000000
0.593333 0.442494 0.000000
0.623984 0.439036 0.000000
0.654635 0.435962 0.000000
0.685285 0.433212 0.000000
0.715936 0.430736 0.000000
0.746587 0.428497 0.000000
0.777237 0.426462 0.000000
0.807888 0.424603 0.000000
0.838539 0.422900 0.000000
0.869190 0.421333 0.000000
0.899840 0.419887 0.000000
0.930491 0.418548 0.000000
0.961142 0.417305 0.000000
0.991793 0.416148 0.000000
1.000000 0.419289 0.022443
0.026725 0.514317 0.000000
0.059557 0.514317 0.000000
0.092413 0.514317 0.000000
0.125199 0.514317 0.000000
0.157861 0.514317 0.000000
0.190395 0.514317 0.000000
0.222800 0.514317 0.000000
0.255075 0.514317 0.000000
0.287219 0.514317 0.000000
0.319231 0.514317 0.000000
0.351112 0.514317 0.000000
0.382862 0.514317 0.000000
0.414484 0.514317 0.000000
0.445978 0.514317 0.000000
0.477347 0.514317 0.000000
0.508595 0.514317 0.000000
0.514317 0.489797 0.000000
0.562682 0.475721 0.000000
0.593333 0.471493 0.000000
0.623984 0.515257 0.000000
0.654635 0.511724 0.000000
0.685285 0.508584 0.000000
0.715936 0.505778 0.000000
0.746587 0.503258 0.000000
0.777237 0.500985 0.000000
0.807888 0.498926 0.000000
0.838539 0.497055 0.000000
0.869190 0.495348 0.000000
0.899840 0.493786 0.000000
0.930491 0.492354 0.000000
0.961142 0.491037 0.000000
0.991793 0.489823 0.000000
1.000000 0.489690 0.022443
0.029363 0.565095 0.000000
0.061452 0.565095 0.000000
0.093578 0.565095 0.000000
0.125648 0.565095 0.000000
0.157611 0.565095 0.000000
0.189465 0.565095 0.000000
0.221207 0.565095 0.000000
0.252837 0.565095 0.000000
0.284353 0.565095 0.000000
0.315755 0.565095 0.000000
0.347043 0.565095 0.000000
0.378216 0.565095 0.000000
0.409276 0.565095 0.000000
0.440223 0.565095 0.000000
0.471059 0.565095 0.000000
0.501786 0.565095 0.000000
0.531532 0.565095 0.000000
0.565095 0.538412 0.000000
0.593333 0.531426 0.000000
0.623984 0.527304 0.000000
0.654635 0.523665 0.000000
0.685285 0.520431 0.000000
0.715936 0.517541 0.000000
0.746587 0.514946 0.000000
0.777237 0.512604 0.000000
0.807888 0.510484 0.000000
0.838539 0.508556 0.000000
0.869190 0.506798 0.000000
0.899840 0.505189 0.000000
0.930491 0.503713 0.000000
0.961142 0.502356 0.000000
0.991793 0.501105 0.000000
1.000000 0.500444 0.022443
0.030963 0.595875 0.000000
0.062803 0.595875 0.000000
0.094686 0.595875 0.000000
0.126521 0.595875 0.000000
0.158256 0.595875 0.000000
0.189889 0.595875 0.000000
0.221418 0.595875 0.000000
0.252843 0.595875 0.000000
0.284162 0.595875 0.000000
0.315375 0.595875 0.000000
0.346482 0.595875 0.000000
0.377481 0.595875 0.000000
0.408374 0.595875 0.000000
0.439161 0.595875 0.000000
0.469844 0.595875 0.000000
0.500422 0.595875 0.000000
0.530030 0.595875 0.000000
0.590204 0.595875 0.000000
0.595875 0.567712 0.000000
0.623984 0.560841 0.000000
0.654635 0.556899 0.000000
0.685285 0.553398 0.000000
0.715936 0.550269 0.000000
0.746587 0.547459 0.000000
0.777237 0.544925 0.000000
0.807888 0.542629 0.000000
0.838539 0.540542 0.000000
0.869190 0.538638 0.000000
0.899840 0.536896 0.000000
0.930491 0.535298 0.000000
0.961142 0.533827 0.000000
0.991793 0.532471 0.000000
1.000000 0.530340 0.022443
0.032562 0.626654 0.000000
0.064181 0.626654 0.000000
0.095849 0.626654 0.000000
0.127474 0.626654 0.000000
0.159006 0.626654 0.000000
0.190442 0.626654 0.000000
0.221782 0.626654 0.000000
0.253025 0.626654 0.000000
0.284168 0.626654 0.000000
0.315212 0.626654 0.000000
0.346157 0.626654 0.000000
0.377001 0.626654 0.000000
0.407745 0.626654 0.000000
0.438389 0.626654 0.000000
0.468935 0.626654 0.000000
0.499382 0.626654 0.000000
0.528867 0.626654 0.000000
0.588997 0.626654 0.000000
0.622702 0.626654 0.000000
0.626654 0.597013 0.000000
0.654635 0.590231 0.000000
0.685285 0.586453 0.000000
0.715936 0.583078 0.000000
0.746587 0.580047 0.000000
0.777237 0.577314 0.000000
0.807888 0.574838 0.000000
0.838539 0.572587 0.000000
0.869190 0.570533 0.000000
0.899840 0.568654 0.000000
0.930491 0.566929 0.000000
0.961142 0.565342 0.000000
0.991793 0.563878 0.000000
1.000000 0.560272 0.022443
0.034161 0.657433 0.000000
0.065583 0.657433 0.000000
0.097058 0.657433 0.000000
0.128495 0.657433 0.000000
0.159845 0.657433 0.000000
0.191106 0.657433 0.000000
0.222276 0.657433 0.000000
0.253354 0.657433 0.000000
0.284340 0.657433 0.000000
0.315232 0.657433 0.000000
0.346031 0.657433 0.000000
0.376735 0.657433 0.000000
0.407345 0.657433 0.000000
0.437861 0.657433 0.000000
0.468284 0.657433 0.000000
0.498614 0.657433 0.000000
0.576170 0.657433 0.000000
0.588099 0.657433 0.000000
0.621691 0.657433 0.000000
0.655175 0.657433 0.000000
0.657433 0.626315 0.000000
0.685285 0.619600 0.000000
0.715936 0.615971 0.000000
0.746587 0.612713 0.000000
0.777237 0.609774 0.000000
0.807888 0.607112 0.000000
0.838539 0.604692 0.000000
0.869190 0.602484 0.000000
0.899840 0.600464 0.000000
0.930491 0.598609 0.000000
0.961142 0.596902 0.000000
0.991793 0.595328 0.000000
1.000000 0.590243 0.022443
0.035761 0.688213 0.000000
0.067005 0.688213 0.000000
0.098306 0.688213 0.000000
0.129574 0.688213 0.000000
0.160760 0.688213 0.000000
0.191862 0.688213 0.000000
0.222879 0.688213 0.000000
0.253809 0.688213 0.000000
0.284653 0.688213 0.000000
0.315408 0.688213 0.000000
0.346075 0.688213 0.000000
0.376653 0.688213 0.000000
0.407142 0.688213 0.000000
0.437542 0.688213 0.000000
0.467854 0.688213 0.000000
0.498077 0.688213 0.000000
0.575572 0.688213 0.000000
0.587465 0.688213 0.000000
0.620955 0.688213 0.000000
0.654341 0.688213 0.000000
0.687625 0.688213 0.000000
0.688213 0.655616 0.000000
0.715936 0.648952 0.000000
0.746587 0.645458 0.000000
0.777237 0.642308 0.000000
0.807888 0.639455 0.000000
0.838539 0.636861 0.000000
0.869190 0.634494 0.000000
0.899840 0.632329 0.000000
0.930491 0.630340 0.000000
0.961142 0.628511 0.000000
0.991793 0.626822 0.000000
1.000000 0.620255 0.022443
0.037360 0.718992 0.000000
0.068443 0.718992 0.000000
0.099587 0.718992 0.000000
0.130703 0.718992 0.000000
0.161740 0.718992 0.000000
0.192698 0.718992 0.000000
0.223576 0.718992 0.000000
0.254372 0.718992 0.000000
0.285086 0.718992 0.000000
0.315717 0.718992 0.000000
0.346265 0.718992 0.000000
0.376728 0.718992 0.000000
0.407107 0.718992 0.000000
0.437402 0.718992 0.000000
0.467612 0.718992 0.000000
0.497739 0.718992 0.000000
0.575197 0.718992 0.000000
0.587056 0.718992 0.000000
0.620455 0.718992 0.000000
0.653754 0.718992 0.000000
0.686954 0.718992 0.000000
0.718992 0.717927 0.000000
0.718992 0.684918 0.000000
0.746587 0.678288 0.000000
0.777237 0.674919 0.000000
0.807888 0.671869 0.000000
0.838539 0.669096 0.000000
0.869190 0.666566 0.000000
0.899840 0.664251 0.000000
0.930491 0.662125 0.000000
0.961142 0.660169 0.000000
0.991793 0.658364 0.000000
1.000000 0.650308 0.022443
0.038959 0.749771 0.000000
0.069897 0.749771 0.000000
0.100897 0.749771 0.000000
0.131874 0.749771 0.000000
0.162776 0.749771 0.000000
0.193604 0.749771 0.000000
0.224355 0.749771 0.000000
0.255029 0.749771 0.000000
0.285625 0.749771 0.000000
0.316142 0.749771 0.000000
0.346581 0.749771 0.000000
0.376939 0.749771 0.000000
0.407218 0.749771 0.000000
0.437416 0.749771 0.000000
0.467535 0.749771 0.000000
0.497574 0.749771 0.000000
0.575013 0.749771 0.000000
0.586841 0.749771 0.000000
0.620158 0.749771 0.000000
0.653378 0.749771 0.000000
0.686502 0.749771 0.000000
0.719533 0.749771 0.000000
0.749771 0.747070 0.000000
0.749771 0.714220 0.000000
0.777237 0.707610 0.000000
0.807888 0.704357 0.000000
0.838539 0.701400 0.000000
0.869190 0.698702 0.000000
0.899840 0.696233 0.000000
0.930491 0.693966 0.000000
0.961142 0.691880 0.000000
0.991793 0.689955 0.000000
1.000000 0.680405 0.022443
0.040559 0.780551 0.000000
0.071363 0.780551 0.000000
0.102233 0.780551 0.000000
0.133082 0.780551 0.000000
0.163861 0.780551 0.000000
0.194569 0.780551 0.000000
0.225204 0.780551 0.000000
0.255767 0.780551 0.000000
0.286255 0.780551 0.000000
0.316668 0.780551 0.000000
0.347007 0.780551 0.000000
0.377269 0.780551 0.000000
0.407456 0.780551 0.000000
0.437566 0.780551 0.000000
0.467600 0.780551 0.000000
0.497558 0.780551 0.000000
0.574996 0.780551 0.000000
0.586797 0.780551 0.000000
0.620038 0.780551 0.000000
0.653185 0.780551 0.000000
0.686242 0.780551 0.000000
0.719208 0.780551 0.000000
0.752085 0.780551 0.000000
0.780551 0.776227 0.000000
0.780551 0.743523 0.000000
0.807888 0.736921 0.000000
0.838539 0.733774 0.000000
0.869190 0.730903 0.000000
0.899840 0.728276 0.000000
0.930491 0.725864 0.000000
0.961142 0.723645 0.000000
0.991793 0.721596 0.000000
1.000000 0.710549 0.022443
0.042158 0.811330 0.000000
0.072840 0.811330 0.000000
0.103591 0.811330 0.000000
0.134323 0.811330 0.000000
0.164989 0.811330 0.000000
0.195587 0.811330 0.000000
0.226116 0.811330 0.000000
0.256576 0.811330 0.000000
0.286965 0.811330 0.000000
0.317283 0.811330 0.000000
0.347529 0.811330 0.000000
0.377703 0.811330 0.000000
0.407805 0.811330 0.000000
0.437834 0.811330 0.000000
0.467791 0.811330 0.000000
0.497675 0.811330 0.000000
0.575125 0.811330 0.000000
0.586900 0.811330 0.000000
0.620072 0.811330 0.000000
0.653154 0.811330 0.000000
0.686148 0.811330 0.000000
0.719055 0.811330 0.000000
0.751875 0.811330 0.000000
0.784611 0.811330 0.000000
0.811330 0.805396 0.000000
0.811330 0.772825 0.000000
0.838539 0.766221 0.000000
0.869190 0.763173 0.000000
0.899840 0.760383 0.000000
0.930491 0.757822 0.000000
0.961142 0.755465 0.000000
0.991793 0.753290 0.000000
1.000000 0.740739 0.022443
0.043757 0.842110 0.000000
0.074327 0.842110 0.000000
0.104967 0.842110 0.000000
0.135593 0.842110 0.000000
0.166154 0.842110 0.000000
0.196651 0.842110 0.000000
0.227082 0.842110 0.000000
0.257447 0.842110 0.000000
0.287745 0.842110 0.000000
0.317975 0.842110 0.000000
0.348136 0.842110 0.000000
0.378229 0.842110 0.000000
0.408253 0.842110 0.000000
0.438207 0.842110 0.000000
0.468092 0.842110 0.000000
0.497907 0.842110 0.000000
0.575383 0.842110 0.000000
0.587135 0.842110 0.000000
0.620243 0.842110 0.000000
0.653264 0.842110 0.000000
0.686201 0.842110 0.000000
0.719053 0.842110 0.000000
0.751822 0.842110 0.000000
0.784509 0.842110 0.000000
