docs/luts/fuji_recipes/Eterna_VM_Eterna.cube
TITLE "Fujifilm Recipe: VM Eterna (Eterna)"
# FilmSim=Eterna HL=1 SH=3 Col=3 WB=Auto WBR=0 WBB=-1
LUT_3D_SIZE 5
DOMAIN_MIN 0.0 0.0 0.0
DOMAIN_MAX 1.0 1.0 1.0
0.035200 0.035200 0.035200
0.306181 0.000000 0.000000
0.583947 0.000000 0.000000
0.853204 0.000000 0.000000
1.000000 0.019166 0.019166
0.000000 0.307366 0.000000
0.305829 0.307366 0.000000
0.583947 0.266150 0.000000
0.853204 0.254920 0.000000
1.000000 0.260896 0.019166
0.000000 0.586456 0.000000
0.264662 0.586456 0.000000
0.583620 0.586456 0.000000
0.853204 0.564244 0.000000
1.000000 0.555512 0.019166
0.000000 0.856842 0.000000
0.253547 0.856842 0.000000
0.561339 0.856842 0.000000
0.852902 0.856842 0.000000
1.000000 0.833258 0.019166
0.023501 1.000000 0.023501
0.261869 1.000000 0.023501
0.552525 1.000000 0.023501
0.826634 1.000000 0.023501
0.995587 1.000000 0.023501
0.000000 0.000000 0.302594
0.306181 0.000000 0.301524
0.583947 0.000000 0.260791
0.853204 0.000000 0.249787
1.000000 0.019166 0.256029
0.000000 0.307366 0.301177
0.271463 0.273123 0.266437
0.612090 0.212638 0.205952
0.938146 0.155838 0.149151
1.000000 0.258132 0.253260
0.000000 0.586456 0.260635
0.210449 0.615127 0.205423
0.611587 0.615127 0.205423
0.938146 0.561720 0.149151
1.000000 0.555132 0.253260
0.000000 0.856842 0.249690
0.153410 0.942552 0.148384
0.557451 0.942552 0.148384
0.937418 0.942552 0.148384
1.000000 0.833115 0.253260
0.023501 1.000000 0.258243
0.261214 1.000000 0.257595
0.553405 1.000000 0.257595
0.826975 1.000000 0.257595
0.995596 1.000000 0.257595
0.000000 0.000000 0.575238
0.265381 0.000000 0.575238
0.583947 0.000000 0.574097
0.853204 0.000000 0.552093
1.000000 0.019166 0.543990
0.000000 0.266714 0.575238
0.212088 0.213748 0.600861
0.611182 0.211670 0.598892
0.937238 0.154870 0.544982
1.000000 0.258071 0.543589
0.000000 0.586456 0.573776
0.209721 0.614445 0.598615
0.553675 0.557215 0.541385
0.879732 0.503305 0.487476
1.000000 0.546094 0.534327
0.000000 0.856842 0.551908
0.152683 0.941870 0.544479
0.499030 0.884131 0.486740
0.878997 0.884131 0.486740
1.000000 0.829725 0.534327
0.023501 1.000000 0.543659
0.261211 1.000000 0.544575
0.547655 1.000000 0.538692
0.824747 1.000000 0.538692
0.995539 1.000000 0.538692
0.000000 0.000000 0.839960
0.254012 0.000000 0.839960
0.562229 0.000000 0.839960
0.853204 0.000000 0.838857
1.000000 0.019166 0.815917
0.000000 0.255288 0.839960
0.156244 0.157904 0.921427
0.559923 0.157663 0.921201
0.937238 0.154870 0.918550
1.000000 0.258071 0.815755
0.000000 0.564950 0.839960
0.156244 0.563689 0.921427
0.500682 0.504222 0.861960
0.877465 0.501038 0.858776
1.000000 0.545623 0.811821
0.000000 0.856842 0.838562
0.152683 0.941870 0.918047
0.497270 0.882371 0.858548
0.825497 0.830631 0.806808
1.000000 0.819651 0.800895
0.023501 1.000000 0.813152
0.261211 1.000000 0.813527
0.547462 1.000000 0.811038
0.819311 1.000000 0.805260
0.995401 1.000000 0.805260
0.003128 0.003128 1.000000
0.251791 0.003128 1.000000
0.554836 0.003128 1.000000
0.840783 0.003128 1.000000
1.000000 0.019166 0.983525
0.003128 0.253040 1.000000
0.240838 0.242102 1.000000
0.549630 0.242032 1.000000
0.838921 0.242032 1.000000
1.000000 0.258071 0.983511
0.003128 0.557499 1.000000
0.240838 0.552359 1.000000
0.526947 0.529778 1.000000
0.830698 0.529473 1.000000
1.000000 0.545623 0.983158
0.003128 0.844646 1.000000
0.240838 0.842842 1.000000
0.526947 0.834914 1.000000
0.798080 0.802981 1.000000
1.000000 0.817894 0.982007
0.023501 1.000000 0.979260
0.261211 1.000000 0.979301
0.547462 1.000000 0.979025
0.818596 1.000000 0.978298
0.993040 0.999157 0.970407
