docs/luts/fuji_recipes/Eterna_RR_Eterna_Low_Contrast.cube
TITLE "Fujifilm Recipe: RR Eterna Low Contrast (Eterna)"
# FilmSim=Eterna HL=-2 SH=-1 Col=4 WB=5900K WBR=-3 WBB=3
LUT_3D_SIZE 33
DOMAIN_MIN 0.0 0.0 0.0
DOMAIN_MAX 1.0 1.0 1.0
0.078400 0.078400 0.078400
0.120007 0.062528 0.062528
0.154910 0.050190 0.050190
0.188342 0.038953 0.038953
0.221166 0.028325 0.028325
0.253557 0.018130 0.018130
0.285627 0.008256 0.008256
0.316078 0.000000 0.000000
0.338274 0.000000 0.000000
0.360470 0.000000 0.000000
0.384827 0.000000 0.000000
0.409701 0.000000 0.000000
0.434575 0.000000 0.000000
0.459448 0.000000 0.000000
0.484322 0.000000 0.000000
0.508881 0.000000 0.000000
0.517814 0.000000 0.000000
0.523902 0.000000 0.000000
0.546605 0.000000 0.000000
0.569308 0.000000 0.000000
0.592011 0.000000 0.000000
0.614715 0.000000 0.000000
0.637418 0.000000 0.000000
0.660121 0.000000 0.000000
0.682825 0.000000 0.000000
0.705528 0.000000 0.000000
0.728231 0.000000 0.000000
0.750934 0.000000 0.000000
0.773638 0.000000 0.000000
0.784657 0.000000 0.000000
0.784657 0.000000 0.000000
0.784657 0.000000 0.000000
0.784657 0.000000 0.000000
0.061727 0.122209 0.061727
0.119086 0.122209 0.061727
0.154910 0.109024 0.050190
0.188342 0.096458 0.038953
0.221166 0.084780 0.028325
0.253557 0.073737 0.018130
0.285627 0.063162 0.008256
0.316078 0.053849 0.000000
0.338274 0.050582 0.000000
0.360470 0.048027 0.000000
0.384827 0.046234 0.000000
0.409701 0.044818 0.000000
0.434575 0.043635 0.000000
0.459448 0.042631 0.000000
0.484322 0.041769 0.000000
0.508881 0.041029 0.000000
0.517814 0.040783 0.000000
0.523902 0.040814 0.000000
0.546605 0.040261 0.000000
0.569308 0.039765 0.000000
0.592011 0.039318 0.000000
0.614715 0.038913 0.000000
0.637418 0.038544 0.000000
0.660121 0.038207 0.000000
0.682825 0.037897 0.000000
0.705528 0.037612 0.000000
0.728231 0.037349 0.000000
0.750934 0.037104 0.000000
0.773638 0.036877 0.000000
0.784657 0.036773 0.000000
0.784657 0.036773 0.000000
0.784657 0.036773 0.000000
0.784657 0.036773 0.000000
0.048631 0.159461 0.048631
0.104238 0.159461 0.048631
0.152995 0.159461 0.048631
0.188342 0.147647 0.038953
0.221166 0.135036 0.028325
0.253557 0.123238 0.018130
0.285627 0.112039 0.008256
0.316078 0.101786 0.000000
0.338274 0.095610 0.000000
0.360470 0.090780 0.000000
0.384827 0.087390 0.000000
0.409701 0.084714 0.000000
0.434575 0.082477 0.000000
0.459448 0.080580 0.000000
0.484322 0.078951 0.000000
0.508881 0.077553 0.000000
0.517814 0.077088 0.000000
0.523902 0.077145 0.000000
0.546605 0.076100 0.000000
0.569308 0.075163 0.000000
0.592011 0.074318 0.000000
0.614715 0.073552 0.000000
0.637418 0.072855 0.000000
0.660121 0.072218 0.000000
0.682825 0.071633 0.000000
0.705528 0.071094 0.000000
0.728231 0.070596 0.000000
0.750934 0.070134 0.000000
0.773638 0.069705 0.000000
0.784657 0.069508 0.000000
0.784657 0.069508 0.000000
0.784657 0.069508 0.000000
0.784657 0.069508 0.000000
0.036735 0.195103 0.036735
0.091048 0.195103 0.036735
0.138671 0.195103 0.036735
0.185515 0.195103 0.036735
0.221166 0.184440 0.028325
0.253557 0.171898 0.018130
0.285627 0.160087 0.008256
0.316078 0.148909 0.000000
0.338274 0.139874 0.000000
0.360470 0.132808 0.000000
0.384827 0.127849 0.000000
0.409701 0.123934 0.000000
0.434575 0.120661 0.000000
0.459448 0.117886 0.000000
0.484322 0.115502 0.000000
0.508881 0.113457 0.000000
0.517814 0.112777 0.000000
0.523902 0.112861 0.000000
0.546605 0.111332 0.000000
0.569308 0.109961 0.000000
0.592011 0.108725 0.000000
0.614715 0.107605 0.000000
0.637418 0.106585 0.000000
0.660121 0.105652 0.000000
0.682825 0.104796 0.000000
0.705528 0.104008 0.000000
0.728231 0.103279 0.000000
0.750934 0.102604 0.000000
0.773638 0.101976 0.000000
0.784657 0.101687 0.000000
0.784657 0.101687 0.000000
0.784657 0.101687 0.000000
0.784657 0.101687 0.000000
0.025489 0.230096 0.025489
0.078792 0.230096 0.025489
0.125529 0.230096 0.025489
0.171502 0.230096 0.025489
0.217475 0.230096 0.025489
0.253557 0.220559 0.018130
0.285627 0.208134 0.008256
0.316078 0.196032 0.000000
0.338274 0.184137 0.000000
0.360470 0.174836 0.000000
0.384827 0.168308 0.000000
0.409701 0.163153 0.000000
0.434575 0.158846 0.000000
0.459448 0.155192 0.000000
0.484322 0.152053 0.000000
0.508881 0.149361 0.000000
0.517814 0.148466 0.000000
0.523902 0.148576 0.000000
0.546605 0.146563 0.000000
0.569308 0.144759 0.000000
0.592011 0.143131 0.000000
0.614715 0.141657 0.000000
0.637418 0.140314 0.000000
0.660121 0.139086 0.000000
0.682825 0.137959 0.000000
0.705528 0.136922 0.000000
0.728231 0.135962 0.000000
0.750934 0.135073 0.000000
0.773638 0.134247 0.000000
0.784657 0.133867 0.000000
0.784657 0.133867 0.000000
0.784657 0.133867 0.000000
0.784657 0.133867 0.000000
0.014698 0.264632 0.014698
0.067191 0.264632 0.014698
0.113218 0.264632 0.014698
0.158493 0.264632 0.014698
0.203767 0.264632 0.014698
0.249041 0.264632 0.014698
0.285627 0.256182 0.008256
0.316078 0.243155 0.000000
0.338274 0.228401 0.000000
0.360470 0.216864 0.000000
0.384827 0.208766 0.000000
0.409701 0.202373 0.000000
0.434575 0.197030 0.000000
0.459448 0.192497 0.000000
0.484322 0.188605 0.000000
0.508881 0.185265 0.000000
0.517814 0.184155 0.000000
0.523902 0.184292 0.000000
0.546605 0.181795 0.000000
0.569308 0.179557 0.000000
0.592011 0.177538 0.000000
0.614715 0.175709 0.000000
0.637418 0.174043 0.000000
0.660121 0.172520 0.000000
0.682825 0.171123 0.000000
0.705528 0.169835 0.000000
0.728231 0.168646 0.000000
0.750934 0.167543 0.000000
0.773638 0.166518 0.000000
0.784657 0.166046 0.000000
0.784657 0.166046 0.000000
0.784657 0.166046 0.000000
0.784657 0.166046 0.000000
0.004241 0.298836 0.004241
0.056069 0.298836 0.004241
0.101514 0.298836 0.004241
0.146215 0.298836 0.004241
0.190917 0.298836 0.004241
0.235618 0.298836 0.004241
0.280320 0.298836 0.004241
0.316078 0.290278 0.000000
0.338274 0.272665 0.000000
0.360470 0.258891 0.000000
0.384827 0.249225 0.000000
0.409701 0.241592 0.000000
0.434575 0.235214 0.000000
0.459448 0.229803 0.000000
0.484322 0.225156 0.000000
0.508881 0.221169 0.000000
0.517814 0.219845 0.000000
0.523902 0.220007 0.000000
0.546605 0.217027 0.000000
0.569308 0.214354 0.000000
0.592011 0.211945 0.000000
0.614715 0.209761 0.000000
0.637418 0.207773 0.000000
0.660121 0.205955 0.000000
0.682825 0.204286 0.000000
0.705528 0.202749 0.000000
0.728231 0.201329 0.000000
0.750934 0.200013 0.000000
0.773638 0.198789 0.000000
0.784657 0.198226 0.000000
0.784657 0.198226 0.000000
0.784657 0.198226 0.000000
0.784657 0.198226 0.000000
0.000000 0.326823 0.000000
0.049468 0.326823 0.000000
0.092843 0.326823 0.000000
0.135508 0.326823 0.000000
0.178174 0.326823 0.000000
0.220839 0.326823 0.000000
0.263504 0.326823 0.000000
0.306169 0.326823 0.000000
0.338274 0.316929 0.000000
0.360470 0.300919 0.000000
0.384827 0.289683 0.000000
0.409701 0.280812 0.000000
0.434575 0.273398 0.000000
0.459448 0.267109 0.000000
0.484322 0.261707 0.000000
0.508881 0.257073 0.000000
0.517814 0.255534 0.000000
0.523902 0.255723 0.000000
0.546605 0.252258 0.000000
0.569308 0.249152 0.000000
0.592011 0.246351 0.000000
0.614715 0.243813 0.000000
0.637418 0.241502 0.000000
0.660121 0.239389 0.000000
0.682825 0.237449 0.000000
0.705528 0.235663 0.000000
0.728231 0.234012 0.000000
0.750934 0.232482 0.000000
0.773638 0.231060 0.000000
0.784657 0.230406 0.000000
0.784657 0.230406 0.000000
0.784657 0.230406 0.000000
0.784657 0.230406 0.000000
0.000000 0.350569 0.000000
0.046559 0.350569 0.000000
0.087384 0.350569 0.000000
0.127541 0.350569 0.000000
0.167698 0.350569 0.000000
0.207855 0.350569 0.000000
0.248011 0.350569 0.000000
0.288168 0.350569 0.000000
0.328325 0.350569 0.000000
0.360470 0.342947 0.000000
0.384827 0.330142 0.000000
0.409701 0.320032 0.000000
0.434575 0.311582 0.000000
0.459448 0.304415 0.000000
0.484322 0.298259 0.000000
0.508881 0.292977 0.000000
0.517814 0.291223 0.000000
0.523902 0.291438 0.000000
0.546605 0.287490 0.000000
0.569308 0.283950 0.000000
0.592011 0.280758 0.000000
0.614715 0.277865 0.000000
0.637418 0.275231 0.000000
0.660121 0.272823 0.000000
0.682825 0.270613 0.000000
0.705528 0.268577 0.000000
0.728231 0.266696 0.000000
0.750934 0.264952 0.000000
0.773638 0.263331 0.000000
0.784657 0.262585 0.000000
0.784657 0.262585 0.000000
0.784657 0.262585 0.000000
0.784657 0.262585 0.000000
0.000000 0.375470 0.000000
0.044423 0.375470 0.000000
0.083374 0.375470 0.000000
0.121687 0.375470 0.000000
0.160001 0.375470 0.000000
0.198315 0.375470 0.000000
0.236629 0.375470 0.000000
0.274942 0.375470 0.000000
0.313256 0.375470 0.000000
0.351570 0.375470 0.000000
0.384827 0.370601 0.000000
0.409701 0.359251 0.000000
0.434575 0.349766 0.000000
0.459448 0.341720 0.000000
0.484322 0.334810 0.000000
0.508881 0.328881 0.000000
0.517814 0.326912 0.000000
0.523902 0.327154 0.000000
0.546605 0.322722 0.000000
0.569308 0.318748 0.000000
0.592011 0.315165 0.000000
0.614715 0.311917 0.000000
0.637418 0.308961 0.000000
0.660121 0.306257 0.000000
0.682825 0.303776 0.000000
0.705528 0.301491 0.000000
0.728231 0.299379 0.000000
0.750934 0.297422 0.000000
0.773638 0.295602 0.000000
0.784657 0.294765 0.000000
0.784657 0.294765 0.000000
0.784657 0.294765 0.000000
0.784657 0.294765 0.000000
0.000000 0.402081 0.000000
0.042889 0.402081 0.000000
0.080495 0.402081 0.000000
0.117486 0.402081 0.000000
0.154477 0.402081 0.000000
0.191468 0.402081 0.000000
0.228459 0.402081 0.000000
0.265450 0.402081 0.000000
0.302440 0.402081 0.000000
0.339431 0.402081 0.000000
0.376422 0.402081 0.000000
0.409701 0.398471 0.000000
0.434575 0.387950 0.000000
0.459448 0.379026 0.000000
0.484322 0.371361 0.000000
0.508881 0.364785 0.000000
0.517814 0.362601 0.000000
0.523902 0.362869 0.000000
0.546605 0.357953 0.000000
0.569308 0.353546 0.000000
0.592011 0.349571 0.000000
0.614715 0.345969 0.000000
0.637418 0.342690 0.000000
0.660121 0.339692 0.000000
0.682825 0.336940 0.000000
0.705528 0.334405 0.000000
0.728231 0.332062 0.000000
0.750934 0.329891 0.000000
0.773638 0.327873 0.000000
0.784657 0.326944 0.000000
0.784657 0.326944 0.000000
0.784657 0.326944 0.000000
0.784657 0.326944 0.000000
0.000000 0.428692 0.000000
0.041630 0.428692 0.000000
0.078132 0.428692 0.000000
0.114037 0.428692 0.000000
0.149942 0.428692 0.000000
0.185848 0.428692 0.000000
0.221753 0.428692 0.000000
0.257658 0.428692 0.000000
0.293563 0.428692 0.000000
0.329468 0.428692 0.000000
0.365373 0.428692 0.000000
0.401278 0.428692 0.000000
0.434575 0.426134 0.000000
0.459448 0.416332 0.000000
0.484322 0.407913 0.000000
0.508881 0.400689 0.000000
0.517814 0.398290 0.000000
0.523902 0.398585 0.000000
0.546605 0.393185 0.000000
0.569308 0.388343 0.000000
0.592011 0.383978 0.000000
0.614715 0.380022 0.000000
0.637418 0.376419 0.000000
0.660121 0.373126 0.000000
0.682825 0.370103 0.000000
0.705528 0.367319 0.000000
0.728231 0.364746 0.000000
0.750934 0.362361 0.000000
0.773638 0.360144 0.000000
0.784657 0.359124 0.000000
0.784657 0.359124 0.000000
0.784657 0.359124 0.000000
0.784657 0.359124 0.000000
0.000000 0.455303 0.000000
0.040578 0.455303 0.000000
0.076158 0.455303 0.000000
0.111156 0.455303 0.000000
0.146154 0.455303 0.000000
0.181152 0.455303 0.000000
0.216150 0.455303 0.000000
0.251148 0.455303 0.000000
0.286146 0.455303 0.000000
0.321144 0.455303 0.000000
0.356142 0.455303 0.000000
0.391139 0.455303 0.000000
0.426137 0.455303 0.000000
0.459448 0.453638 0.000000
0.484322 0.444464 0.000000
0.508881 0.436593 0.000000
0.517814 0.433979 0.000000
0.523902 0.434300 0.000000
0.546605 0.428416 0.000000
0.569308 0.423141 0.000000
0.592011 0.418385 0.000000
0.614715 0.414074 0.000000
0.637418 0.410149 0.000000
0.660121 0.406560 0.000000
0.682825 0.403266 0.000000
0.705528 0.400232 0.000000
0.728231 0.397429 0.000000
0.750934 0.394830 0.000000
0.773638 0.392415 0.000000
0.784657 0.391304 0.000000
0.784657 0.391304 0.000000
0.784657 0.391304 0.000000
0.784657 0.391304 0.000000
0.000000 0.481914 0.000000
0.039686 0.481914 0.000000
0.074484 0.481914 0.000000
0.108713 0.481914 0.000000
0.142941 0.481914 0.000000
0.177170 0.481914 0.000000
0.211398 0.481914 0.000000
0.245627 0.481914 0.000000
0.279856 0.481914 0.000000
0.314084 0.481914 0.000000
0.348313 0.481914 0.000000
0.382541 0.481914 0.000000
0.416770 0.481914 0.000000
0.450999 0.481914 0.000000
0.484322 0.481015 0.000000
0.508881 0.472497 0.000000
0.517814 0.469668 0.000000
0.523902 0.470016 0.000000
0.546605 0.463648 0.000000
0.569308 0.457939 0.000000
0.592011 0.452791 0.000000
0.614715 0.448126 0.000000
0.637418 0.443878 0.000000
0.660121 0.439994 0.000000
0.682825 0.436430 0.000000
0.705528 0.433146 0.000000
0.728231 0.430112 0.000000
0.750934 0.427300 0.000000
0.773638 0.424686 0.000000
0.784657 0.423483 0.000000
0.784657 0.423483 0.000000
0.784657 0.423483 0.000000
0.784657 0.423483 0.000000
0.000000 0.508244 0.000000
0.038928 0.508244 0.000000
0.073060 0.508244 0.000000
0.106635 0.508244 0.000000
0.140209 0.508244 0.000000
0.173784 0.508244 0.000000
0.207358 0.508244 0.000000
0.240933 0.508244 0.000000
0.274507 0.508244 0.000000
0.308082 0.508244 0.000000
0.341656 0.508244 0.000000
0.375230 0.508244 0.000000
0.408805 0.508244 0.000000
0.442379 0.508244 0.000000
0.475954 0.508244 0.000000
0.508881 0.508021 0.000000
0.517814 0.504979 0.000000
0.523902 0.505353 0.000000
0.546605 0.498507 0.000000
0.569308 0.492368 0.000000
0.592011 0.486834 0.000000
0.614715 0.481817 0.000000
0.637418 0.477250 0.000000
0.660121 0.473075 0.000000
0.682825 0.469242 0.000000
0.705528 0.465712 0.000000
0.728231 0.439756 0.000000
0.750934 0.436757 0.000000
0.773638 0.433962 0.000000
0.784657 0.432673 0.000000
0.784657 0.432673 0.000000
0.784657 0.432673 0.000000
0.784657 0.432673 0.000000
0.000000 0.518872 0.000000
0.038651 0.518872 0.000000
0.072541 0.518872 0.000000
0.105876 0.518872 0.000000
0.139212 0.518872 0.000000
0.172547 0.518872 0.000000
0.205883 0.518872 0.000000
0.239219 0.518872 0.000000
0.272554 0.518872 0.000000
0.305890 0.518872 0.000000
0.339225 0.518872 0.000000
0.372561 0.518872 0.000000
0.405897 0.518872 0.000000
0.439232 0.518872 0.000000
0.472568 0.518872 0.000000
0.505483 0.518872 0.000000
0.517453 0.518872 0.000000
0.523902 0.519618 0.000000
0.546605 0.488019 0.000000
0.569308 0.481877 0.000000
0.592011 0.476329 0.000000
0.614715 0.471291 0.000000
0.637418 0.466695 0.000000
0.660121 0.462483 0.000000
0.682825 0.458610 0.000000
0.705528 0.455034 0.000000
0.728231 0.451722 0.000000
0.750934 0.448644 0.000000
0.773638 0.445777 0.000000
0.784657 0.444454 0.000000
0.784657 0.444454 0.000000
0.784657 0.444454 0.000000
0.784657 0.444454 0.000000
0.000000 0.526462 0.000000
0.038644 0.526462 0.000000
0.072528 0.526462 0.000000
0.105858 0.526462 0.000000
0.139188 0.526462 0.000000
0.172518 0.526462 0.000000
0.205848 0.526462 0.000000
0.239178 0.526462 0.000000
0.272508 0.526462 0.000000
0.305837 0.526462 0.000000
0.339167 0.526462 0.000000
0.372497 0.526462 0.000000
0.405827 0.526462 0.000000
0.439157 0.526462 0.000000
0.472487 0.526462 0.000000
0.505396 0.526462 0.000000
0.517365 0.526462 0.000000
0.523045 0.526462 0.000000
0.546605 0.520046 0.000000
0.569308 0.513509 0.000000
0.592011 0.507605 0.000000
0.614715 0.502245 0.000000
0.637418 0.497356 0.000000
0.660121 0.492876 0.000000
0.682825 0.488756 0.000000
0.705528 0.484954 0.000000
0.728231 0.481432 0.000000
0.750934 0.478160 0.000000
0.773638 0.475112 0.000000
0.784657 0.473706 0.000000
0.784657 0.473706 0.000000
0.784657 0.473706 0.000000
0.784657 0.473706 0.000000
0.000000 0.550751 0.000000
0.038092 0.550751 0.000000
0.071492 0.550751 0.000000
0.104346 0.550751 0.000000
0.137200 0.550751 0.000000
0.170054 0.550751 0.000000
0.202908 0.550751 0.000000
0.235762 0.550751 0.000000
0.268616 0.550751 0.000000
0.301470 0.550751 0.000000
0.334324 0.550751 0.000000
0.367177 0.550751 0.000000
0.400031 0.550751 0.000000
0.432885 0.550751 0.000000
0.465739 0.550751 0.000000
0.498178 0.550751 0.000000
0.485567 0.550751 0.000000
0.515432 0.550751 0.000000
0.545297 0.550751 0.000000
0.569308 0.545141 0.000000
0.592011 0.538882 0.000000
0.614715 0.533199 0.000000
0.637418 0.528016 0.000000
0.660121 0.523269 0.000000
0.682825 0.518903 0.000000
0.705528 0.514873 0.000000
0.728231 0.511142 0.000000
0.750934 0.507676 0.000000
0.773638 0.504447 0.000000
0.784657 0.502958 0.000000
0.784657 0.502958 0.000000
0.784657 0.502958 0.000000
0.784657 0.502958 0.000000
0.000000 0.575041 0.000000
0.037600 0.575041 0.000000
0.070570 0.575041 0.000000
0.103000 0.575041 0.000000
0.135430 0.575041 0.000000
0.167859 0.575041 0.000000
0.200289 0.575041 0.000000
0.232719 0.575041 0.000000
0.265149 0.575041 0.000000
0.297579 0.575041 0.000000
0.330009 0.575041 0.000000
0.362439 0.575041 0.000000
0.394869 0.575041 0.000000
0.427298 0.575041 0.000000
0.459728 0.575041 0.000000
0.491749 0.575041 0.000000
0.479158 0.575041 0.000000
0.508638 0.575041 0.000000
0.538118 0.575041 0.000000
0.567597 0.575041 0.000000
0.592011 0.570159 0.000000
0.614715 0.564154 0.000000
0.637418 0.558677 0.000000
0.660121 0.553661 0.000000
0.682825 0.549049 0.000000
0.705528 0.544793 0.000000
0.728231 0.540852 0.000000
0.750934 0.537192 0.000000
0.773638 0.533783 0.000000
0.784657 0.532211 0.000000
0.784657 0.532211 0.000000
0.784657 0.532211 0.000000
0.784657 0.532211 0.000000
0.000000 0.599330 0.000000
0.037160 0.599330 0.000000
0.069743 0.599330 0.000000
0.101792 0.599330 0.000000
0.133842 0.599330 0.000000
0.165892 0.599330 0.000000
0.197942 0.599330 0.000000
0.229992 0.599330 0.000000
0.262041 0.599330 0.000000
0.294091 0.599330 0.000000
0.326141 0.599330 0.000000
0.358191 0.599330 0.000000
0.390240 0.599330 0.000000
0.422290 0.599330 0.000000
0.454340 0.599330 0.000000
0.485985 0.599330 0.000000
0.473402 0.599330 0.000000
0.502536 0.599330 0.000000
0.531670 0.599330 0.000000
0.560804 0.599330 0.000000
0.589938 0.599330 0.000000
0.614715 0.595108 0.000000
0.637418 0.589338 0.000000
0.660121 0.584054 0.000000
0.682825 0.579196 0.000000
0.705528 0.574712 0.000000
0.728231 0.570562 0.000000
0.750934 0.566707 0.000000
0.773638 0.563118 0.000000
0.784657 0.561463 0.000000
0.784657 0.561463 0.000000
0.784657 0.561463 0.000000
0.784657 0.561463 0.000000
0.000000 0.623619 0.000000
0.036762 0.623619 0.000000
0.068997 0.623619 0.000000
0.100704 0.623619 0.000000
0.132411 0.623619 0.000000
0.164118 0.623619 0.000000
0.195825 0.623619 0.000000
0.227532 0.623619 0.000000
0.259239 0.623619 0.000000
0.290947 0.623619 0.000000
0.322654 0.623619 0.000000
0.354361 0.623619 0.000000
0.386068 0.623619 0.000000
0.417775 0.623619 0.000000
0.449482 0.623619 0.000000
0.480789 0.623619 0.000000
0.468202 0.623619 0.000000
0.497024 0.623619 0.000000
0.525847 0.623619 0.000000
0.554669 0.623619 0.000000
0.583492 0.623619 0.000000
0.612315 0.623619 0.000000
0.637418 0.619999 0.000000
0.660121 0.614447 0.000000
0.682825 0.609342 0.000000
0.705528 0.604632 0.000000
0.728231 0.600272 0.000000
0.750934 0.596223 0.000000
0.773638 0.592453 0.000000
0.784657 0.590715 0.000000
0.784657 0.590715 0.000000
0.784657 0.590715 0.000000
0.784657 0.590715 0.000000
0.000000 0.647908 0.000000
0.036402 0.647908 0.000000
0.068321 0.647908 0.000000
0.099718 0.647908 0.000000
0.131114 0.647908 0.000000
0.162511 0.647908 0.000000
0.193907 0.647908 0.000000
0.225304 0.647908 0.000000
0.256701 0.647908 0.000000
0.288097 0.647908 0.000000
0.319494 0.647908 0.000000
0.350890 0.647908 0.000000
0.382287 0.647908 0.000000
0.413683 0.647908 0.000000
0.445080 0.647908 0.000000
0.476080 0.647908 0.000000
0.463479 0.647908 0.000000
0.492019 0.647908 0.000000
0.520560 0.647908 0.000000
0.549100 0.647908 0.000000
0.577640 0.647908 0.000000
0.606181 0.647908 0.000000
0.634721 0.647908 0.000000
0.660121 0.644839 0.000000
0.682825 0.639488 0.000000
0.705528 0.634552 0.000000
0.728231 0.629982 0.000000
0.750934 0.625739 0.000000
0.773638 0.621788 0.000000
0.784657 0.619967 0.000000
0.784657 0.619967 0.000000
0.784657 0.619967 0.000000
0.784657 0.619967 0.000000
0.000000 0.672197 0.000000
0.036075 0.672197 0.000000
0.067706 0.672197 0.000000
0.098820 0.672197 0.000000
0.129934 0.672197 0.000000
0.161048 0.672197 0.000000
0.192161 0.672197 0.000000
0.223275 0.672197 0.000000
0.254389 0.672197 0.000000
0.285503 0.672197 0.000000
0.316617 0.672197 0.000000
0.347731 0.672197 0.000000
0.378845 0.672197 0.000000
0.409958 0.672197 0.000000
0.441072 0.672197 0.000000
0.471794 0.672197 0.000000
0.459170 0.672197 0.000000
0.487453 0.672197 0.000000
0.515736 0.672197 0.000000
0.544020 0.672197 0.000000
0.572303 0.672197 0.000000
0.600586 0.672197 0.000000
0.628870 0.672197 0.000000
0.657153 0.672197 0.000000
0.682825 0.669635 0.000000
0.705528 0.664471 0.000000
0.728231 0.659692 0.000000
0.750934 0.655255 0.000000
0.773638 0.651124 0.000000
0.784657 0.649219 0.000000
0.784657 0.649219 0.000000
0.784657 0.649219 0.000000
0.784657 0.649219 0.000000
0.000000 0.696487 0.000000
0.035775 0.696487 0.000000
0.067144 0.696487 0.000000
0.097999 0.696487 0.000000
0.128854 0.696487 0.000000
0.159710 0.696487 0.000000
0.190565 0.696487 0.000000
0.221421 0.696487 0.000000
0.252276 0.696487 0.000000
0.283132 0.696487 0.000000
0.313987 0.696487 0.000000
0.344842 0.696487 0.000000
0.375698 0.696487 0.000000
0.406553 0.696487 0.000000
0.437409 0.696487 0.000000
0.467875 0.696487 0.000000
0.455221 0.696487 0.000000
0.483269 0.696487 0.000000
0.511318 0.696487 0.000000
0.539366 0.696487 0.000000
0.567414 0.696487 0.000000
0.595463 0.696487 0.000000
0.623511 0.696487 0.000000
0.651560 0.696487 0.000000
0.679608 0.696487 0.000000
0.705528 0.694391 0.000000
0.728231 0.689402 0.000000
0.750934 0.684771 0.000000
0.773638 0.680459 0.000000
0.784657 0.678471 0.000000
0.784657 0.678471 0.000000
0.784657 0.678471 0.000000
0.784657 0.678471 0.000000
0.000000 0.720776 0.000000
0.035500 0.720776 0.000000
0.066628 0.720776 0.000000
0.097246 0.720776 0.000000
0.127864 0.720776 0.000000
0.158482 0.720776 0.000000
0.189100 0.720776 0.000000
0.219719 0.720776 0.000000
0.250337 0.720776 0.000000
0.280955 0.720776 0.000000
0.311573 0.720776 0.000000
0.342191 0.720776 0.000000
0.372810 0.720776 0.000000
0.403428 0.720776 0.000000
0.434046 0.720776 0.000000
0.441509 0.720776 0.000000
0.451587 0.720776 0.000000
0.479420 0.720776 0.000000
0.507253 0.720776 0.000000
0.535086 0.720776 0.000000
0.562919 0.720776 0.000000
0.590752 0.720776 0.000000
0.618584 0.720776 0.000000
0.646417 0.720776 0.000000
0.674250 0.720776 0.000000
0.702083 0.720776 0.000000
0.728231 0.719112 0.000000
0.750934 0.714286 0.000000
0.773638 0.709794 0.000000
0.784657 0.707723 0.000000
0.784657 0.707723 0.000000
0.784657 0.707723 0.000000
0.784657 0.707723 0.000000
0.000000 0.745065 0.000000
0.035247 0.745065 0.000000
0.066152 0.745065 0.000000
0.096552 0.745065 0.000000
0.126952 0.745065 0.000000
0.157351 0.745065 0.000000
0.187751 0.745065 0.000000
0.218151 0.745065 0.000000
0.248551 0.745065 0.000000
0.278951 0.745065 0.000000
0.309350 0.745065 0.000000
0.339750 0.745065 0.000000
0.370150 0.745065 0.000000
0.400550 0.745065 0.000000
0.430949 0.745065 0.000000
0.438226 0.745065 0.000000
0.448233 0.745065 0.000000
0.475867 0.745065 0.000000
0.503501 0.745065 0.000000
0.531135 0.745065 0.000000
0.558770 0.745065 0.000000
0.586404 0.745065 0.000000
0.614038 0.745065 0.000000
0.641672 0.745065 0.000000
0.669306 0.745065 0.000000
0.696941 0.745065 0.000000
0.724575 0.745065 0.000000
0.750934 0.743802 0.000000
0.773638 0.739129 0.000000
0.784657 0.736975 0.000000
0.784657 0.736975 0.000000
0.784657 0.736975 0.000000
0.784657 0.736975 0.000000
0.000000 0.769354 0.000000
0.035013 0.769354 0.000000
0.065713 0.769354 0.000000
0.095911 0.769354 0.000000
0.126109 0.769354 0.000000
0.156307 0.769354 0.000000
0.186505 0.769354 0.000000
0.216703 0.769354 0.000000
0.246900 0.769354 0.000000
0.277098 0.769354 0.000000
0.307296 0.769354 0.000000
0.337494 0.769354 0.000000
0.367692 0.769354 0.000000
0.397890 0.769354 0.000000
0.428088 0.769354 0.000000
0.435184 0.769354 0.000000
0.445124 0.769354 0.000000
0.472575 0.769354 0.000000
0.500026 0.769354 0.000000
0.527477 0.769354 0.000000
0.554927 0.769354 0.000000
0.582378 0.769354 0.000000
0.609829 0.769354 0.000000
0.637280 0.769354 0.000000
