docs/luts/fuji_recipes/Eterna_RR_Polaroid_Film.cube
TITLE "Fujifilm Recipe: RR Polaroid Film (Eterna)"
# FilmSim=Eterna HL=4 SH=4 Col=-3 WB=Shade WBR=4 WBB=6
LUT_3D_SIZE 5
DOMAIN_MIN 0.0 0.0 0.0
DOMAIN_MAX 1.0 1.0 1.0
0.033600 0.033600 0.033600
0.148468 0.074116 0.074116
0.269528 0.117717 0.117717
0.459347 0.182825 0.182825
0.623995 0.240450 0.240450
0.067555 0.130179 0.067555
0.148468 0.136577 0.074116
0.269528 0.179635 0.117717
0.459347 0.244382 0.182825
0.623995 0.301884 0.240450
0.104835 0.233813 0.104835
0.178665 0.233813 0.104835
0.269528 0.246476 0.117717
0.459347 0.310833 0.182825
0.623995 0.368203 0.240450
0.157516 0.387001 0.157516
0.230893 0.387001 0.157516
0.308652 0.387001 0.157516
0.459347 0.412628 0.182825
0.623995 0.471243 0.240450
0.206820 0.527914 0.206820
0.280023 0.527914 0.206820
0.357598 0.527914 0.206820
0.483675 0.527914 0.206820
0.623995 0.562064 0.240450
0.069654 0.069654 0.136033
0.148468 0.074116 0.140383
0.269528 0.117717 0.183407
0.459347 0.182825 0.248132
0.623995 0.240450 0.305627
0.069654 0.132221 0.136033
0.192395 0.181246 0.184815
0.314695 0.221823 0.225721
0.507397 0.286271 0.290109
0.689646 0.326295 0.330502
0.104835 0.233813 0.170637
0.224063 0.281285 0.215733
0.317358 0.293508 0.228256
0.510252 0.356871 0.292647
0.692178 0.403321 0.332993
0.157516 0.387001 0.222914
0.275891 0.437550 0.267693
0.355784 0.437550 0.267693
0.510252 0.462398 0.292647
0.692178 0.520504 0.332993
0.206820 0.527914 0.272063
0.324511 0.579084 0.316377
0.403783 0.579084 0.316377
0.533876 0.579084 0.316377
0.692178 0.622575 0.332993
0.110025 0.110025 0.248205
0.183801 0.110025 0.248205
0.269528 0.117717 0.255765
0.459347 0.182825 0.320068
0.623995 0.240450 0.377419
0.110025 0.172002 0.248205
0.226533 0.214323 0.293180
0.314695 0.221823 0.300476
0.507397 0.286271 0.363708
0.689646 0.326295 0.411196
0.110025 0.238907 0.248205
0.234489 0.291769 0.301433
0.361478 0.339674 0.348460
0.557130 0.400081 0.409690
0.734527 0.444957 0.455293
0.157516 0.387001 0.294950
0.281316 0.443537 0.347297
0.405943 0.490685 0.391597
0.564148 0.515290 0.415790
0.740767 0.569520 0.461444
0.206820 0.527914 0.343928
0.329899 0.585172 0.395342
0.448648 0.638892 0.433607
0.590215 0.638892 0.433607
0.740767 0.671337 0.461444
0.168434 0.168434 0.418213
0.241763 0.168434 0.418213
0.319470 0.168434 0.418213
0.459347 0.182825 0.432783
0.623995 0.240450 0.491358
0.168434 0.230035 0.418213
0.284074 0.272056 0.466086
0.363707 0.272056 0.466086
0.507397 0.286271 0.480218
0.689646 0.326295 0.540563
0.168434 0.296536 0.418213
0.292043 0.348376 0.474941
0.410053 0.386134 0.515552
0.557130 0.400081 0.529488
0.734527 0.444957 0.585775
0.168434 0.398043 0.418213
0.292043 0.454196 0.474941
0.438481 0.515883 0.535059
0.628399 0.583950 0.603126
0.800390 0.630341 0.652734
0.206820 0.527914 0.457137
0.329899 0.585172 0.512690
0.457935 0.648240 0.570453
0.664410 0.712388 0.635629
0.813474 0.744677 0.666134
0.221812 0.221812 0.570749
0.294979 0.221812 0.570749
0.372515 0.221812 0.570749
0.498907 0.221812 0.570749
0.623995 0.240450 0.589673
0.221812 0.283278 0.570749
0.336817 0.324886 0.619171
0.415872 0.324886 0.619171
0.545922 0.324886 0.619171
0.689646 0.326295 0.651069
0.221812 0.349632 0.570749
0.340369 0.397982 0.632528
0.455190 0.429801 0.677798
0.598092 0.429801 0.677798
0.734527 0.444957 0.696035
0.221812 0.452257 0.570749
0.340369 0.507618 0.632528
0.470633 0.562110 0.693368
0.665073 0.613850 0.743955
0.800390 0.630341 0.762182
0.221812 0.543125 0.570749
0.340369 0.603408 0.632528
0.470633 0.662768 0.693368
0.696408 0.744590 0.774692
0.859687 0.791723 0.822022
