docs/luts/fuji_recipes/Eterna_RR_Eterna.cube
TITLE "Fujifilm Recipe: RR Eterna (Eterna)"
# FilmSim=Eterna HL=4 SH=4 Col=4 WB=Auto WBR=5 WBB=-6
LUT_3D_SIZE 9
DOMAIN_MIN 0.0 0.0 0.0
DOMAIN_MAX 1.0 1.0 1.0
0.033600 0.033600 0.033600
0.165824 0.000000 0.000000
0.269438 0.000000 0.000000
0.373330 0.000000 0.000000
0.544939 0.000000 0.000000
0.685447 0.000000 0.000000
0.825955 0.000000 0.000000
0.974544 0.000000 0.000000
0.992871 0.000000 0.000000
0.000352 0.155026 0.000352
0.165824 0.148261 0.000000
0.269438 0.120351 0.000000
0.373330 0.111141 0.000000
0.544939 0.102844 0.000000
0.685447 0.100010 0.000000
0.825955 0.098224 0.000000
0.974544 0.097806 0.000000
0.992871 0.097947 0.000000
0.000000 0.247296 0.000000
0.138295 0.247296 0.000000
0.269438 0.240703 0.000000
0.373330 0.222282 0.000000
0.544939 0.205689 0.000000
0.685447 0.200020 0.000000
0.825955 0.196448 0.000000
0.974544 0.195613 0.000000
0.992871 0.195894 0.000000
0.000000 0.340032 0.000000
0.126771 0.340032 0.000000
0.253750 0.340032 0.000000
0.373330 0.333423 0.000000
0.544939 0.308533 0.000000
0.685447 0.300030 0.000000
0.825955 0.294672 0.000000
0.974544 0.293419 0.000000
0.992871 0.293841 0.000000
0.000000 0.432026 0.000000
0.121043 0.432026 0.000000
0.242285 0.432026 0.000000
0.363527 0.432026 0.000000
0.544939 0.410555 0.000000
0.685447 0.488275 0.000000
0.825955 0.481610 0.000000
0.974544 0.481610 0.000000
0.992871 0.482531 0.000000
0.000000 0.610238 0.000000
0.113350 0.610238 0.000000
0.226887 0.610238 0.000000
0.340424 0.610238 0.000000
0.537980 0.610238 0.000000
0.685447 0.603319 0.000000
0.825955 0.594601 0.000000
0.974544 0.594120 0.000000
0.992871 0.595203 0.000000
0.000000 0.735658 0.000000
0.111047 0.735658 0.000000
0.222277 0.735658 0.000000
0.333506 0.735658 0.000000
0.528902 0.735658 0.000000
0.681225 0.735658 0.000000
0.825955 0.729113 0.000000
0.974544 0.728060 0.000000
0.992871 0.729336 0.000000
0.000000 0.861079 0.000000
0.109471 0.861079 0.000000
0.219121 0.861079 0.000000
0.328771 0.861079 0.000000
0.523222 0.861079 0.000000
0.673382 0.861079 0.000000
0.823543 0.861079 0.000000
0.974544 0.862000 0.000000
0.992871 0.863469 0.000000
0.000000 0.994499 0.000000
0.109589 0.994499 0.000000
0.219359 0.994499 0.000000
0.329128 0.994499 0.000000
0.525620 0.994499 0.000000
0.675944 0.994499 0.000000
0.826267 0.994499 0.000000
0.976590 0.994499 0.000000
0.993293 0.994499 0.000000
0.004821 0.004821 0.137803
0.165824 0.000000 0.126816
0.269438 0.000000 0.102944
0.373330 0.000000 0.095066
0.544939 0.000000 0.087969
0.685447 0.000000 0.085544
0.825955 0.000000 0.084017
0.974544 0.000000 0.083660
0.992871 0.000000 0.083780
0.000352 0.155026 0.132654
0.153146 0.133582 0.109694
0.291164 0.093538 0.070462
0.426117 0.056931 0.034295
0.625621 0.020292 0.000000
0.766130 0.018424 0.000000
0.906638 0.017324 0.000000
1.000000 0.084012 0.069258
1.000000 0.097584 0.083255
0.000000 0.247296 0.105763
0.120677 0.262105 0.078467
0.291164 0.253073 0.070462
0.426117 0.213428 0.034295
0.625621 0.160584 0.000000
0.766130 0.145804 0.000000
0.906638 0.137097 0.000000
1.000000 0.186013 0.069258
1.000000 0.196651 0.083255
0.000000 0.340032 0.096950
0.087080 0.383059 0.045692
0.263310 0.383059 0.045692
0.426117 0.369925 0.034295
0.625621 0.300876 0.000000
0.766130 0.273183 0.000000
0.906638 0.256869 0.000000
1.000000 0.288015 0.069258
1.000000 0.295717 0.083255
0.000000 0.432026 0.092570
0.038376 0.585796 0.000000
0.201784 0.585796 0.000000
0.365193 0.585796 0.000000
0.625621 0.564266 0.000000
0.766130 0.514997 0.000000
0.906638 0.486749 0.000000
1.000000 0.485922 0.069258
1.000000 0.488159 0.083255
0.000000 0.610238 0.086686
0.035078 0.690921 0.000000
0.184445 0.690921 0.000000
0.333811 0.690921 0.000000
0.595859 0.690921 0.000000
0.766130 0.661526 0.000000
0.906638 0.624527 0.000000
1.000000 0.603258 0.069258
1.000000 0.602118 0.083255
0.000000 0.735658 0.084925
0.032690 0.816341 0.000000
0.171884 0.816341 0.000000
0.311079 0.816341 0.000000
0.557603 0.816341 0.000000
0.748222 0.816341 0.000000
0.906638 0.788549 0.000000
1.000000 0.742943 0.069258
1.000000 0.737783 0.083255
0.000000 0.861079 0.083719
0.031259 0.945546 0.000000
0.164363 0.945546 0.000000
0.297467 0.945546 0.000000
0.535424 0.945546 0.000000
0.717702 0.945546 0.000000
0.899981 0.945546 0.000000
1.000000 0.882629 0.069258
1.000000 0.873449 0.083255
0.000000 0.994499 0.083810
0.109491 1.000000 0.083427
0.220475 1.000000 0.083427
0.331459 1.000000 0.083427
0.531721 1.000000 0.083427
0.683707 1.000000 0.083427
0.835693 1.000000 0.083427
0.987679 1.000000 0.083427
1.000000 1.000000 0.083427
0.000000 0.000000 0.220300
0.144185 0.000000 0.220300
0.269438 0.000000 0.205667
0.373330 0.000000 0.189928
0.544939 0.000000 0.175750
0.685447 0.000000 0.170906
0.825955 0.000000 0.167854
0.974544 0.000000 0.167140
0.992871 0.000000 0.167381
0.000000 0.128914 0.220300
0.127226 0.107936 0.223373
0.288486 0.089546 0.203391
0.424077 0.052740 0.164326
0.640358 0.000000 0.105140
0.779773 0.000000 0.094127
0.920330 0.000000 0.087835
1.000000 0.085274 0.157461
1.000000 0.098293 0.168520
0.000000 0.247296 0.211301
0.113643 0.256771 0.209506
0.272888 0.233532 0.185548
0.411624 0.192527 0.145597
0.645736 0.121867 0.076082
0.829624 0.070521 0.025293
0.998826 0.043191 0.000000
1.000000 0.193144 0.163770
1.000000 0.200832 0.171993
0.000000 0.340032 0.193693
0.079710 0.378883 0.173591
0.244015 0.367495 0.158065
0.411624 0.353740 0.145597
0.645736 0.279144 0.076082
0.829624 0.225884 0.025293
0.998826 0.191556 0.000000
1.000000 0.294049 0.163770
1.000000 0.299898 0.171993
0.000000 0.432026 0.184941
0.016241 0.599788 0.107925
0.174574 0.593007 0.090870
0.351549 0.593007 0.090870
0.645736 0.576953 0.076082
0.829624 0.523320 0.025293
0.998826 0.478699 0.000000
1.000000 0.491450 0.163770
1.000000 0.493933 0.171993
0.000000 0.610238 0.173188
0.000000 0.715826 0.085834
0.135116 0.731377 0.052297
0.310220 0.731377 0.052297
0.619936 0.731377 0.052297
0.829624 0.702040 0.025293
0.998826 0.649369 0.000000
1.000000 0.607524 0.163770
1.000000 0.607892 0.171993
0.000000 0.735658 0.169668
0.000000 0.841158 0.078681
0.089485 0.895032 0.007448
0.262935 0.895032 0.007448
0.572618 0.895032 0.007448
0.810149 0.895032 0.007448
0.998826 0.852547 0.000000
1.000000 0.745708 0.163770
1.000000 0.743558 0.171993
0.000000 0.861079 0.167260
0.000000 0.974679 0.074735
0.111487 1.000000 0.040058
0.262509 1.000000 0.040058
0.534667 1.000000 0.040058
0.741484 1.000000 0.040058
0.948301 1.000000 0.040058
1.000000 0.883891 0.163770
1.000000 0.879223 0.171993
0.000000 0.994499 0.167441
0.110780 1.000000 0.169272
0.224656 1.000000 0.172164
0.335640 1.000000 0.172164
0.537495 1.000000 0.172164
0.689481 1.000000 0.172164
0.841467 1.000000 0.172164
0.993453 1.000000 0.172164
1.000000 1.000000 0.172164
0.000000 0.000000 0.299453
0.130707 0.000000 0.299453
0.261628 0.000000 0.299453
0.373330 0.000000 0.284791
0.544939 0.000000 0.263531
0.685447 0.000000 0.256268
0.825955 0.000000 0.251691
0.974544 0.000000 0.250621
0.992871 0.000000 0.250982
0.000000 0.116863 0.299453
0.097576 0.078681 0.327890
0.276266 0.078681 0.327890
0.424077 0.052740 0.298680
0.640358 0.000000 0.231733
0.779773 0.000000 0.207460
0.920330 0.000000 0.193591
1.000000 0.085274 0.244376
1.000000 0.098293 0.253076
0.000000 0.233726 0.299453
0.094282 0.235578 0.325725
0.252993 0.213601 0.306393
0.405554 0.184686 0.276088
0.641885 0.113386 0.202477
0.826626 0.061742 0.149689
1.000000 0.031060 0.115594
1.000000 0.196005 0.252516
1.000000 0.202258 0.257975
0.000000 0.340032 0.290435
0.079710 0.378883 0.309306
0.230202 0.355456 0.283458
0.392621 0.333481 0.261410
0.633219 0.256853 0.186681
0.825028 0.198256 0.127969
1.000000 0.160641 0.093337
1.000000 0.301848 0.258282
1.000000 0.304080 0.260730
0.000000 0.432026 0.277313
0.016241 0.599788 0.240463
0.159643 0.585122 0.211438
0.330714 0.579621 0.202337
0.633219 0.563085 0.186681
0.825028 0.508349 0.127969
1.000000 0.460791 0.093337
1.000000 0.498221 0.258282
1.000000 0.499707 0.260730
0.000000 0.610238 0.259689
0.000000 0.715826 0.209916
0.119747 0.724815 0.170949
0.288484 0.720130 0.161624
0.606591 0.720130 0.161624
0.825028 0.693123 0.127969
1.000000 0.637722 0.093337
1.000000 0.612750 0.258282
1.000000 0.613666 0.260730
0.000000 0.735658 0.254412
0.000000 0.841158 0.192423
0.049136 0.914232 0.102848
0.205966 0.936602 0.063959
0.565389 0.936602 0.063959
0.838871 0.936602 0.063959
1.000000 0.848355 0.093337
1.000000 0.749093 0.258282
1.000000 0.749332 0.260730
0.000000 0.861079 0.250800
0.000000 0.974679 0.182773
0.098730 1.000000 0.142921
0.244291 1.000000 0.134569
0.524569 1.000000 0.134569
0.735874 1.000000 0.134569
0.947179 1.000000 0.134569
1.000000 0.885437 0.258282
1.000000 0.884998 0.260730
0.000000 0.994499 0.251072
0.110780 1.000000 0.253828
0.227252 1.000000 0.259316
0.339821 1.000000 0.260902
0.543269 1.000000 0.260902
0.695255 1.000000 0.260902
0.847242 1.000000 0.260902
0.999228 1.000000 0.260902
1.000000 1.000000 0.260902
0.000000 0.000000 0.378606
0.123964 0.000000 0.378606
0.248132 0.000000 0.378606
0.372300 0.000000 0.378606
0.544939 0.000000 0.351312
0.685447 0.000000 0.341630
0.825955 0.000000 0.335528
0.974544 0.000000 0.334102
0.992871 0.000000 0.334583
0.000000 0.110835 0.378606
0.069553 0.050921 0.430913
0.245759 0.050921 0.430913
0.421964 0.050921 0.430913
0.640358 0.000000 0.358326
0.779773 0.000000 0.320793
0.920330 0.000000 0.299347
1.000000 0.085274 0.331291
1.000000 0.098293 0.337632
0.000000 0.221669 0.378606
0.066147 0.205420 0.429124
0.221444 0.182678 0.412578
0.403340 0.182678 0.412578
0.641885 0.113386 0.337682
0.826626 0.061742 0.283157
1.000000 0.031060 0.243882
1.000000 0.196005 0.338277
1.000000 0.202258 0.342531
0.000000 0.332504 0.378606
0.066147 0.363408 0.429124
0.215028 0.339368 0.407309
0.380800 0.324151 0.389777
0.625525 0.244658 0.311923
0.845651 0.157629 0.230817
1.000000 0.141790 0.207106
1.000000 0.305619 0.346826
1.000000 0.306223 0.347430
0.000000 0.432026 0.369685
0.016241 0.599788 0.373001
0.159643 0.585122 0.348027
0.309213 0.564288 0.318519
0.617557 0.546324 0.300423
0.832697 0.486873 0.218381
1.000000 0.437018 0.187849
1.000000 0.504646 0.348863
1.000000 0.505481 0.349468
0.000000 0.610238 0.346190
0.000000 0.715826 0.333998
0.119747 0.724815 0.305974
0.263100 0.710198 0.272433
0.593225 0.711663 0.268173
0.832697 0.688652 0.218381
1.000000 0.621750 0.187849
1.000000 0.618605 0.348863
1.000000 0.619440 0.349468
0.000000 0.735658 0.339155
0.000000 0.841158 0.306166
0.049136 0.914232 0.244494
0.181198 0.910905 0.191291
0.539838 0.909083 0.189558
0.811871 0.909083 0.189558
1.000000 0.841669 0.187849
1.000000 0.754271 0.348863
1.000000 0.755106 0.349468
0.000000 0.861079 0.334340
0.000000 0.974679 0.290811
0.098730 1.000000 0.259457
0.222781 1.000000 0.230818
0.511366 1.000000 0.229081
0.728539 1.000000 0.229081
0.945712 1.000000 0.229081
1.000000 0.889937 0.348863
1.000000 0.890772 0.349468
0.000000 0.994499 0.334703
0.110780 1.000000 0.338384
0.227252 1.000000 0.343872
0.343724 1.000000 0.349361
0.549044 1.000000 0.349639
0.701030 1.000000 0.349639
0.853016 1.000000 0.349639
1.000000 1.000000 0.349639
1.000000 1.000000 0.349639
0.000000 0.000000 0.518617
0.115840 0.000000 0.518617
0.231871 0.000000 0.518617
0.347902 0.000000 0.518617
0.544939 0.000000 0.515381
0.685447 0.000000 0.503270
0.825955 0.000000 0.496337
0.974544 0.000000 0.496274
0.992871 0.000000 0.497216
0.000000 0.103571 0.518617
0.018107 0.000000 0.615424
0.189351 0.000000 0.615424
0.360595 0.000000 0.615424
0.640358 0.000000 0.597731
0.779773 0.000000 0.537900
0.920330 0.000000 0.504534
1.000000 0.085274 0.502054
1.000000 0.098293 0.503990
0.000000 0.207143 0.518617
0.011356 0.148058 0.617681
0.161209 0.123275 0.607061
0.339199 0.123275 0.607061
0.641885 0.113386 0.596357
0.826626 0.061742 0.541781
1.000000 0.031060 0.495616
1.000000 0.196005 0.508665
1.000000 0.202258 0.510756
0.000000 0.310714 0.518617
0.011356 0.303130 0.617681
0.154364 0.275979 0.603408
0.313459 0.255206 0.590043
0.625525 0.244658 0.579047
0.845651 0.157629 0.525140
1.000000 0.141790 0.473057
1.000000 0.305619 0.516686
1.000000 0.306223 0.517521
0.000000 0.413456 0.518617
0.011356 0.594431 0.617681
0.154364 0.579455 0.603408
0.303539 0.558491 0.582969
0.578628 0.509628 0.533284
0.779285 0.438733 0.464632
0.991326 0.361974 0.388891
1.000000 0.508543 0.523397
1.000000 0.509378 0.524232
0.000000 0.610238 0.508853
0.000000 0.715826 0.570393
0.119747 0.724815 0.566556
0.263100 0.710198 0.546096
0.545174 0.666240 0.496373
0.774552 0.632962 0.460472
0.985997 0.563680 0.384309
1.000000 0.623237 0.524131
1.000000 0.624072 0.524966
0.000000 0.735658 0.500367
0.000000 0.841158 0.525351
0.049136 0.914232 0.520952
0.181198 0.910905 0.490535
0.485047 0.848480 0.434888
0.752798 0.848480 0.434888
0.985997 0.809220 0.384309
1.000000 0.758903 0.524131
1.000000 0.759738 0.524966
0.000000 0.861079 0.495092
0.000000 0.974679 0.501369
0.098730 1.000000 0.489459
0.222781 1.000000 0.471770
0.452971 1.000000 0.407425
0.696098 1.000000 0.407425
0.939225 1.000000 0.407425
1.000000 0.894568 0.524131
1.000000 0.895403 0.524966
0.000000 0.994499 0.497460
0.110780 1.000000 0.505028
0.227252 1.000000 0.512607
0.343724 1.000000 0.520186
0.553675 1.000000 0.525203
0.705661 1.000000 0.525203
0.857647 1.000000 0.525203
1.000000 1.000000 0.525203
1.000000 1.000000 0.525203
0.000000 0.000000 0.625667
0.113011 0.000000 0.625667
0.226209 0.000000 0.625667
0.339406 0.000000 0.625667
0.536603 0.000000 0.625667
0.685447 0.000000 0.620168
0.825955 0.000000 0.611148
0.974544 0.000000 0.610597
0.992871 0.000000 0.611703
0.000000 0.101042 0.625667
0.016367 0.000000 0.719993
0.171157 0.000000 0.719993
0.325947 0.000000 0.719993
0.598203 0.000000 0.719993
0.779773 0.000000 0.693103
0.920330 0.000000 0.649361
1.000000 0.085274 0.621079
1.000000 0.098293 0.619785
0.000000 0.202084 0.625667
0.000000 0.126513 0.731167
0.121030 0.083509 0.748232
0.297087 0.083509 0.748232
0.609710 0.083509 0.748232
0.826626 0.061742 0.724558
1.000000 0.031060 0.671300
1.000000 0.196005 0.626110
1.000000 0.202258 0.626550
0.000000 0.303126 0.625667
0.000000 0.270026 0.731167
0.114006 0.234256 0.745171
0.270509 0.212953 0.733699
0.592406 0.212953 0.733699
0.845651 0.157629 0.730802
1.000000 0.141790 0.656598
1.000000 0.305619 0.632480
1.000000 0.306223 0.633316
0.000000 0.492413 0.625667
0.000000 0.541901 0.731167
0.114006 0.536846 0.745171
0.248690 0.515870 0.739223
0.542343 0.467723 0.692739
0.779285 0.438733 0.666536
0.991326 0.361974 0.598727
1.000000 0.508543 0.639191
1.000000 0.509378 0.640027
0.000000 0.608645 0.625667
0.000000 0.706990 0.731167
0.114006 0.718559 0.745171
0.248690 0.710692 0.739223
0.530273 0.651217 0.679793
0.744023 0.604468 0.633097
0.950877 0.532896 0.562791
1.000000 0.628138 0.644827
1.000000 0.628973 0.645662
0.000000 0.735658 0.616418
0.000000 0.841158 0.681115
0.049136 0.914232 0.714927
0.181198 0.910905 0.697872
0.476893 0.839073 0.630197
0.716941 0.811072 0.604870
0.945060 0.770479 0.557821
1.000000 0.764629 0.645652
1.000000 0.765464 0.646487
0.000000 0.861079 0.609496
0.000000 0.974679 0.649321
0.098730 1.000000 0.649049
0.222781 1.000000 0.636890
0.438714 1.000000 0.582041
0.654609 0.999470 0.537227
0.930504 0.999470 0.537227
1.000000 0.900294 0.645652
1.000000 0.901130 0.646487
0.000000 0.994499 0.611988
0.110780 1.000000 0.620823
0.227252 1.000000 0.628402
0.343724 1.000000 0.635981
0.555083 1.000000 0.642406
0.711387 1.000000 0.646724
0.863373 1.000000 0.646724
1.000000 1.000000 0.646724
1.000000 1.000000 0.646724
0.000000 0.000000 0.732717
0.111091 0.000000 0.732717
0.222365 0.000000 0.732717
0.333639 0.000000 0.732717
0.529069 0.000000 0.732717
0.681452 0.000000 0.732717
0.825955 0.000000 0.725958
0.974544 0.000000 0.724919
0.992871 0.000000 0.726190
0.000000 0.099325 0.732717
0.015318 0.000000 0.827043
0.160184 0.000000 0.827043
0.305051 0.000000 0.827043
0.561915 0.000000 0.827043
0.760301 0.000000 0.827043
0.920330 0.000000 0.794189
1.000000 0.085274 0.740105
1.000000 0.098293 0.735580
0.000000 0.198650 0.732717
0.000000 0.117671 0.838217
0.080761 0.043445 0.889700
0.255853 0.043445 0.889700
0.569255 0.043445 0.889700
0.809034 0.043445 0.889700
1.000000 0.031060 0.846984
1.000000 0.196005 0.743556
1.000000 0.202258 0.742345
0.000000 0.297975 0.732717
0.000000 0.251154 0.838217
0.053094 0.178645 0.907488
0.193950 0.130151 0.917906
0.553598 0.130151 0.917906
0.826198 0.130151 0.917906
1.000000 0.141790 0.840140
1.000000 0.305619 0.748275
1.000000 0.306223 0.749111
0.000000 0.485630 0.732717
0.000000 0.506156 0.838217
0.053094 0.497200 0.907488
0.182933 0.465409 0.906385
0.490883 0.414485 0.849045
0.758884 0.414485 0.849045
0.991326 0.361974 0.808563
1.000000 0.508543 0.754986
1.000000 0.509378 0.755822
0.000000 0.599887 0.732717
0.000000 0.659706 0.838217
0.053094 0.686924 0.907488
0.182933 0.669323 0.906385
0.478409 0.602317 0.834726
0.723241 0.581971 0.812032
0.950877 0.532896 0.770216
1.000000 0.628138 0.760622
1.000000 0.628973 0.761457
0.000000 0.735658 0.732470
0.000000 0.841158 0.836878
0.049136 0.914232 0.908902
0.181198 0.910905 0.905208
0.476893 0.839073 0.833488
0.698513 0.791463 0.786018
0.905967 0.735056 0.729489
1.000000 0.770355 0.767173
1.000000 0.771190 0.768008
0.000000 0.861079 0.723899
0.000000 0.974679 0.797273
0.098730 1.000000 0.808639
0.222781 1.000000 0.802009
0.438714 1.000000 0.772102
0.634378 0.976354 0.726418
0.890695 0.958457 0.710816
1.000000 0.906021 0.767173
1.000000 0.906856 0.768008
0.000000 0.994499 0.726516
0.110780 1.000000 0.736618
0.227252 1.000000 0.744197
0.343724 1.000000 0.751776
0.555083 1.000000 0.758201
0.714585 1.000000 0.765716
0.869100 1.000000 0.768245
1.000000 1.000000 0.768245
1.000000 1.000000 0.768245
0.000000 0.000000 0.839767
0.109702 0.000000 0.839767
0.219585 0.000000 0.839767
0.329468 0.000000 0.839767
0.524019 0.000000 0.839767
0.674497 0.000000 0.839767
0.824975 0.000000 0.839767
0.974544 0.000000 0.839241
0.992871 0.000000 0.840677
0.000000 0.098083 0.839767
0.014635 0.000000 0.936544
0.153042 0.000000 0.936544
0.291449 0.000000 0.936544
0.538831 0.000000 0.936544
0.728371 0.000000 0.936544
0.917912 0.000000 0.936544
1.000000 0.085274 0.859131
1.000000 0.098293 0.851375
0.000000 0.196167 0.839767
0.000000 0.112155 0.949661
0.081743 0.047274 1.000000
0.243474 0.047274 1.000000
0.535264 0.047274 1.000000
0.756746 0.047274 1.000000
0.978228 0.047274 1.000000
1.000000 0.196005 0.861001
1.000000 0.202258 0.858140
0.000000 0.294250 0.839767
0.000000 0.239380 0.949661
0.073712 0.184491 1.000000
0.211815 0.158004 1.000000
0.517550 0.158004 1.000000
0.747474 0.158004 1.000000
0.977398 0.158004 1.000000
1.000000 0.305619 0.864070
1.000000 0.306223 0.864905
0.000000 0.481123 0.839767
0.000000 0.484457 0.949661
0.073712 0.467887 1.000000
0.197763 0.442954 1.000000
0.442357 0.366599 1.000000
0.708116 0.366599 1.000000
0.973876 0.366599 1.000000
1.000000 0.508543 0.870781
1.000000 0.509378 0.871616
0.000000 0.593952 0.839767
0.000000 0.630809 0.949661
0.073712 0.635289 1.000000
0.197763 0.618199 1.000000
0.418779 0.546939 0.997424
0.671457 0.524904 0.972167
0.945253 0.524904 0.972167
1.000000 0.628138 0.876417
1.000000 0.628973 0.877252
0.000000 0.728271 0.839767
0.000000 0.805038 0.949661
0.073712 0.834576 1.000000
0.197763 0.826824 1.000000
0.418779 0.793095 0.997424
0.646495 0.743203 0.943717
0.899037 0.727052 0.925345
1.000000 0.770512 0.883125
1.000000 0.771347 0.883961
0.000000 0.861079 0.838303
0.000000 0.974679 0.945225
0.098730 1.000000 0.968229
0.222781 1.000000 0.967128
0.438714 1.000000 0.962163
0.634378 0.976354 0.934858
0.859565 0.925177 0.885366
1.000000 0.911747 0.888694
1.000000 0.912582 0.889529
0.000000 0.994499 0.841044
0.110780 1.000000 0.852413
0.227252 1.000000 0.859992
0.343724 1.000000 0.867571
0.555083 1.000000 0.873996
0.714585 1.000000 0.881511
0.874087 1.000000 0.889027
1.000000 1.000000 0.889766
1.000000 1.000000 0.889766
