docs/luts/fuji_recipes/Eterna_RR_Eterna.cube
TITLE "Fujifilm Recipe: RR Eterna (Eterna)"
# FilmSim=Eterna HL=4 SH=4 Col=4 WB=Auto WBR=5 WBB=-6
LUT_3D_SIZE 33
DOMAIN_MIN 0.0 0.0 0.0
DOMAIN_MAX 1.0 1.0 1.0
0.033600 0.033600 0.033600
0.068300 0.023452 0.023452
0.102237 0.014194 0.014194
0.135779 0.005348 0.005348
0.165824 0.000000 0.000000
0.191519 0.000000 0.000000
0.217492 0.000000 0.000000
0.243465 0.000000 0.000000
0.269438 0.000000 0.000000
0.295411 0.000000 0.000000
0.321384 0.000000 0.000000
0.347357 0.000000 0.000000
0.373330 0.000000 0.000000
0.399303 0.000000 0.000000
0.424893 0.000000 0.000000
0.509812 0.000000 0.000000
0.544939 0.000000 0.000000
0.580066 0.000000 0.000000
0.615193 0.000000 0.000000
0.650320 0.000000 0.000000
0.685447 0.000000 0.000000
0.720574 0.000000 0.000000
0.755701 0.000000 0.000000
0.790828 0.000000 0.000000
0.825955 0.000000 0.000000
0.861082 0.000000 0.000000
0.896209 0.000000 0.000000
0.933308 0.000000 0.000000
0.974544 0.000000 0.000000
0.992871 0.000000 0.000000
0.992871 0.000000 0.000000
0.992871 0.000000 0.000000
0.992871 0.000000 0.000000
0.024431 0.064813 0.024431
0.068300 0.063719 0.023452
0.102237 0.053618 0.014194
0.135779 0.044242 0.005348
0.165824 0.037065 0.000000
0.191519 0.034236 0.000000
0.217492 0.032392 0.000000
0.243465 0.031075 0.000000
0.269438 0.030088 0.000000
0.295411 0.029320 0.000000
0.321384 0.028706 0.000000
0.347357 0.028204 0.000000
0.373330 0.027785 0.000000
0.399303 0.027431 0.000000
0.424893 0.027132 0.000000
0.509812 0.025958 0.000000
0.544939 0.025711 0.000000
0.580066 0.025498 0.000000
0.615193 0.025311 0.000000
0.650320 0.025148 0.000000
0.685447 0.025002 0.000000
0.720574 0.024873 0.000000
0.755701 0.024756 0.000000
0.790828 0.024651 0.000000
0.825955 0.024556 0.000000
0.861082 0.024469 0.000000
0.896209 0.024389 0.000000
0.933308 0.024368 0.000000
0.974544 0.024452 0.000000
0.992871 0.024487 0.000000
0.992871 0.024487 0.000000
0.992871 0.024487 0.000000
0.992871 0.024487 0.000000
0.016079 0.095211 0.016079
0.060145 0.095211 0.016079
0.102237 0.093041 0.014194
0.135779 0.083135 0.005348
0.165824 0.074130 0.000000
0.191519 0.068471 0.000000
0.217492 0.064783 0.000000
0.243465 0.062150 0.000000
0.269438 0.060176 0.000000
0.295411 0.058640 0.000000
0.321384 0.057412 0.000000
0.347357 0.056408 0.000000
0.373330 0.055571 0.000000
0.399303 0.054862 0.000000
0.424893 0.054264 0.000000
0.509812 0.051917 0.000000
0.544939 0.051422 0.000000
0.580066 0.050995 0.000000
0.615193 0.050623 0.000000
0.650320 0.050295 0.000000
0.685447 0.050005 0.000000
0.720574 0.049746 0.000000
0.755701 0.049513 0.000000
0.790828 0.049303 0.000000
0.825955 0.049112 0.000000
0.861082 0.048938 0.000000
0.896209 0.048779 0.000000
0.933308 0.048735 0.000000
0.974544 0.048903 0.000000
0.992871 0.048974 0.000000
0.992871 0.048974 0.000000
0.992871 0.048974 0.000000
0.992871 0.048974 0.000000
0.008110 0.125224 0.008110
0.051588 0.125224 0.008110
0.095291 0.125224 0.008110
0.135779 0.122028 0.005348
0.165824 0.111196 0.000000
0.191519 0.102707 0.000000
0.217492 0.097175 0.000000
0.243465 0.093225 0.000000
0.269438 0.090263 0.000000
0.295411 0.087961 0.000000
0.321384 0.086118 0.000000
0.347357 0.084612 0.000000
0.373330 0.083356 0.000000
0.399303 0.082293 0.000000
0.424893 0.081395 0.000000
0.509812 0.077875 0.000000
0.544939 0.077133 0.000000
0.580066 0.076493 0.000000
0.615193 0.075934 0.000000
0.650320 0.075443 0.000000
0.685447 0.075007 0.000000
0.720574 0.074619 0.000000
0.755701 0.074269 0.000000
0.790828 0.073954 0.000000
0.825955 0.073668 0.000000
0.861082 0.073407 0.000000
0.896209 0.073168 0.000000
0.933308 0.073103 0.000000
0.974544 0.073355 0.000000
0.992871 0.073460 0.000000
0.992871 0.073460 0.000000
0.992871 0.073460 0.000000
0.992871 0.073460 0.000000
0.000352 0.155026 0.000352
0.043419 0.155026 0.000352
0.086708 0.155026 0.000352
0.130029 0.155026 0.000352
0.165824 0.148261 0.000000
0.191519 0.136942 0.000000
0.217492 0.129566 0.000000
0.243465 0.124300 0.000000
0.269438 0.120351 0.000000
0.295411 0.117281 0.000000
0.321384 0.114825 0.000000
0.347357 0.112815 0.000000
0.373330 0.111141 0.000000
0.399303 0.109725 0.000000
0.424893 0.108527 0.000000
0.509812 0.103834 0.000000
0.544939 0.102844 0.000000
0.580066 0.101991 0.000000
0.615193 0.101246 0.000000
0.650320 0.100591 0.000000
0.685447 0.100010 0.000000
0.720574 0.099492 0.000000
0.755701 0.099026 0.000000
0.790828 0.098606 0.000000
0.825955 0.098224 0.000000
0.861082 0.097876 0.000000
0.896209 0.097558 0.000000
0.933308 0.097471 0.000000
0.974544 0.097806 0.000000
0.992871 0.097947 0.000000
0.992871 0.097947 0.000000
0.992871 0.097947 0.000000
0.992871 0.097947 0.000000
0.000000 0.177744 0.000000
0.039592 0.177744 0.000000
0.079389 0.177744 0.000000
0.119214 0.177744 0.000000
0.159040 0.177744 0.000000
0.191519 0.171178 0.000000
0.217492 0.161958 0.000000
0.243465 0.155375 0.000000
0.269438 0.150439 0.000000
0.295411 0.146601 0.000000
0.321384 0.143531 0.000000
0.347357 0.141019 0.000000
0.373330 0.138926 0.000000
0.399303 0.137156 0.000000
0.424893 0.135659 0.000000
0.509812 0.129792 0.000000
0.544939 0.128556 0.000000
0.580066 0.127488 0.000000
0.615193 0.126557 0.000000
0.650320 0.125738 0.000000
0.685447 0.125012 0.000000
0.720574 0.124364 0.000000
0.755701 0.123782 0.000000
0.790828 0.123257 0.000000
0.825955 0.122780 0.000000
0.861082 0.122345 0.000000
0.896209 0.121947 0.000000
0.933308 0.121839 0.000000
0.974544 0.122258 0.000000
0.992871 0.122434 0.000000
0.992871 0.122434 0.000000
0.992871 0.122434 0.000000
0.992871 0.122434 0.000000
0.000000 0.200928 0.000000
0.037297 0.200928 0.000000
0.074787 0.200928 0.000000
0.112303 0.200928 0.000000
0.149820 0.200928 0.000000
0.187337 0.200928 0.000000
0.217492 0.194350 0.000000
0.243465 0.186450 0.000000
0.269438 0.180527 0.000000
0.295411 0.175921 0.000000
0.321384 0.172237 0.000000
0.347357 0.169223 0.000000
0.373330 0.166712 0.000000
0.399303 0.164587 0.000000
0.424893 0.162791 0.000000
0.509812 0.155750 0.000000
0.544939 0.154267 0.000000
0.580066 0.152986 0.000000
0.615193 0.151869 0.000000
0.650320 0.150886 0.000000
0.685447 0.150015 0.000000
0.720574 0.149237 0.000000
0.755701 0.148539 0.000000
0.790828 0.147908 0.000000
0.825955 0.147336 0.000000
0.861082 0.146814 0.000000
0.896209 0.146336 0.000000
0.933308 0.146206 0.000000
0.974544 0.146710 0.000000
0.992871 0.146921 0.000000
0.992871 0.146921 0.000000
0.992871 0.146921 0.000000
0.992871 0.146921 0.000000
0.000000 0.224112 0.000000
0.035658 0.224112 0.000000
0.071499 0.224112 0.000000
0.107367 0.224112 0.000000
0.143234 0.224112 0.000000
0.179102 0.224112 0.000000
0.214969 0.224112 0.000000
0.243465 0.217525 0.000000
0.269438 0.210615 0.000000
0.295411 0.205241 0.000000
0.321384 0.200943 0.000000
0.347357 0.197427 0.000000
0.373330 0.194497 0.000000
0.399303 0.192018 0.000000
0.424893 0.189923 0.000000
0.509812 0.181709 0.000000
0.544939 0.179978 0.000000
0.580066 0.178483 0.000000
0.615193 0.177180 0.000000
0.650320 0.176034 0.000000
0.685447 0.175017 0.000000
0.720574 0.174110 0.000000
0.755701 0.173295 0.000000
0.790828 0.172560 0.000000
0.825955 0.171892 0.000000
0.861082 0.171283 0.000000
0.896209 0.170726 0.000000
0.933308 0.170574 0.000000
0.974544 0.171161 0.000000
0.992871 0.171407 0.000000
0.992871 0.171407 0.000000
0.992871 0.171407 0.000000
0.992871 0.171407 0.000000
0.000000 0.247296 0.000000
0.034428 0.247296 0.000000
0.069034 0.247296 0.000000
0.103665 0.247296 0.000000
0.138295 0.247296 0.000000
0.172926 0.247296 0.000000
0.207557 0.247296 0.000000
0.242187 0.247296 0.000000
0.269438 0.240703 0.000000
0.295411 0.234561 0.000000
0.321384 0.229649 0.000000
0.347357 0.225631 0.000000
0.373330 0.222282 0.000000
0.399303 0.219449 0.000000
0.424893 0.217054 0.000000
0.509812 0.207667 0.000000
0.544939 0.205689 0.000000
0.580066 0.203981 0.000000
0.615193 0.202492 0.000000
0.650320 0.201182 0.000000
0.685447 0.200020 0.000000
0.720574 0.198983 0.000000
0.755701 0.198052 0.000000
0.790828 0.197211 0.000000
0.825955 0.196448 0.000000
0.861082 0.195752 0.000000
0.896209 0.195115 0.000000
0.933308 0.194942 0.000000
0.974544 0.195613 0.000000
0.992871 0.195894 0.000000
0.992871 0.195894 0.000000
0.992871 0.195894 0.000000
0.992871 0.195894 0.000000
0.000000 0.270480 0.000000
0.033472 0.270480 0.000000
0.067116 0.270480 0.000000
0.100785 0.270480 0.000000
0.134454 0.270480 0.000000
0.168123 0.270480 0.000000
0.201791 0.270480 0.000000
0.235460 0.270480 0.000000
0.269129 0.270480 0.000000
0.295411 0.263882 0.000000
0.321384 0.258355 0.000000
0.347357 0.253835 0.000000
0.373330 0.250068 0.000000
0.399303 0.246880 0.000000
0.424893 0.244186 0.000000
0.509812 0.233626 0.000000
0.544939 0.231400 0.000000
0.580066 0.229479 0.000000
0.615193 0.227803 0.000000
0.650320 0.226329 0.000000
0.685447 0.225022 0.000000
0.720574 0.223856 0.000000
0.755701 0.222808 0.000000
0.790828 0.221862 0.000000
0.825955 0.221004 0.000000
0.861082 0.220221 0.000000
0.896209 0.219505 0.000000
0.933308 0.219310 0.000000
0.974544 0.220064 0.000000
0.992871 0.220381 0.000000
0.992871 0.220381 0.000000
0.992871 0.220381 0.000000
0.992871 0.220381 0.000000
0.000000 0.293664 0.000000
0.032707 0.293664 0.000000
0.065582 0.293664 0.000000
0.098481 0.293664 0.000000
0.131381 0.293664 0.000000
0.164280 0.293664 0.000000
0.197179 0.293664 0.000000
0.230078 0.293664 0.000000
0.262977 0.293664 0.000000
0.295411 0.293202 0.000000
0.321384 0.287062 0.000000
0.347357 0.282038 0.000000
0.373330 0.277853 0.000000
0.399303 0.274312 0.000000
0.424893 0.271318 0.000000
0.509812 0.259584 0.000000
0.544939 0.257111 0.000000
0.580066 0.254976 0.000000
0.615193 0.253115 0.000000
0.650320 0.251477 0.000000
0.685447 0.250025 0.000000
0.720574 0.248729 0.000000
0.755701 0.247565 0.000000
0.790828 0.246514 0.000000
0.825955 0.245560 0.000000
0.861082 0.244690 0.000000
0.896209 0.243894 0.000000
0.933308 0.243677 0.000000
0.974544 0.244516 0.000000
0.992871 0.244868 0.000000
0.992871 0.244868 0.000000
0.992871 0.244868 0.000000
0.992871 0.244868 0.000000
0.000000 0.316848 0.000000
0.032081 0.316848 0.000000
0.064327 0.316848 0.000000
0.096597 0.316848 0.000000
0.128866 0.316848 0.000000
0.161136 0.316848 0.000000
0.193405 0.316848 0.000000
0.225675 0.316848 0.000000
0.257944 0.316848 0.000000
0.290214 0.316848 0.000000
0.321384 0.315768 0.000000
0.347357 0.310242 0.000000
0.373330 0.305638 0.000000
0.399303 0.301743 0.000000
0.424893 0.298450 0.000000
0.509812 0.285542 0.000000
0.544939 0.282822 0.000000
0.580066 0.280474 0.000000
0.615193 0.278426 0.000000
0.650320 0.276625 0.000000
0.685447 0.275027 0.000000
0.720574 0.273602 0.000000
0.755701 0.272321 0.000000
0.790828 0.271165 0.000000
0.825955 0.270116 0.000000
0.861082 0.269159 0.000000
0.896209 0.268284 0.000000
0.933308 0.268045 0.000000
0.974544 0.268967 0.000000
0.992871 0.269355 0.000000
0.992871 0.269355 0.000000
0.992871 0.269355 0.000000
0.992871 0.269355 0.000000
0.000000 0.340032 0.000000
0.031559 0.340032 0.000000
0.063281 0.340032 0.000000
0.095026 0.340032 0.000000
0.126771 0.340032 0.000000
0.158516 0.340032 0.000000
0.190260 0.340032 0.000000
0.222005 0.340032 0.000000
0.253750 0.340032 0.000000
0.285495 0.340032 0.000000
0.317239 0.340032 0.000000
0.347357 0.338446 0.000000
0.373330 0.333423 0.000000
0.399303 0.329174 0.000000
0.424893 0.325582 0.000000
0.509812 0.311501 0.000000
0.544939 0.308533 0.000000
0.580066 0.305972 0.000000
0.615193 0.303738 0.000000
0.650320 0.301772 0.000000
0.685447 0.300030 0.000000
0.720574 0.298475 0.000000
0.755701 0.297078 0.000000
0.790828 0.295817 0.000000
0.825955 0.294672 0.000000
0.861082 0.293628 0.000000
0.896209 0.292673 0.000000
0.933308 0.292413 0.000000
0.974544 0.293419 0.000000
0.992871 0.293841 0.000000
0.992871 0.293841 0.000000
0.992871 0.293841 0.000000
0.992871 0.293841 0.000000
0.000000 0.363216 0.000000
0.031118 0.363216 0.000000
0.062396 0.363216 0.000000
0.093697 0.363216 0.000000
0.124998 0.363216 0.000000
0.156299 0.363216 0.000000
0.187599 0.363216 0.000000
0.218900 0.363216 0.000000
0.250201 0.363216 0.000000
0.281502 0.363216 0.000000
0.312803 0.363216 0.000000
0.344103 0.363216 0.000000
0.373330 0.361209 0.000000
0.399303 0.356605 0.000000
0.424893 0.352713 0.000000
0.509812 0.337459 0.000000
0.544939 0.334245 0.000000
0.580066 0.331469 0.000000
0.615193 0.329049 0.000000
0.650320 0.326920 0.000000
0.685447 0.325032 0.000000
0.720574 0.323348 0.000000
0.755701 0.321834 0.000000
0.790828 0.320468 0.000000
0.825955 0.319228 0.000000
0.861082 0.318097 0.000000
0.896209 0.317062 0.000000
0.933308 0.316781 0.000000
0.974544 0.317871 0.000000
0.992871 0.318328 0.000000
0.992871 0.318328 0.000000
0.992871 0.318328 0.000000
0.992871 0.318328 0.000000
0.000000 0.386400 0.000000
0.030739 0.386400 0.000000
0.061637 0.386400 0.000000
0.092558 0.386400 0.000000
0.123478 0.386400 0.000000
0.154398 0.386400 0.000000
0.185318 0.386400 0.000000
0.216239 0.386400 0.000000
0.247159 0.386400 0.000000
0.278079 0.386400 0.000000
0.308999 0.386400 0.000000
0.339920 0.386400 0.000000
0.370840 0.386400 0.000000
0.399303 0.384036 0.000000
0.424893 0.379845 0.000000
0.509812 0.363418 0.000000
0.544939 0.359956 0.000000
0.580066 0.356967 0.000000
0.615193 0.354361 0.000000
0.650320 0.352068 0.000000
0.685447 0.350035 0.000000
0.720574 0.348221 0.000000
0.755701 0.346591 0.000000
0.790828 0.345119 0.000000
0.825955 0.343784 0.000000
0.861082 0.342566 0.000000
0.896209 0.341452 0.000000
0.933308 0.341148 0.000000
0.974544 0.342322 0.000000
0.992871 0.342815 0.000000
0.992871 0.342815 0.000000
0.992871 0.342815 0.000000
0.992871 0.342815 0.000000
0.000000 0.409584 0.000000
0.030412 0.409584 0.000000
0.060980 0.409584 0.000000
0.091570 0.409584 0.000000
0.122161 0.409584 0.000000
0.152751 0.409584 0.000000
0.183342 0.409584 0.000000
0.213932 0.409584 0.000000
0.244523 0.409584 0.000000
0.275113 0.409584 0.000000
0.305703 0.409584 0.000000
0.336294 0.409584 0.000000
0.366884 0.409584 0.000000
0.397475 0.409584 0.000000
0.424893 0.406977 0.000000
0.509812 0.389376 0.000000
0.544939 0.385667 0.000000
0.580066 0.382464 0.000000
0.615193 0.379672 0.000000
0.650320 0.377215 0.000000
0.685447 0.375037 0.000000
0.720574 0.373093 0.000000
0.755701 0.371347 0.000000
0.790828 0.369771 0.000000
0.825955 0.368340 0.000000
0.861082 0.367035 0.000000
0.896209 0.365841 0.000000
0.933308 0.365516 0.000000
0.974544 0.366774 0.000000
0.992871 0.367302 0.000000
0.992871 0.367302 0.000000
0.992871 0.367302 0.000000
0.992871 0.367302 0.000000
0.000000 0.432026 0.000000
0.030133 0.432026 0.000000
0.060422 0.432026 0.000000
0.090733 0.432026 0.000000
0.121043 0.432026 0.000000
0.151354 0.432026 0.000000
0.181664 0.432026 0.000000
0.211975 0.432026 0.000000
0.242285 0.432026 0.000000
0.272596 0.432026 0.000000
0.302906 0.432026 0.000000
0.333217 0.432026 0.000000
0.363527 0.432026 0.000000
0.393838 0.432026 0.000000
0.423702 0.432026 0.000000
0.509812 0.414504 0.000000
0.544939 0.410555 0.000000
0.580066 0.496343 0.000000
0.615193 0.493249 0.000000
0.650320 0.490584 0.000000
0.685447 0.488275 0.000000
0.720574 0.486264 0.000000
0.755701 0.484507 0.000000
0.790828 0.482965 0.000000
0.825955 0.481610 0.000000
0.861082 0.480417 0.000000
0.896209 0.479364 0.000000
0.933308 0.479448 0.000000
0.974544 0.481610 0.000000
0.992871 0.482531 0.000000
0.992871 0.482531 0.000000
0.992871 0.482531 0.000000
0.992871 0.482531 0.000000
0.000000 0.516173 0.000000
0.028858 0.516173 0.000000
0.057865 0.516173 0.000000
0.086893 0.516173 0.000000
0.115921 0.516173 0.000000
0.144948 0.516173 0.000000
0.173976 0.516173 0.000000
0.203004 0.516173 0.000000
0.232032 0.516173 0.000000
0.261060 0.516173 0.000000
0.290087 0.516173 0.000000
0.319115 0.516173 0.000000
0.348143 0.516173 0.000000
0.377171 0.516173 0.000000
0.405771 0.516173 0.000000
0.508974 0.516173 0.000000
0.544939 0.512636 0.000000
0.580066 0.508914 0.000000
0.615193 0.505728 0.000000
0.650320 0.502982 0.000000
0.685447 0.500601 0.000000
0.720574 0.498526 0.000000
0.755701 0.496712 0.000000
0.790828 0.495118 0.000000
0.825955 0.493716 0.000000
0.861082 0.492480 0.000000
0.896209 0.491388 0.000000
0.933308 0.491462 0.000000
0.974544 0.493664 0.000000
0.992871 0.494603 0.000000
0.992871 0.494603 0.000000
0.992871 0.494603 0.000000
0.992871 0.494603 0.000000
0.000000 0.547528 0.000000
0.028617 0.547528 0.000000
0.057382 0.547528 0.000000
0.086167 0.547528 0.000000
0.114952 0.547528 0.000000
0.143738 0.547528 0.000000
0.172523 0.547528 0.000000
0.201308 0.547528 0.000000
0.230094 0.547528 0.000000
0.258879 0.547528 0.000000
0.287664 0.547528 0.000000
0.316449 0.547528 0.000000
0.345235 0.547528 0.000000
0.374020 0.547528 0.000000
0.402382 0.547528 0.000000
0.505203 0.547528 0.000000
0.544623 0.547528 0.000000
0.580066 0.543831 0.000000
0.615193 0.540390 0.000000
0.650320 0.537420 0.000000
0.685447 0.534840 0.000000
0.720574 0.532588 0.000000
0.755701 0.530614 0.000000
0.790828 0.528877 0.000000
0.825955 0.527344 0.000000
0.861082 0.525989 0.000000
0.896209 0.524788 0.000000
0.933308 0.524832 0.000000
0.974544 0.527149 0.000000
0.992871 0.528136 0.000000
0.992871 0.528136 0.000000
0.992871 0.528136 0.000000
0.992871 0.528136 0.000000
0.000000 0.578883 0.000000
0.028405 0.578883 0.000000
0.056957 0.578883 0.000000
0.085530 0.578883 0.000000
0.114102 0.578883 0.000000
0.142675 0.578883 0.000000
0.171247 0.578883 0.000000
0.199820 0.578883 0.000000
0.228392 0.578883 0.000000
0.256965 0.578883 0.000000
0.285537 0.578883 0.000000
0.314110 0.578883 0.000000
0.342682 0.578883 0.000000
0.371255 0.578883 0.000000
0.399407 0.578883 0.000000
0.501944 0.578883 0.000000
0.541072 0.578883 0.000000
0.580066 0.578749 0.000000
0.615193 0.575053 0.000000
0.650320 0.571858 0.000000
0.685447 0.569080 0.000000
0.720574 0.566651 0.000000
0.755701 0.564517 0.000000
0.790828 0.562636 0.000000
0.825955 0.560972 0.000000
0.861082 0.559498 0.000000
0.896209 0.558188 0.000000
0.933308 0.558202 0.000000
0.974544 0.560635 0.000000
0.992871 0.561669 0.000000
0.992871 0.561669 0.000000
0.992871 0.561669 0.000000
0.992871 0.561669 0.000000
0.000000 0.610238 0.000000
0.028218 0.610238 0.000000
0.056582 0.610238 0.000000
0.084966 0.610238 0.000000
0.113350 0.610238 0.000000
0.141735 0.610238 0.000000
0.170119 0.610238 0.000000
0.198503 0.610238 0.000000
0.226887 0.610238 0.000000
0.255271 0.610238 0.000000
0.283656 0.610238 0.000000
0.312040 0.610238 0.000000
0.340424 0.610238 0.000000
0.368808 0.610238 0.000000
0.396775 0.610238 0.000000
0.499109 0.610238 0.000000
0.537980 0.610238 0.000000
0.576850 0.610238 0.000000
0.615193 0.609716 0.000000
0.650320 0.606297 0.000000
0.685447 0.603319 0.000000
0.720574 0.600713 0.000000
0.755701 0.598419 0.000000
0.790828 0.596395 0.000000
0.825955 0.594601 0.000000
0.861082 0.593007 0.000000
0.896209 0.591588 0.000000
0.933308 0.591573 0.000000
0.974544 0.594120 0.000000
0.992871 0.595203 0.000000
0.992871 0.595203 0.000000
0.992871 0.595203 0.000000
0.992871 0.595203 0.000000
0.000000 0.641593 0.000000
0.028051 0.641593 0.000000
0.056248 0.641593 0.000000
0.084464 0.641593 0.000000
0.112680 0.641593 0.000000
0.140897 0.641593 0.000000
0.169113 0.641593 0.000000
0.197330 0.641593 0.000000
0.225546 0.641593 0.000000
0.253763 0.641593 0.000000
0.281979 0.641593 0.000000
0.310195 0.641593 0.000000
0.338412 0.641593 0.000000
0.366628 0.641593 0.000000
0.394429 0.641593 0.000000
0.496630 0.641593 0.000000
0.535271 0.641593 0.000000
0.573911 0.641593 0.000000
0.612552 0.641593 0.000000
0.650320 0.640735 0.000000
0.685447 0.637559 0.000000
0.720574 0.634775 0.000000
0.755701 0.632322 0.000000
0.790828 0.630153 0.000000
0.825955 0.628229 0.000000
0.861082 0.626516 0.000000
0.896209 0.624988 0.000000
0.933308 0.624943 0.000000
0.974544 0.627605 0.000000
0.992871 0.628736 0.000000
0.992871 0.628736 0.000000
0.992871 0.628736 0.000000
0.992871 0.628736 0.000000
0.000000 0.672948 0.000000
0.027902 0.672948 0.000000
0.055948 0.672948 0.000000
0.084014 0.672948 0.000000
0.112080 0.672948 0.000000
0.140146 0.672948 0.000000
0.168212 0.672948 0.000000
0.196278 0.672948 0.000000
0.224344 0.672948 0.000000
0.252410 0.672948 0.000000
0.280476 0.672948 0.000000
0.308542 0.672948 0.000000
0.336608 0.672948 0.000000
0.364674 0.672948 0.000000
0.392327 0.672948 0.000000
0.494450 0.672948 0.000000
0.532885 0.672948 0.000000
0.571320 0.672948 0.000000
0.609754 0.672948 0.000000
0.648189 0.672948 0.000000
0.685447 0.671799 0.000000
0.720574 0.668837 0.000000
0.755701 0.666225 0.000000
0.790828 0.663912 0.000000
0.825955 0.661857 0.000000
0.861082 0.660025 0.000000
0.896209 0.658388 0.000000
0.933308 0.658313 0.000000
0.974544 0.661090 0.000000
0.992871 0.662269 0.000000
0.992871 0.662269 0.000000
0.992871 0.662269 0.000000
0.992871 0.662269 0.000000
0.000000 0.704303 0.000000
0.027767 0.704303 0.000000
0.055677 0.704303 0.000000
0.083608 0.704303 0.000000
0.111538 0.704303 0.000000
0.139468 0.704303 0.000000
0.167399 0.704303 0.000000
0.195329 0.704303 0.000000
0.223259 0.704303 0.000000
0.251190 0.704303 0.000000
0.279120 0.704303 0.000000
0.307050 0.704303 0.000000
0.334981 0.704303 0.000000
0.362911 0.704303 0.000000
0.390430 0.704303 0.000000
0.492526 0.704303 0.000000
0.530775 0.704303 0.000000
0.569024 0.704303 0.000000
0.607273 0.704303 0.000000
0.645522 0.704303 0.000000
0.683771 0.704303 0.000000
0.720574 0.702899 0.000000
0.755701 0.700127 0.000000
0.790828 0.697671 0.000000
0.825955 0.695485 0.000000
0.861082 0.693534 0.000000
0.896209 0.691788 0.000000
0.933308 0.691683 0.000000
0.974544 0.694575 0.000000
0.992871 0.695803 0.000000
0.992871 0.695803 0.000000
0.992871 0.695803 0.000000
0.992871 0.695803 0.000000
0.000000 0.735658 0.000000
0.027645 0.735658 0.000000
0.055432 0.735658 0.000000
0.083240 0.735658 0.000000
0.111047 0.735658 0.000000
0.138854 0.735658 0.000000
0.166662 0.735658 0.000000
0.194469 0.735658 0.000000
0.222277 0.735658 0.000000
0.250084 0.735658 0.000000
0.277891 0.735658 0.000000
0.305699 0.735658 0.000000
0.333506 0.735658 0.000000
0.361314 0.735658 0.000000
0.388712 0.735658 0.000000
0.490822 0.735658 0.000000
0.528902 0.735658 0.000000
0.566983 0.735658 0.000000
0.605064 0.735658 0.000000
0.643144 0.735658 0.000000
0.681225 0.735658 0.000000
0.719306 0.735658 0.000000
0.755701 0.734030 0.000000
0.790828 0.731429 0.000000
0.825955 0.729113 0.000000
0.861082 0.727043 0.000000
0.896209 0.725188 0.000000
0.933308 0.725054 0.000000
0.974544 0.728060 0.000000
0.992871 0.729336 0.000000
0.992871 0.729336 0.000000
0.992871 0.729336 0.000000
0.992871 0.729336 0.000000
0.000000 0.767014 0.000000
0.027534 0.767014 0.000000
0.055209 0.767014 0.000000
0.082905 0.767014 0.000000
0.110600 0.767014 0.000000
0.138295 0.767014 0.000000
0.165991 0.767014 0.000000
0.193686 0.767014 0.000000
0.221382 0.767014 0.000000
0.249077 0.767014 0.000000
0.276773 0.767014 0.000000
0.304468 0.767014 0.000000
0.332164 0.767014 0.000000
0.359859 0.767014 0.000000
0.473485 0.767014 0.000000
0.489308 0.767014 0.000000
0.527235 0.767014 0.000000
0.565162 0.767014 0.000000
0.603090 0.767014 0.000000
0.641017 0.767014 0.000000
0.678945 0.767014 0.000000
0.716872 0.767014 0.000000
0.754799 0.767014 0.000000
0.790828 0.765188 0.000000
0.825955 0.762741 0.000000
0.861082 0.760552 0.000000
0.896209 0.758588 0.000000
0.933308 0.758424 0.000000
0.974544 0.761545 0.000000
0.992871 0.762869 0.000000
0.992871 0.762869 0.000000
0.992871 0.762869 0.000000
0.992871 0.762869 0.000000
0.000000 0.798369 0.000000
0.027432 0.798369 0.000000
0.055005 0.798369 0.000000
0.082598 0.798369 0.000000
0.110191 0.798369 0.000000
0.137784 0.798369 0.000000
0.165377 0.798369 0.000000
0.192971 0.798369 0.000000
0.220564 0.798369 0.000000
0.248157 0.798369 0.000000
0.275750 0.798369 0.000000
0.303343 0.798369 0.000000
0.330936 0.798369 0.000000
0.358529 0.798369 0.000000
0.472195 0.798369 0.000000
0.487959 0.798369 0.000000
0.525747 0.798369 0.000000
0.563534 0.798369 0.000000
0.601321 0.798369 0.000000
0.639108 0.798369 0.000000
0.676896 0.798369 0.000000
0.714683 0.798369 0.000000
0.752470 0.798369 0.000000
0.790257 0.798369 0.000000
0.825955 0.796369 0.000000
