docs/luts/fuji_recipes/Eterna_RR_Eterna.cube
TITLE "Fujifilm Recipe: RR Eterna (Eterna)"
# FilmSim=Eterna HL=4 SH=4 Col=4 WB=Auto WBR=5 WBB=-6
LUT_3D_SIZE 5
DOMAIN_MIN 0.0 0.0 0.0
DOMAIN_MAX 1.0 1.0 1.0
0.033600 0.033600 0.033600
0.269438 0.000000 0.000000
0.544939 0.000000 0.000000
0.825955 0.000000 0.000000
0.992871 0.000000 0.000000
0.000000 0.247296 0.000000
0.269438 0.240703 0.000000
0.544939 0.205689 0.000000
0.825955 0.196448 0.000000
0.992871 0.195894 0.000000
0.000000 0.432026 0.000000
0.242285 0.432026 0.000000
0.544939 0.410555 0.000000
0.825955 0.481610 0.000000
0.992871 0.482531 0.000000
0.000000 0.735658 0.000000
0.222277 0.735658 0.000000
0.528902 0.735658 0.000000
0.825955 0.729113 0.000000
0.992871 0.729336 0.000000
0.000000 0.994499 0.000000
0.219359 0.994499 0.000000
0.525620 0.994499 0.000000
0.826267 0.994499 0.000000
0.993293 0.994499 0.000000
0.000000 0.000000 0.220300
0.269438 0.000000 0.205667
0.544939 0.000000 0.175750
0.825955 0.000000 0.167854
0.992871 0.000000 0.167381
0.000000 0.247296 0.211301
0.272888 0.233532 0.185548
0.645736 0.121867 0.076082
0.998826 0.043191 0.000000
1.000000 0.200832 0.171993
0.000000 0.432026 0.184941
0.174574 0.593007 0.090870
0.645736 0.576953 0.076082
0.998826 0.478699 0.000000
1.000000 0.493933 0.171993
0.000000 0.735658 0.169668
0.089485 0.895032 0.007448
0.572618 0.895032 0.007448
0.998826 0.852547 0.000000
1.000000 0.743558 0.171993
0.000000 0.994499 0.167441
0.224656 1.000000 0.172164
0.537495 1.000000 0.172164
0.841467 1.000000 0.172164
1.000000 1.000000 0.172164
0.000000 0.000000 0.378606
0.248132 0.000000 0.378606
0.544939 0.000000 0.351312
0.825955 0.000000 0.335528
0.992871 0.000000 0.334583
0.000000 0.221669 0.378606
0.221444 0.182678 0.412578
0.641885 0.113386 0.337682
1.000000 0.031060 0.243882
1.000000 0.202258 0.342531
0.000000 0.432026 0.369685
0.159643 0.585122 0.348027
0.617557 0.546324 0.300423
1.000000 0.437018 0.187849
1.000000 0.505481 0.349468
0.000000 0.735658 0.339155
0.049136 0.914232 0.244494
0.539838 0.909083 0.189558
1.000000 0.841669 0.187849
1.000000 0.755106 0.349468
0.000000 0.994499 0.334703
0.227252 1.000000 0.343872
0.549044 1.000000 0.349639
0.853016 1.000000 0.349639
1.000000 1.000000 0.349639
0.000000 0.000000 0.625667
0.226209 0.000000 0.625667
0.536603 0.000000 0.625667
0.825955 0.000000 0.611148
0.992871 0.000000 0.611703
0.000000 0.202084 0.625667
0.121030 0.083509 0.748232
0.609710 0.083509 0.748232
1.000000 0.031060 0.671300
1.000000 0.202258 0.626550
0.000000 0.492413 0.625667
0.114006 0.536846 0.745171
0.542343 0.467723 0.692739
0.991326 0.361974 0.598727
1.000000 0.509378 0.640027
0.000000 0.735658 0.616418
0.049136 0.914232 0.714927
0.476893 0.839073 0.630197
0.945060 0.770479 0.557821
1.000000 0.765464 0.646487
0.000000 0.994499 0.611988
0.227252 1.000000 0.628402
0.555083 1.000000 0.642406
0.863373 1.000000 0.646724
1.000000 1.000000 0.646724
0.000000 0.000000 0.839767
0.219585 0.000000 0.839767
0.524019 0.000000 0.839767
0.824975 0.000000 0.839767
0.992871 0.000000 0.840677
0.000000 0.196167 0.839767
0.081743 0.047274 1.000000
0.535264 0.047274 1.000000
0.978228 0.047274 1.000000
1.000000 0.202258 0.858140
0.000000 0.481123 0.839767
0.073712 0.467887 1.000000
0.442357 0.366599 1.000000
0.973876 0.366599 1.000000
1.000000 0.509378 0.871616
0.000000 0.728271 0.839767
0.073712 0.834576 1.000000
0.418779 0.793095 0.997424
0.899037 0.727052 0.925345
1.000000 0.771347 0.883961
0.000000 0.994499 0.841044
0.227252 1.000000 0.859992
0.555083 1.000000 0.873996
0.874087 1.000000 0.889027
1.000000 1.000000 0.889766
