docs/luts/fuji_recipes/Eterna_VM_Eterna.cube
TITLE "Fujifilm Recipe: VM Eterna (Eterna)"
# FilmSim=Eterna HL=1 SH=3 Col=3 WB=Auto WBR=0 WBB=-1
LUT_3D_SIZE 9
DOMAIN_MIN 0.0 0.0 0.0
DOMAIN_MAX 1.0 1.0 1.0
0.035200 0.035200 0.035200
0.179412 0.011095 0.011095
0.306181 0.000000 0.000000
0.421856 0.000000 0.000000
0.583947 0.000000 0.000000
0.718575 0.000000 0.000000
0.853204 0.000000 0.000000
0.987832 0.000000 0.000000
1.000000 0.019166 0.019166
0.010954 0.180252 0.010954
0.179272 0.180252 0.010954
0.306181 0.156876 0.000000
0.421856 0.145005 0.000000
0.583947 0.135684 0.000000
0.718575 0.132226 0.000000
0.853204 0.129959 0.000000
0.987832 0.128358 0.000000
1.000000 0.142401 0.019166
0.000000 0.307366 0.000000
0.155790 0.307366 0.000000
0.305829 0.307366 0.000000
0.421856 0.284432 0.000000
0.583947 0.266150 0.000000
0.718575 0.259367 0.000000
0.853204 0.254920 0.000000
0.987832 0.251780 0.000000
1.000000 0.260896 0.019166
0.000000 0.423525 0.000000
0.144052 0.423525 0.000000
0.282787 0.423525 0.000000
0.421523 0.423525 0.000000
0.583947 0.396616 0.000000
0.718575 0.386507 0.000000
0.853204 0.379881 0.000000
0.987832 0.375202 0.000000
1.000000 0.379391 0.019166
0.000000 0.586456 0.000000
0.134819 0.586456 0.000000
0.264662 0.586456 0.000000
0.394505 0.586456 0.000000
0.583620 0.586456 0.000000
0.718575 0.572958 0.000000
0.853204 0.564244 0.000000
0.987832 0.558390 0.000000
1.000000 0.555512 0.019166
0.000000 0.721649 0.000000
0.131399 0.721649 0.000000
0.257949 0.721649 0.000000
0.384499 0.721649 0.000000
0.569951 0.721649 0.000000
0.718263 0.721649 0.000000
0.853204 0.710695 0.000000
0.987832 0.703036 0.000000
1.000000 0.694385 0.019166
0.000000 0.856842 0.000000
0.129157 0.856842 0.000000
0.253547 0.856842 0.000000
0.377938 0.856842 0.000000
0.561339 0.856842 0.000000
0.707121 0.856842 0.000000
0.852902 0.856842 0.000000
0.987832 0.847683 0.000000
1.000000 0.833258 0.019166
0.000000 0.992035 0.000000
0.127573 0.992035 0.000000
0.250439 0.992035 0.000000
0.373304 0.992035 0.000000
0.555557 0.992035 0.000000
0.699551 0.992035 0.000000
0.843545 0.992035 0.000000
0.987539 0.992035 0.000000
1.000000 0.972131 0.019166
0.023501 1.000000 0.023501
0.144926 1.000000 0.023501
0.261869 1.000000 0.023501
0.378813 1.000000 0.023501
0.552525 1.000000 0.023501
0.689580 1.000000 0.023501
0.826634 1.000000 0.023501
0.963688 1.000000 0.023501
0.995587 1.000000 0.023501
0.011423 0.011423 0.177445
0.179412 0.011095 0.177116
0.306181 0.000000 0.153841
0.421856 0.000000 0.142199
0.583947 0.000000 0.133059
0.718575 0.000000 0.129667
0.853204 0.000000 0.127444
0.987832 0.000000 0.125874
1.000000 0.019166 0.140016
0.010954 0.180252 0.176976
0.155496 0.156475 0.153199
0.294526 0.133400 0.130123
0.433416 0.110184 0.106908
0.633733 0.072928 0.069652
0.796761 0.044528 0.041252
0.959790 0.016128 0.012852
1.000000 0.109839 0.107269
1.000000 0.140989 0.138604
0.000000 0.307366 0.153664
0.132182 0.295948 0.129886
0.294288 0.295948 0.129886
0.433416 0.272970 0.106908
0.633733 0.235714 0.069652
0.796761 0.207314 0.041252
0.959790 0.178914 0.012852
1.000000 0.237499 0.107269
1.000000 0.259529 0.138604
0.000000 0.423525 0.142086
0.108869 0.435421 0.106573
0.270975 0.435421 0.106573
0.433081 0.435421 0.106573
0.633733 0.398501 0.069652
0.796761 0.370100 0.041252
0.959790 0.341700 0.012852
1.000000 0.365159 0.107269
1.000000 0.378069 0.138604
0.000000 0.586456 0.132979
0.071419 0.636770 0.069123
0.233525 0.636770 0.069123
0.395631 0.636770 0.069123
0.633230 0.636770 0.069123
0.796761 0.610318 0.041252
0.959790 0.583363 0.012852
1.000000 0.555810 0.107269
1.000000 0.555344 0.138604
0.000000 0.721649 0.129606
0.042900 0.800483 0.040603
0.205006 0.800483 0.040603
0.367112 0.800483 0.040603
0.606163 0.800483 0.040603
0.796146 0.800483 0.040603
0.959790 0.774143 0.012852
1.000000 0.705424 0.107269
1.000000 0.694269 0.138604
0.000000 0.856842 0.127395
0.014381 0.964195 0.012084
0.176487 0.964195 0.012084
0.338593 0.964195 0.012084
0.579095 0.964195 0.012084
0.769078 0.964195 0.012084
0.959061 0.964195 0.012084
1.000000 0.855038 0.107269
1.000000 0.833195 0.138604
0.000000 0.992035 0.125833
0.113256 1.000000 0.111473
0.239123 1.000000 0.111473
0.364991 1.000000 0.111473
0.552856 1.000000 0.111473
0.700369 1.000000 0.111473
0.847882 1.000000 0.111473
0.995394 1.000000 0.111473
1.000000 0.972120 0.138604
0.023501 1.000000 0.143269
0.144594 1.000000 0.142938
0.261435 1.000000 0.142938
0.378277 1.000000 0.142938
0.552915 1.000000 0.142938
0.689850 1.000000 0.142938
0.826785 1.000000 0.142938
0.963720 1.000000 0.142938
0.995591 1.000000 0.142938
0.000000 0.000000 0.302594
0.156523 0.000000 0.302594
0.306181 0.000000 0.301524
0.421856 0.000000 0.278705
0.583947 0.000000 0.260791
0.718575 0.000000 0.254144
0.853204 0.000000 0.249787
0.987832 0.000000 0.246710
1.000000 0.019166 0.256029
0.000000 0.157434 0.302594
0.132811 0.133791 0.289890
0.294057 0.132930 0.289030
0.432947 0.109715 0.265814
0.633288 0.072454 0.228554
0.796316 0.044054 0.200153
0.959345 0.015653 0.171753
1.000000 0.109626 0.232069
1.000000 0.140960 0.254632
0.000000 0.307366 0.301177
0.131853 0.295619 0.288933
0.271463 0.273123 0.266437
0.410591 0.250145 0.243459
0.612090 0.212638 0.205952
0.775118 0.184238 0.177552
0.938146 0.155838 0.149151
1.000000 0.227232 0.221926
1.000000 0.258132 0.253260
0.000000 0.423525 0.278485
0.108540 0.435092 0.265620
0.248150 0.412596 0.243124
0.410256 0.412596 0.243124
0.612090 0.375424 0.205952
0.775118 0.347024 0.177552
0.938146 0.318624 0.149151
1.000000 0.356421 0.221926
1.000000 0.376728 0.253260
0.000000 0.586456 0.260635
0.071087 0.636458 0.228166
0.210449 0.615127 0.205423
0.372555 0.615127 0.205423
0.611587 0.615127 0.205423
0.775118 0.588675 0.177552
0.938146 0.561720 0.149151
1.000000 0.550491 0.221926
1.000000 0.555132 0.253260
0.000000 0.721649 0.254025
0.042567 0.800171 0.199647
0.181930 0.778840 0.176903
0.344036 0.778840 0.176903
0.584519 0.778840 0.176903
0.774503 0.778840 0.176903
0.938146 0.752500 0.149151
1.000000 0.701897 0.221926
1.000000 0.694123 0.253260
0.000000 0.856842 0.249690
0.014048 0.963884 0.171128
0.153410 0.942552 0.148384
0.315516 0.942552 0.148384
0.557451 0.942552 0.148384
0.747435 0.942552 0.148384
0.937418 0.942552 0.148384
1.000000 0.853302 0.221926
1.000000 0.833115 0.253260
0.000000 0.992035 0.246629
0.113125 1.000000 0.235105
0.230073 1.000000 0.226129
0.357252 1.000000 0.226129
0.548198 1.000000 0.226129
0.697247 1.000000 0.226129
0.846297 1.000000 0.226129
0.995346 1.000000 0.226129
1.000000 0.972107 0.253260
0.023501 1.000000 0.258243
0.144590 1.000000 0.257808
0.261214 1.000000 0.257595
0.377928 1.000000 0.257595
0.553405 1.000000 0.257595
0.690190 1.000000 0.257595
0.826975 1.000000 0.257595
0.963760 1.000000 0.257595
0.995596 1.000000 0.257595
0.000000 0.000000 0.416321
0.144551 0.000000 0.416321
0.283766 0.000000 0.416321
0.421856 0.000000 0.415212
0.583947 0.000000 0.388524
0.718575 0.000000 0.378621
0.853204 0.000000 0.372130
0.987832 0.000000 0.367546
1.000000 0.019166 0.372042
0.000000 0.145392 0.416321
0.109986 0.110966 0.426442
0.271952 0.110825 0.426301
0.432947 0.109715 0.425190
0.633288 0.072454 0.387930
0.796316 0.044054 0.359529
0.959345 0.015653 0.331129
1.000000 0.109626 0.357081
1.000000 0.140960 0.370690
0.000000 0.285192 0.416321
0.109986 0.273752 0.426442
0.248876 0.250536 0.403226
0.409634 0.249188 0.401877
0.611182 0.211670 0.364360
0.774210 0.183270 0.335959
0.937238 0.154870 0.307559
1.000000 0.226736 0.347983
1.000000 0.258071 0.369314
0.000000 0.423525 0.414884
0.108540 0.435092 0.424996
0.247430 0.411876 0.401780
0.387431 0.389771 0.379675
0.590446 0.352348 0.342252
0.753475 0.323948 0.313852
0.916503 0.295548 0.285451
1.000000 0.344727 0.336583
1.000000 0.375278 0.367917
0.000000 0.586456 0.388292
0.071087 0.636458 0.387542
0.209721 0.614445 0.364071
0.349479 0.593484 0.341723
0.589944 0.593484 0.341723
0.753475 0.567031 0.313852
0.916503 0.540077 0.285451
1.000000 0.543131 0.336583
1.000000 0.554842 0.367917
0.000000 0.721649 0.378443
0.042567 0.800171 0.359023
0.181202 0.778157 0.335551
0.320960 0.757197 0.313203
0.562876 0.757197 0.313203
0.752860 0.757197 0.313203
0.916503 0.730857 0.285451
1.000000 0.697015 0.336583
1.000000 0.693924 0.367917
0.000000 0.856842 0.371986
0.014048 0.963884 0.330503
0.152683 0.941870 0.307032
0.292440 0.920909 0.284684
0.535808 0.920909 0.284684
0.725792 0.920909 0.284684
0.915775 0.920909 0.284684
1.000000 0.850900 0.336583
1.000000 0.833006 0.367917
0.000000 0.992035 0.367425
0.113125 1.000000 0.358869
0.229746 1.000000 0.350885
0.346958 1.000000 0.340786
0.541764 1.000000 0.340786
0.692936 1.000000 0.340786
0.844108 1.000000 0.340786
0.995280 1.000000 0.340786
1.000000 0.972089 0.367917
0.023501 1.000000 0.373217
0.144590 1.000000 0.372680
0.261211 1.000000 0.372336
0.377828 1.000000 0.372252
0.554073 1.000000 0.372252
0.690653 1.000000 0.372252
0.827234 1.000000 0.372252
0.963814 1.000000 0.372252
0.995602 1.000000 0.372252
0.000000 0.000000 0.575238
0.135185 0.000000 0.575238
0.265381 0.000000 0.575238
0.395576 0.000000 0.575238
0.583947 0.000000 0.574097
0.718575 0.000000 0.560594
0.853204 0.000000 0.552093
0.987832 0.000000 0.546388
1.000000 0.019166 0.543990
0.000000 0.135972 0.575238
0.073453 0.074433 0.622875
0.235417 0.074291 0.622742
0.397523 0.074291 0.622742
0.633288 0.072454 0.620998
0.796316 0.044054 0.594043
0.959345 0.015653 0.567088
1.000000 0.109626 0.543299
1.000000 0.140960 0.543813
0.000000 0.266714 0.575238
0.073453 0.237219 0.622875
0.212088 0.213748 0.600861
0.373953 0.213507 0.600635
0.611182 0.211670 0.598892
0.774210 0.183270 0.571937
0.937238 0.154870 0.544982
1.000000 0.226736 0.537661
1.000000 0.258071 0.543589
0.000000 0.397456 0.575238
0.073453 0.400005 0.622875
0.212088 0.376534 0.600861
0.350722 0.353062 0.578847
0.589075 0.350886 0.576785
0.752104 0.322486 0.549831
0.915132 0.294086 0.522876
1.000000 0.343846 0.529784
1.000000 0.375181 0.543279
0.000000 0.586456 0.573776
0.071087 0.636458 0.620629
0.209721 0.614445 0.598615
0.348356 0.592431 0.576601
0.553675 0.557215 0.541385
0.716957 0.530514 0.514684
0.879732 0.503305 0.487476
1.000000 0.516293 0.502775
1.000000 0.546094 0.534327
0.000000 0.721649 0.560356
0.042567 0.800171 0.593561
0.181202 0.778157 0.571547
0.319837 0.756143 0.549533
0.526353 0.720673 0.514063
0.716336 0.720673 0.514063
0.879732 0.694086 0.487476
1.000000 0.679217 0.502775
1.000000 0.687910 0.534327
0.000000 0.856842 0.551908
0.014048 0.963884 0.566493
0.152683 0.941870 0.544479
0.291317 0.919856 0.522465
0.499030 0.884131 0.486740
0.689014 0.884131 0.486740
0.878997 0.884131 0.486740
1.000000 0.842141 0.502775
1.000000 0.829725 0.534327
0.000000 0.992035 0.546242
0.113125 1.000000 0.543254
0.229746 1.000000 0.538381
0.346366 1.000000 0.531600
0.517308 1.000000 0.507007
0.676548 1.000000 0.507007
0.835788 1.000000 0.507007
0.995028 1.000000 0.507007
1.000000 0.971540 0.534327
0.023501 1.000000 0.543659
0.144590 1.000000 0.544063
0.261211 1.000000 0.544575
0.377832 1.000000 0.545277
0.547655 1.000000 0.538692
0.686201 1.000000 0.538692
0.824747 1.000000 0.538692
0.963293 1.000000 0.538692
0.995539 1.000000 0.538692
0.000000 0.000000 0.707599
0.131687 0.000000 0.707599
0.258514 0.000000 0.707599
0.385340 0.000000 0.707599
0.571080 0.000000 0.707599
0.718575 0.000000 0.706478
0.853204 0.000000 0.695475
0.987832 0.000000 0.688004
1.000000 0.019166 0.679953
0.000000 0.132453 0.707599
0.045531 0.046511 0.783158
0.207495 0.046369 0.783025
0.369601 0.046369 0.783025
0.608531 0.046369 0.783025
0.796316 0.044054 0.780827
0.959345 0.015653 0.753872
1.000000 0.109626 0.689809
1.000000 0.140960 0.679829
0.000000 0.259812 0.707599
0.045531 0.209297 0.783158
0.184166 0.185826 0.761144
0.346031 0.185585 0.760918
0.586424 0.185585 0.760918
0.774210 0.183270 0.758721
0.937238 0.154870 0.731766
1.000000 0.226736 0.685980
1.000000 0.258071 0.679672
0.000000 0.387171 0.707599
0.045531 0.372083 0.783158
0.184166 0.348612 0.761144
0.322800 0.325141 0.739130
0.564318 0.324802 0.738812
0.752104 0.322486 0.736614
0.915132 0.294086 0.709660
1.000000 0.343846 0.680630
1.000000 0.375181 0.679455
0.000000 0.573850 0.707599
0.045531 0.612203 0.783158
0.184166 0.590190 0.761144
0.322800 0.568176 0.739130
0.527432 0.530972 0.701926
0.714690 0.528247 0.699201
0.877465 0.501038 0.671993
1.000000 0.514070 0.660734
1.000000 0.545623 0.672832
0.000000 0.721649 0.706171
0.042567 0.800171 0.780345
0.181202 0.778157 0.758331
0.319837 0.756143 0.736317
0.524593 0.718913 0.699087
0.689586 0.693923 0.674097
0.852982 0.667336 0.647510
1.000000 0.654305 0.636058
1.000000 0.682600 0.667611
0.000000 0.856842 0.695235
0.014048 0.963884 0.753277
0.152683 0.941870 0.731263
0.291317 0.919856 0.709249
0.497270 0.882371 0.671764
0.662264 0.857381 0.646774
0.852247 0.857381 0.646774
1.000000 0.829882 0.636058
1.000000 0.826828 0.667611
0.000000 0.992035 0.687811
0.113125 1.000000 0.688302
0.229746 1.000000 0.684976
0.346366 1.000000 0.680349
0.515777 1.000000 0.662498
0.654172 1.000000 0.640291
0.824428 1.000000 0.640291
0.994684 1.000000 0.640291
1.000000 0.971056 0.667611
0.023501 1.000000 0.678406
0.144590 1.000000 0.678690
0.261211 1.000000 0.679051
0.377832 1.000000 0.679546
0.547462 1.000000 0.674767
0.683374 1.000000 0.671976
0.823168 1.000000 0.671976
0.962962 1.000000 0.671976
0.995499 1.000000 0.671976
0.000000 0.000000 0.839960
0.129394 0.000000 0.839960
0.254012 0.000000 0.839960
0.378631 0.000000 0.839960
0.562229 0.000000 0.839960
0.708278 0.000000 0.839960
0.853204 0.000000 0.838857
0.987832 0.000000 0.829620
1.000000 0.019166 0.815917
0.000000 0.130147 0.839960
0.017609 0.018589 0.943440
0.179573 0.018447 0.943307
0.341679 0.018447 0.943307
0.582030 0.018447 0.943307
0.772013 0.018447 0.943307
0.959345 0.015653 0.940656
1.000000 0.109626 0.836320
1.000000 0.140960 0.815845
0.000000 0.255288 0.839960
0.017609 0.181375 0.943440
0.156244 0.157904 0.921427
0.318110 0.157663 0.921201
0.559923 0.157663 0.921201
0.749907 0.157663 0.921201
0.937238 0.154870 0.918550
1.000000 0.226736 0.834300
1.000000 0.258071 0.815755
0.000000 0.380430 0.839960
0.017609 0.344161 0.943440
0.156244 0.320690 0.921427
0.294879 0.297219 0.899413
0.537817 0.296880 0.899095
0.727800 0.296880 0.899095
0.915132 0.294086 0.896443
1.000000 0.343846 0.831477
1.000000 0.375181 0.815630
0.000000 0.564950 0.839960
0.017609 0.585703 0.943440
0.156244 0.563689 0.921427
0.294879 0.541675 0.899413
0.500682 0.504222 0.861960
0.690158 0.503715 0.861453
0.877465 0.501038 0.858776
1.000000 0.514070 0.820978
1.000000 0.545623 0.811821
0.000000 0.711612 0.839960
0.017609 0.776483 0.943440
0.156244 0.754469 0.921427
0.294879 0.732455 0.899413
0.500682 0.695002 0.861960
0.663457 0.667794 0.834752
0.850143 0.664497 0.831454
1.000000 0.650206 0.805680
1.000000 0.681759 0.808311
0.000000 0.856842 0.838562
0.014048 0.963884 0.940060
0.152683 0.941870 0.918047
0.291317 0.919856 0.896033
0.497270 0.882371 0.858548
0.660045 0.855163 0.831340
0.825497 0.830631 0.806808
0.989007 0.804158 0.780335
1.000000 0.819651 0.800895
0.000000 0.992035 0.829380
0.113125 1.000000 0.833349
0.229746 1.000000 0.831571
0.346366 1.000000 0.829097
0.515777 1.000000 0.819553
0.651344 1.000000 0.806107
0.798174 0.994089 0.779486
0.988158 0.994089 0.779486
1.000000 0.969856 0.800895
0.023501 1.000000 0.813152
0.144590 1.000000 0.813317
0.261211 1.000000 0.813527
0.377832 1.000000 0.813814
0.547462 1.000000 0.811038
0.683029 1.000000 0.809209
0.819311 1.000000 0.805260
0.962155 1.000000 0.805260
0.995401 1.000000 0.805260
0.000000 0.000000 0.972321
0.127775 0.000000 0.972321
0.250834 0.000000 0.972321
0.373893 0.000000 0.972321
0.556273 0.000000 0.972321
0.700494 0.000000 0.972321
0.844716 0.000000 0.972321
0.987832 0.000000 0.971237
1.000000 0.019166 0.951880
0.000000 0.128518 0.972321
0.093411 0.094208 1.000000
0.225251 0.094116 1.000000
0.357183 0.094116 1.000000
0.553952 0.094116 1.000000
0.708573 0.094116 1.000000
0.863193 0.094116 1.000000
1.000000 0.109626 0.982831
1.000000 0.140960 0.951861
0.000000 0.252094 0.972321
0.093411 0.226681 1.000000
0.210032 0.211407 1.000000
0.344198 0.211226 1.000000
0.545784 0.211226 1.000000
0.703236 0.211226 1.000000
0.860688 0.211226 1.000000
1.000000 0.226736 0.982619
1.000000 0.258071 0.951838
0.000000 0.375669 0.972321
0.093411 0.359155 1.000000
0.210032 0.346290 1.000000
0.326652 0.328640 1.000000
0.534281 0.328336 1.000000
0.695721 0.328336 1.000000
0.857160 0.328336 1.000000
1.000000 0.343846 0.982323
1.000000 0.375181 0.951805
0.000000 0.558960 0.972321
0.093411 0.556875 1.000000
0.210032 0.548814 1.000000
0.326652 0.537486 1.000000
0.495926 0.499181 1.000000
0.670181 0.498451 1.000000
0.845171 0.498451 1.000000
1.000000 0.514070 0.981222
1.000000 0.545623 0.950809
0.000000 0.703786 0.972321
0.093411 0.712130 1.000000
0.210032 0.706893 1.000000
0.326652 0.699534 1.000000
0.495926 0.674650 1.000000
0.636707 0.641044 0.994785
0.826069 0.640423 0.994164
1.000000 0.650206 0.979617
1.000000 0.681759 0.949892
0.000000 0.848613 0.972321
0.093411 0.867385 1.000000
0.210032 0.864972 1.000000
0.326652 0.861582 1.000000
0.495926 0.850118 1.000000
0.636707 0.831825 0.994785
0.799482 0.804616 0.967577
0.985595 0.800746 0.963707
1.000000 0.817894 0.947446
0.000000 0.992035 0.970950
0.113125 1.000000 0.978396
0.229746 1.000000 0.978166
0.346366 1.000000 0.977845
0.515777 1.000000 0.976608
0.651344 1.000000 0.974865
0.795498 0.991413 0.963593
0.961408 0.967339 0.939519
1.000000 0.961879 0.934179
0.023501 1.000000 0.947898
0.144590 1.000000 0.947944
0.261211 1.000000 0.948003
0.377832 1.000000 0.948083
0.547462 1.000000 0.947308
0.683029 1.000000 0.946799
0.818596 1.000000 0.945482
0.957169 1.000000 0.938544
0.994795 1.000000 0.938544
0.003128 0.003128 1.000000
0.129797 0.003128 1.000000
0.251791 0.003128 1.000000
0.373785 0.003128 1.000000
0.554836 0.003128 1.000000
0.697809 0.003128 1.000000
0.840783 0.003128 1.000000
0.983756 0.003128 1.000000
1.000000 0.019166 0.983525
0.003128 0.130534 1.000000
0.124217 0.124958 1.000000
0.246801 0.124922 1.000000
0.369421 0.124922 1.000000
0.552552 0.124922 1.000000
0.696259 0.124922 1.000000
0.839966 0.124922 1.000000
0.983673 0.124922 1.000000
1.000000 0.140960 0.983519
0.003128 0.253040 1.000000
0.124217 0.248089 1.000000
0.240838 0.242102 1.000000
0.364189 0.242032 1.000000
0.549630 0.242032 1.000000
0.694275 0.242032 1.000000
0.838921 0.242032 1.000000
0.983566 0.242032 1.000000
1.000000 0.258071 0.983511
0.003128 0.375546 1.000000
0.124217 0.371219 1.000000
0.240838 0.366031 1.000000
0.357459 0.359256 1.000000
0.545578 0.359142 1.000000
0.691525 0.359142 1.000000
0.837472 0.359142 1.000000
0.983418 0.359142 1.000000
1.000000 0.375181 0.983499
0.003128 0.557499 1.000000
0.124217 0.555244 1.000000
0.240838 0.552359 1.000000
0.357459 0.548366 1.000000
0.526947 0.529778 1.000000
0.678669 0.529473 1.000000
0.830698 0.529473 1.000000
0.982727 0.529473 1.000000
1.000000 0.545623 0.983158
0.003128 0.701073 1.000000
0.124217 0.699550 1.000000
0.240838 0.697601 1.000000
0.357459 0.694903 1.000000
0.526947 0.682346 1.000000
0.662514 0.666159 1.000000
0.821893 0.665608 1.000000
0.981829 0.665608 1.000000
1.000000 0.681759 0.982844
0.003128 0.844646 1.000000
0.124217 0.843855 1.000000
0.240838 0.842842 1.000000
0.357459 0.841440 1.000000
0.526947 0.834914 1.000000
0.662514 0.826501 1.000000
0.798080 0.802981 1.000000
0.979270 0.801744 1.000000
1.000000 0.817894 0.982007
0.003128 0.988220 1.000000
0.124217 0.988160 1.000000
0.240838 0.988083 1.000000
0.357459 0.987977 1.000000
0.526947 0.987482 1.000000
0.662514 0.986844 1.000000
0.798080 0.985061 1.000000
0.956031 0.961963 0.977616
0.996158 0.957872 0.973525
0.023501 1.000000 0.979260
0.144590 1.000000 0.979278
0.261211 1.000000 0.979301
0.377832 1.000000 0.979333
0.547462 1.000000 0.979025
0.683029 1.000000 0.978822
0.818596 1.000000 0.978298
0.954162 1.000000 0.973819
0.993040 0.999157 0.970407
