docs/luts/fuji_recipes/Eterna_RR_Polaroid.cube
TITLE "Fujifilm Recipe: RR Polaroid (Eterna)"
# FilmSim=Eterna HL=4 SH=-2 Col=-2 WB=Auto WBR=5 WBB=-5
LUT_3D_SIZE 33
DOMAIN_MIN 0.0 0.0 0.0
DOMAIN_MAX 1.0 1.0 1.0
0.116800 0.116800 0.116800
0.163158 0.129034 0.129034
0.196368 0.137798 0.137798
0.229023 0.146416 0.146416
0.261679 0.155034 0.155034
0.294335 0.163652 0.163652
0.326990 0.172270 0.172270
0.359646 0.180888 0.180888
0.392302 0.189506 0.189506
0.424957 0.198124 0.198124
0.457326 0.206666 0.206666
0.444801 0.204724 0.204724
0.485545 0.215105 0.215105
0.526290 0.225487 0.225487
0.567035 0.235868 0.235868
0.607780 0.246250 0.246250
0.648525 0.256631 0.256631
0.689270 0.267013 0.267013
0.730015 0.277394 0.277394
0.770760 0.287776 0.287776
0.811505 0.298157 0.298157
0.846862 0.307166 0.307166
0.846862 0.307166 0.307166
0.846862 0.307166 0.307166
0.846862 0.307166 0.307166
0.846862 0.307166 0.307166
0.846862 0.307166 0.307166
0.846862 0.307166 0.307166
0.846862 0.307166 0.307166
0.846862 0.307166 0.307166
0.846862 0.307166 0.307166
0.846862 0.307166 0.307166
0.846862 0.307166 0.307166
0.127758 0.158323 0.127758
0.163158 0.159599 0.129034
0.196368 0.168363 0.137798
0.229023 0.176981 0.146416
0.261679 0.185599 0.155034
0.294335 0.194217 0.163652
0.326990 0.202835 0.172270
0.359646 0.211453 0.180888
0.392302 0.220071 0.189506
0.424957 0.228689 0.198124
0.457326 0.237231 0.206666
0.444801 0.235289 0.204724
0.485545 0.245670 0.215105
0.526290 0.256052 0.225487
0.567035 0.266433 0.235868
0.607780 0.276815 0.246250
0.648525 0.287196 0.256631
0.689270 0.297578 0.267013
0.730015 0.307960 0.277394
0.770760 0.318341 0.287776
0.811505 0.328723 0.298157
0.846862 0.337731 0.307166
0.846862 0.337731 0.307166
0.846862 0.337731 0.307166
0.846862 0.337731 0.307166
0.846862 0.337731 0.307166
0.846862 0.337731 0.307166
0.846862 0.337731 0.307166
0.846862 0.337731 0.307166
0.846862 0.337731 0.307166
0.846862 0.337731 0.307166
0.846862 0.337731 0.307166
0.846862 0.337731 0.307166
0.135581 0.187967 0.135581
0.169705 0.187967 0.135581
0.196368 0.190184 0.137798
0.229023 0.198802 0.146416
0.261679 0.207420 0.155034
0.294335 0.216038 0.163652
0.326990 0.224656 0.172270
0.359646 0.233274 0.180888
0.392302 0.241892 0.189506
0.424957 0.250510 0.198124
0.457326 0.259052 0.206666
0.444801 0.257109 0.204724
0.485545 0.267491 0.215105
0.526290 0.277873 0.225487
0.567035 0.288254 0.235868
0.607780 0.298636 0.246250
0.648525 0.309017 0.256631
0.689270 0.319399 0.267013
0.730015 0.329780 0.277394
0.770760 0.340162 0.287776
0.811505 0.350543 0.298157
0.846862 0.359552 0.307166
0.846862 0.359552 0.307166
0.846862 0.359552 0.307166
0.846862 0.359552 0.307166
0.846862 0.359552 0.307166
0.846862 0.359552 0.307166
0.846862 0.359552 0.307166
0.846862 0.359552 0.307166
0.846862 0.359552 0.307166
0.846862 0.359552 0.307166
0.846862 0.359552 0.307166
0.846862 0.359552 0.307166
0.143274 0.217116 0.143274
0.177398 0.217116 0.143274
0.201843 0.217116 0.143274
0.229023 0.220259 0.146416
0.261679 0.228876 0.155034
0.294335 0.237494 0.163652
0.326990 0.246112 0.172270
0.359646 0.254730 0.180888
0.392302 0.263348 0.189506
0.424957 0.271966 0.198124
0.457326 0.280508 0.206666
0.444801 0.278566 0.204724
0.485545 0.288948 0.215105
0.526290 0.299329 0.225487
0.567035 0.309711 0.235868
0.607780 0.320092 0.246250
0.648525 0.330474 0.256631
0.689270 0.340855 0.267013
0.730015 0.351237 0.277394
0.770760 0.361618 0.287776
0.811505 0.372000 0.298157
0.846862 0.381009 0.307166
0.846862 0.381009 0.307166
0.846862 0.381009 0.307166
0.846862 0.381009 0.307166
0.846862 0.381009 0.307166
0.846862 0.381009 0.307166
0.846862 0.381009 0.307166
0.846862 0.381009 0.307166
0.846862 0.381009 0.307166
0.846862 0.381009 0.307166
0.846862 0.381009 0.307166
0.846862 0.381009 0.307166
0.150966 0.246265 0.150966
0.185090 0.246265 0.150966
0.209536 0.246265 0.150966
0.233574 0.246265 0.150966
0.261679 0.250333 0.155034
0.294335 0.258951 0.163652
0.326990 0.267569 0.172270
0.359646 0.276187 0.180888
0.392302 0.284805 0.189506
0.424957 0.293423 0.198124
0.457326 0.301965 0.206666
0.444801 0.300023 0.204724
0.485545 0.310404 0.215105
0.526290 0.320786 0.225487
0.567035 0.331167 0.235868
0.607780 0.341549 0.246250
0.648525 0.351930 0.256631
0.689270 0.362312 0.267013
0.730015 0.372693 0.277394
0.770760 0.383075 0.287776
0.811505 0.393456 0.298157
0.846862 0.402465 0.307166
0.846862 0.402465 0.307166
0.846862 0.402465 0.307166
0.846862 0.402465 0.307166
0.846862 0.402465 0.307166
0.846862 0.402465 0.307166
0.846862 0.402465 0.307166
0.846862 0.402465 0.307166
0.846862 0.402465 0.307166
0.846862 0.402465 0.307166
0.846862 0.402465 0.307166
0.846862 0.402465 0.307166
0.158659 0.275414 0.158659
0.192783 0.275414 0.158659
0.217228 0.275414 0.158659
0.241266 0.275414 0.158659
0.265304 0.275414 0.158659
0.294335 0.280407 0.163652
0.326990 0.289025 0.172270
0.359646 0.297643 0.180888
0.392302 0.306261 0.189506
0.424957 0.314879 0.198124
0.457326 0.323421 0.206666
0.444801 0.321479 0.204724
0.485545 0.331861 0.215105
0.526290 0.342242 0.225487
0.567035 0.352624 0.235868
0.607780 0.363005 0.246250
0.648525 0.373387 0.256631
0.689270 0.383768 0.267013
0.730015 0.394150 0.277394
0.770760 0.404531 0.287776
0.811505 0.414913 0.298157
0.846862 0.423922 0.307166
0.846862 0.423922 0.307166
0.846862 0.423922 0.307166
0.846862 0.423922 0.307166
0.846862 0.423922 0.307166
0.846862 0.423922 0.307166
0.846862 0.423922 0.307166
0.846862 0.423922 0.307166
0.846862 0.423922 0.307166
0.846862 0.423922 0.307166
0.846862 0.423922 0.307166
0.846862 0.423922 0.307166
0.166351 0.304563 0.166351
0.200475 0.304563 0.166351
0.224921 0.304563 0.166351
0.248959 0.304563 0.166351
0.272996 0.304563 0.166351
0.297034 0.304563 0.166351
0.326990 0.310482 0.172270
0.359646 0.319100 0.180888
0.392302 0.327718 0.189506
0.424957 0.336336 0.198124
0.457326 0.344878 0.206666
0.444801 0.342936 0.204724
0.485545 0.353317 0.215105
0.526290 0.363699 0.225487
0.567035 0.374080 0.235868
0.607780 0.384462 0.246250
0.648525 0.394843 0.256631
0.689270 0.405225 0.267013
0.730015 0.415606 0.277394
0.770760 0.425988 0.287776
0.811505 0.436369 0.298157
0.846862 0.445378 0.307166
0.846862 0.445378 0.307166
0.846862 0.445378 0.307166
0.846862 0.445378 0.307166
0.846862 0.445378 0.307166
0.846862 0.445378 0.307166
0.846862 0.445378 0.307166
0.846862 0.445378 0.307166
0.846862 0.445378 0.307166
0.846862 0.445378 0.307166
0.846862 0.445378 0.307166
0.846862 0.445378 0.307166
0.174044 0.333712 0.174044
0.208168 0.333712 0.174044
0.232613 0.333712 0.174044
0.256651 0.333712 0.174044
0.280689 0.333712 0.174044
0.304727 0.333712 0.174044
0.328764 0.333712 0.174044
0.359646 0.340556 0.180888
0.392302 0.349174 0.189506
0.424957 0.357792 0.198124
0.457326 0.366334 0.206666
0.444801 0.364392 0.204724
0.485545 0.374774 0.215105
0.526290 0.385155 0.225487
0.567035 0.395537 0.235868
0.607780 0.405918 0.246250
0.648525 0.416300 0.256631
0.689270 0.426681 0.267013
0.730015 0.437063 0.277394
0.770760 0.447444 0.287776
0.811505 0.457826 0.298157
0.846862 0.466835 0.307166
0.846862 0.466835 0.307166
0.846862 0.466835 0.307166
0.846862 0.466835 0.307166
0.846862 0.466835 0.307166
0.846862 0.466835 0.307166
0.846862 0.466835 0.307166
0.846862 0.466835 0.307166
0.846862 0.466835 0.307166
0.846862 0.466835 0.307166
0.846862 0.466835 0.307166
0.846862 0.466835 0.307166
0.181736 0.362861 0.181736
0.215860 0.362861 0.181736
0.240306 0.362861 0.181736
0.264344 0.362861 0.181736
0.288381 0.362861 0.181736
0.312419 0.362861 0.181736
0.336457 0.362861 0.181736
0.360495 0.362861 0.181736
0.392302 0.370631 0.189506
0.424957 0.379249 0.198124
0.457326 0.387791 0.206666
0.444801 0.385849 0.204724
0.485545 0.396230 0.215105
0.526290 0.406612 0.225487
0.567035 0.416993 0.235868
0.607780 0.427375 0.246250
0.648525 0.437756 0.256631
0.689270 0.448138 0.267013
0.730015 0.458519 0.277394
0.770760 0.468901 0.287776
0.811505 0.479282 0.298157
0.846862 0.488291 0.307166
0.846862 0.488291 0.307166
0.846862 0.488291 0.307166
0.846862 0.488291 0.307166
0.846862 0.488291 0.307166
0.846862 0.488291 0.307166
0.846862 0.488291 0.307166
0.846862 0.488291 0.307166
0.846862 0.488291 0.307166
0.846862 0.488291 0.307166
0.846862 0.488291 0.307166
0.846862 0.488291 0.307166
0.189429 0.392011 0.189429
0.223553 0.392011 0.189429
0.247999 0.392011 0.189429
0.272036 0.392011 0.189429
0.296074 0.392011 0.189429
0.320112 0.392011 0.189429
0.344149 0.392011 0.189429
0.368187 0.392011 0.189429
0.392302 0.392087 0.189506
0.424957 0.400705 0.198124
0.457326 0.409248 0.206666
0.444801 0.407305 0.204724
0.485545 0.417687 0.215105
0.526290 0.428068 0.225487
0.567035 0.438450 0.235868
0.607780 0.448831 0.246250
0.648525 0.459213 0.256631
0.689270 0.469594 0.267013
0.730015 0.479976 0.277394
0.770760 0.490357 0.287776
0.811505 0.500739 0.298157
0.846862 0.509748 0.307166
0.846862 0.509748 0.307166
0.846862 0.509748 0.307166
0.846862 0.509748 0.307166
0.846862 0.509748 0.307166
0.846862 0.509748 0.307166
0.846862 0.509748 0.307166
0.846862 0.509748 0.307166
0.846862 0.509748 0.307166
0.846862 0.509748 0.307166
0.846862 0.509748 0.307166
0.846862 0.509748 0.307166
0.197121 0.421160 0.197121
0.231245 0.421160 0.197121
0.255691 0.421160 0.197121
0.279729 0.421160 0.197121
0.303767 0.421160 0.197121
0.327804 0.421160 0.197121
0.351842 0.421160 0.197121
0.375880 0.421160 0.197121
0.399917 0.421160 0.197121
0.424957 0.422162 0.198124
0.457326 0.430704 0.206666
0.444801 0.428762 0.204724
0.485545 0.439143 0.215105
0.526290 0.449525 0.225487
0.567035 0.459906 0.235868
0.607780 0.470288 0.246250
0.648525 0.480669 0.256631
0.689270 0.491051 0.267013
0.730015 0.501432 0.277394
0.770760 0.511814 0.287776
0.811505 0.522196 0.298157
0.846862 0.531204 0.307166
0.846862 0.531204 0.307166
0.846862 0.531204 0.307166
0.846862 0.531204 0.307166
0.846862 0.531204 0.307166
0.846862 0.531204 0.307166
0.846862 0.531204 0.307166
0.846862 0.531204 0.307166
0.846862 0.531204 0.307166
0.846862 0.531204 0.307166
0.846862 0.531204 0.307166
0.846862 0.531204 0.307166
0.204814 0.450309 0.204814
0.238938 0.450309 0.204814
0.263384 0.450309 0.204814
0.287421 0.450309 0.204814
0.311459 0.450309 0.204814
0.335497 0.450309 0.204814
0.359534 0.450309 0.204814
0.383572 0.450309 0.204814
0.407610 0.450309 0.204814
0.431648 0.450309 0.204814
0.457326 0.452161 0.206666
0.446324 0.451742 0.206247
0.485545 0.460600 0.215105
0.526290 0.470981 0.225487
0.567035 0.481363 0.235868
0.607780 0.491744 0.246250
0.648525 0.502126 0.256631
0.689270 0.512507 0.267013
0.730015 0.522889 0.277394
0.770760 0.533271 0.287776
0.811505 0.543652 0.298157
0.846862 0.552661 0.307166
0.846862 0.552661 0.307166
0.846862 0.552661 0.307166
0.846862 0.552661 0.307166
0.846862 0.552661 0.307166
0.846862 0.552661 0.307166
0.846862 0.552661 0.307166
0.846862 0.552661 0.307166
0.846862 0.552661 0.307166
0.846862 0.552661 0.307166
0.846862 0.552661 0.307166
0.846862 0.552661 0.307166
0.208635 0.464789 0.208635
0.242759 0.464789 0.208635
0.267205 0.464789 0.208635
0.291243 0.464789 0.208635
0.315280 0.464789 0.208635
0.339318 0.464789 0.208635
0.363356 0.464789 0.208635
0.387394 0.464789 0.208635
0.411431 0.464789 0.208635
0.435469 0.464789 0.208635
0.459296 0.464789 0.208635
0.449322 0.465399 0.209245
0.485545 0.471259 0.215105
0.526290 0.456228 0.225487
0.567035 0.466917 0.235868
0.607780 0.477606 0.246250
0.648525 0.488295 0.256631
0.689270 0.498984 0.267013
0.730015 0.509673 0.277394
0.770760 0.520363 0.287776
0.811505 0.531052 0.298157
0.846862 0.540327 0.307166
0.846862 0.540327 0.307166
0.846862 0.540327 0.307166
0.846862 0.540327 0.307166
0.846862 0.540327 0.307166
0.846862 0.540327 0.307166
0.846862 0.540327 0.307166
0.846862 0.540327 0.307166
0.846862 0.540327 0.307166
0.846862 0.540327 0.307166
0.846862 0.540327 0.307166
0.846862 0.540327 0.307166
0.210553 0.467681 0.210553
0.244677 0.467681 0.210553
0.269123 0.467681 0.210553
0.293161 0.467681 0.210553
0.317198 0.467681 0.210553
0.341236 0.467681 0.210553
0.365274 0.467681 0.210553
0.389312 0.467681 0.210553
0.413349 0.467681 0.210553
0.437387 0.467681 0.210553
0.461214 0.467681 0.210553
0.450803 0.467681 0.210553
0.485545 0.472368 0.215105
0.526290 0.483057 0.225487
0.567035 0.493746 0.235868
0.607780 0.504435 0.246250
0.648525 0.515124 0.256631
0.689270 0.525813 0.267013
0.730015 0.536502 0.277394
0.770760 0.547191 0.287776
0.811505 0.557880 0.298157
0.846862 0.567156 0.307166
0.846862 0.567156 0.307166
0.846862 0.567156 0.307166
0.846862 0.567156 0.307166
0.846862 0.567156 0.307166
0.846862 0.567156 0.307166
0.846862 0.567156 0.307166
0.846862 0.567156 0.307166
0.846862 0.567156 0.307166
0.846862 0.567156 0.307166
0.846862 0.567156 0.307166
0.846862 0.567156 0.307166
0.219820 0.504051 0.219820
0.253944 0.504051 0.219820
0.278390 0.504051 0.219820
0.302427 0.504051 0.219820
0.326465 0.504051 0.219820
0.350503 0.504051 0.219820
0.374541 0.504051 0.219820
0.398578 0.504051 0.219820
0.422616 0.504051 0.219820
0.446654 0.504051 0.219820
0.470480 0.504051 0.219820
0.460344 0.504051 0.219820
0.490400 0.504051 0.219820
0.526290 0.509885 0.225487
0.567035 0.520574 0.235868
0.607780 0.531263 0.246250
0.648525 0.541952 0.256631
0.689270 0.552641 0.267013
0.730015 0.563330 0.277394
0.770760 0.574019 0.287776
0.811505 0.584708 0.298157
0.846862 0.593984 0.307166
0.846862 0.593984 0.307166
0.846862 0.593984 0.307166
0.846862 0.593984 0.307166
0.846862 0.593984 0.307166
0.846862 0.593984 0.307166
0.846862 0.593984 0.307166
0.846862 0.593984 0.307166
0.846862 0.593984 0.307166
0.846862 0.593984 0.307166
0.846862 0.593984 0.307166
0.846862 0.593984 0.307166
0.229087 0.540421 0.229087
0.263211 0.540421 0.229087
0.287657 0.540421 0.229087
0.311694 0.540421 0.229087
0.335732 0.540421 0.229087
0.359770 0.540421 0.229087
0.383807 0.540421 0.229087
0.407845 0.540421 0.229087
0.431883 0.540421 0.229087
0.455921 0.540421 0.229087
0.479747 0.540421 0.229087
0.469886 0.540421 0.229087
0.499941 0.540421 0.229087
0.529997 0.540421 0.229087
0.567035 0.547403 0.235868
0.607780 0.558092 0.246250
0.648525 0.568781 0.256631
0.689270 0.579470 0.267013
0.730015 0.590159 0.277394
0.770760 0.600848 0.287776
0.811505 0.611537 0.298157
0.846862 0.620812 0.307166
0.846862 0.620812 0.307166
0.846862 0.620812 0.307166
0.846862 0.620812 0.307166
0.846862 0.620812 0.307166
0.846862 0.620812 0.307166
0.846862 0.620812 0.307166
0.846862 0.620812 0.307166
0.846862 0.620812 0.307166
0.846862 0.620812 0.307166
0.846862 0.620812 0.307166
0.846862 0.620812 0.307166
0.238354 0.576790 0.238354
0.272478 0.576790 0.238354
0.296923 0.576790 0.238354
0.320961 0.576790 0.238354
0.344999 0.576790 0.238354
0.369036 0.576790 0.238354
0.393074 0.576790 0.238354
0.417112 0.576790 0.238354
0.441150 0.576790 0.238354
0.465187 0.576790 0.238354
0.489014 0.576790 0.238354
0.479427 0.576790 0.238354
0.509483 0.576790 0.238354
0.539539 0.576790 0.238354
0.569594 0.576790 0.238354
0.607780 0.584920 0.246250
0.648525 0.595609 0.256631
0.689270 0.606298 0.267013
0.730015 0.616987 0.277394
0.770760 0.627676 0.287776
0.811505 0.638365 0.298157
0.846862 0.647641 0.307166
0.846862 0.647641 0.307166
0.846862 0.647641 0.307166
0.846862 0.647641 0.307166
0.846862 0.647641 0.307166
0.846862 0.647641 0.307166
0.846862 0.647641 0.307166
0.846862 0.647641 0.307166
0.846862 0.647641 0.307166
0.846862 0.647641 0.307166
0.846862 0.647641 0.307166
0.846862 0.647641 0.307166
0.247620 0.613160 0.247620
0.281744 0.613160 0.247620
0.306190 0.613160 0.247620
0.330228 0.613160 0.247620
0.354265 0.613160 0.247620
0.378303 0.613160 0.247620
0.402341 0.613160 0.247620
0.426379 0.613160 0.247620
0.450416 0.613160 0.247620
0.474454 0.613160 0.247620
0.498281 0.613160 0.247620
0.488968 0.613160 0.247620
0.519024 0.613160 0.247620
0.549080 0.613160 0.247620
0.579136 0.613160 0.247620
0.609192 0.613160 0.247620
0.648525 0.622438 0.256631
0.689270 0.633127 0.267013
0.730015 0.643816 0.277394
0.770760 0.654505 0.287776
0.811505 0.665194 0.298157
0.846862 0.674469 0.307166
0.846862 0.674469 0.307166
0.846862 0.674469 0.307166
0.846862 0.674469 0.307166
0.846862 0.674469 0.307166
0.846862 0.674469 0.307166
0.846862 0.674469 0.307166
0.846862 0.674469 0.307166
0.846862 0.674469 0.307166
0.846862 0.674469 0.307166
0.846862 0.674469 0.307166
0.846862 0.674469 0.307166
0.256887 0.649530 0.256887
0.291011 0.649530 0.256887
0.315457 0.649530 0.256887
0.339495 0.649530 0.256887
0.363532 0.649530 0.256887
0.387570 0.649530 0.256887
0.411608 0.649530 0.256887
0.435645 0.649530 0.256887
0.459683 0.649530 0.256887
0.483721 0.649530 0.256887
0.507547 0.649530 0.256887
0.498509 0.649530 0.256887
0.528565 0.649530 0.256887
0.558621 0.649530 0.256887
0.588677 0.649530 0.256887
0.618733 0.649530 0.256887
0.648789 0.649530 0.256887
0.689270 0.659955 0.267013
0.730015 0.670644 0.277394
0.770760 0.681333 0.287776
0.811505 0.692022 0.298157
0.846862 0.701298 0.307166
0.846862 0.701298 0.307166
0.846862 0.701298 0.307166
0.846862 0.701298 0.307166
0.846862 0.701298 0.307166
0.846862 0.701298 0.307166
0.846862 0.701298 0.307166
0.846862 0.701298 0.307166
0.846862 0.701298 0.307166
0.846862 0.701298 0.307166
0.846862 0.701298 0.307166
0.846862 0.701298 0.307166
0.266154 0.685899 0.266154
0.300278 0.685899 0.266154
0.324724 0.685899 0.266154
0.348761 0.685899 0.266154
0.372799 0.685899 0.266154
0.396837 0.685899 0.266154
0.420874 0.685899 0.266154
0.444912 0.685899 0.266154
0.468950 0.685899 0.266154
0.492988 0.685899 0.266154
0.516814 0.685899 0.266154
0.508050 0.685899 0.266154
0.538106 0.685899 0.266154
0.568162 0.685899 0.266154
0.598218 0.685899 0.266154
0.628274 0.685899 0.266154
0.658330 0.685899 0.266154
0.689270 0.686784 0.267013
0.730015 0.697473 0.277394
0.770760 0.708162 0.287776
0.811505 0.718851 0.298157
0.846862 0.728126 0.307166
0.846862 0.728126 0.307166
0.846862 0.728126 0.307166
0.846862 0.728126 0.307166
0.846862 0.728126 0.307166
0.846862 0.728126 0.307166
0.846862 0.728126 0.307166
0.846862 0.728126 0.307166
0.846862 0.728126 0.307166
0.846862 0.728126 0.307166
0.846862 0.728126 0.307166
0.846862 0.728126 0.307166
0.275421 0.722269 0.275421
0.309545 0.722269 0.275421
0.333990 0.722269 0.275421
0.358028 0.722269 0.275421
0.382066 0.722269 0.275421
0.406103 0.722269 0.275421
0.430141 0.722269 0.275421
0.454179 0.722269 0.275421
0.478217 0.722269 0.275421
0.502254 0.722269 0.275421
0.500715 0.722269 0.275421
0.517592 0.722269 0.275421
0.547648 0.722269 0.275421
0.577703 0.722269 0.275421
0.607759 0.722269 0.275421
0.637815 0.722269 0.275421
0.667871 0.722269 0.275421
0.697927 0.722269 0.275421
0.730015 0.724301 0.277394
0.770760 0.734990 0.287776
0.811505 0.745679 0.298157
0.846862 0.754955 0.307166
0.846862 0.754955 0.307166
0.846862 0.754955 0.307166
0.846862 0.754955 0.307166
0.846862 0.754955 0.307166
0.846862 0.754955 0.307166
0.846862 0.754955 0.307166
0.846862 0.754955 0.307166
0.846862 0.754955 0.307166
0.846862 0.754955 0.307166
0.846862 0.754955 0.307166
0.846862 0.754955 0.307166
0.284687 0.758639 0.284687
0.318811 0.758639 0.284687
0.343257 0.758639 0.284687
0.367295 0.758639 0.284687
0.391333 0.758639 0.284687
0.415370 0.758639 0.284687
0.439408 0.758639 0.284687
0.463446 0.758639 0.284687
0.487483 0.758639 0.284687
0.511521 0.758639 0.284687
0.510256 0.758639 0.284687
0.527133 0.758639 0.284687
0.557189 0.758639 0.284687
0.587245 0.758639 0.284687
0.617301 0.758639 0.284687
0.647356 0.758639 0.284687
0.677412 0.758639 0.284687
0.707468 0.758639 0.284687
0.737524 0.758639 0.284687
0.770760 0.761819 0.287776
0.811505 0.772508 0.298157
0.846862 0.781783 0.307166
0.846862 0.781783 0.307166
0.846862 0.781783 0.307166
0.846862 0.781783 0.307166
0.846862 0.781783 0.307166
0.846862 0.781783 0.307166
0.846862 0.781783 0.307166
0.846862 0.781783 0.307166
0.846862 0.781783 0.307166
0.846862 0.781783 0.307166
0.846862 0.781783 0.307166
0.846862 0.781783 0.307166
0.293954 0.795008 0.293954
0.328078 0.795008 0.293954
0.352524 0.795008 0.293954
0.376562 0.795008 0.293954
0.400599 0.795008 0.293954
0.424637 0.795008 0.293954
0.448675 0.795008 0.293954
0.472712 0.795008 0.293954
0.496750 0.795008 0.293954
0.520788 0.795008 0.293954
0.519797 0.795008 0.293954
0.536674 0.795008 0.293954
0.566730 0.795008 0.293954
0.596786 0.795008 0.293954
0.626842 0.795008 0.293954
0.656898 0.795008 0.293954
0.686954 0.795008 0.293954
0.717009 0.795008 0.293954
0.747065 0.795008 0.293954
0.777121 0.795008 0.293954
0.811505 0.799336 0.298157
0.846862 0.808612 0.307166
0.846862 0.808612 0.307166
0.846862 0.808612 0.307166
0.846862 0.808612 0.307166
0.846862 0.808612 0.307166
0.846862 0.808612 0.307166
0.846862 0.808612 0.307166
0.846862 0.808612 0.307166
0.846862 0.808612 0.307166
0.846862 0.808612 0.307166
0.846862 0.808612 0.307166
0.846862 0.808612 0.307166
0.303221 0.831378 0.303221
0.337345 0.831378 0.303221
0.361791 0.831378 0.303221
0.385828 0.831378 0.303221
0.409866 0.831378 0.303221
0.433904 0.831378 0.303221
0.457941 0.831378 0.303221
0.481979 0.831378 0.303221
0.506017 0.831378 0.303221
0.530055 0.831378 0.303221
0.529339 0.831378 0.303221
0.546215 0.831378 0.303221
0.576271 0.831378 0.303221
0.606327 0.831378 0.303221
0.636383 0.831378 0.303221
0.666439 0.831378 0.303221
0.696495 0.831378 0.303221
0.726551 0.831378 0.303221
0.756607 0.831378 0.303221
0.786662 0.831378 0.303221
0.816718 0.831378 0.303221
0.846862 0.835440 0.307166
0.846862 0.835440 0.307166
0.846862 0.835440 0.307166
0.846862 0.835440 0.307166
0.846862 0.835440 0.307166
0.846862 0.835440 0.307166
0.846862 0.835440 0.307166
0.846862 0.835440 0.307166
0.846862 0.835440 0.307166
0.846862 0.835440 0.307166
0.846862 0.835440 0.307166
0.846862 0.835440 0.307166
0.307551 0.847999 0.307551
0.341675 0.847999 0.307551
0.366121 0.847999 0.307551
0.390159 0.847999 0.307551
0.414196 0.847999 0.307551
0.438234 0.847999 0.307551
0.462272 0.847999 0.307551
0.486310 0.847999 0.307551
0.510347 0.847999 0.307551
0.534385 0.847999 0.307551
0.533815 0.847999 0.307551
0.550692 0.847999 0.307551
0.580748 0.847999 0.307551
0.610804 0.847999 0.307551
0.640859 0.847999 0.307551
0.670915 0.847999 0.307551
0.700971 0.847999 0.307551
0.731027 0.847999 0.307551
0.761083 0.847999 0.307551
0.791139 0.847999 0.307551
0.821195 0.847999 0.307551
0.847276 0.847999 0.307551
0.847276 0.847999 0.307551
0.847276 0.847999 0.307551
0.847276 0.847999 0.307551
0.847276 0.847999 0.307551
0.847276 0.847999 0.307551
0.847276 0.847999 0.307551
0.847276 0.847999 0.307551
0.847276 0.847999 0.307551
0.847276 0.847999 0.307551
0.847276 0.847999 0.307551
0.847276 0.847999 0.307551
0.307551 0.847999 0.307551
0.341675 0.847999 0.307551
0.366121 0.847999 0.307551
0.390159 0.847999 0.307551
0.414196 0.847999 0.307551
0.438234 0.847999 0.307551
0.462272 0.847999 0.307551
0.486310 0.847999 0.307551
0.510347 0.847999 0.307551
0.534385 0.847999 0.307551
0.533815 0.847999 0.307551
0.550692 0.847999 0.307551
0.580748 0.847999 0.307551
0.610804 0.847999 0.307551
0.640859 0.847999 0.307551
0.670915 0.847999 0.307551
0.700971 0.847999 0.307551
0.731027 0.847999 0.307551
0.761083 0.847999 0.307551
0.791139 0.847999 0.307551
0.821195 0.847999 0.307551
0.847276 0.847999 0.307551
0.847276 0.847999 0.307551
0.847276 0.847999 0.307551
0.847276 0.847999 0.307551
0.847276 0.847999 0.307551
0.847276 0.847999 0.307551
0.847276 0.847999 0.307551
0.847276 0.847999 0.307551
0.847276 0.847999 0.307551
0.847276 0.847999 0.307551
0.847276 0.847999 0.307551
0.847276 0.847999 0.307551
0.307551 0.847999 0.307551
0.341675 0.847999 0.307551
0.366121 0.847999 0.307551
0.390159 0.847999 0.307551
0.414196 0.847999 0.307551
0.438234 0.847999 0.307551
0.462272 0.847999 0.307551
0.486310 0.847999 0.307551
0.510347 0.847999 0.307551
0.534385 0.847999 0.307551
0.533815 0.847999 0.307551
0.550692 0.847999 0.307551
0.580748 0.847999 0.307551
0.610804 0.847999 0.307551
0.640859 0.847999 0.307551
0.670915 0.847999 0.307551
0.700971 0.847999 0.307551
0.731027 0.847999 0.307551
0.761083 0.847999 0.307551
0.791139 0.847999 0.307551
0.821195 0.847999 0.307551
0.847276 0.847999 0.307551
0.847276 0.847999 0.307551
0.847276 0.847999 0.307551
