docs/luts/fuji_recipes/Eterna_RR_Eterna_Expired.cube
TITLE "Fujifilm Recipe: RR Eterna Expired (Eterna)"
# FilmSim=Eterna HL=4 SH=4 Col=4 WB=Auto WBR=5 WBB=5
LUT_3D_SIZE 9
DOMAIN_MIN 0.0 0.0 0.0
DOMAIN_MAX 1.0 1.0 1.0
0.033600 0.033600 0.033600
0.165824 0.000000 0.000000
0.269438 0.000000 0.000000
0.373330 0.000000 0.000000
0.544939 0.000000 0.000000
0.685447 0.000000 0.000000
0.825955 0.000000 0.000000
0.974544 0.000000 0.000000
0.992871 0.000000 0.000000
0.000352 0.155026 0.000352
0.165824 0.148261 0.000000
0.269438 0.120351 0.000000
0.373330 0.111141 0.000000
0.544939 0.102844 0.000000
0.685447 0.100010 0.000000
0.825955 0.098224 0.000000
0.974544 0.097806 0.000000
0.992871 0.097947 0.000000
0.000000 0.247296 0.000000
0.138295 0.247296 0.000000
0.269438 0.240703 0.000000
0.373330 0.222282 0.000000
0.544939 0.205689 0.000000
0.685447 0.200020 0.000000
0.825955 0.196448 0.000000
0.974544 0.195613 0.000000
0.992871 0.195894 0.000000
0.000000 0.340032 0.000000
0.126771 0.340032 0.000000
0.253750 0.340032 0.000000
0.373330 0.333423 0.000000
0.544939 0.308533 0.000000
0.685447 0.300030 0.000000
0.825955 0.294672 0.000000
0.974544 0.293419 0.000000
0.992871 0.293841 0.000000
0.000000 0.432026 0.000000
0.121043 0.432026 0.000000
0.242285 0.432026 0.000000
0.363527 0.432026 0.000000
0.544939 0.410555 0.000000
0.685447 0.488275 0.000000
0.825955 0.481610 0.000000
0.974544 0.481610 0.000000
0.992871 0.482531 0.000000
0.000000 0.610238 0.000000
0.113350 0.610238 0.000000
0.226887 0.610238 0.000000
0.340424 0.610238 0.000000
0.537980 0.610238 0.000000
0.685447 0.603319 0.000000
0.825955 0.594601 0.000000
0.974544 0.594120 0.000000
0.992871 0.595203 0.000000
0.000000 0.735658 0.000000
0.111047 0.735658 0.000000
0.222277 0.735658 0.000000
0.333506 0.735658 0.000000
0.528902 0.735658 0.000000
0.681225 0.735658 0.000000
0.825955 0.729113 0.000000
0.974544 0.728060 0.000000
0.992871 0.729336 0.000000
0.000000 0.861079 0.000000
0.109471 0.861079 0.000000
0.219121 0.861079 0.000000
0.328771 0.861079 0.000000
0.523222 0.861079 0.000000
0.673382 0.861079 0.000000
0.823543 0.861079 0.000000
0.974544 0.862000 0.000000
0.992871 0.863469 0.000000
0.000000 0.994499 0.000000
0.109589 0.994499 0.000000
0.219359 0.994499 0.000000
0.329128 0.994499 0.000000
0.525620 0.994499 0.000000
0.675944 0.994499 0.000000
0.826267 0.994499 0.000000
0.976590 0.994499 0.000000
0.993293 0.994499 0.000000
0.000000 0.000000 0.166974
0.165049 0.000000 0.166974
0.269438 0.000000 0.136178
0.373330 0.000000 0.125756
0.544939 0.000000 0.116369
0.685447 0.000000 0.113162
0.825955 0.000000 0.111141
0.974544 0.000000 0.110668
0.992871 0.000000 0.110827
0.000000 0.147568 0.166974
0.149344 0.130654 0.151401
0.288486 0.089546 0.110664
0.424077 0.052740 0.073440
0.640358 0.000000 0.019504
0.779773 0.000000 0.017461
0.920330 0.000000 0.016294
1.000000 0.085274 0.098665
1.000000 0.098293 0.111320
0.000000 0.247296 0.139908
0.113643 0.256771 0.115761
0.285881 0.247323 0.107065
0.422059 0.207065 0.069674
0.651833 0.138043 0.003637
0.792177 0.119786 0.000000
0.934891 0.111246 0.000000
1.000000 0.188135 0.099836
1.000000 0.198003 0.111965
0.000000 0.340032 0.128249
0.079710 0.378883 0.081783
0.257559 0.378660 0.081412
0.422059 0.365258 0.069674
0.651833 0.292799 0.003637
0.792177 0.257710 0.000000
0.934891 0.239336 0.000000
1.000000 0.289805 0.099836
1.000000 0.297070 0.111965
0.000000 0.432026 0.122455
0.016241 0.599788 0.018267
0.189872 0.599665 0.017863
0.363907 0.599665 0.017863
0.651833 0.584151 0.003637
0.792177 0.520257 0.000000
0.934891 0.485845 0.000000
1.000000 0.487596 0.099836
1.000000 0.490027 0.111965
0.000000 0.610238 0.114672
0.000000 0.715826 0.001896
0.161725 0.717325 0.000000
0.325354 0.717325 0.000000
0.613186 0.717325 0.000000
0.792177 0.678915 0.000000
0.934891 0.633191 0.000000
1.000000 0.604550 0.099836
1.000000 0.603986 0.111965
0.000000 0.735658 0.112342
0.000000 0.841158 0.001738
0.148070 0.842388 0.000000
0.297884 0.842388 0.000000
0.563911 0.842388 0.000000
0.769073 0.842388 0.000000
0.934891 0.808603 0.000000
1.000000 0.743780 0.099836
1.000000 0.739652 0.111965
0.000000 0.861079 0.110747
0.000000 0.974679 0.001651
0.140595 0.976123 0.000000
0.282846 0.976123 0.000000
0.537817 0.976123 0.000000
0.732622 0.976123 0.000000
0.927427 0.976123 0.000000
1.000000 0.883011 0.099836
1.000000 0.875317 0.111965
0.000000 0.994499 0.110867
0.110780 1.000000 0.112072
0.221828 1.000000 0.112136
0.332812 1.000000 0.112136
0.533589 1.000000 0.112136
0.685575 1.000000 0.112136
0.837561 1.000000 0.112136
0.989547 1.000000 0.112136
1.000000 1.000000 0.112136
0.000000 0.000000 0.271516
0.134302 0.000000 0.271516
0.268825 0.000000 0.271516
0.373330 0.000000 0.251310
0.544939 0.000000 0.232549
0.685447 0.000000 0.226140
0.825955 0.000000 0.222102
0.974544 0.000000 0.221157
0.992871 0.000000 0.221476
0.000000 0.120078 0.271516
0.107800 0.088786 0.291223
0.287624 0.088786 0.291223
0.424077 0.052740 0.251261
0.640358 0.000000 0.187053
0.779773 0.000000 0.167460
0.920330 0.000000 0.156265
1.000000 0.085274 0.213700
1.000000 0.098293 0.223233
0.000000 0.240155 0.271516
0.104548 0.246762 0.288896
0.265430 0.227760 0.268966
0.405554 0.184686 0.227131
0.641885 0.113386 0.154758
0.826626 0.061742 0.102583
1.000000 0.031060 0.070316
1.000000 0.196005 0.222247
1.000000 0.202258 0.228132
0.000000 0.340032 0.256291
0.079710 0.378883 0.261406
0.230202 0.355456 0.233891
0.399728 0.340993 0.220135
0.638047 0.264967 0.147235
0.823570 0.210970 0.094810
1.000000 0.172173 0.059980
1.000000 0.298858 0.224925
1.000000 0.302604 0.229411
0.000000 0.432026 0.244711
0.016241 0.599788 0.193685
0.159643 0.585122 0.163231
0.338365 0.584756 0.162585
0.638047 0.568357 0.147235
0.823570 0.513601 0.094810
1.000000 0.467646 0.059980
1.000000 0.495664 0.224925
1.000000 0.497669 0.229411
0.000000 0.610238 0.229159
0.000000 0.715826 0.166122
0.119747 0.724815 0.123293
0.296395 0.724506 0.122632
0.611660 0.724506 0.122632
0.823570 0.694460 0.094810
1.000000 0.642328 0.059980
1.000000 0.610776 0.224925
1.000000 0.611628 0.229411
0.000000 0.735658 0.224502
0.000000 0.841158 0.152279
0.049136 0.914232 0.052856
0.233189 0.915872 0.050072
0.568541 0.915872 0.050072
0.824429 0.915872 0.050072
1.000000 0.850282 0.059980
1.000000 0.747815 0.224925
1.000000 0.747294 0.229411
0.000000 0.861079 0.221315
0.000000 0.974679 0.144642
0.098730 1.000000 0.101791
0.251197 1.000000 0.101212
0.528427 1.000000 0.101212
0.738017 1.000000 0.101212
0.947608 1.000000 0.101212
1.000000 0.884853 0.224925
1.000000 0.882960 0.229411
0.000000 0.994499 0.221555
0.110780 1.000000 0.223985
0.227252 1.000000 0.229473
0.338346 1.000000 0.229583
0.541231 1.000000 0.229583
0.693217 1.000000 0.229583
0.845204 1.000000 0.229583
0.997190 1.000000 0.229583
1.000000 1.000000 0.229583
0.000000 0.000000 0.376278
0.124114 0.000000 0.376278
0.248432 0.000000 0.376278
0.372750 0.000000 0.376278
0.544939 0.000000 0.348730
0.685447 0.000000 0.339119
0.825955 0.000000 0.333063
0.974544 0.000000 0.331647
0.992871 0.000000 0.332124
0.000000 0.110969 0.376278
0.070362 0.051723 0.427897
0.246629 0.051723 0.427897
0.422895 0.051723 0.427897
0.640358 0.000000 0.354603
0.779773 0.000000 0.317459
0.920330 0.000000 0.296237
1.000000 0.085274 0.328735
1.000000 0.098293 0.335146
0.000000 0.221937 0.376278
0.066959 0.206282 0.426098
0.222345 0.183563 0.409479
0.404315 0.183563 0.409479
0.641885 0.113386 0.333705
0.826626 0.061742 0.279231
1.000000 0.031060 0.240109
1.000000 0.196005 0.335755
1.000000 0.202258 0.340044
0.000000 0.332906 0.376278
0.066959 0.364326 0.426098
0.215932 0.340324 0.404191
0.381516 0.324866 0.386531
0.625525 0.244658 0.307864
0.845651 0.157629 0.226400
1.000000 0.141790 0.203164
1.000000 0.305619 0.344339
1.000000 0.306223 0.344943
0.000000 0.432026 0.366968
0.016241 0.599788 0.369103
0.159643 0.585122 0.344010
0.309213 0.564288 0.314413
0.618055 0.546851 0.297041
0.833476 0.487583 0.214718
1.000000 0.437829 0.185069
1.000000 0.504476 0.346253
1.000000 0.505311 0.346858
0.000000 0.610238 0.343646
0.000000 0.715826 0.330349
0.119747 0.724815 0.302003
0.263100 0.710198 0.268315
0.593244 0.711027 0.265924
0.833476 0.689402 0.214718
1.000000 0.622295 0.185069
1.000000 0.618436 0.346253
1.000000 0.619271 0.346858
0.000000 0.735658 0.336663
0.000000 0.841158 0.302820
0.049136 0.914232 0.240327
0.181198 0.910905 0.186838
0.540578 0.909887 0.185870
0.812658 0.909887 0.185870
1.000000 0.841897 0.185069
1.000000 0.754101 0.346253
1.000000 0.754936 0.346858
0.000000 0.861079 0.331883
0.000000 0.974679 0.287634
0.098730 1.000000 0.256030
0.222781 1.000000 0.227272
0.511812 1.000000 0.226301
0.728787 1.000000 0.226301
0.945762 1.000000 0.226301
1.000000 0.889767 0.346253
1.000000 0.890602 0.346858
0.000000 0.994499 0.332243
0.110780 1.000000 0.335897
0.227252 1.000000 0.341385
0.343724 1.000000 0.346874
0.548874 1.000000 0.347029
0.700860 1.000000 0.347029
0.852846 1.000000 0.347029
1.000000 1.000000 0.347029
1.000000 1.000000 0.347029
0.000000 0.000000 0.550102
0.114878 0.000000 0.550102
0.229946 0.000000 0.550102
0.345013 0.000000 0.550102
0.544312 0.000000 0.550102
0.685447 0.000000 0.537651
0.825955 0.000000 0.530105
0.974544 0.000000 0.529898
0.992871 0.000000 0.530889
0.000000 0.102711 0.550102
0.017473 0.000000 0.645249
0.182713 0.000000 0.645249
0.347954 0.000000 0.645249
0.636934 0.000000 0.645249
0.779773 0.000000 0.583548
0.920330 0.000000 0.547130
1.000000 0.085274 0.537061
1.000000 0.098293 0.538048
0.000000 0.205422 0.550102
0.000202 0.136510 0.658659
0.149255 0.111455 0.648706
0.326618 0.111455 0.648706
0.639781 0.111455 0.648706
0.826626 0.061742 0.595539
1.000000 0.031060 0.547288
1.000000 0.196005 0.543208
1.000000 0.202258 0.544813
0.000000 0.308134 0.550102
0.000202 0.291135 0.658659
0.142356 0.263530 0.645241
0.300631 0.242602 0.632471
0.623360 0.242602 0.632471
0.845651 0.157629 0.585629
1.000000 0.141790 0.527040
1.000000 0.305619 0.550743
1.000000 0.306223 0.551578
0.000000 0.410023 0.550102
0.000202 0.582319 0.658659
0.142356 0.566651 0.645241
0.290661 0.545382 0.625672
0.577023 0.508022 0.585917
0.779285 0.438733 0.524015
0.991326 0.361974 0.450607
1.000000 0.508543 0.557454
1.000000 0.509378 0.558289
0.000000 0.610238 0.543693
0.000000 0.715826 0.620371
0.119747 0.724815 0.620941
0.263100 0.710198 0.602489
0.537311 0.657900 0.546846
0.763841 0.622884 0.510176
0.973835 0.552829 0.435464
1.000000 0.624921 0.559873
1.000000 0.625756 0.560708
0.000000 0.735658 0.534500
0.000000 0.841158 0.571164
0.049136 0.914232 0.578003
0.181198 0.910905 0.551517
0.476893 0.839073 0.486698
0.741958 0.837242 0.485118
0.973835 0.797606 0.435464
1.000000 0.760587 0.559873
1.000000 0.761422 0.560708
0.000000 0.861079 0.528740
0.000000 0.974679 0.544884
0.098730 1.000000 0.536397
0.222781 1.000000 0.520335
0.438714 1.000000 0.447881
0.686466 1.000000 0.444851
0.937298 1.000000 0.444851
1.000000 0.896252 0.559873
1.000000 0.897088 0.560708
0.000000 0.994499 0.531144
0.110780 1.000000 0.539086
0.227252 1.000000 0.546665
0.343724 1.000000 0.554244
0.555083 1.000000 0.560668
0.707345 1.000000 0.560944
0.859332 1.000000 0.560944
1.000000 1.000000 0.560944
1.000000 1.000000 0.560944
0.000000 0.000000 0.691786
0.111748 0.000000 0.691786
0.223679 0.000000 0.691786
0.335611 0.000000 0.691786
0.531587 0.000000 0.691786
0.684871 0.000000 0.691786
0.825955 0.000000 0.682060
0.974544 0.000000 0.681207
0.992871 0.000000 0.682416
0.000000 0.099912 0.691786
0.015670 0.000000 0.786112
0.163863 0.000000 0.786112
0.312056 0.000000 0.786112
0.574014 0.000000 0.786112
0.776956 0.000000 0.786112
0.920330 0.000000 0.738813
1.000000 0.085274 0.694595
1.000000 0.098293 0.691306
0.000000 0.199824 0.691786
0.000000 0.120627 0.797286
0.096766 0.059449 0.834924
0.271862 0.059449 0.834924
0.584321 0.059449 0.834924
0.824106 0.059449 0.834924
1.000000 0.031060 0.779810
1.000000 0.196005 0.698650
1.000000 0.202258 0.698071
0.000000 0.299736 0.691786
0.000000 0.257463 0.797286
0.089638 0.209207 0.832171
0.217275 0.154019 0.855266
0.572791 0.154019 0.855266
0.843072 0.154019 0.855266
1.000000 0.141790 0.769962
1.000000 0.305619 0.704001
1.000000 0.306223 0.704836
0.000000 0.487891 0.691786
0.000000 0.518038 0.797286
0.089638 0.511629 0.832171
0.206514 0.485445 0.844031
0.511208 0.435556 0.788566
0.776593 0.435556 0.788566
0.991326 0.361974 0.728332
1.000000 0.508543 0.710712
1.000000 0.509378 0.711547
0.000000 0.602823 0.691786
0.000000 0.675445 0.797286
0.089638 0.692313 0.832171
0.206514 0.687574 0.844031
0.498945 0.621602 0.774781
0.741292 0.601523 0.753072
0.950877 0.532896 0.690906
1.000000 0.628138 0.716347
1.000000 0.628973 0.717182
0.000000 0.735658 0.688097
0.000000 0.841158 0.777322
0.049136 0.914232 0.834735
0.181198 0.910905 0.825933
0.476893 0.839073 0.755759
0.698513 0.791463 0.710248
0.920592 0.748020 0.664174
1.000000 0.768165 0.720709
1.000000 0.769001 0.721544
0.000000 0.861079 0.680157
0.000000 0.974679 0.740703
0.098730 1.000000 0.747619
0.222781 1.000000 0.738875
0.438714 1.000000 0.699432
0.634378 0.976354 0.646721
0.905614 0.973930 0.644652
1.000000 0.903831 0.720709
1.000000 0.904666 0.721544
0.000000 0.994499 0.682725
0.110780 1.000000 0.692344
0.227252 1.000000 0.699923
0.343724 1.000000 0.707502
0.555083 1.000000 0.713926
0.714585 1.000000 0.721442
0.866910 1.000000 0.721781
1.000000 1.000000 0.721781
1.000000 1.000000 0.721781
0.000000 0.000000 0.833470
0.109773 0.000000 0.833470
0.219727 0.000000 0.833470
0.329681 0.000000 0.833470
0.524266 0.000000 0.833470
0.674841 0.000000 0.833470
0.825417 0.000000 0.833470
0.974544 0.000000 0.832516
0.992871 0.000000 0.833942
0.000000 0.098147 0.833470
0.014654 0.000000 0.929152
0.153243 0.000000 0.929152
0.291832 0.000000 0.929152
0.539422 0.000000 0.929152
0.729212 0.000000 0.929152
0.919001 0.000000 0.929152
1.000000 0.085274 0.852129
1.000000 0.098293 0.844564
0.000000 0.196294 0.833470
0.000000 0.112330 0.942269
0.074988 0.039882 1.000000
0.239714 0.039882 1.000000
0.536769 0.039882 1.000000
0.762352 0.039882 1.000000
0.987935 0.039882 1.000000
1.000000 0.196005 0.854092
1.000000 0.202258 0.851329
0.000000 0.294440 0.833470
0.000000 0.239756 0.942269
0.066320 0.179219 1.000000
0.205577 0.150612 1.000000
0.517727 0.150612 1.000000
0.752583 0.150612 1.000000
0.987439 0.150612 1.000000
1.000000 0.305619 0.857259
1.000000 0.306223 0.858094
0.000000 0.481342 0.833470
0.000000 0.485097 0.942269
0.066320 0.467900 1.000000
0.190371 0.440994 1.000000
0.438485 0.360536 1.000000
0.711930 0.360536 1.000000
0.985375 0.360536 1.000000
1.000000 0.508543 0.863970
1.000000 0.509378 0.864805
0.000000 0.594244 0.833470
0.000000 0.631678 0.942269
0.066320 0.638506 1.000000
0.190371 0.620226 1.000000
0.422591 0.550450 0.987549
0.674746 0.528576 0.962433
0.947827 0.528576 0.962433
1.000000 0.628138 0.869605
1.000000 0.628973 0.870440
0.000000 0.728650 0.833470
0.000000 0.806180 0.942269
0.066320 0.841607 1.000000
0.190371 0.833598 1.000000
0.422591 0.796029 0.987549
0.649954 0.746373 0.934196
0.901744 0.730323 0.916010
1.000000 0.770512 0.876314
1.000000 0.771347 0.877149
0.000000 0.861079 0.831574
0.000000 0.974679 0.936522
0.098730 1.000000 0.958841
0.222781 1.000000 0.957415
0.438714 1.000000 0.950983
0.634378 0.976354 0.922597
0.859565 0.925177 0.873603
1.000000 0.911410 0.881546
1.000000 0.912245 0.882381
0.000000 0.994499 0.834307
0.110780 1.000000 0.845602
0.227252 1.000000 0.853181
0.343724 1.000000 0.860760
0.555083 1.000000 0.867184
0.714585 1.000000 0.874700
0.874087 1.000000 0.882216
1.000000 1.000000 0.882618
1.000000 1.000000 0.882618
0.000000 0.000000 0.984746
0.109481 0.000000 0.984746
0.219142 0.000000 0.984746
0.328802 0.000000 0.984746
0.524935 0.000000 0.984746
0.675109 0.000000 0.984746
0.825283 0.000000 0.984746
0.975458 0.000000 0.984746
0.992871 0.000000 0.985469
0.000000 0.097885 0.984746
0.107278 0.095476 1.000000
0.218891 0.095476 1.000000
0.330504 0.095476 1.000000
0.532004 0.095476 1.000000
0.684851 0.095476 1.000000
0.837699 0.095476 1.000000
0.990546 0.095476 1.000000
1.000000 0.098293 0.997822
0.000000 0.195771 0.984746
0.108594 0.196268 1.000000
0.225643 0.201990 1.000000
0.336627 0.201990 1.000000
0.538858 0.201990 1.000000
0.690844 0.201990 1.000000
0.842830 0.201990 1.000000
0.994816 0.201990 1.000000
1.000000 0.202258 1.000000
0.000000 0.293656 0.984746
0.108594 0.295724 1.000000
0.226813 0.302226 1.000000
0.341526 0.305955 1.000000
0.545623 0.305955 1.000000
0.697609 0.305955 1.000000
0.849595 0.305955 1.000000
1.000000 0.305955 1.000000
1.000000 0.306223 1.000000
0.000000 0.482125 0.984746
0.108594 0.489313 1.000000
0.226813 0.497147 1.000000
0.343285 0.504726 1.000000
0.552334 0.509008 1.000000
0.704320 0.509008 1.000000
0.856306 0.509008 1.000000
1.000000 0.509008 1.000000
1.000000 0.509378 1.000000
0.000000 0.594726 0.984746
0.108594 0.603721 1.000000
0.226813 0.611106 1.000000
0.343285 0.618685 1.000000
0.554476 0.625110 1.000000
0.709955 0.628603 1.000000
0.861941 0.628603 1.000000
1.000000 0.628603 1.000000
1.000000 0.628973 1.000000
0.000000 0.728775 0.984746
0.108594 0.739921 1.000000
0.226813 0.746772 1.000000
0.343285 0.754351 1.000000
0.554476 0.760775 1.000000
0.713978 0.768291 1.000000
0.868650 0.770977 1.000000
1.000000 0.770977 1.000000
1.000000 0.771347 1.000000
0.000000 0.862823 0.984746
0.108594 0.876120 1.000000
0.226813 0.882438 1.000000
0.343285 0.890017 1.000000
0.554476 0.896441 1.000000
0.713978 0.903957 1.000000
0.873480 0.911473 1.000000
1.000000 0.913352 1.000000
1.000000 0.913722 1.000000
0.000000 0.994499 0.985888
0.110780 1.000000 0.998860
0.227252 1.000000 1.000000
0.343724 1.000000 1.000000
0.555083 1.000000 1.000000
0.714585 1.000000 1.000000
0.874087 1.000000 1.000000
1.000000 1.000000 1.000000
1.000000 1.000000 1.000000
0.000000 0.000000 0.994499
0.109589 0.000000 0.994499
0.219359 0.000000 0.994499
0.329128 0.000000 0.994499
0.525620 0.000000 0.994499
0.675944 0.000000 0.994499
0.826267 0.000000 0.994499
0.976590 0.000000 0.994499
0.993293 0.000000 0.994499
0.000000 0.097982 0.994499
0.110200 0.098464 1.000000
0.221184 0.098464 1.000000
0.332167 0.098464 1.000000
0.532699 0.098464 1.000000
0.684685 0.098464 1.000000
0.836672 0.098464 1.000000
0.988658 0.098464 1.000000
1.000000 0.098464 1.000000
0.000000 0.195965 0.994499
0.110780 0.198111 1.000000
0.226082 0.202430 1.000000
0.337066 0.202430 1.000000
0.539464 0.202430 1.000000
0.691451 0.202430 1.000000
0.843437 0.202430 1.000000
0.995423 0.202430 1.000000
1.000000 0.202430 1.000000
0.000000 0.293947 0.994499
0.110780 0.297177 1.000000
0.227252 0.302665 1.000000
0.341965 0.306395 1.000000
0.546230 0.306395 1.000000
0.698216 0.306395 1.000000
0.850202 0.306395 1.000000
1.000000 0.306395 1.000000
1.000000 0.306395 1.000000
0.000000 0.482769 0.994499
0.110780 0.490175 1.000000
0.227252 0.497754 1.000000
0.343724 0.505333 1.000000
0.552941 0.509615 1.000000
0.704927 0.509615 1.000000
0.856913 0.509615 1.000000
1.000000 0.509615 1.000000
1.000000 0.509615 1.000000
0.000000 0.595481 0.994499
0.110780 0.604134 1.000000
0.227252 0.611713 1.000000
0.343724 0.619292 1.000000
0.555083 0.625717 1.000000
0.710562 0.629209 1.000000
0.862548 0.629209 1.000000
1.000000 0.629209 1.000000
1.000000 0.629209 1.000000
0.000000 0.729662 0.994499
0.110780 0.739800 1.000000
0.227252 0.747379 1.000000
0.343724 0.754958 1.000000
0.555083 0.761382 1.000000
0.714585 0.768898 1.000000
0.869257 0.771584 1.000000
1.000000 0.771584 1.000000
1.000000 0.771584 1.000000
0.000000 0.863844 0.994499
0.110780 0.875466 1.000000
0.227252 0.883045 1.000000
0.343724 0.890624 1.000000
0.555083 0.897048 1.000000
0.714585 0.904564 1.000000
0.874087 0.912080 1.000000
1.000000 0.913958 1.000000
1.000000 0.913958 1.000000
0.000000 0.994499 0.994499
0.110780 1.000000 1.000000
0.227252 1.000000 1.000000
0.343724 1.000000 1.000000
0.555083 1.000000 1.000000
0.714585 1.000000 1.000000
0.874087 1.000000 1.000000
1.000000 1.000000 1.000000
1.000000 1.000000 1.000000
