docs/luts/fuji_recipes/Eterna_GB_The_Cinema.cube
TITLE "Fujifilm Recipe: GB The Cinema (Eterna)"
# FilmSim=Eterna HL=1 SH=2 Col=2 WB=Auto WBR=0 WBB=0
LUT_3D_SIZE 9
DOMAIN_MIN 0.0 0.0 0.0
DOMAIN_MAX 1.0 1.0 1.0
0.036800 0.036800 0.036800
0.153949 0.018522 0.018522
0.269167 0.002358 0.002358
0.370956 0.000000 0.000000
0.471377 0.000000 0.000000
0.602264 0.000000 0.000000
0.715058 0.000000 0.000000
0.827853 0.000000 0.000000
0.944239 0.000000 0.000000
0.030784 0.160316 0.023684
0.160316 0.154012 0.023684
0.282572 0.139140 0.010703
0.403213 0.126739 0.000000
0.471377 0.118605 0.000000
0.602264 0.113452 0.000000
0.715058 0.111185 0.000000
0.827853 0.109592 0.000000
0.944239 0.108825 0.000000
0.024768 0.283831 0.010569
0.162773 0.283831 0.010569
0.283831 0.270982 0.010569
0.403213 0.254490 0.000000
0.512367 0.242377 0.000000
0.654635 0.231537 0.000000
0.777237 0.226787 0.000000
0.827853 0.219184 0.000000
0.944239 0.217651 0.000000
0.021034 0.404800 0.000000
0.158031 0.404800 0.000000
0.292425 0.404800 0.000000
0.404800 0.385645 0.000000
0.512367 0.364909 0.000000
0.654635 0.348040 0.000000
0.777237 0.340675 0.000000
0.899840 0.335554 0.000000
1.000000 0.339663 0.022443
0.026725 0.514317 0.000000
0.157861 0.514317 0.000000
0.287219 0.514317 0.000000
0.414484 0.514317 0.000000
0.514317 0.489797 0.000000
0.654635 0.511724 0.000000
0.777237 0.500985 0.000000
0.899840 0.493786 0.000000
1.000000 0.489690 0.022443
0.034161 0.657433 0.000000
0.159845 0.657433 0.000000
0.284340 0.657433 0.000000
0.407345 0.657433 0.000000
0.576170 0.657433 0.000000
0.657433 0.626315 0.000000
0.777237 0.609774 0.000000
0.899840 0.600464 0.000000
1.000000 0.590243 0.022443
0.040559 0.780551 0.000000
0.163861 0.780551 0.000000
0.286255 0.780551 0.000000
0.407456 0.780551 0.000000
0.574996 0.780551 0.000000
0.686242 0.780551 0.000000
0.780551 0.743523 0.000000
0.899840 0.728276 0.000000
1.000000 0.710549 0.022443
0.046956 0.903668 0.000000
0.168581 0.903668 0.000000
0.289486 0.903668 0.000000
0.409399 0.903668 0.000000
0.576230 0.903668 0.000000
0.686682 0.903668 0.000000
0.817243 0.903668 0.000000
0.903668 0.860733 0.000000
1.000000 0.831609 0.022443
0.077355 1.000000 0.026786
0.191455 1.000000 0.026786
0.304998 1.000000 0.026786
0.417741 1.000000 0.026786
0.575530 1.000000 0.026786
0.679657 1.000000 0.026786
0.802871 1.000000 0.026786
0.925068 1.000000 0.026786
1.000000 0.953707 0.026786
0.023606 0.030748 0.161054
0.152222 0.023606 0.161054
0.282572 0.010703 0.156389
0.403213 0.000000 0.144220
0.471377 0.000000 0.119315
0.602264 0.000000 0.114131
0.715058 0.000000 0.111850
0.827853 0.000000 0.110248
0.944239 0.000000 0.109476
0.018322 0.154527 0.155342
0.146378 0.147200 0.148018
0.266183 0.126673 0.127516
0.383666 0.108243 0.109073
0.543700 0.082296 0.083114
0.652479 0.066039 0.066852
0.781844 0.047005 0.047813
0.920675 0.018505 0.019328
1.000000 0.064171 0.064899
0.010569 0.283831 0.139864
0.138792 0.270794 0.133341
0.270637 0.264930 0.134823
0.392377 0.249564 0.121896
0.561824 0.229125 0.101710
0.652483 0.201879 0.066764
0.781856 0.182070 0.047722
0.921284 0.155518 0.018625
1.000000 0.185964 0.064888
0.000000 0.404800 0.120167
0.132776 0.394310 0.120226
0.272475 0.394153 0.121708
0.394153 0.381899 0.121708
0.561824 0.358112 0.101710
0.677548 0.344787 0.088799
0.815548 0.329147 0.073402
0.953547 0.313620 0.058006
1.000000 0.307769 0.064888
0.000000 0.514317 0.107833
0.122398 0.564441 0.099954
0.262960 0.564293 0.101434
0.399578 0.564293 0.101434
0.564293 0.542885 0.101434
0.677548 0.526434 0.088799
0.815548 0.510708 0.073402
0.953547 0.495504 0.058006
1.000000 0.495652 0.134156
0.000000 0.657433 0.094359
0.116134 0.680847 0.086966
0.256960 0.680699 0.088447
0.394426 0.680699 0.088447
0.583350 0.680699 0.088447
0.680699 0.653297 0.088447
0.815548 0.633439 0.073402
0.953547 0.617587 0.058006
1.000000 0.596099 0.134156
0.000000 0.780551 0.085301
0.108677 0.819425 0.071505
0.249695 0.819277 0.072986
0.387780 0.819277 0.072986
0.579156 0.819277 0.072986
0.705357 0.819277 0.072986
0.819277 0.784492 0.072986
0.953547 0.763948 0.058006
1.000000 0.716310 0.134156
0.000000 0.903668 0.077035
0.101220 0.958004 0.056044
0.242363 0.957855 0.057525
0.380850 0.957855 0.057525
0.574152 0.957855 0.057525
0.701344 0.957855 0.057525
0.851484 0.957855 0.057525
0.957855 0.915686 0.057525
1.000000 0.837345 0.134156
0.026786 1.000000 0.092426
0.180618 1.000000 0.137165
0.296137 1.000000 0.138498
0.409521 1.000000 0.138498
0.568789 1.000000 0.138498
0.673296 1.000000 0.138498
0.796833 1.000000 0.138498
0.919214 1.000000 0.138498
1.000000 0.959511 0.138498
0.010436 0.024707 0.285083
0.129766 0.010436 0.285083
0.267947 0.010436 0.285083
0.403213 0.000000 0.287151
0.512367 0.000000 0.274676
0.654635 0.000000 0.263055
0.777237 0.000000 0.257925
0.827853 0.000000 0.220295
0.944239 0.000000 0.218754
0.010436 0.155344 0.285083
0.133208 0.141219 0.272047
0.261932 0.133952 0.271968
0.392455 0.121158 0.267441
0.561898 0.100971 0.247518
0.652479 0.066039 0.203324
0.781844 0.047005 0.183513
0.920675 0.018505 0.157417
1.000000 0.064171 0.187209
0.002033 0.270155 0.271514
0.125506 0.267213 0.268641
0.256208 0.257601 0.258986
0.376761 0.236479 0.237921
0.540503 0.207401 0.208820
0.650773 0.189652 0.191060
0.781555 0.169202 0.170599
0.961599 0.099489 0.101059
1.000000 0.184102 0.185339
0.000000 0.404800 0.263008
0.120226 0.394310 0.250939
0.247530 0.381249 0.243225
0.380983 0.375858 0.245737
0.549422 0.352638 0.225621
0.665146 0.339596 0.212710
0.781813 0.306721 0.170180
0.961423 0.254191 0.100901
1.000000 0.306050 0.185318
0.000000 0.514317 0.243649
0.099954 0.564441 0.220120
0.237082 0.552142 0.222837
0.378130 0.551891 0.225346
0.551891 0.537566 0.225346
0.665146 0.521317 0.212710
0.803145 0.505914 0.197314
0.941145 0.490948 0.181917
1.000000 0.501596 0.245665
0.000000 0.657433 0.223795
0.086966 0.680847 0.200184
0.230818 0.668548 0.209850
0.372352 0.668296 0.212359
0.563595 0.668296 0.212359
0.668296 0.647979 0.212359
0.803145 0.628292 0.197314
0.941145 0.612692 0.181917
1.000000 0.601936 0.245665
0.000000 0.780551 0.211891
0.071505 0.819425 0.176547
0.223361 0.807126 0.194389
0.365200 0.806875 0.196898
0.558898 0.806875 0.196898
0.685646 0.806875 0.196898
0.806875 0.779173 0.196898
0.941145 0.758744 0.181917
1.000000 0.722042 0.245665
0.000000 0.903668 0.201622
0.056044 0.958004 0.152966
0.215905 0.945704 0.178928
0.357921 0.945453 0.181437
0.553443 0.945453 0.181437
0.681257 0.945453 0.181437
0.831849 0.945453 0.181437
0.945453 0.910367 0.181437
1.000000 0.843049 0.245665
0.026786 1.000000 0.209104
0.137165 1.000000 0.209750
0.284496 1.000000 0.247749
0.400819 1.000000 0.250007
0.561778 1.000000 0.250007
0.666776 1.000000 0.250007
0.790735 1.000000 0.250007
0.913355 1.000000 0.250007
1.000000 0.965305 0.250007
0.000000 0.021116 0.406378
0.110010 0.000000 0.406378
0.244219 0.000000 0.406378
0.381277 0.000000 0.406378
0.512367 0.000000 0.410528
0.654635 0.000000 0.393717
0.777237 0.000000 0.386268
0.899840 0.000000 0.380978
1.000000 0.022443 0.382920
0.000000 0.150521 0.406378
0.120038 0.135178 0.396075
0.239507 0.120782 0.395996
0.377657 0.120782 0.395996
0.561898 0.100971 0.392374
0.677622 0.088060 0.379887
0.815621 0.072664 0.364741
0.953621 0.057268 0.349478
1.000000 0.064171 0.309519
0.000000 0.278049 0.406378
0.120038 0.265803 0.396075
0.243038 0.251660 0.383015
0.371643 0.244297 0.382881
0.549547 0.224370 0.371375
0.665271 0.211459 0.358603
0.781555 0.169202 0.308960
0.961599 0.099489 0.256567
1.000000 0.184102 0.307812
0.000000 0.372095 0.373868
0.106975 0.385074 0.387055
0.234566 0.378255 0.380288
0.366037 0.368001 0.369954
0.533583 0.336229 0.338263
0.645397 0.316936 0.318953
0.796799 0.275866 0.278024
0.944254 0.238742 0.240947
1.000000 0.304034 0.305780
0.000000 0.473171 0.357284
0.099954 0.564441 0.364503
0.222837 0.552142 0.351624
0.351765 0.539842 0.345720
0.539488 0.532247 0.349257
0.652744 0.516354 0.336622
0.790743 0.501353 0.321225
0.928742 0.486619 0.305829
1.000000 0.478845 0.305748
0.000000 0.657433 0.354159
0.086966 0.680847 0.344062
0.209850 0.668548 0.331522
0.345502 0.656248 0.332733
0.543601 0.655894 0.336270
0.655894 0.642660 0.336270
0.790743 0.623235 0.321225
0.928742 0.607951 0.305829
1.000000 0.607744 0.357174
0.000000 0.780551 0.339298
0.071505 0.819425 0.320004
0.194389 0.807126 0.307789
0.338045 0.794827 0.317272
0.538182 0.794473 0.320809
0.665800 0.794473 0.320809
0.794473 0.773854 0.320809
0.928742 0.753588 0.305829
1.000000 0.727742 0.357174
0.000000 0.903668 0.326932
0.056044 0.958004 0.296125
0.178928 0.945704 0.284158
0.330589 0.933405 0.301811
0.532194 0.933051 0.305348
0.660900 0.933051 0.305348
0.812148 0.933051 0.305348
0.933051 0.905048 0.305348
1.000000 0.848722 0.357174
0.026786 1.000000 0.326395
0.137165 1.000000 0.326542
0.247749 1.000000 0.327085
0.388375 1.000000 0.358333
0.554342 1.000000 0.361517
0.659996 1.000000 0.361517
0.784526 1.000000 0.361517
0.907473 1.000000 0.361517
1.000000 0.971098 0.361517
0.000000 0.025919 0.498820
0.099756 0.000000 0.498820
0.227772 0.000000 0.498820
0.357969 0.000000 0.498820
0.502074 0.000000 0.512367
0.654635 0.000000 0.502025
0.777237 0.000000 0.492849
0.899840 0.000000 0.486291
1.000000 0.022443 0.530387
0.000000 0.150457 0.498820
0.109056 0.130140 0.499499
0.221959 0.109799 0.499420
0.358212 0.109799 0.499420
0.561898 0.100971 0.511999
0.677622 0.088060 0.500254
0.815621 0.072664 0.485553
0.953621 0.057268 0.528399
1.000000 0.133491 0.523417
0.000000 0.273456 0.498820
0.109056 0.261213 0.499499
0.232056 0.246623 0.486438
0.352811 0.233315 0.486305
0.549547 0.224370 0.491555
0.665271 0.211459 0.479457
0.803271 0.196063 0.522333
0.941270 0.180667 0.508178
1.000000 0.244539 0.516150
0.000000 0.357444 0.458914
0.109056 0.390333 0.499499
0.232056 0.377114 0.486438
0.355055 0.363105 0.473378
0.537197 0.347769 0.470945
0.652920 0.334858 0.516259
0.790920 0.319462 0.502087
0.944254 0.238742 0.434011
1.000000 0.304034 0.459472
0.000000 0.473171 0.456533
0.081208 0.546028 0.471930
0.205718 0.542916 0.466198
0.345720 0.539842 0.459412
0.519155 0.521883 0.500202
0.634618 0.500153 0.476863
0.774977 0.471257 0.447544
0.920031 0.437832 0.413531
1.000000 0.472037 0.452395
0.000000 0.604839 0.436734
0.086966 0.680847 0.464899
0.209850 0.668548 0.451855
0.332733 0.656248 0.496831
0.515142 0.638191 0.487851
0.638191 0.633754 0.487851
0.772928 0.614868 0.473544
0.910812 0.599987 0.458903
1.000000 0.588600 0.452395
0.000000 0.780551 0.446047
0.071505 0.819425 0.440413
0.194389 0.807126 0.485394
0.317272 0.794827 0.473628
0.508434 0.776654 0.473149
0.638215 0.776654 0.473149
0.776654 0.764878 0.473149
0.910812 0.744872 0.458903
1.000000 0.732290 0.492958
0.000000 0.903668 0.431898
0.056044 0.958004 0.473965
0.178928 0.945704 0.462164
0.301811 0.933405 0.450705
0.501701 0.915117 0.458446
0.632228 0.915117 0.458446
0.784867 0.915117 0.458446
0.915117 0.896001 0.458446
1.000000 0.854409 0.492958
0.026786 1.000000 0.471816
0.137165 1.000000 0.472281
0.247749 1.000000 0.472948
0.358333 1.000000 0.473955
0.539542 1.000000 0.497323
0.647432 1.000000 0.497323
0.774259 1.000000 0.497323
0.899028 1.000000 0.497323
1.000000 0.978194 0.497323
0.000000 0.034306 0.660216
0.084958 0.000000 0.660216
0.205856 0.000000 0.660216
0.328235 0.000000 0.660216
0.501174 0.000000 0.660216
0.619455 0.000000 0.660216
0.777237 0.000000 0.684222
0.899840 0.000000 0.676529
1.000000 0.022443 0.663866
0.000000 0.152990 0.660216
0.086617 0.118453 0.683979
0.188261 0.087359 0.683905
0.322905 0.087359 0.683905
0.514726 0.087359 0.683905
0.645748 0.087359 0.683905
0.815621 0.072664 0.703293
0.953621 0.057268 0.690116
1.000000 0.133491 0.657284
0.000000 0.270541 0.660216
0.086617 0.249937 0.683979
0.209500 0.234865 0.671680
0.318429 0.210758 0.671554
0.509706 0.210758 0.671554
0.640451 0.210758 0.671554
0.803271 0.196063 0.683725
0.941270 0.180667 0.670298
1.000000 0.244539 0.650482
0.000000 0.387171 0.660216
0.086617 0.379943 0.683979
0.209500 0.366109 0.671680
0.332383 0.351277 0.659380
0.504929 0.334157 0.659203
0.635155 0.334157 0.659203
0.790920 0.319462 0.664072
0.928919 0.304065 0.650331
1.000000 0.355587 0.643361
0.000000 0.497812 0.607399
0.064436 0.527008 0.658371
0.187426 0.522608 0.656779
0.332383 0.535316 0.659380
0.504653 0.514301 0.639502
0.625223 0.507119 0.639240
0.770847 0.493144 0.633227
0.908731 0.478503 0.618783
1.000000 0.471315 0.591177
0.000000 0.604527 0.607399
0.064436 0.654929 0.658371
0.187426 0.653264 0.656779
0.314065 0.647966 0.651539
0.494312 0.635338 0.639054
0.620280 0.623762 0.627224
0.758496 0.597530 0.601268
0.900943 0.566123 0.569967
1.000000 0.583590 0.586764
0.000000 0.718107 0.596339
0.045772 0.785325 0.637296
0.166455 0.786041 0.634664
0.317272 0.794827 0.635885
0.490282 0.774835 0.616194
0.606879 0.762557 0.605910
0.761890 0.758107 0.612187
0.896048 0.738666 0.597941
1.000000 0.736561 0.617232
0.000000 0.903668 0.623386
0.056044 0.958004 0.636494
0.178928 0.945704 0.624343
0.301811 0.933405 0.612296
0.475580 0.913298 0.593021
0.600139 0.901020 0.591207
0.761234 0.900353 0.597484
0.900353 0.889230 0.597484
1.000000 0.859627 0.617232
0.026786 1.000000 0.604541
0.137165 1.000000 0.604761
0.247749 1.000000 0.605075
0.358333 1.000000 0.605546
0.512637 1.000000 0.602718
0.629998 1.000000 0.615987
0.764695 1.000000 0.621597
0.891368 1.000000 0.621597
1.000000 0.984681 0.621597
0.000000 0.040730 0.783845
0.076057 0.000000 0.783845
0.194190 0.000000 0.783845
0.313509 0.000000 0.783845
0.482509 0.000000 0.783845
0.597355 0.000000 0.783845
0.735625 0.000000 0.783845
0.899840 0.000000 0.816346
1.000000 0.022443 0.796692
0.000000 0.157169 0.783845
0.071092 0.110965 0.823133
0.164505 0.071834 0.823059
0.298534 0.071834 0.823059
0.489665 0.071834 0.823059
0.619247 0.071834 0.823059
0.775548 0.071834 0.823059
0.953621 0.057268 0.850719
1.000000 0.133491 0.790463
0.000000 0.272662 0.783845
0.071092 0.242617 0.823133
0.193975 0.227377 0.810834
0.294561 0.195233 0.810708
0.485148 0.195233 0.810708
0.614183 0.195233 0.810708
0.770252 0.195233 0.810708
0.941270 0.180667 0.831205
1.000000 0.244539 0.784103
0.000000 0.387346 0.783845
0.071092 0.373038 0.823133
0.193975 0.358880 0.810834
0.316858 0.343789 0.798534
0.481086 0.318632 0.798357
0.609256 0.318632 0.798357
0.764955 0.318632 0.798357
0.928919 0.304065 0.811648
1.000000 0.355587 0.777547
0.000000 0.546743 0.783845
0.071092 0.554705 0.823133
0.193975 0.542179 0.810834
0.316858 0.529442 0.798534
0.489889 0.507529 0.778539
0.600413 0.492355 0.778278
0.754949 0.492355 0.778278
0.908731 0.478503 0.780975
1.000000 0.510477 0.765092
0.000000 0.593277 0.721137
0.045265 0.633312 0.788796
0.163847 0.631569 0.791613
0.316858 0.650961 0.798534
0.489889 0.630630 0.778539
0.605516 0.617239 0.766262
0.749290 0.608664 0.765927
0.896380 0.594812 0.761472
1.000000 0.614435 0.756172
0.000000 0.717805 0.721137
0.045265 0.784744 0.788796
0.163847 0.787442 0.791613
0.272020 0.800305 0.804838
0.464854 0.776001 0.780482
0.592520 0.761965 0.766398
0.743400 0.747522 0.751620
0.882619 0.720461 0.724939
1.000000 0.717251 0.721101
0.000000 0.831375 0.711853
0.014270 0.927621 0.776671
0.096775 0.966515 0.797431
0.235483 0.949205 0.780754
0.475580 0.913298 0.755061
0.591207 0.901020 0.742977
0.729091 0.886378 0.729408
0.885589 0.882460 0.736522
1.000000 0.863535 0.741506
0.000000 0.948928 0.708111
0.068139 1.000000 0.733296
0.247749 1.000000 0.737884
0.358333 1.000000 0.738057
0.512637 1.000000 0.735793
0.615987 1.000000 0.734763
0.745653 1.000000 0.739229
0.882452 1.000000 0.745871
1.000000 0.991197 0.745871
0.000000 0.047154 0.907474
0.067894 0.000000 0.907474
0.184096 0.000000 0.907474
0.301284 0.000000 0.907474
0.467736 0.000000 0.907474
0.580163 0.000000 0.907474
0.715378 0.000000 0.907474
0.851789 0.000000 0.907474
1.000000 0.022443 0.928754
0.000000 0.162013 0.907474
0.055567 0.103477 0.962287
0.140818 0.056309 0.962213
0.274447 0.056309 0.962213
0.465410 0.056309 0.962213
0.594006 0.056309 0.962213
0.748882 0.056309 0.962213
0.905349 0.056309 0.962213
1.000000 0.133491 0.922809
0.000000 0.276062 0.907474
0.055567 0.235242 0.962287
0.178450 0.219889 0.949988
0.270818 0.179708 0.949862
0.461341 0.179708 0.949862
0.589318 0.179708 0.949862
0.743740 0.179708 0.949862
0.900052 0.179708 0.949862
1.000000 0.244539 0.916812
0.000000 0.389396 0.907474
0.055567 0.365957 0.962287
0.178450 0.351552 0.949988
0.301333 0.336301 0.937688
0.457805 0.303107 0.937511
0.584900 0.303107 0.937511
0.738667 0.303107 0.937511
0.894756 0.303107 0.937511
1.000000 0.355587 0.910737
0.000000 0.547686 0.907474
0.055567 0.549019 0.962287
0.178450 0.536281 0.949988
0.301333 0.523244 0.937688
0.475125 0.500758 0.917577
0.577053 0.477592 0.917316
0.729160 0.477592 0.917316
0.884678 0.477592 0.917316
1.000000 0.510477 0.900721
0.000000 0.653229 0.907474
0.055567 0.670349 0.962287
0.178450 0.657892 0.949988
0.301333 0.645326 0.937688
0.475125 0.624339 0.917577
0.590752 0.610468 0.905300
0.724284 0.593900 0.904965
0.879015 0.593900 0.904965
1.000000 0.614435 0.893764
0.000000 0.708321 0.834876
0.010117 0.774102 0.935199
0.095483 0.792004 0.971231
0.234225 0.775317 0.953888
0.475125 0.769369 0.917577
0.590752 0.756870 0.905300
0.728637 0.741045 0.890658
0.872280 0.732363 0.890263
1.000000 0.738195 0.883770
0.000000 0.831081 0.834876
0.010117 0.930368 0.935199
0.095483 0.965857 0.971231
0.234225 0.948534 0.953888
0.430486 0.921510 0.926821
0.560410 0.905209 0.910478
0.714371 0.886772 0.891962
0.866521 0.871283 0.876017
1.000000 0.850911 0.855688
0.000000 0.948928 0.830659
0.068139 1.000000 0.869018
0.187569 1.000000 0.869040
0.307000 1.000000 0.869070
0.473648 1.000000 0.867779
0.615987 1.000000 0.869294
0.739229 1.000000 0.867812
0.862472 1.000000 0.863870
1.000000 0.997835 0.870145
0.026786 0.077355 1.000000
0.084079 0.026786 1.000000
0.192909 0.026786 1.000000
0.302539 0.026786 1.000000
0.458745 0.026786 1.000000
0.563663 0.026786 1.000000
0.689733 0.026786 1.000000
0.816819 0.026786 1.000000
0.944878 0.026786 1.000000
0.026786 0.185145 1.000000
0.137165 0.182650 1.000000
0.200476 0.137834 1.000000
0.309440 0.137834 1.000000
0.465574 0.137834 1.000000
0.570087 0.137834 1.000000
0.695802 0.137834 1.000000
0.822673 0.137834 1.000000
0.950649 0.137834 1.000000
0.026786 0.292261 1.000000
0.137165 0.290376 1.000000
0.247749 0.287940 1.000000
0.316882 0.248882 1.000000
0.472720 0.248882 1.000000
0.576709 0.248882 1.000000
0.701962 0.248882 1.000000
0.828552 0.248882 1.000000
0.956420 0.248882 1.000000
0.026786 0.398769 1.000000
0.137165 0.397353 1.000000
0.247749 0.395586 1.000000
0.358333 0.393229 1.000000
0.480344 0.359930 1.000000
0.583633 0.359930 1.000000
0.708261 0.359930 1.000000
0.834470 0.359930 1.000000
0.962191 0.359930 1.000000
0.026786 0.548238 1.000000
0.137165 0.547943 1.000000
0.247749 0.547502 1.000000
0.358333 0.546809 1.000000
0.512637 0.540141 1.000000
0.590295 0.514842 1.000000
0.714816 0.514842 1.000000
0.841470 0.514842 1.000000
0.970196 0.514842 1.000000
0.026786 0.647462 1.000000
0.137165 0.647337 1.000000
0.247749 0.647147 1.000000
0.358333 0.646840 1.000000
0.512637 0.642273 1.000000
0.615987 0.638737 1.000000
0.719961 0.618800 1.000000
0.846416 0.618800 1.000000
0.975571 0.618800 1.000000
0.000000 0.704846 0.948928
0.068139 0.729680 1.000000
0.247749 0.765154 1.000000
0.358333 0.765091 1.000000
0.512637 0.762444 1.000000
0.615987 0.760634 1.000000
0.739229 0.756132 1.000000
0.851834 0.742560 1.000000
0.981943 0.742560 1.000000
0.000000 0.826887 0.948928
0.068139 0.864840 1.000000
0.187569 0.864863 1.000000
0.307000 0.864894 1.000000
0.473648 0.863562 1.000000
0.615987 0.880782 1.000000
0.739229 0.879075 1.000000
0.862472 0.873631 1.000000
0.988196 0.866320 1.000000
0.000000 0.948928 0.948928
0.068139 1.000000 1.000000
0.187569 1.000000 1.000000
0.307000 1.000000 1.000000
0.473648 1.000000 1.000000
0.585265 1.000000 1.000000
0.718368 1.000000 1.000000
0.851470 1.000000 1.000000
0.989692 0.995591 0.995591
