docs/luts/fuji_recipes/Eterna_GB_The_Cinema.cube
TITLE "Fujifilm Recipe: GB The Cinema (Eterna)"
# FilmSim=Eterna HL=1 SH=2 Col=2 WB=Auto WBR=0 WBB=0
LUT_3D_SIZE 5
DOMAIN_MIN 0.0 0.0 0.0
DOMAIN_MAX 1.0 1.0 1.0
0.036800 0.036800 0.036800
0.269167 0.002358 0.002358
0.471377 0.000000 0.000000
0.715058 0.000000 0.000000
0.944239 0.000000 0.000000
0.024768 0.283831 0.010569
0.283831 0.270982 0.010569
0.512367 0.242377 0.000000
0.777237 0.226787 0.000000
0.944239 0.217651 0.000000
0.026725 0.514317 0.000000
0.287219 0.514317 0.000000
0.514317 0.489797 0.000000
0.777237 0.500985 0.000000
1.000000 0.489690 0.022443
0.040559 0.780551 0.000000
0.286255 0.780551 0.000000
0.574996 0.780551 0.000000
0.780551 0.743523 0.000000
1.000000 0.710549 0.022443
0.077355 1.000000 0.026786
0.304998 1.000000 0.026786
0.575530 1.000000 0.026786
0.802871 1.000000 0.026786
1.000000 0.953707 0.026786
0.010436 0.024707 0.285083
0.267947 0.010436 0.285083
0.512367 0.000000 0.274676
0.777237 0.000000 0.257925
0.944239 0.000000 0.218754
0.002033 0.270155 0.271514
0.256208 0.257601 0.258986
0.540503 0.207401 0.208820
0.781555 0.169202 0.170599
1.000000 0.184102 0.185339
0.000000 0.514317 0.243649
0.237082 0.552142 0.222837
0.551891 0.537566 0.225346
0.803145 0.505914 0.197314
1.000000 0.501596 0.245665
0.000000 0.780551 0.211891
0.223361 0.807126 0.194389
0.558898 0.806875 0.196898
0.806875 0.779173 0.196898
1.000000 0.722042 0.245665
0.026786 1.000000 0.209104
0.284496 1.000000 0.247749
0.561778 1.000000 0.250007
0.790735 1.000000 0.250007
1.000000 0.965305 0.250007
0.000000 0.025919 0.498820
0.227772 0.000000 0.498820
0.502074 0.000000 0.512367
0.777237 0.000000 0.492849
1.000000 0.022443 0.530387
0.000000 0.273456 0.498820
0.232056 0.246623 0.486438
0.549547 0.224370 0.491555
0.803271 0.196063 0.522333
1.000000 0.244539 0.516150
0.000000 0.473171 0.456533
0.205718 0.542916 0.466198
0.519155 0.521883 0.500202
0.774977 0.471257 0.447544
1.000000 0.472037 0.452395
0.000000 0.780551 0.446047
0.194389 0.807126 0.485394
0.508434 0.776654 0.473149
0.776654 0.764878 0.473149
1.000000 0.732290 0.492958
0.026786 1.000000 0.471816
0.247749 1.000000 0.472948
0.539542 1.000000 0.497323
0.774259 1.000000 0.497323
1.000000 0.978194 0.497323
0.000000 0.040730 0.783845
0.194190 0.000000 0.783845
0.482509 0.000000 0.783845
0.735625 0.000000 0.783845
1.000000 0.022443 0.796692
0.000000 0.272662 0.783845
0.193975 0.227377 0.810834
0.485148 0.195233 0.810708
0.770252 0.195233 0.810708
1.000000 0.244539 0.784103
0.000000 0.546743 0.783845
0.193975 0.542179 0.810834
0.489889 0.507529 0.778539
0.754949 0.492355 0.778278
1.000000 0.510477 0.765092
0.000000 0.717805 0.721137
0.163847 0.787442 0.791613
0.464854 0.776001 0.780482
0.743400 0.747522 0.751620
1.000000 0.717251 0.721101
0.000000 0.948928 0.708111
0.247749 1.000000 0.737884
0.512637 1.000000 0.735793
0.745653 1.000000 0.739229
1.000000 0.991197 0.745871
0.026786 0.077355 1.000000
0.192909 0.026786 1.000000
0.458745 0.026786 1.000000
0.689733 0.026786 1.000000
0.944878 0.026786 1.000000
0.026786 0.292261 1.000000
0.247749 0.287940 1.000000
0.472720 0.248882 1.000000
0.701962 0.248882 1.000000
0.956420 0.248882 1.000000
0.026786 0.548238 1.000000
0.247749 0.547502 1.000000
0.512637 0.540141 1.000000
0.714816 0.514842 1.000000
0.970196 0.514842 1.000000
0.000000 0.704846 0.948928
0.247749 0.765154 1.000000
0.512637 0.762444 1.000000
0.739229 0.756132 1.000000
0.981943 0.742560 1.000000
0.000000 0.948928 0.948928
0.187569 1.000000 1.000000
0.473648 1.000000 1.000000
0.718368 1.000000 1.000000
0.989692 0.995591 0.995591
