docs/luts/fuji_recipes/NEGA_RR_Aged_Color.cube
TITLE "Fujifilm Recipe: RR Aged Color (NEGA)"
# FilmSim=NEGA HL=2 SH=3 Col=4 WB=Auto WBR=5 WBB=-3
LUT_3D_SIZE 9
DOMAIN_MIN 0.0 0.0 0.0
DOMAIN_MAX 1.0 1.0 1.0
0.014080 0.014080 0.014080
0.167464 0.000000 0.000000
0.301411 0.000000 0.000000
0.435358 0.000000 0.000000
0.640319 0.000000 0.000000
0.802013 0.000000 0.000000
0.963707 0.000000 0.000000
1.000000 0.032372 0.032372
1.000000 0.032372 0.032372
0.000000 0.151986 0.000000
0.167464 0.148857 0.000000
0.301411 0.136587 0.000000
0.435358 0.132389 0.000000
0.640319 0.127891 0.000000
0.802013 0.126589 0.000000
0.963707 0.125738 0.000000
1.000000 0.149963 0.032372
1.000000 0.149963 0.032372
0.000000 0.271050 0.000000
0.155455 0.271050 0.000000
0.301411 0.267921 0.000000
0.435358 0.259687 0.000000
0.640319 0.250864 0.000000
0.802013 0.248308 0.000000
0.963707 0.246639 0.000000
1.000000 0.263032 0.032372
1.000000 0.263032 0.032372
0.000000 0.390114 0.000000
0.150142 0.390114 0.000000
0.294510 0.390114 0.000000
0.435358 0.386985 0.000000
0.640319 0.373836 0.000000
0.802013 0.370028 0.000000
0.963707 0.367541 0.000000
1.000000 0.376100 0.032372
1.000000 0.376100 0.032372
0.000000 0.567736 0.000000
0.144823 0.567736 0.000000
0.284076 0.567736 0.000000
0.423329 0.567736 0.000000
0.640319 0.564724 0.000000
0.802013 0.560497 0.000000
0.963707 0.558245 0.000000
1.000000 0.555052 0.032372
1.000000 0.555052 0.032372
0.000000 0.711464 0.000000
0.143147 0.711464 0.000000
0.280789 0.711464 0.000000
0.418430 0.711464 0.000000
0.637742 0.711464 0.000000
0.802013 0.708666 0.000000
0.963707 0.705418 0.000000
1.000000 0.692690 0.032372
1.000000 0.692690 0.032372
0.000000 0.855192 0.000000
0.142056 0.855192 0.000000
0.278648 0.855192 0.000000
0.415240 0.855192 0.000000
0.634234 0.855192 0.000000
0.800507 0.855192 0.000000
0.963707 0.852591 0.000000
1.000000 0.830328 0.032372
1.000000 0.830328 0.032372
0.000000 0.998920 0.000000
0.141289 0.998920 0.000000
0.277143 0.998920 0.000000
0.412998 0.998920 0.000000
0.632155 0.998920 0.000000
0.797530 0.998920 0.000000
0.962905 0.998920 0.000000
1.000000 0.967965 0.032372
1.000000 0.967965 0.032372
0.032372 1.000000 0.032372
0.164662 1.000000 0.032372
0.291864 1.000000 0.032372
0.419066 1.000000 0.032372
0.624559 1.000000 0.032372
0.779402 1.000000 0.032372
0.934244 1.000000 0.032372
1.000000 1.000000 0.032372
1.000000 1.000000 0.032372
0.000000 0.000000 0.142699
0.167464 0.000000 0.137693
0.301411 0.000000 0.126343
0.435358 0.000000 0.122460
0.640319 0.000000 0.118299
0.802013 0.000000 0.117094
0.963707 0.000000 0.116307
1.000000 0.032372 0.141144
1.000000 0.032372 0.141144
0.000000 0.151986 0.140587
0.160383 0.136156 0.121621
0.332183 0.098303 0.083767
0.503983 0.060450 0.045914
0.756030 0.013856 0.000000
0.917723 0.012697 0.000000
1.000000 0.089646 0.079417
1.000000 0.156818 0.148083
1.000000 0.156818 0.148083
0.000000 0.271050 0.127819
0.131110 0.293242 0.092347
0.332183 0.284662 0.083767
0.503983 0.246808 0.045914
0.756030 0.191502 0.000000
0.917723 0.175477 0.000000
1.000000 0.220787 0.079417
1.000000 0.268814 0.148083
1.000000 0.268814 0.148083
0.000000 0.390114 0.123450
0.097462 0.445953 0.058700
0.307116 0.445953 0.058700
0.503983 0.433167 0.045914
0.756030 0.369148 0.000000
0.917723 0.338257 0.000000
1.000000 0.351927 0.079417
1.000000 0.380810 0.148083
1.000000 0.380810 0.148083
0.000000 0.567736 0.119077
0.041737 0.680473 0.002974
0.251390 0.680473 0.002974
0.461044 0.680473 0.002974
0.756030 0.646824 0.000000
0.917723 0.594737 0.000000
1.000000 0.560201 0.079417
1.000000 0.559274 0.148083
1.000000 0.559274 0.148083
0.000000 0.711464 0.117699
0.035373 0.827175 0.000000
0.226695 0.827175 0.000000
0.418018 0.827175 0.000000
0.724701 0.827175 0.000000
0.917723 0.792888 0.000000
1.000000 0.719837 0.079417
1.000000 0.695606 0.148083
1.000000 0.695606 0.148083
0.000000 0.855192 0.116801
0.033148 0.970903 0.000000
0.212433 0.970903 0.000000
0.391718 0.970903 0.000000
0.680882 0.970903 0.000000
0.899125 0.970903 0.000000
1.000000 0.879474 0.079417
1.000000 0.831938 0.148083
1.000000 0.831938 0.148083
0.000000 0.998920 0.116171
0.139786 1.000000 0.114631
0.275842 1.000000 0.114631
0.411899 1.000000 0.114631
0.632689 1.000000 0.114631
0.798310 1.000000 0.114631
0.963931 1.000000 0.114631
1.000000 0.968269 0.148083
1.000000 0.968269 0.148083
0.032372 1.000000 0.141144
0.171378 1.000000 0.148083
0.297373 1.000000 0.148083
0.423368 1.000000 0.148083
0.628122 1.000000 0.148083
0.781495 1.000000 0.148083
0.934868 1.000000 0.148083
1.000000 1.000000 0.148083
1.000000 1.000000 0.148083
0.000000 0.000000 0.252833
0.156764 0.000000 0.252833
0.301411 0.000000 0.247827
0.435358 0.000000 0.240211
0.640319 0.000000 0.232049
0.802013 0.000000 0.229685
0.963707 0.000000 0.228141
1.000000 0.032372 0.245732
1.000000 0.032372 0.245732
0.000000 0.139346 0.252833
0.133633 0.109407 0.267252
0.329559 0.095679 0.253524
0.501359 0.057825 0.215671
0.765411 0.000000 0.155145
0.927105 0.000000 0.141216
1.000000 0.088799 0.199965
1.000000 0.157465 0.252241
1.000000 0.157465 0.252241
0.000000 0.271050 0.250721
0.124111 0.286243 0.257730
0.301059 0.253538 0.225025
0.472859 0.215684 0.187172
0.744977 0.150826 0.122313
0.954597 0.102899 0.074386
1.000000 0.210960 0.190677
1.000000 0.276276 0.259343
1.000000 0.276276 0.259343
0.000000 0.390114 0.242153
0.090464 0.438954 0.224083
0.275992 0.414829 0.199958
0.472859 0.402043 0.187172
0.744977 0.337184 0.122313
0.954597 0.289258 0.074386
1.000000 0.343522 0.190677
1.000000 0.386953 0.259343
1.000000 0.386953 0.259343
0.000000 0.567736 0.233573
0.034647 0.673818 0.168266
0.219861 0.650881 0.143827
0.429514 0.650881 0.143827
0.744977 0.630416 0.122313
0.954597 0.584827 0.074386
1.000000 0.555432 0.190677
1.000000 0.564466 0.259343
1.000000 0.564466 0.259343
0.000000 0.711464 0.230871
0.000000 0.852193 0.131170
0.177259 0.837210 0.101225
0.386913 0.837210 0.101225
0.724918 0.837210 0.101225
0.954597 0.811680 0.074386
1.000000 0.716800 0.190677
1.000000 0.699191 0.259343
1.000000 0.699191 0.259343
0.000000 0.855192 0.229111
0.000000 0.995921 0.121304
0.154487 1.000000 0.082163
0.353912 1.000000 0.082163
0.677401 1.000000 0.082163
0.920159 1.000000 0.082163
1.000000 0.878167 0.190677
1.000000 0.833917 0.259343
1.000000 0.833917 0.259343
0.000000 0.998920 0.227873
0.139649 1.000000 0.226348
0.275193 1.000000 0.225891
0.411135 1.000000 0.225891
0.632997 1.000000 0.225891
0.798479 1.000000 0.225891
0.963962 1.000000 0.225891
1.000000 0.968643 0.259343
1.000000 0.968643 0.259343
0.032372 1.000000 0.245732
0.173101 1.000000 0.253210
0.304499 1.000000 0.259343
0.429010 1.000000 0.259343
0.632502 1.000000 0.259343
0.784069 1.000000 0.259343
0.935635 1.000000 0.259343
1.000000 1.000000 0.259343
1.000000 1.000000 0.259343
0.000000 0.000000 0.362967
0.151021 0.000000 0.362967
0.296234 0.000000 0.362967
0.435358 0.000000 0.357961
0.640319 0.000000 0.345799
0.802013 0.000000 0.342276
0.963707 0.000000 0.339975
1.000000 0.032372 0.350321
1.000000 0.032372 0.350321
0.000000 0.134241 0.362967
0.102510 0.078283 0.408510
0.312163 0.078283 0.408510
0.501359 0.057825 0.388053
0.765411 0.000000 0.324577
0.927105 0.000000 0.295436
1.000000 0.088799 0.321367
1.000000 0.157465 0.355746
1.000000 0.157465 0.355746
0.000000 0.263319 0.362967
0.098135 0.260267 0.404136
0.278515 0.230994 0.374863
0.467711 0.210536 0.354405
0.740082 0.145611 0.289479
0.949703 0.097684 0.241553
1.000000 0.209081 0.311633
1.000000 0.277746 0.362992
1.000000 0.277746 0.362992
0.000000 0.390114 0.360855
0.090464 0.438954 0.396464
0.262264 0.401101 0.358611
0.441735 0.370919 0.328429
0.715385 0.305655 0.263165
0.925005 0.257728 0.215239
1.000000 0.332601 0.301938
1.000000 0.395441 0.370603
1.000000 0.395441 0.370603
0.000000 0.567736 0.348070
0.034647 0.673818 0.340648
0.205954 0.637828 0.302301
0.397985 0.621289 0.284679
0.715385 0.600824 0.263165
0.925005 0.555235 0.215239
1.000000 0.548982 0.301938
1.000000 0.571301 0.370603
1.000000 0.571301 0.370603
0.000000 0.711464 0.344042
0.000000 0.852193 0.300393
0.163352 0.824157 0.259700
0.355383 0.807618 0.242078
0.695326 0.807618 0.242078
0.925005 0.782088 0.215239
1.000000 0.712691 0.301938
1.000000 0.703912 0.370603
1.000000 0.703912 0.370603
0.000000 0.855192 0.341420
0.000000 0.995921 0.277797
0.131238 1.000000 0.225314
0.312782 0.993947 0.199476
0.654802 0.993947 0.199476
0.910011 0.993947 0.199476
1.000000 0.876400 0.301938
1.000000 0.836524 0.370603
1.000000 0.836524 0.370603
0.000000 0.998920 0.339576
0.139649 1.000000 0.338198
0.274966 1.000000 0.337411
0.410538 1.000000 0.337151
0.633407 1.000000 0.337151
0.798705 1.000000 0.337151
0.964002 1.000000 0.337151
1.000000 0.969135 0.370603
1.000000 0.969135 0.370603
0.032372 1.000000 0.350321
0.173101 1.000000 0.356558
0.308418 1.000000 0.365274
0.436838 1.000000 0.370603
0.638270 1.000000 0.370603
0.787457 1.000000 0.370603
0.936645 1.000000 0.370603
1.000000 1.000000 0.370603
1.000000 1.000000 0.370603
0.000000 0.000000 0.465964
0.148265 0.000000 0.465964
0.290827 0.000000 0.465964
0.433389 0.000000 0.465964
0.640319 0.000000 0.452177
0.802013 0.000000 0.515602
0.963707 0.000000 0.513652
1.000000 0.032372 0.513348
1.000000 0.032372 0.513348
0.000000 0.131791 0.465964
0.073403 0.049176 0.540614
0.283056 0.049176 0.540614
0.492709 0.049176 0.540614
0.765411 0.000000 0.585250
0.927105 0.000000 0.534797
1.000000 0.088799 0.511438
1.000000 0.157465 0.518391
1.000000 0.157465 0.518391
0.000000 0.258513 0.465964
0.069029 0.231160 0.536239
0.227554 0.180033 0.589528
0.437207 0.180033 0.589528
0.740082 0.145611 0.556785
0.949703 0.097684 0.511195
1.000000 0.209081 0.505505
1.000000 0.277746 0.524736
1.000000 0.277746 0.524736
0.000000 0.385235 0.465964
0.069029 0.417519 0.536239
0.218862 0.357699 0.581370
0.403122 0.332305 0.557537
0.708091 0.297883 0.524793
0.917711 0.249957 0.479204
1.000000 0.329362 0.497209
1.000000 0.398027 0.533341
1.000000 0.398027 0.533341
0.000000 0.567736 0.455147
0.034647 0.673818 0.605082
0.205954 0.637828 0.569092
0.377261 0.601838 0.533101
0.664787 0.550226 0.481490
0.873918 0.504148 0.435411
1.000000 0.524661 0.472382
1.000000 0.577608 0.537645
1.000000 0.577608 0.537645
0.000000 0.711464 0.449880
0.000000 0.852193 0.562020
0.163352 0.824157 0.528568
0.334659 0.788167 0.492577
0.644512 0.756805 0.461215
0.873918 0.731001 0.435411
1.000000 0.697198 0.472382
1.000000 0.709499 0.537645
1.000000 0.709499 0.537645
0.000000 0.855192 0.514813
0.000000 0.995921 0.521631
0.131238 1.000000 0.489872
0.292058 0.974496 0.452053
0.603554 0.942699 0.420256
0.858764 0.942699 0.420256
1.000000 0.869735 0.472382
1.000000 0.841391 0.537645
1.000000 0.841391 0.537645
0.000000 0.998920 0.513379
0.139649 1.000000 0.513819
0.274966 1.000000 0.514363
0.470330 1.000000 0.508865
0.628274 1.000000 0.507891
0.795886 1.000000 0.507891
0.963498 1.000000 0.507891
1.000000 0.973282 0.537645
1.000000 0.973282 0.537645
0.032372 1.000000 0.513348
0.173101 1.000000 0.519120
0.308418 1.000000 0.526673
0.501773 1.000000 0.535955
0.644213 1.000000 0.537645
0.792591 1.000000 0.537645
0.940969 1.000000 0.537645
1.000000 1.000000 0.537645
1.000000 1.000000 0.537645
0.000000 0.000000 0.657135
0.143690 0.000000 0.657135
0.281854 0.000000 0.657135
0.420017 0.000000 0.657135
0.639644 0.000000 0.657135
0.802013 0.000000 0.652658
0.963707 0.000000 0.649787
1.000000 0.032372 0.640663
1.000000 0.032372 0.640663
0.000000 0.127724 0.657135
0.023526 0.000000 0.782228
0.227117 0.000000 0.782228
0.430708 0.000000 0.782228
0.756453 0.000000 0.782228
0.927105 0.000000 0.722529
1.000000 0.088799 0.659221
1.000000 0.157465 0.644387
1.000000 0.157465 0.644387
0.000000 0.250537 0.657135
0.008149 0.170281 0.789715
0.188148 0.140626 0.761883
0.397801 0.140626 0.761883
0.735341 0.140626 0.761883
0.949703 0.097684 0.721035
1.000000 0.209081 0.655083
1.000000 0.277746 0.649072
1.000000 0.277746 0.649072
0.000000 0.373349 0.657135
0.008149 0.356639 0.789715
0.179456 0.318293 0.753725
0.363715 0.292899 0.729891
0.703350 0.292899 0.729891
0.917711 0.249957 0.689043
1.000000 0.329362 0.649296
1.000000 0.398027 0.655425
1.000000 0.398027 0.655425
0.000000 0.564147 0.657135
0.008149 0.648612 0.789715
0.179456 0.612622 0.753725
0.350763 0.576632 0.717735
0.647584 0.533023 0.674126
0.861508 0.491737 0.632840
1.000000 0.516297 0.625504
1.000000 0.579584 0.661621
1.000000 0.579584 0.661621
0.000000 0.711464 0.655167
0.000000 0.852193 0.768014
0.163352 0.824157 0.738407
0.334659 0.788167 0.702417
0.611418 0.723710 0.637960
0.836031 0.693114 0.607363
1.000000 0.676191 0.606447
1.000000 0.715532 0.665677
1.000000 0.715532 0.665677
0.000000 0.855192 0.651526
0.000000 0.995921 0.712130
0.131238 1.000000 0.694765
0.292058 0.974496 0.661893
0.570459 0.909605 0.597001
0.820877 0.904812 0.592209
1.000000 0.860698 0.606447
1.000000 0.847424 0.665677
1.000000 0.847424 0.665677
0.000000 0.998920 0.649354
0.139649 1.000000 0.649973
0.274966 1.000000 0.650365
0.470330 1.000000 0.646407
0.624999 1.000000 0.642584
0.793726 1.000000 0.641957
0.963112 1.000000 0.641957
1.000000 0.979315 0.665677
1.000000 0.979315 0.665677
0.032372 1.000000 0.640663
0.173101 1.000000 0.644925
0.308418 1.000000 0.650502
0.501773 1.000000 0.657954
0.649483 1.000000 0.664914
0.798624 1.000000 0.665677
0.947002 1.000000 0.665677
1.000000 1.000000 0.665677
1.000000 1.000000 0.665677
0.000000 0.000000 0.790083
0.142499 0.000000 0.790083
0.279517 0.000000 0.790083
0.416536 0.000000 0.790083
0.635597 0.000000 0.790083
0.802013 0.000000 0.789715
0.963707 0.000000 0.785922
1.000000 0.032372 0.767978
1.000000 0.032372 0.767978
0.000000 0.126666 0.790083
0.021795 0.000000 0.915176
0.210405 0.000000 0.915176
0.399015 0.000000 0.915176
0.702521 0.000000 0.915176
0.927105 0.000000 0.910260
1.000000 0.088799 0.807004
1.000000 0.157465 0.770382
1.000000 0.157465 0.770382
0.000000 0.248460 0.790083
0.000000 0.151928 0.930812
0.148741 0.101220 0.934237
0.358395 0.101220 0.934237
0.697856 0.101220 0.934237
0.949703 0.097684 0.930874
1.000000 0.209081 0.804660
1.000000 0.277746 0.773407
1.000000 0.277746 0.773407
0.000000 0.370254 0.790083
0.000000 0.326558 0.930812
0.140049 0.278887 0.926080
0.324309 0.253493 0.902246
0.665865 0.253493 0.902246
0.917711 0.249957 0.898883
1.000000 0.329362 0.801383
1.000000 0.398027 0.777510
1.000000 0.398027 0.777510
0.000000 0.560726 0.790083
0.000000 0.601957 0.930812
0.140049 0.575138 0.926080
0.311356 0.539147 0.890089
0.609697 0.495137 0.846079
0.861508 0.491737 0.842679
1.000000 0.516297 0.787908
1.000000 0.579584 0.783620
1.000000 0.579584 0.783620
0.000000 0.708986 0.790083
0.000000 0.814533 0.930812
0.140049 0.801991 0.926080
0.311356 0.766001 0.890089
0.589013 0.701306 0.825394
0.820549 0.677631 0.801720
1.000000 0.661233 0.766820
1.000000 0.717998 0.790142
1.000000 0.717998 0.790142
0.000000 0.855192 0.788239
0.000000 0.995921 0.902628
0.131238 1.000000 0.899658
0.292058 0.974496 0.871732
0.570459 0.909605 0.806840
0.782990 0.866925 0.764161
1.000000 0.837821 0.740513
1.000000 0.853457 0.793710
1.000000 0.853457 0.793710
0.000000 0.998920 0.785329
0.139649 1.000000 0.786128
0.274966 1.000000 0.786367
0.470330 1.000000 0.783948
0.624999 1.000000 0.781613
0.788816 1.000000 0.776022
0.962234 1.000000 0.776022
1.000000 0.985348 0.793710
1.000000 0.985348 0.793710
0.032372 1.000000 0.767978
0.173101 1.000000 0.770730
0.308418 1.000000 0.774331
0.501773 1.000000 0.779954
0.649483 1.000000 0.786914
0.804657 1.000000 0.793710
0.953035 1.000000 0.793710
1.000000 1.000000 0.793710
1.000000 1.000000 0.793710
0.000000 0.000000 0.923032
0.141663 0.000000 0.923032
0.277877 0.000000 0.923032
0.414092 0.000000 0.923032
0.633117 0.000000 0.923032
0.798930 0.000000 0.923032
0.963707 0.000000 0.922057
1.000000 0.032372 0.895293
1.000000 0.032372 0.895293
0.000000 0.125923 0.923032
0.066887 0.048124 1.000000
0.229261 0.048124 1.000000
0.391634 0.048124 1.000000
0.654409 0.048124 1.000000
0.852065 0.048124 1.000000
1.000000 0.088799 0.954786
1.000000 0.157465 0.896378
1.000000 0.157465 0.896378
0.000000 0.247002 0.923032
0.063761 0.189722 1.000000
0.206230 0.168406 1.000000
0.373105 0.168406 1.000000
0.644830 0.168406 1.000000
0.847965 0.168406 1.000000
1.000000 0.209081 0.954237
1.000000 0.277746 0.897743
1.000000 0.277746 0.897743
0.000000 0.368081 0.923032
0.063761 0.334505 1.000000
0.199077 0.310521 1.000000
0.347225 0.288687 1.000000
0.631148 0.288687 1.000000
0.842108 0.288687 1.000000
1.000000 0.329362 0.953470
1.000000 0.398027 0.899594
1.000000 0.398027 0.899594
0.000000 0.558685 0.923032
0.063761 0.564326 1.000000
0.199077 0.549863 1.000000
0.334394 0.527815 1.000000
0.582475 0.475281 1.000000
0.821273 0.475281 1.000000
1.000000 0.516297 0.950313
1.000000 0.579584 0.905620
1.000000 0.579584 0.905620
0.000000 0.706074 0.923032
0.063761 0.740570 1.000000
0.199077 0.731957 1.000000
0.334394 0.718828 1.000000
0.551126 0.663419 0.997347
0.786062 0.643144 0.977072
1.000000 0.661233 0.945373
1.000000 0.717998 0.912142
1.000000 0.717998 0.912142
0.000000 0.853464 0.923032
0.063761 0.916813 1.000000
0.199077 0.914052 1.000000
0.334394 0.909842 1.000000
0.551126 0.890272 0.997347
0.760258 0.844193 0.951268
0.988721 0.817447 0.924522
1.000000 0.856411 0.918664
1.000000 0.856411 0.918664
0.000000 0.998920 0.921304
0.139649 1.000000 0.922282
0.274966 1.000000 0.922369
0.470330 1.000000 0.921490
0.624999 1.000000 0.920641
0.788052 1.000000 0.918315
0.958279 1.000000 0.910088
1.000000 0.991381 0.921742
1.000000 0.991381 0.921742
0.032372 1.000000 0.895293
0.173101 1.000000 0.896535
0.308418 1.000000 0.898160
0.501773 1.000000 0.901953
0.649483 1.000000 0.908913
0.805198 1.000000 0.916251
0.959068 1.000000 0.921742
1.000000 1.000000 0.921742
1.000000 1.000000 0.921742
0.000000 0.000000 0.953975
0.141503 0.000000 0.953975
0.277563 0.000000 0.953975
0.413624 0.000000 0.953975
0.632692 0.000000 0.953975
0.798317 0.000000 0.953975
0.963707 0.000000 0.953742
1.000000 0.032372 0.924925
1.000000 0.032372 0.924925
0.000000 0.125780 0.953975
0.096521 0.079067 1.000000
0.247559 0.079067 1.000000
0.398597 0.079067 1.000000
0.643349 0.079067 1.000000
0.827208 0.079067 1.000000
1.000000 0.088799 0.989182
1.000000 0.157465 0.925703
1.000000 0.157465 0.925703
0.000000 0.246723 0.953975
0.094704 0.211716 1.000000
0.234126 0.199349 1.000000
0.387553 0.199349 1.000000
0.637709 0.199349 1.000000
0.824475 0.199349 1.000000
1.000000 0.209081 0.989051
1.000000 0.277746 0.926681
1.000000 0.277746 0.926681
0.000000 0.367666 0.953975
0.094704 0.346213 1.000000
0.230020 0.332116 1.000000
0.372588 0.319630 1.000000
0.629783 0.319630 1.000000
0.820635 0.319630 1.000000
1.000000 0.329362 0.988867
1.000000 0.398027 0.928009
1.000000 0.398027 0.928009
0.000000 0.558344 0.953975
0.094704 0.560030 1.000000
0.230020 0.551709 1.000000
0.365337 0.539280 1.000000
0.599226 0.506484 1.000000
0.805830 0.506484 1.000000
1.000000 0.516297 0.988112
1.000000 0.579584 0.934015
1.000000 0.579584 0.934015
0.000000 0.705567 0.953975
0.094704 0.723753 1.000000
0.230020 0.718528 1.000000
0.365337 0.710724 1.000000
0.579676 0.675017 1.000000
0.781572 0.651420 1.000000
1.000000 0.661233 0.986930
1.000000 0.717998 0.940537
1.000000 0.717998 0.940537
0.000000 0.852790 0.953975
0.094704 0.887475 1.000000
0.230020 0.885347 1.000000
0.365337 0.882168 1.000000
0.579676 0.867623 1.000000
0.751440 0.835375 0.991289
0.988721 0.817447 0.973361
1.000000 0.856411 0.947059
1.000000 0.856411 0.947059
0.000000 0.998920 0.952952
0.139649 1.000000 0.953971
0.274966 1.000000 0.954023
0.470330 1.000000 0.953502
0.624999 1.000000 0.952999
0.788052 1.000000 0.951622
0.954003 1.000000 0.941291
1.000000 0.992785 0.951542
1.000000 0.992785 0.951542
0.032372 1.000000 0.924925
0.173101 1.000000 0.925815
0.308418 1.000000 0.926980
0.501773 1.000000 0.930348
0.649483 1.000000 0.937308
0.805198 1.000000 0.944646
0.960472 1.000000 0.951542
1.000000 1.000000 0.951542
1.000000 1.000000 0.951542
