docs/luts/fuji_recipes/NEGA_NZD_Fuji_Superia_800.cube
TITLE "Fujifilm Recipe: NZD Fuji Superia 800 (NEGA)"
# FilmSim=NEGA HL=0 SH=1 Col=2 WB=Auto WBR=0 WBB=0
LUT_3D_SIZE 5
DOMAIN_MIN 0.0 0.0 0.0
DOMAIN_MAX 1.0 1.0 1.0
0.015360 0.015360 0.015360
0.266880 0.000000 0.000000
0.502856 0.000000 0.000000
0.758050 0.000000 0.000000
1.000000 0.001610 0.001610
0.000000 0.266880 0.000000
0.266880 0.266880 0.000000
0.502856 0.251526 0.000000
0.758050 0.245186 0.000000
1.000000 0.243529 0.001610
0.000000 0.502856 0.000000
0.251526 0.502856 0.000000
0.502856 0.502856 0.000000
0.758050 0.490181 0.000000
1.000000 0.508100 0.001610
0.000000 0.758050 0.000000
0.245186 0.758050 0.000000
0.490181 0.758050 0.000000
0.758050 0.758050 0.000000
1.000000 0.750051 0.001610
0.001610 1.000000 0.001610
0.243529 1.000000 0.001610
0.508100 1.000000 0.001610
0.750051 1.000000 0.001610
1.000000 1.000000 0.001610
0.000000 0.000000 0.266880
0.266880 0.000000 0.266880
0.502856 0.000000 0.251526
0.758050 0.000000 0.245186
1.000000 0.001610 0.243529
0.000000 0.266880 0.266880
0.251520 0.251520 0.251520
0.515530 0.223486 0.223486
0.803304 0.191348 0.191348
1.000000 0.238213 0.238213
0.000000 0.502856 0.251526
0.223486 0.515530 0.223486
0.515530 0.515530 0.223486
0.803304 0.510993 0.191348
1.000000 0.504970 0.238213
0.000000 0.758050 0.245186
0.191348 0.803304 0.191348
0.510993 0.803304 0.191348
0.803304 0.803304 0.191348
1.000000 0.748460 0.238213
0.001610 1.000000 0.243529
0.238213 1.000000 0.238213
0.504970 1.000000 0.238213
0.748460 1.000000 0.238213
1.000000 1.000000 0.238213
0.000000 0.000000 0.502856
0.251526 0.000000 0.502856
0.502856 0.000000 0.502856
0.758050 0.000000 0.490181
1.000000 0.001610 0.508100
0.000000 0.251526 0.502856
0.223486 0.223486 0.515530
0.515530 0.223486 0.515530
0.803304 0.191348 0.510993
1.000000 0.238213 0.504970
0.000000 0.502856 0.502856
0.223486 0.515530 0.515530
0.507808 0.507808 0.507808
0.772060 0.479748 0.479748
1.000000 0.495808 0.495808
0.000000 0.758050 0.490181
0.191348 0.803304 0.510993
0.479748 0.772060 0.479748
0.772060 0.772060 0.479748
1.000000 0.743805 0.495808
0.001610 1.000000 0.508100
0.238213 1.000000 0.504970
0.495808 1.000000 0.495808
0.743805 1.000000 0.495808
1.000000 1.000000 0.495808
0.000000 0.000000 0.758050
0.245186 0.000000 0.758050
0.490181 0.000000 0.758050
0.758050 0.000000 0.758050
1.000000 0.001610 0.750051
0.000000 0.245186 0.758050
0.191348 0.191348 0.803304
0.510993 0.191348 0.803304
0.803304 0.191348 0.803304
1.000000 0.238213 0.748460
0.000000 0.490181 0.758050
0.191348 0.510993 0.803304
0.479748 0.479748 0.772060
0.772060 0.479748 0.772060
1.000000 0.495808 0.743805
0.000000 0.758050 0.758050
0.191348 0.803304 0.803304
0.479748 0.772060 0.772060
0.744000 0.744000 0.744000
1.000000 0.732000 0.732000
0.001610 1.000000 0.750051
0.238213 1.000000 0.748460
0.495808 1.000000 0.743805
0.732000 1.000000 0.732000
1.000000 1.000000 0.732000
0.001610 0.001610 1.000000
0.243529 0.001610 1.000000
0.508100 0.001610 1.000000
0.750051 0.001610 1.000000
1.000000 0.001610 1.000000
0.001610 0.243529 1.000000
0.238213 0.238213 1.000000
0.504970 0.238213 1.000000
0.748460 0.238213 1.000000
1.000000 0.238213 1.000000
0.001610 0.508100 1.000000
0.238213 0.504970 1.000000
0.495808 0.495808 1.000000
0.743805 0.495808 1.000000
1.000000 0.495808 1.000000
0.001610 0.750051 1.000000
0.238213 0.748460 1.000000
0.495808 0.743805 1.000000
0.732000 0.732000 1.000000
1.000000 0.732000 1.000000
0.001610 1.000000 1.000000
0.238213 1.000000 1.000000
0.495808 1.000000 1.000000
0.732000 1.000000 1.000000
0.988000 0.988000 0.988000
