docs/luts/fuji_recipes/NEGA_JC_Superia_800.cube
TITLE "Fujifilm Recipe: JC Superia 800 (NEGA)"
# FilmSim=NEGA HL=1 SH=2 Col=4 WB=Daylight WBR=-2 WBB=-3
LUT_3D_SIZE 5
DOMAIN_MIN 0.0 0.0 0.0
DOMAIN_MAX 1.0 1.0 1.0
0.014720 0.014720 0.014720
0.244444 0.000000 0.000000
0.459448 0.000000 0.000000
0.726682 0.000000 0.000000
0.966503 0.000000 0.000000
0.000000 0.255760 0.000000
0.242972 0.255760 0.000000
0.459448 0.241815 0.000000
0.726682 0.233848 0.000000
0.966503 0.231289 0.000000
0.000000 0.481903 0.000000
0.228993 0.481903 0.000000
0.457987 0.481903 0.000000
0.726682 0.467512 0.000000
0.966503 0.508005 0.000000
0.000000 0.764549 0.000000
0.221666 0.764549 0.000000
0.443331 0.764549 0.000000
0.725305 0.764549 0.000000
0.966503 0.759037 0.000000
0.016991 1.000000 0.016991
0.229025 1.000000 0.016991
0.441058 1.000000 0.016991
0.712208 1.000000 0.016991
0.949949 1.000000 0.016991
0.000000 0.000000 0.238786
0.244444 0.000000 0.238011
0.459448 0.000000 0.223679
0.726682 0.000000 0.216309
0.966503 0.000000 0.213942
0.000000 0.255760 0.236578
0.228125 0.245837 0.219269
0.507087 0.188275 0.161707
0.856246 0.107578 0.081011
1.000000 0.196011 0.177077
0.000000 0.481903 0.222967
0.164217 0.535888 0.155361
0.500741 0.535888 0.155361
0.856246 0.531349 0.081011
1.000000 0.499551 0.177077
0.000000 0.764549 0.215832
0.078841 0.905138 0.069985
0.415365 0.905138 0.069985
0.845561 0.905138 0.069985
1.000000 0.773553 0.177077
0.016991 1.000000 0.223445
0.233107 1.000000 0.227566
0.443654 1.000000 0.227566
0.714225 1.000000 0.227566
0.950300 1.000000 0.227566
0.000000 0.000000 0.448132
0.230122 0.000000 0.448132
0.459448 0.000000 0.447357
0.726682 0.000000 0.432618
0.966503 0.000000 0.427885
0.000000 0.242234 0.448132
0.172162 0.189874 0.490974
0.502290 0.183478 0.484578
0.851585 0.102746 0.403846
1.000000 0.194151 0.409198
0.000000 0.481903 0.445935
0.162618 0.534289 0.481430
0.426914 0.532132 0.409202
0.798756 0.473859 0.349076
1.000000 0.481397 0.387652
0.000000 0.764549 0.431665
0.077230 0.903585 0.396043
0.355762 0.847648 0.338050
0.788071 0.847648 0.338050
1.000000 0.765338 0.387652
0.016991 1.000000 0.429899
0.233257 1.000000 0.432675
0.492320 1.000000 0.438141
0.717687 1.000000 0.438141
0.950902 1.000000 0.438141
0.000000 0.000000 0.707749
0.222420 0.000000 0.707749
0.444841 0.000000 0.707749
0.726682 0.000000 0.707017
0.966503 0.000000 0.700688
0.000000 0.234127 0.707749
0.093769 0.111480 0.830247
0.427071 0.108259 0.827139
0.851585 0.102746 0.821796
1.000000 0.194151 0.709237
0.000000 0.468071 0.707749
0.093769 0.535138 0.830247
0.369078 0.476094 0.771203
0.774357 0.449459 0.744568
1.000000 0.464888 0.689768
0.000000 0.764549 0.705684
0.077230 0.903585 0.814218
0.352540 0.844541 0.755174
0.710318 0.769895 0.680529
1.000000 0.729508 0.653432
0.016991 1.000000 0.693439
0.233257 1.000000 0.695661
0.490256 1.000000 0.698053
0.722295 1.000000 0.704184
0.951704 1.000000 0.704184
0.000000 0.000000 0.941258
0.219920 0.000000 0.941258
0.439840 0.000000 0.941258
0.720631 0.000000 0.941258
0.966503 0.000000 0.940570
0.000000 0.231495 0.941258
0.157524 0.171016 1.000000
0.412355 0.168907 1.000000
0.742199 0.168907 1.000000
1.000000 0.194151 0.971633
0.000000 0.508309 0.941258
0.157524 0.495335 1.000000
0.414128 0.447276 1.000000
0.714380 0.439512 1.000000
1.000000 0.464888 0.969734
0.000000 0.759565 0.941258
0.157524 0.788210 1.000000
0.414128 0.768041 1.000000
0.654740 0.714318 0.992348
1.000000 0.710528 0.963816
0.016991 1.000000 0.924924
0.233257 1.000000 0.925468
0.490256 1.000000 0.926054
0.723216 1.000000 0.927795
0.957910 1.000000 0.934818
