docs/luts/fuji_recipes/NEGA_JC_Superia_800.cube
TITLE "Fujifilm Recipe: JC Superia 800 (NEGA)"
# FilmSim=NEGA HL=1 SH=2 Col=4 WB=Daylight WBR=-2 WBB=-3
LUT_3D_SIZE 9
DOMAIN_MIN 0.0 0.0 0.0
DOMAIN_MAX 1.0 1.0 1.0
0.014720 0.014720 0.014720
0.136942 0.000000 0.000000
0.244444 0.000000 0.000000
0.351946 0.000000 0.000000
0.459448 0.000000 0.000000
0.606772 0.000000 0.000000
0.726682 0.000000 0.000000
0.846593 0.000000 0.000000
0.966503 0.000000 0.000000
0.000000 0.142600 0.000000
0.135470 0.142600 0.000000
0.244444 0.128655 0.000000
0.351946 0.123490 0.000000
0.459448 0.120907 0.000000
0.606772 0.117963 0.000000
0.726682 0.116924 0.000000
0.846593 0.116190 0.000000
0.966503 0.115645 0.000000
0.000000 0.255760 0.000000
0.121486 0.255760 0.000000
0.242972 0.255760 0.000000
0.351946 0.246980 0.000000
0.459448 0.241815 0.000000
0.606772 0.235926 0.000000
0.726682 0.233848 0.000000
0.846593 0.232380 0.000000
0.966503 0.231289 0.000000
0.000000 0.368920 0.000000
0.116825 0.368920 0.000000
0.233649 0.368920 0.000000
0.350474 0.368920 0.000000
0.459448 0.362722 0.000000
0.606772 0.353889 0.000000
0.726682 0.350771 0.000000
0.846593 0.348570 0.000000
0.966503 0.346934 0.000000
0.000000 0.481903 0.000000
0.114497 0.481903 0.000000
0.228993 0.481903 0.000000
0.343490 0.481903 0.000000
0.457987 0.481903 0.000000
0.606772 0.471668 0.000000
0.726682 0.467512 0.000000
0.846593 0.464579 0.000000
0.966503 0.508005 0.000000
0.000000 0.638328 0.000000
0.111767 0.638328 0.000000
0.223534 0.638328 0.000000
0.335302 0.638328 0.000000
0.447069 0.638328 0.000000
0.605349 0.638328 0.000000
0.726682 0.634912 0.000000
0.846593 0.631635 0.000000
0.966503 0.629372 0.000000
0.000000 0.764549 0.000000
0.110833 0.764549 0.000000
0.221666 0.764549 0.000000
0.332499 0.764549 0.000000
0.443331 0.764549 0.000000
0.601035 0.764549 0.000000
0.725305 0.764549 0.000000
0.846593 0.761912 0.000000
0.966503 0.759037 0.000000
0.000000 0.890770 0.000000
0.110173 0.890770 0.000000
0.220346 0.890770 0.000000
0.330518 0.890770 0.000000
0.440691 0.890770 0.000000
0.598197 0.890770 0.000000
0.721728 0.890770 0.000000
0.845259 0.890770 0.000000
0.966503 0.888703 0.000000
0.016991 1.000000 0.016991
0.123008 1.000000 0.016991
0.229025 1.000000 0.016991
0.335042 1.000000 0.016991
0.441058 1.000000 0.016991
0.593337 1.000000 0.016991
0.712208 1.000000 0.016991
0.831078 1.000000 0.016991
0.949949 1.000000 0.016991
0.000000 0.000000 0.134113
0.136942 0.000000 0.133338
0.244444 0.000000 0.119006
0.351946 0.000000 0.114228
0.459448 0.000000 0.111839
0.606772 0.000000 0.109116
0.726682 0.000000 0.108154
0.846593 0.000000 0.107476
0.966503 0.000000 0.106971
0.000000 0.142600 0.131905
0.121423 0.130278 0.116995
0.260904 0.101497 0.088213
0.398786 0.071117 0.057833
0.536668 0.040737 0.027453
0.712060 0.012641 0.000000
0.831970 0.011782 0.000000
0.951880 0.011212 0.000000
1.000000 0.081149 0.071790
0.000000 0.255760 0.118289
0.089444 0.275417 0.085016
0.257706 0.275417 0.085016
0.398786 0.248235 0.057833
0.536668 0.217855 0.027453
0.712060 0.181187 0.000000
0.831970 0.168877 0.000000
0.951880 0.160709 0.000000
1.000000 0.205934 0.071790
0.000000 0.368920 0.113750
0.057464 0.420556 0.053037
0.225727 0.420556 0.053037
0.393989 0.420556 0.053037
0.536668 0.394973 0.027453
0.712060 0.349733 0.000000
0.831970 0.325971 0.000000
0.951880 0.310205 0.000000
1.000000 0.330718 0.071790
0.000000 0.481903 0.111484
0.025535 0.565469 0.021107
0.193798 0.565469 0.021107
0.362060 0.565469 0.021107
0.530322 0.565469 0.021107
0.712060 0.518016 0.000000
0.831970 0.482821 0.000000
0.951880 0.518409 0.000000
1.000000 0.505264 0.071790
0.000000 0.638328 0.108826
0.004125 0.743615 0.000000
0.160880 0.743615 0.000000
0.317634 0.743615 0.000000
0.474389 0.743615 0.000000
0.697362 0.743615 0.000000
0.831970 0.708671 0.000000
0.951880 0.675303 0.000000
1.000000 0.636224 0.071790
0.000000 0.764549 0.107916
0.003860 0.869836 0.000000
0.150524 0.869836 0.000000
0.297187 0.869836 0.000000
0.443851 0.869836 0.000000
0.653460 0.869836 0.000000
0.817906 0.869836 0.000000
0.951880 0.842926 0.000000
1.000000 0.776138 0.071790
0.000000 0.890770 0.107274
0.003683 0.996057 0.000000
0.143621 0.996057 0.000000
0.283560 0.996057 0.000000
0.423499 0.996057 0.000000
0.624439 0.996057 0.000000
0.781344 0.996057 0.000000
0.938250 0.996057 0.000000
1.000000 0.916052 0.071790
0.016991 1.000000 0.120218
0.125060 1.000000 0.122279
0.230748 1.000000 0.122279
0.336437 1.000000 0.122279
0.442125 1.000000 0.122279
0.594596 1.000000 0.122279
0.713099 1.000000 0.122279
0.831601 1.000000 0.122279
0.950104 1.000000 0.122279
0.000000 0.000000 0.238786
0.122620 0.000000 0.238786
0.244444 0.000000 0.238011
0.351946 0.000000 0.228456
0.459448 0.000000 0.223679
0.606772 0.000000 0.218232
0.726682 0.000000 0.216309
0.846593 0.000000 0.214952
0.966503 0.000000 0.213942
0.000000 0.129074 0.238786
0.093441 0.102297 0.252847
0.258505 0.099099 0.249649
0.396387 0.068719 0.219269
0.534269 0.038339 0.188889
0.720597 0.000000 0.147585
0.840507 0.000000 0.136826
0.960417 0.000000 0.129730
1.000000 0.080327 0.186482
0.000000 0.255760 0.236578
0.088644 0.274618 0.248050
0.228125 0.245837 0.219269
0.369205 0.218655 0.192087
0.507087 0.188275 0.161707
0.701422 0.142493 0.115925
0.856246 0.107578 0.081011
1.000000 0.083125 0.057167
1.000000 0.196011 0.177077
0.000000 0.368920 0.227501
0.056665 0.419757 0.216071
0.196146 0.390976 0.187290
0.364408 0.390976 0.187290
0.507087 0.365393 0.161707
0.701422 0.319611 0.115925
0.856246 0.284696 0.081011
1.000000 0.256179 0.057167
1.000000 0.322237 0.177077
0.000000 0.481903 0.222967
0.024736 0.564669 0.184142
0.164217 0.535888 0.155361
0.332479 0.535888 0.155361
0.500741 0.535888 0.155361
0.701422 0.496453 0.115925
0.856246 0.531349 0.081011
1.000000 0.498224 0.057167
1.000000 0.499551 0.177077
0.000000 0.638328 0.217652
0.000000 0.746461 0.149899
0.115593 0.742165 0.106737
0.283855 0.742165 0.106737
0.452117 0.742165 0.106737
0.692517 0.742165 0.106737
0.856246 0.717232 0.081011
1.000000 0.679841 0.057167
1.000000 0.632023 0.177077
0.000000 0.764549 0.215832
0.000000 0.872682 0.140017
0.078841 0.905138 0.069985
0.247103 0.905138 0.069985
0.415365 0.905138 0.069985
0.656898 0.905138 0.069985
0.845561 0.905138 0.069985
1.000000 0.873877 0.057167
1.000000 0.773553 0.177077
0.000000 0.890770 0.214547
0.000000 0.998903 0.133443
0.109035 1.000000 0.101345
0.255148 1.000000 0.101345
0.401262 1.000000 0.101345
0.611985 1.000000 0.101345
0.775813 1.000000 0.101345
0.939642 1.000000 0.101345
1.000000 0.915082 0.177077
0.016991 1.000000 0.223445
0.125124 1.000000 0.225241
0.233107 1.000000 0.227566
0.338380 1.000000 0.227566
0.443654 1.000000 0.227566
0.596187 1.000000 0.227566
0.714225 1.000000 0.227566
0.832262 1.000000 0.227566
0.950300 1.000000 0.227566
0.000000 0.000000 0.343459
0.117581 0.000000 0.343459
0.235161 0.000000 0.343459
0.351946 0.000000 0.342684
0.459448 0.000000 0.335518
0.606772 0.000000 0.327347
0.726682 0.000000 0.324463
0.846593 0.000000 0.322428
0.966503 0.000000 0.320914
0.000000 0.123769 0.343459
0.063860 0.072716 0.387101
0.230523 0.071117 0.385502
0.396387 0.068719 0.383103
0.534269 0.038339 0.352723
0.720597 0.000000 0.308192
0.840507 0.000000 0.285724
0.960417 0.000000 0.270907
1.000000 0.080327 0.302003
0.000000 0.247538 0.343459
0.063860 0.249834 0.387101
0.201742 0.219454 0.356721
0.364408 0.213858 0.351124
0.502290 0.183478 0.320744
0.696760 0.137660 0.274927
0.851585 0.102746 0.240012
1.000000 0.074241 0.209633
1.000000 0.194151 0.292187
0.000000 0.368920 0.341251
0.056665 0.419757 0.379905
0.194547 0.389377 0.349525
0.334828 0.361395 0.321544
0.477506 0.335812 0.295961
0.672677 0.289809 0.249958
0.827501 0.254895 0.215043
0.982326 0.219980 0.180129
1.000000 0.311196 0.282365
0.000000 0.481903 0.334451
0.024736 0.564669 0.347976
0.162618 0.534289 0.317596
0.288454 0.560877 0.275170
0.456716 0.560877 0.275170
0.672677 0.536442 0.249958
0.827501 0.502604 0.215043
0.982326 0.468766 0.180129
1.000000 0.491964 0.282365
0.000000 0.638328 0.326478
0.000000 0.746461 0.303961
0.113982 0.740611 0.268961
0.254054 0.713420 0.240770
0.422316 0.713420 0.240770
0.663772 0.713420 0.240770
0.827501 0.688487 0.215043
0.982326 0.654648 0.180129
1.000000 0.626444 0.282365
0.000000 0.764549 0.323749
0.000000 0.872682 0.283923
0.077230 0.903585 0.232208
0.217301 0.876393 0.204017
0.385563 0.876393 0.204017
0.628153 0.876393 0.204017
0.816816 0.876393 0.204017
0.982326 0.853241 0.180129
1.000000 0.770119 0.282365
0.000000 0.890770 0.321821
0.000000 0.998903 0.270592
0.107036 1.000000 0.241908
0.218717 1.000000 0.206632
0.371788 1.000000 0.206632
0.593507 1.000000 0.206632
0.765137 1.000000 0.206632
0.936768 1.000000 0.206632
1.000000 0.913795 0.282365
0.016991 1.000000 0.326672
0.125124 1.000000 0.328138
0.233257 1.000000 0.330196
0.341122 1.000000 0.332853
0.488734 1.000000 0.332853
0.598262 1.000000 0.332853
0.715693 1.000000 0.332853
0.833124 1.000000 0.332853
0.950555 1.000000 0.332853
0.000000 0.000000 0.448132
0.115061 0.000000 0.448132
0.230122 0.000000 0.448132
0.345183 0.000000 0.448132
0.459448 0.000000 0.447357
0.606772 0.000000 0.436463
0.726682 0.000000 0.432618
0.846593 0.000000 0.429903
0.966503 0.000000 0.427885
0.000000 0.121117 0.448132
0.034280 0.043136 0.521354
0.200943 0.041537 0.519755
0.369205 0.041537 0.519755
0.534269 0.038339 0.516557
0.720597 0.000000 0.468799
0.840507 0.000000 0.434623
0.960417 0.000000 0.412083
1.000000 0.080327 0.417525
0.000000 0.242234 0.448132
0.034280 0.220254 0.521354
0.172162 0.189874 0.490974
0.337226 0.186676 0.487776
0.502290 0.183478 0.484578
0.696760 0.137660 0.438761
0.851585 0.102746 0.403846
1.000000 0.074241 0.371229
1.000000 0.194151 0.409198
0.000000 0.363350 0.448132
0.034280 0.397372 0.521354
0.172162 0.366992 0.490974
0.310044 0.336612 0.460594
0.470311 0.328617 0.452599
0.665685 0.282560 0.406543
0.820509 0.247646 0.371628
0.975334 0.212731 0.336714
1.000000 0.307975 0.398068
0.000000 0.481903 0.445935
0.024736 0.564669 0.511811
0.162618 0.534289 0.481430
0.286037 0.558546 0.436588
0.426914 0.532132 0.409202
0.643932 0.507697 0.383990
0.798756 0.473859 0.349076
0.953581 0.440021 0.314161
1.000000 0.481397 0.387652
0.000000 0.638328 0.435304
0.000000 0.746461 0.458024
0.113982 0.740611 0.432795
0.251637 0.711089 0.402188
0.392514 0.684675 0.374802
0.635027 0.684675 0.374802
0.798756 0.659742 0.349076
0.953581 0.625903 0.314161
1.000000 0.618674 0.387652
0.000000 0.764549 0.431665
0.000000 0.872682 0.427829
0.077230 0.903585 0.396043
0.214885 0.874063 0.365435
0.355762 0.847648 0.338050
0.599408 0.847648 0.338050
0.788071 0.847648 0.338050
0.953581 0.824496 0.314161
1.000000 0.765338 0.387652
0.000000 0.890770 0.429094
0.000000 0.998903 0.407741
0.107036 1.000000 0.384488
0.215169 1.000000 0.352736
0.395853 1.000000 0.311920
0.566549 1.000000 0.311920
0.749562 1.000000 0.311920
0.932574 1.000000 0.311920
1.000000 0.912002 0.387652
0.016991 1.000000 0.429899
0.125124 1.000000 0.431036
0.233257 1.000000 0.432675
0.341390 1.000000 0.435053
0.492320 1.000000 0.438141
0.601080 1.000000 0.438141
0.717687 1.000000 0.438141
0.834295 1.000000 0.438141
0.950902 1.000000 0.438141
0.000000 0.000000 0.590995
0.112226 0.000000 0.590995
0.224452 0.000000 0.590995
0.336679 0.000000 0.590995
0.448905 0.000000 0.590995
0.606772 0.000000 0.590239
0.726682 0.000000 0.585750
0.846593 0.000000 0.582781
0.966503 0.000000 0.580747
0.000000 0.118133 0.590995
0.000000 0.008612 0.699128
0.158219 0.000000 0.704819
0.325227 0.000000 0.704819
0.492235 0.000000 0.704819
0.720597 0.000000 0.696261
0.840507 0.000000 0.646482
0.960417 0.000000 0.613882
1.000000 0.080327 0.583411
0.000000 0.236266 0.590995
0.000000 0.180857 0.699128
0.127764 0.145476 0.679496
0.292805 0.142254 0.676389
0.461067 0.142254 0.676389
0.696760 0.137660 0.671936
0.851585 0.102746 0.638098
1.000000 0.074241 0.603343
1.000000 0.194151 0.578039
0.000000 0.354399 0.590995
0.000000 0.353101 0.699128
0.127764 0.322594 0.679496
0.265419 0.291987 0.649974
0.428849 0.287154 0.645313
0.665685 0.282560 0.640861
0.820509 0.247646 0.607022
0.975334 0.212731 0.573184
1.000000 0.307975 0.570683
0.000000 0.472347 0.590995
0.000000 0.525077 0.699128
0.127764 0.499436 0.679496
0.265419 0.538564 0.649974
0.403074 0.509042 0.620452
0.619757 0.483523 0.594933
0.774357 0.449459 0.560870
0.928956 0.415396 0.526806
1.000000 0.464888 0.549786
0.000000 0.638328 0.588860
0.000000 0.746461 0.676430
0.113982 0.740611 0.666139
0.251637 0.711089 0.636617
0.389292 0.681567 0.607095
0.590678 0.640326 0.565854
0.754242 0.615227 0.540754
0.908841 0.581163 0.506691
1.000000 0.594547 0.536068
0.000000 0.764549 0.584683
0.000000 0.872682 0.632832
0.077230 0.903585 0.630520
0.214885 0.874063 0.600998
0.352540 0.844541 0.571476
0.554822 0.803062 0.529998
0.743485 0.803062 0.529998
0.908841 0.779756 0.506691
1.000000 0.750490 0.536068
0.000000 0.890770 0.581943
0.000000 0.998903 0.604068
0.107036 1.000000 0.589532
0.215169 1.000000 0.569019
0.370288 0.993088 0.521430
0.518965 0.965799 0.494141
0.707628 0.965799 0.494141
0.896291 0.965799 0.494141
1.000000 0.906434 0.536068
0.016991 1.000000 0.577696
0.125124 1.000000 0.579043
0.233257 1.000000 0.580758
0.341390 1.000000 0.583014
0.490256 1.000000 0.584053
0.602123 1.000000 0.586820
0.718425 1.000000 0.586820
0.834728 1.000000 0.586820
0.951031 1.000000 0.586820
0.000000 0.000000 0.707749
0.111210 0.000000 0.707749
0.222420 0.000000 0.707749
0.333631 0.000000 0.707749
0.444841 0.000000 0.707749
0.602744 0.000000 0.707749
0.726682 0.000000 0.707017
0.846593 0.000000 0.703287
0.966503 0.000000 0.700688
0.000000 0.117063 0.707749
0.000000 0.007996 0.815882
0.146352 0.000000 0.821573
0.300835 0.000000 0.821573
0.455317 0.000000 0.821573
0.675710 0.000000 0.821573
0.840507 0.000000 0.813433
0.960417 0.000000 0.772176
1.000000 0.080327 0.712939
0.000000 0.234127 0.707749
0.000000 0.167910 0.815882
0.093769 0.111480 0.830247
0.258809 0.108259 0.827139
0.427071 0.108259 0.827139
0.668265 0.108259 0.827139
0.851585 0.102746 0.821796
1.000000 0.074241 0.784532
1.000000 0.194151 0.709237
0.000000 0.351190 0.707749
0.000000 0.327825 0.815882
0.093769 0.288598 0.830247
0.231423 0.257991 0.800725
0.394853 0.253158 0.796063
0.637189 0.253158 0.796063
0.820509 0.247646 0.790721
0.975334 0.212731 0.756882
1.000000 0.307975 0.704168
0.000000 0.468071 0.707749
0.000000 0.487489 0.815882
0.093769 0.535138 0.830247
0.231423 0.505616 0.800725
0.369078 0.476094 0.771203
0.591072 0.454838 0.749946
0.774357 0.449459 0.744568
0.928956 0.415396 0.710505
1.000000 0.464888 0.689768
0.000000 0.635558 0.707749
0.000000 0.717266 0.815882
0.093769 0.721021 0.830247
0.231423 0.691499 0.800725
0.369078 0.661977 0.771203
0.566475 0.616123 0.725349
0.740795 0.601781 0.711007
0.895395 0.567717 0.676943
1.000000 0.583648 0.671722
0.000000 0.764549 0.705684
0.000000 0.872682 0.794185
0.077230 0.903585 0.814218
0.214885 0.874063 0.784696
0.352540 0.844541 0.755174
0.550340 0.798580 0.709214
0.710318 0.769895 0.680529
0.875674 0.746589 0.657222
1.000000 0.729508 0.653432
0.000000 0.890770 0.702223
0.000000 0.998903 0.757846
0.107036 1.000000 0.749399
0.215169 1.000000 0.736875
0.370288 0.993088 0.705128
0.514483 0.961317 0.673357
0.674461 0.932632 0.644672
0.863124 0.932632 0.644672
1.000000 0.898565 0.653432
0.016991 1.000000 0.693439
0.125124 1.000000 0.694417
0.233257 1.000000 0.695661
0.341390 1.000000 0.697299
0.490256 1.000000 0.698053
0.602680 1.000000 0.700482
0.722295 1.000000 0.704184
0.836999 1.000000 0.704184
0.951704 1.000000 0.704184
0.000000 0.000000 0.824504
0.110493 0.000000 0.824504
0.220986 0.000000 0.824504
0.331479 0.000000 0.824504
0.441973 0.000000 0.824504
0.599546 0.000000 0.824504
0.723436 0.000000 0.824504
0.846593 0.000000 0.823794
0.966503 0.000000 0.820629
0.000000 0.116309 0.824504
0.000000 0.007589 0.932637
0.138547 0.000000 0.938328
0.284790 0.000000 0.938328
0.431034 0.000000 0.938328
0.640584 0.000000 0.938328
0.804559 0.000000 0.938328
0.960417 0.000000 0.930469
1.000000 0.080327 0.842466
0.000000 0.232617 0.824504
0.000000 0.159359 0.932637
0.059773 0.077485 0.980997
0.224813 0.074263 0.977890
0.393075 0.074263 0.977890
0.635317 0.074263 0.977890
0.823980 0.074263 0.977890
1.000000 0.074241 0.965721
1.000000 0.194151 0.840435
0.000000 0.348926 0.824504
0.000000 0.311129 0.932637
0.059773 0.254603 0.980997
0.197428 0.223995 0.951475
0.360857 0.219163 0.946814
0.604242 0.219163 0.946814
0.792905 0.219163 0.946814
0.975334 0.212731 0.940580
1.000000 0.307975 0.837653
0.000000 0.465053 0.824504
0.000000 0.522354 0.932637
0.059773 0.502190 0.980997
0.197428 0.472668 0.951475
0.335083 0.443147 0.921953
0.557905 0.421671 0.900478
0.746568 0.421671 0.900478
0.928956 0.415396 0.894203
1.000000 0.464888 0.829751
0.000000 0.632149 0.824504
0.000000 0.681634 0.932637
0.059773 0.688073 0.980997
0.197428 0.658551 0.951475
0.335083 0.629029 0.921953
0.533308 0.582956 0.875880
0.713007 0.573992 0.866916
0.895395 0.567717 0.860641
1.000000 0.583648 0.819848
0.000000 0.762559 0.824504
0.000000 0.851805 0.932637
0.059773 0.886666 0.980997
0.197428 0.857144 0.951475
0.335083 0.827622 0.921953
0.533308 0.781549 0.875880
0.687907 0.747485 0.841817
0.859539 0.730453 0.824785
1.000000 0.710528 0.796465
0.000000 0.890770 0.822503
0.000000 0.998903 0.911624
0.107036 1.000000 0.909265
0.215169 1.000000 0.904730
0.370288 0.993088 0.888827
0.514483 0.961317 0.857056
0.669083 0.927253 0.822992
0.829957 0.899465 0.795203
0.997106 0.877951 0.773690
0.016991 1.000000 0.809181
0.125124 1.000000 0.809790
0.233257 1.000000 0.810565
0.341390 1.000000 0.811584
0.490256 1.000000 0.812053
0.602680 1.000000 0.813565
0.723216 1.000000 0.816480
0.842026 1.000000 0.821548
0.953193 1.000000 0.821548
0.000000 0.000000 0.941258
0.109960 0.000000 0.941258
0.219920 0.000000 0.941258
0.329880 0.000000 0.941258
0.439840 0.000000 0.941258
0.597338 0.000000 0.941258
0.720631 0.000000 0.941258
0.843923 0.000000 0.941258
0.966503 0.000000 0.940570
0.000000 0.115747 0.941258
0.049391 0.056004 1.000000
0.174216 0.055083 1.000000
0.299967 0.055083 1.000000
0.425719 0.055083 1.000000
0.606689 0.055083 1.000000
0.747687 0.055083 1.000000
0.888686 0.055083 1.000000
1.000000 0.080327 0.971994
0.000000 0.231495 0.941258
0.049391 0.188251 1.000000
0.157524 0.171016 1.000000
0.283869 0.168907 1.000000
0.412355 0.168907 1.000000
0.598134 0.168907 1.000000
0.742199 0.168907 1.000000
0.886264 0.168907 1.000000
1.000000 0.194151 0.971633
0.000000 0.347242 0.941258
0.049391 0.320498 1.000000
0.157524 0.305937 1.000000
0.265657 0.286439 1.000000
0.394122 0.282731 1.000000
0.586280 0.282731 1.000000
0.734595 0.282731 1.000000
0.882909 0.282731 1.000000
1.000000 0.307975 0.971138
0.000000 0.508309 0.941258
0.049391 0.505334 1.000000
0.157524 0.495335 1.000000
0.265657 0.481776 1.000000
0.414128 0.447276 1.000000
0.554768 0.439512 1.000000
0.714380 0.439512 1.000000
0.873991 0.439512 1.000000
1.000000 0.464888 0.969734
0.000000 0.629784 0.941258
0.049391 0.644125 1.000000
0.157524 0.636932 1.000000
0.265657 0.627177 1.000000
0.414128 0.602357 1.000000
0.526552 0.571217 1.000000
0.687109 0.558272 1.000000
0.861960 0.558272 1.000000
1.000000 0.583648 0.967973
0.000000 0.759565 0.941258
0.049391 0.792406 1.000000
0.157524 0.788210 1.000000
0.265657 0.782520 1.000000
0.414128 0.768041 1.000000
0.526552 0.749877 1.000000
0.654740 0.714318 0.992348
0.832646 0.703561 0.981591
1.000000 0.710528 0.963816
0.000000 0.889346 0.941258
0.049391 0.940688 1.000000
0.157524 0.939489 1.000000
0.265657 0.937863 1.000000
0.414128 0.933726 1.000000
0.526552 0.928536 1.000000
0.654740 0.912911 0.992348
0.809340 0.878847 0.958284
0.978282 0.859126 0.938563
0.016991 1.000000 0.924924
0.125124 1.000000 0.925163
0.233257 1.000000 0.925468
0.341390 1.000000 0.925869
0.490256 1.000000 0.926054
0.602680 1.000000 0.926649
0.723216 1.000000 0.927795
0.843752 1.000000 0.930556
0.957910 1.000000 0.934818
