docs/luts/fuji_recipes/NEGA_RR_Fujicolor_Pro_400H.cube
TITLE "Fujifilm Recipe: RR Fujicolor Pro 400H (NEGA)"
# FilmSim=NEGA HL=0 SH=3 Col=4 WB=Auto WBR=2 WBB=1
LUT_3D_SIZE 9
DOMAIN_MIN 0.0 0.0 0.0
DOMAIN_MAX 1.0 1.0 1.0
0.014080 0.014080 0.014080
0.176752 0.000000 0.000000
0.314668 0.000000 0.000000
0.452584 0.000000 0.000000
0.656506 0.000000 0.000000
0.811116 0.000000 0.000000
0.965725 0.000000 0.000000
0.996831 0.000000 0.000000
0.996831 0.000000 0.000000
0.000000 0.169676 0.000000
0.176752 0.168335 0.000000
0.314668 0.155426 0.000000
0.452584 0.150906 0.000000
0.656506 0.146154 0.000000
0.811116 0.144924 0.000000
0.965725 0.144099 0.000000
0.996831 0.143965 0.000000
0.996831 0.143965 0.000000
0.000000 0.301025 0.000000
0.163927 0.301025 0.000000
0.314668 0.299684 0.000000
0.452584 0.290969 0.000000
0.656506 0.281807 0.000000
0.811116 0.279435 0.000000
0.965725 0.277844 0.000000
0.996831 0.277586 0.000000
0.996831 0.277586 0.000000
0.000000 0.432373 0.000000
0.158944 0.432373 0.000000
0.306468 0.432373 0.000000
0.452584 0.431033 0.000000
0.656506 0.417460 0.000000
0.811116 0.413946 0.000000
0.965725 0.411590 0.000000
0.996831 0.411207 0.000000
0.996831 0.411207 0.000000
0.000000 0.626487 0.000000
0.153790 0.626487 0.000000
0.296530 0.626487 0.000000
0.439270 0.626487 0.000000
0.656506 0.625335 0.000000
0.811116 0.621015 0.000000
0.965725 0.618421 0.000000
0.996831 0.618034 0.000000
0.996831 0.618034 0.000000
0.000000 0.773734 0.000000
0.152433 0.773734 0.000000
0.293914 0.773734 0.000000
0.435395 0.773734 0.000000
0.652823 0.773734 0.000000
0.811116 0.772626 0.000000
0.965725 0.769169 0.000000
0.996831 0.768642 0.000000
0.996831 0.768642 0.000000
0.000000 0.920981 0.000000
0.151524 0.920981 0.000000
0.292160 0.920981 0.000000
0.432797 0.920981 0.000000
0.649825 0.920981 0.000000
0.808340 0.920981 0.000000
0.965725 0.919917 0.000000
0.996831 0.919250 0.000000
0.996831 0.919250 0.000000
0.000000 0.996831 0.000000
0.151163 0.996831 0.000000
0.291465 0.996831 0.000000
0.431767 0.996831 0.000000
0.648739 0.996831 0.000000
0.806877 0.996831 0.000000
0.965015 0.996831 0.000000
0.996831 0.996831 0.000000
0.996831 0.996831 0.000000
0.000000 0.996831 0.000000
0.151163 0.996831 0.000000
0.291465 0.996831 0.000000
0.431767 0.996831 0.000000
0.648739 0.996831 0.000000
0.806877 0.996831 0.000000
0.965015 0.996831 0.000000
0.996831 0.996831 0.000000
0.996831 0.996831 0.000000
0.000000 0.000000 0.173214
0.176752 0.000000 0.172544
0.314668 0.000000 0.159311
0.452584 0.000000 0.154678
0.656506 0.000000 0.149808
0.811116 0.000000 0.148547
0.965725 0.000000 0.147701
0.996831 0.000000 0.147564
0.996831 0.000000 0.147564
0.000000 0.168990 0.173214
0.164672 0.153597 0.159134
0.341563 0.114622 0.120159
0.518454 0.075647 0.081184
0.786921 0.011970 0.017508
0.953500 0.000000 0.005178
1.000000 0.108109 0.112015
1.000000 0.139216 0.142844
1.000000 0.139216 0.142844
0.000000 0.301025 0.160024
0.128552 0.323064 0.123015
0.340563 0.319209 0.119159
0.517454 0.280234 0.080184
0.785951 0.216549 0.016500
0.957060 0.188778 0.000000
1.000000 0.252826 0.111669
1.000000 0.273862 0.142776
1.000000 0.273862 0.142776
0.000000 0.432373 0.155160
0.091433 0.491532 0.085896
0.307299 0.491532 0.085896
0.517454 0.485820 0.080184
0.785951 0.422136 0.016500
0.957060 0.382782 0.000000
1.000000 0.397890 0.111669
1.000000 0.408577 0.142776
1.000000 0.408577 0.142776
0.000000 0.626487 0.150128
0.030789 0.747180 0.025251
0.246655 0.747180 0.025251
0.462521 0.747180 0.025251
0.785951 0.738709 0.016500
0.957060 0.682881 0.000000
1.000000 0.623305 0.111669
1.000000 0.618101 0.142776
1.000000 0.618101 0.142776
0.000000 0.773734 0.148804
0.005333 0.919678 0.000000
0.213209 0.919678 0.000000
0.421085 0.919678 0.000000
0.742026 0.919678 0.000000
0.957060 0.901547 0.000000
1.000000 0.786810 0.111669
1.000000 0.769942 0.142776
1.000000 0.769942 0.142776
0.000000 0.920981 0.147916
0.071274 1.000000 0.066925
0.240801 1.000000 0.066925
0.491800 1.000000 0.066925
0.673141 1.000000 0.066925
0.864220 1.000000 0.066925
1.000000 0.950316 0.111669
1.000000 0.921783 0.142776
1.000000 0.921783 0.142776
0.000000 0.996831 0.147564
0.146404 1.000000 0.142776
0.287855 1.000000 0.142776
0.497748 1.000000 0.142776
0.649057 1.000000 0.142776
0.808490 1.000000 0.142776
0.967923 1.000000 0.142776
1.000000 1.000000 0.142776
1.000000 1.000000 0.142776
0.000000 0.996831 0.147564
0.146404 1.000000 0.142776
0.287855 1.000000 0.142776
0.497748 1.000000 0.142776
0.649057 1.000000 0.142776
0.808490 1.000000 0.142776
0.967923 1.000000 0.142776
1.000000 1.000000 0.142776
1.000000 1.000000 0.142776
0.000000 0.000000 0.307847
0.163553 0.000000 0.307847
0.314668 0.000000 0.307176
0.452584 0.000000 0.298243
0.656506 0.000000 0.288852
0.811116 0.000000 0.286420
0.965725 0.000000 0.284791
0.996831 0.000000 0.284526
0.996831 0.000000 0.284526
0.000000 0.155765 0.307847
0.127625 0.116549 0.332813
0.341563 0.114622 0.330886
0.518454 0.075647 0.291911
0.786921 0.011970 0.228234
0.953500 0.000000 0.202223
1.000000 0.108109 0.260653
1.000000 0.139216 0.280920
1.000000 0.139216 0.280920
0.000000 0.300338 0.307847
0.125625 0.320137 0.330814
0.304444 0.283089 0.293767
0.481335 0.244114 0.254791
0.750898 0.180148 0.190825
0.950578 0.135076 0.145754
1.000000 0.240264 0.247915
1.000000 0.271370 0.278382
1.000000 0.271370 0.278382
0.000000 0.432373 0.299171
0.090434 0.490532 0.295622
0.269252 0.453485 0.258575
0.479407 0.447773 0.252864
0.749027 0.383792 0.188882
0.948708 0.338720 0.143811
1.000000 0.386929 0.247128
1.000000 0.406253 0.278234
1.000000 0.406253 0.278234
0.000000 0.626487 0.289470
0.029781 0.746210 0.234970
0.208311 0.710257 0.197633
0.424177 0.710257 0.197633
0.749027 0.701786 0.188882
0.948708 0.658158 0.143811
1.000000 0.617085 0.247128
1.000000 0.617203 0.278234
1.000000 0.617203 0.278234
0.000000 0.773734 0.286916
0.000000 0.923238 0.199508
0.165385 0.900429 0.154708
0.485038 0.900429 0.154708
0.715948 0.900429 0.154708
0.948708 0.889880 0.143811
1.000000 0.783290 0.247128
1.000000 0.769401 0.278234
1.000000 0.769401 0.278234
0.000000 0.920981 0.285204
0.070485 1.000000 0.231759
0.211084 1.000000 0.202384
0.472682 1.000000 0.202384
0.660846 1.000000 0.202384
0.859112 1.000000 0.202384
1.000000 0.949495 0.247128
1.000000 0.921599 0.278234
1.000000 0.921599 0.278234
0.000000 0.996831 0.284526
0.146335 1.000000 0.280797
0.285247 1.000000 0.278234
0.496567 1.000000 0.278234
0.648232 1.000000 0.278234
0.808040 1.000000 0.278234
0.967848 1.000000 0.278234
1.000000 1.000000 0.278234
1.000000 1.000000 0.278234
0.000000 0.996831 0.284526
0.146335 1.000000 0.280797
0.285247 1.000000 0.278234
0.496567 1.000000 0.278234
0.648232 1.000000 0.278234
0.808040 1.000000 0.278234
0.967848 1.000000 0.278234
1.000000 1.000000 0.278234
1.000000 1.000000 0.278234
0.000000 0.000000 0.442479
0.158692 0.000000 0.442479
0.305981 0.000000 0.442479
0.452584 0.000000 0.441808
0.656506 0.000000 0.427896
0.811116 0.000000 0.424294
0.965725 0.000000 0.421880
0.996831 0.000000 0.421487
0.996831 0.000000 0.421487
0.000000 0.151135 0.442479
0.089577 0.078502 0.505493
0.305444 0.078502 0.505493
0.518454 0.075647 0.502637
0.786921 0.011970 0.438961
0.953500 0.000000 0.399269
1.000000 0.108109 0.409290
1.000000 0.139216 0.418996
1.000000 0.139216 0.418996
0.000000 0.291411 0.442479
0.087578 0.282089 0.503493
0.268324 0.246970 0.468374
0.481335 0.244114 0.465518
0.750898 0.180148 0.401551
0.950578 0.135076 0.356480
1.000000 0.240264 0.472970
1.000000 0.271370 0.484834
1.000000 0.271370 0.484834
0.000000 0.431687 0.442479
0.087578 0.487676 0.503493
0.264469 0.448701 0.464518
0.444216 0.412582 0.428399
0.714875 0.348325 0.364142
0.914556 0.303254 0.422364
1.000000 0.372419 0.460798
1.000000 0.403525 0.483146
1.000000 0.403525 0.483146
0.000000 0.626487 0.428812
0.029781 0.746210 0.445697
0.206368 0.708386 0.406417
0.489665 0.673333 0.370015
0.712104 0.664862 0.361264
0.890142 0.599593 0.397951
1.000000 0.596098 0.443541
1.000000 0.609814 0.474817
1.000000 0.609814 0.474817
0.000000 0.773734 0.425028
0.000000 0.923238 0.404401
0.163443 0.898558 0.363492
0.448114 0.863505 0.327090
0.679024 0.863505 0.327090
0.890142 0.831315 0.397951
1.000000 0.771413 0.443541
1.000000 0.764950 0.474817
1.000000 0.764950 0.474817
0.000000 0.920981 0.422493
0.070485 1.000000 0.397385
0.209247 1.000000 0.372630
0.414808 1.000000 0.398555
0.623623 1.000000 0.398555
0.843649 1.000000 0.398555
1.000000 0.946727 0.443541
1.000000 0.920086 0.474817
1.000000 0.920086 0.474817
0.000000 0.996831 0.421487
0.146335 1.000000 0.418887
0.285097 1.000000 0.484688
0.486850 1.000000 0.474817
0.641442 1.000000 0.474817
0.804335 1.000000 0.474817
0.967227 1.000000 0.474817
1.000000 1.000000 0.474817
1.000000 1.000000 0.474817
0.000000 0.996831 0.421487
0.146335 1.000000 0.418887
0.285097 1.000000 0.484688
0.486850 1.000000 0.474817
0.641442 1.000000 0.474817
0.804335 1.000000 0.474817
0.967227 1.000000 0.474817
1.000000 1.000000 0.474817
1.000000 1.000000 0.474817
0.000000 0.000000 0.641497
0.153622 0.000000 0.641497
0.296206 0.000000 0.641497
0.438790 0.000000 0.641497
0.656506 0.000000 0.640921
0.811116 0.000000 0.636470
0.965725 0.000000 0.633787
0.996831 0.000000 0.633386
0.996831 0.000000 0.633386
0.000000 0.146306 0.641497
0.027421 0.016346 0.767536
0.243287 0.016346 0.767536
0.459153 0.016346 0.767536
0.786921 0.011970 0.763300
0.953500 0.000000 0.703901
1.000000 0.108109 0.640101
1.000000 0.139216 0.633598
1.000000 0.139216 0.633598
0.000000 0.282101 0.641497
0.025406 0.219917 0.765595
0.205878 0.184523 0.731513
0.421744 0.184523 0.731513
0.750898 0.180148 0.727277
0.950578 0.135076 0.683650
1.000000 0.240264 0.634385
1.000000 0.271370 0.632769
1.000000 0.271370 0.632769
0.000000 0.417895 0.641497
0.025406 0.425504 0.765595
0.201992 0.386224 0.727771
0.488201 0.352701 0.695490
0.714875 0.348325 0.691254
0.914556 0.303254 0.647627
1.000000 0.372419 0.625940
1.000000 0.403525 0.631566
1.000000 0.403525 0.631566
0.000000 0.625895 0.641497
0.025406 0.741974 0.765595
0.201992 0.704150 0.727771
0.460874 0.644542 0.668163
0.654357 0.607116 0.630736
0.853735 0.563186 0.586807
1.000000 0.572370 0.591291
1.000000 0.603645 0.619709
1.000000 0.603645 0.619709
0.000000 0.773734 0.637342
0.000000 0.923238 0.720898
0.163443 0.898558 0.690456
0.423301 0.838691 0.630590
0.616784 0.801265 0.593163
0.849471 0.790643 0.582542
1.000000 0.755716 0.587461
1.000000 0.760623 0.618736
1.000000 0.760623 0.618736
0.000000 0.920981 0.634436
0.070485 1.000000 0.654309
0.209247 1.000000 0.640790
0.410038 1.000000 0.599020
0.574946 0.991149 0.551325
0.818254 0.991149 0.551325
1.000000 0.943069 0.587461
1.000000 0.918615 0.618736
1.000000 0.918615 0.618736
0.000000 0.996831 0.633386
0.146335 1.000000 0.633560
0.285097 1.000000 0.632665
0.486300 1.000000 0.625227
0.634841 1.000000 0.618736
0.800732 1.000000 0.618736
0.966624 1.000000 0.618736
1.000000 1.000000 0.618736
1.000000 1.000000 0.618736
0.000000 0.996831 0.633386
0.146335 1.000000 0.633560
0.285097 1.000000 0.632665
0.486300 1.000000 0.625227
0.634841 1.000000 0.618736
0.800732 1.000000 0.618736
0.966624 1.000000 0.618736
1.000000 1.000000 0.618736
1.000000 1.000000 0.618736
0.000000 0.000000 0.792425
0.152298 0.000000 0.792425
0.293654 0.000000 0.792425
0.435010 0.000000 0.792425
0.652360 0.000000 0.792425
0.811116 0.000000 0.791871
0.965725 0.000000 0.788304
0.996831 0.000000 0.787759
0.996831 0.000000 0.787759
0.000000 0.145046 0.792425
0.010456 0.000000 0.934810
0.214265 0.000000 0.934810
0.418073 0.000000 0.934810
0.732863 0.000000 0.934810
0.953500 0.000000 0.925996
1.000000 0.108109 0.807634
1.000000 0.139216 0.789227
1.000000 0.139216 0.789227
0.000000 0.279670 0.792425
0.000000 0.187124 0.941929
0.161880 0.140525 0.926439
0.481635 0.140525 0.926439
0.712545 0.140525 0.926439
0.950578 0.135076 0.921165
1.000000 0.240264 0.804578
1.000000 0.271370 0.788750
1.000000 0.271370 0.788750
0.000000 0.414295 0.792425
0.000000 0.384903 0.941929
0.157994 0.342226 0.922697
0.445612 0.308703 0.890416
0.676522 0.308703 0.890416
0.914556 0.303254 0.885142
1.000000 0.372419 0.800065
1.000000 0.403525 0.788058
1.000000 0.403525 0.788058
0.000000 0.621425 0.792425
0.000000 0.690711 0.941929
0.157994 0.661562 0.922697
0.417990 0.601658 0.862794
0.615738 0.568497 0.829632
0.853735 0.563186 0.824322
1.000000 0.572370 0.781545
1.000000 0.603645 0.781237
1.000000 0.603645 0.781237
0.000000 0.773164 0.792425
0.000000 0.913632 0.941929
0.157994 0.893284 0.922697
0.417990 0.833380 0.862794
0.607208 0.791689 0.821103
0.811898 0.753070 0.782484
1.000000 0.720416 0.747634
1.000000 0.751692 0.772495
1.000000 0.751692 0.772495
0.000000 0.920981 0.789177
0.070485 1.000000 0.840990
0.209247 1.000000 0.834772
0.410038 1.000000 0.815559
0.570681 0.986884 0.784576
0.775370 0.948265 0.745957
1.000000 0.932667 0.739208
1.000000 0.914832 0.770484
1.000000 0.914832 0.770484
0.000000 0.996831 0.787759
0.146335 1.000000 0.789205
0.285097 1.000000 0.788690
0.486300 1.000000 0.784412
0.633828 1.000000 0.780069
0.791471 1.000000 0.770484
0.965072 1.000000 0.770484
1.000000 1.000000 0.770484
1.000000 1.000000 0.770484
0.000000 0.996831 0.787759
0.146335 1.000000 0.789205
0.285097 1.000000 0.788690
0.486300 1.000000 0.784412
0.633828 1.000000 0.780069
0.791471 1.000000 0.770484
0.965072 1.000000 0.770484
1.000000 1.000000 0.770484
1.000000 1.000000 0.770484
0.000000 0.000000 0.943353
0.151411 0.000000 0.943353
0.291943 0.000000 0.943353
0.432476 0.000000 0.943353
0.649478 0.000000 0.943353
0.807875 0.000000 0.943353
0.965725 0.000000 0.942821
0.996831 0.000000 0.942132
0.996831 0.000000 0.942132
0.000000 0.144201 0.943353
0.093976 0.085737 1.000000
0.254555 0.085737 1.000000
0.492433 0.085737 1.000000
0.664204 0.085737 1.000000
0.845197 0.085737 1.000000
1.000000 0.108109 0.975167
1.000000 0.139216 0.944856
1.000000 0.139216 0.944856
0.000000 0.278041 0.943353
0.092857 0.237721 1.000000
0.234189 0.217892 1.000000
0.479286 0.217892 1.000000
0.655506 0.217892 1.000000
0.841187 0.217892 1.000000
1.000000 0.240264 0.974772
1.000000 0.271370 0.944731
1.000000 0.271370 0.944731
0.000000 0.411882 0.943353
0.092857 0.390833 1.000000
0.231619 0.372668 1.000000
0.459596 0.350047 1.000000
0.642479 0.350047 1.000000
0.835182 0.350047 1.000000
1.000000 0.372419 0.974190
1.000000 0.403525 0.944550
1.000000 0.403525 0.944550
0.000000 0.618723 0.943353
0.092857 0.628626 1.000000
0.231619 0.618231 1.000000
0.432531 0.585284 1.000000
0.592520 0.549876 1.000000
0.812150 0.549876 1.000000
1.000000 0.572370 0.971799
1.000000 0.603645 0.942766
1.000000 0.603645 0.942766
0.000000 0.769578 0.943353
0.092857 0.801203 1.000000
0.231619 0.795638 1.000000
0.432531 0.778002 1.000000
0.580059 0.751679 1.000000
0.774324 0.715497 0.982426
1.000000 0.720416 0.967421
1.000000 0.751692 0.940478
1.000000 0.751692 0.940478
0.000000 0.920433 0.943353
0.092857 0.973780 1.000000
0.231619 0.973046 1.000000
0.432531 0.970719 1.000000
0.580059 0.967248 1.000000
0.763703 0.936598 0.971804
0.969438 0.899024 0.934231
1.000000 0.899738 0.929310
1.000000 0.899738 0.929310
0.000000 0.996831 0.942132
0.146335 1.000000 0.944850
0.285097 1.000000 0.944715
0.486300 1.000000 0.943596
0.633828 1.000000 0.942460
0.789276 1.000000 0.939320
0.954765 1.000000 0.922231
1.000000 1.000000 0.922231
1.000000 1.000000 0.922231
0.000000 0.996831 0.942132
0.146335 1.000000 0.944850
0.285097 1.000000 0.944715
0.486300 1.000000 0.943596
0.633828 1.000000 0.942460
0.789276 1.000000 0.939320
0.954765 1.000000 0.922231
1.000000 1.000000 0.922231
1.000000 1.000000 0.922231
0.000000 0.000000 0.996831
0.151163 0.000000 0.996831
0.291465 0.000000 0.996831
0.431767 0.000000 0.996831
0.648739 0.000000 0.996831
0.806877 0.000000 0.996831
0.965015 0.000000 0.996831
0.996831 0.000000 0.996831
0.996831 0.000000 0.996831
0.000000 0.143965 0.996831
0.146473 0.139216 1.000000
0.287916 0.139216 1.000000
0.497774 0.139216 1.000000
0.649075 0.139216 1.000000
0.808500 0.139216 1.000000
0.967925 0.139216 1.000000
1.000000 0.139216 1.000000
1.000000 0.139216 1.000000
0.000000 0.277586 0.996831
0.146335 0.273800 1.000000
0.285394 0.271370 1.000000
0.496638 0.271370 1.000000
0.648281 0.271370 1.000000
0.808067 0.271370 1.000000
0.967852 0.271370 1.000000
1.000000 0.271370 1.000000
1.000000 0.271370 1.000000
0.000000 0.411207 0.996831
0.146335 0.408522 1.000000
0.285097 0.406121 1.000000
0.494988 0.403525 1.000000
0.647129 0.403525 1.000000
0.807438 0.403525 1.000000
0.967747 0.403525 1.000000
1.000000 0.403525 1.000000
1.000000 0.403525 1.000000
0.000000 0.618034 0.996831
0.146335 0.618081 1.000000
0.285097 0.617148 1.000000
0.486300 0.609396 1.000000
0.635773 0.603645 1.000000
0.801241 0.603645 1.000000
0.966709 0.603645 1.000000
1.000000 0.603645 1.000000
1.000000 0.603645 1.000000
0.000000 0.768642 0.996831
0.146335 0.769930 1.000000
0.285097 0.769368 1.000000
0.486300 0.764698 1.000000
0.633828 0.759959 1.000000
0.793297 0.751692 1.000000
0.965378 0.751692 1.000000
1.000000 0.751692 1.000000
1.000000 0.751692 1.000000
0.000000 0.919250 0.996831
0.146335 0.921779 1.000000
0.285097 0.921588 1.000000
0.486300 0.920000 1.000000
0.633828 0.918389 1.000000
0.789276 0.913936 1.000000
0.958882 0.899738 1.000000
1.000000 0.899738 1.000000
1.000000 0.899738 1.000000
0.000000 0.996831 0.996831
0.146335 1.000000 1.000000
0.285097 1.000000 1.000000
0.486300 1.000000 1.000000
0.633828 1.000000 1.000000
0.789276 1.000000 1.000000
0.947886 0.996838 0.996838
0.988000 0.988000 0.988000
0.988000 0.988000 0.988000
0.000000 0.996831 0.996831
0.146335 1.000000 1.000000
0.285097 1.000000 1.000000
0.486300 1.000000 1.000000
0.633828 1.000000 1.000000
0.789276 1.000000 1.000000
0.947886 0.996838 0.996838
0.988000 0.988000 0.988000
0.988000 0.988000 0.988000
0.000000 0.000000 0.996831
0.151163 0.000000 0.996831
0.291465 0.000000 0.996831
0.431767 0.000000 0.996831
0.648739 0.000000 0.996831
0.806877 0.000000 0.996831
0.965015 0.000000 0.996831
0.996831 0.000000 0.996831
0.996831 0.000000 0.996831
0.000000 0.143965 0.996831
0.146473 0.139216 1.000000
0.287916 0.139216 1.000000
0.497774 0.139216 1.000000
0.649075 0.139216 1.000000
0.808500 0.139216 1.000000
0.967925 0.139216 1.000000
1.000000 0.139216 1.000000
1.000000 0.139216 1.000000
0.000000 0.277586 0.996831
0.146335 0.273800 1.000000
0.285394 0.271370 1.000000
0.496638 0.271370 1.000000
0.648281 0.271370 1.000000
0.808067 0.271370 1.000000
0.967852 0.271370 1.000000
1.000000 0.271370 1.000000
1.000000 0.271370 1.000000
0.000000 0.411207 0.996831
0.146335 0.408522 1.000000
0.285097 0.406121 1.000000
0.494988 0.403525 1.000000
0.647129 0.403525 1.000000
0.807438 0.403525 1.000000
0.967747 0.403525 1.000000
1.000000 0.403525 1.000000
1.000000 0.403525 1.000000
0.000000 0.618034 0.996831
0.146335 0.618081 1.000000
0.285097 0.617148 1.000000
0.486300 0.609396 1.000000
0.635773 0.603645 1.000000
0.801241 0.603645 1.000000
0.966709 0.603645 1.000000
1.000000 0.603645 1.000000
1.000000 0.603645 1.000000
0.000000 0.768642 0.996831
0.146335 0.769930 1.000000
0.285097 0.769368 1.000000
0.486300 0.764698 1.000000
0.633828 0.759959 1.000000
0.793297 0.751692 1.000000
0.965378 0.751692 1.000000
1.000000 0.751692 1.000000
1.000000 0.751692 1.000000
0.000000 0.919250 0.996831
0.146335 0.921779 1.000000
0.285097 0.921588 1.000000
0.486300 0.920000 1.000000
0.633828 0.918389 1.000000
0.789276 0.913936 1.000000
0.958882 0.899738 1.000000
1.000000 0.899738 1.000000
1.000000 0.899738 1.000000
0.000000 0.996831 0.996831
0.146335 1.000000 1.000000
0.285097 1.000000 1.000000
0.486300 1.000000 1.000000
0.633828 1.000000 1.000000
0.789276 1.000000 1.000000
0.947886 0.996838 0.996838
0.988000 0.988000 0.988000
0.988000 0.988000 0.988000
0.000000 0.996831 0.996831
0.146335 1.000000 1.000000
0.285097 1.000000 1.000000
0.486300 1.000000 1.000000
0.633828 1.000000 1.000000
0.789276 1.000000 1.000000
0.947886 0.996838 0.996838
0.988000 0.988000 0.988000
0.988000 0.988000 0.988000
