docs/luts/fuji_recipes/NEGAhi_JC_Pro_Port.cube
TITLE "Fujifilm Recipe: JC Pro Port (NEGAhi)"
# FilmSim=NEGAhi HL=-2 SH=2 Col=-3 WB=Auto WBR=1 WBB=0
LUT_3D_SIZE 33
DOMAIN_MIN 0.0 0.0 0.0
DOMAIN_MAX 1.0 1.0 1.0
0.000000 0.000000 0.000000
0.021727 0.008036 0.008036
0.043357 0.016036 0.016036
0.064958 0.024026 0.024026
0.086560 0.032015 0.032015
0.108161 0.040005 0.040005
0.129763 0.047994 0.047994
0.151364 0.055984 0.055984
0.172966 0.063974 0.063974
0.194568 0.071963 0.071963
0.216169 0.079953 0.079953
0.237771 0.087943 0.087943
0.259372 0.095932 0.095932
0.280974 0.103922 0.103922
0.302575 0.111911 0.111911
0.324177 0.119901 0.119901
0.374430 0.138488 0.138488
0.394844 0.146038 0.146038
0.415259 0.153589 0.153589
0.435673 0.161139 0.161139
0.456088 0.168690 0.168690
0.476502 0.176241 0.176241
0.496917 0.183791 0.183791
0.517331 0.191342 0.191342
0.537745 0.198892 0.198892
0.558160 0.206443 0.206443
0.578574 0.213993 0.213993
0.598989 0.221544 0.221544
0.619403 0.229094 0.229094
0.639817 0.236645 0.236645
0.660232 0.244195 0.244195
0.680646 0.251746 0.251746
0.682346 0.252374 0.252374
0.007763 0.020987 0.007763
0.021727 0.021261 0.008036
0.043357 0.029261 0.016036
0.064958 0.037251 0.024026
0.086560 0.045240 0.032015
0.108161 0.053230 0.040005
0.129763 0.061219 0.047994
0.151364 0.069209 0.055984
0.172966 0.077199 0.063974
0.194568 0.085188 0.071963
0.216169 0.093178 0.079953
0.237771 0.101168 0.087943
0.259372 0.109157 0.095932
0.280974 0.117147 0.103922
0.302575 0.125136 0.111911
0.324177 0.133126 0.119901
0.374430 0.151713 0.138488
0.394844 0.159263 0.146038
0.415259 0.166814 0.153589
0.435673 0.174364 0.161139
0.456088 0.181915 0.168690
0.476502 0.189466 0.176241
0.496917 0.197016 0.183791
0.517331 0.204567 0.191342
0.537745 0.212117 0.198892
0.558160 0.219668 0.206443
0.578574 0.227218 0.213993
0.598989 0.234769 0.221544
0.619403 0.242319 0.229094
0.639817 0.249870 0.236645
0.660232 0.257420 0.244195
0.680646 0.264971 0.251746
0.682346 0.265599 0.252374
0.015525 0.041975 0.015525
0.029216 0.041975 0.015525
0.043357 0.042486 0.016036
0.064958 0.050476 0.024026
0.086560 0.058465 0.032015
0.108161 0.066455 0.040005
0.129763 0.074444 0.047994
0.151364 0.082434 0.055984
0.172966 0.090424 0.063974
0.194568 0.098413 0.071963
0.216169 0.106403 0.079953
0.237771 0.114393 0.087943
0.259372 0.122382 0.095932
0.280974 0.130372 0.103922
0.302575 0.138361 0.111911
0.324177 0.146351 0.119901
0.374430 0.164938 0.138488
0.394844 0.172488 0.146038
0.415259 0.180039 0.153589
0.435673 0.187589 0.161139
0.456088 0.195140 0.168690
0.476502 0.202691 0.176241
0.496917 0.210241 0.183791
0.517331 0.217792 0.191342
0.537745 0.225342 0.198892
0.558160 0.232893 0.206443
0.578574 0.240443 0.213993
0.598989 0.247994 0.221544
0.619403 0.255544 0.229094
0.639817 0.263095 0.236645
0.660232 0.270645 0.244195
0.680646 0.278196 0.251746
0.682346 0.278824 0.252374
0.023288 0.062963 0.023288
0.036979 0.062963 0.023288
0.050608 0.062963 0.023288
0.064958 0.063701 0.024026
0.086560 0.071690 0.032015
0.108161 0.079680 0.040005
0.129763 0.087669 0.047994
0.151364 0.095659 0.055984
0.172966 0.103649 0.063974
0.194568 0.111638 0.071963
0.216169 0.119628 0.079953
0.237771 0.127618 0.087943
0.259372 0.135607 0.095932
0.280974 0.143597 0.103922
0.302575 0.151586 0.111911
0.324177 0.159576 0.119901
0.374430 0.178163 0.138488
0.394844 0.185713 0.146038
0.415259 0.193264 0.153589
0.435673 0.200814 0.161139
0.456088 0.208365 0.168690
0.476502 0.215916 0.176241
0.496917 0.223466 0.183791
0.517331 0.231017 0.191342
0.537745 0.238567 0.198892
0.558160 0.246118 0.206443
0.578574 0.253668 0.213993
0.598989 0.261219 0.221544
0.619403 0.268769 0.229094
0.639817 0.276320 0.236645
0.660232 0.283870 0.244195
0.680646 0.291421 0.251746
0.682346 0.292049 0.252374
0.031050 0.083950 0.031050
0.044741 0.083950 0.031050
0.058371 0.083950 0.031050
0.071983 0.083950 0.031050
0.086560 0.084915 0.032015
0.108161 0.092905 0.040005
0.129763 0.100894 0.047994
0.151364 0.108884 0.055984
0.172966 0.116874 0.063974
0.194568 0.124863 0.071963
0.216169 0.132853 0.079953
0.237771 0.140843 0.087943
0.259372 0.148832 0.095932
0.280974 0.156822 0.103922
0.302575 0.164811 0.111911
0.324177 0.172801 0.119901
0.374430 0.191388 0.138488
0.394844 0.198938 0.146038
0.415259 0.206489 0.153589
0.435673 0.214039 0.161139
0.456088 0.221590 0.168690
0.476502 0.229141 0.176241
0.496917 0.236691 0.183791
0.517331 0.244242 0.191342
0.537745 0.251792 0.198892
0.558160 0.259343 0.206443
0.578574 0.266893 0.213993
0.598989 0.274444 0.221544
0.619403 0.281994 0.229094
0.639817 0.289545 0.236645
0.660232 0.297095 0.244195
0.680646 0.304646 0.251746
0.682346 0.305274 0.252374
0.038813 0.104938 0.038813
0.052504 0.104938 0.038813
0.066133 0.104938 0.038813
0.079745 0.104938 0.038813
0.093357 0.104938 0.038813
0.108161 0.106130 0.040005
0.129763 0.114119 0.047994
0.151364 0.122109 0.055984
0.172966 0.130099 0.063974
0.194568 0.138088 0.071963
0.216169 0.146078 0.079953
0.237771 0.154068 0.087943
0.259372 0.162057 0.095932
0.280974 0.170047 0.103922
0.302575 0.178036 0.111911
0.324177 0.186026 0.119901
0.374430 0.204613 0.138488
0.394844 0.212163 0.146038
0.415259 0.219714 0.153589
0.435673 0.227264 0.161139
0.456088 0.234815 0.168690
0.476502 0.242366 0.176241
0.496917 0.249916 0.183791
0.517331 0.257467 0.191342
0.537745 0.265017 0.198892
0.558160 0.272568 0.206443
0.578574 0.280118 0.213993
0.598989 0.287669 0.221544
0.619403 0.295219 0.229094
0.639817 0.302770 0.236645
0.660232 0.310320 0.244195
0.680646 0.317871 0.251746
0.682346 0.318499 0.252374
0.046575 0.125925 0.046575
0.060266 0.125925 0.046575
0.073896 0.125925 0.046575
0.087508 0.125925 0.046575
0.101119 0.125925 0.046575
0.114731 0.125925 0.046575
0.129763 0.127344 0.047994
0.151364 0.135334 0.055984
0.172966 0.143324 0.063974
0.194568 0.151313 0.071963
0.216169 0.159303 0.079953
0.237771 0.167293 0.087943
0.259372 0.175282 0.095932
0.280974 0.183272 0.103922
0.302575 0.191261 0.111911
0.324177 0.199251 0.119901
0.374430 0.217838 0.138488
0.394844 0.225388 0.146038
0.415259 0.232939 0.153589
0.435673 0.240489 0.161139
0.456088 0.248040 0.168690
0.476502 0.255591 0.176241
0.496917 0.263141 0.183791
0.517331 0.270692 0.191342
0.537745 0.278242 0.198892
0.558160 0.285793 0.206443
0.578574 0.293343 0.213993
0.598989 0.300894 0.221544
0.619403 0.308444 0.229094
0.639817 0.315995 0.236645
0.660232 0.323545 0.244195
0.680646 0.331096 0.251746
0.682346 0.331724 0.252374
0.054338 0.146913 0.054338
0.068029 0.146913 0.054338
0.081658 0.146913 0.054338
0.095270 0.146913 0.054338
0.108882 0.146913 0.054338
0.122494 0.146913 0.054338
0.136106 0.146913 0.054338
0.151364 0.148559 0.055984
0.172966 0.156549 0.063974
0.194568 0.164538 0.071963
0.216169 0.172528 0.079953
0.237771 0.180518 0.087943
0.259372 0.188507 0.095932
0.280974 0.196497 0.103922
0.302575 0.204486 0.111911
0.324177 0.212476 0.119901
0.374430 0.231063 0.138488
0.394844 0.238613 0.146038
0.415259 0.246164 0.153589
0.435673 0.253714 0.161139
0.456088 0.261265 0.168690
0.476502 0.268816 0.176241
0.496917 0.276366 0.183791
0.517331 0.283917 0.191342
0.537745 0.291467 0.198892
0.558160 0.299018 0.206443
0.578574 0.306568 0.213993
0.598989 0.314119 0.221544
0.619403 0.321669 0.229094
0.639817 0.329220 0.236645
0.660232 0.336770 0.244195
0.680646 0.344321 0.251746
0.682346 0.344949 0.252374
0.062100 0.167900 0.062100
0.075791 0.167900 0.062100
0.089421 0.167900 0.062100
0.103033 0.167900 0.062100
0.116644 0.167900 0.062100
0.130256 0.167900 0.062100
0.143868 0.167900 0.062100
0.157480 0.167900 0.062100
0.172966 0.169774 0.063974
0.194568 0.177763 0.071963
0.216169 0.185753 0.079953
0.237771 0.193743 0.087943
0.259372 0.201732 0.095932
0.280974 0.209722 0.103922
0.302575 0.217711 0.111911
0.324177 0.225701 0.119901
0.374430 0.244288 0.138488
0.394844 0.251838 0.146038
0.415259 0.259389 0.153589
0.435673 0.266939 0.161139
0.456088 0.274490 0.168690
0.476502 0.282041 0.176241
0.496917 0.289591 0.183791
0.517331 0.297142 0.191342
0.537745 0.304692 0.198892
0.558160 0.312243 0.206443
0.578574 0.319793 0.213993
0.598989 0.327344 0.221544
0.619403 0.334894 0.229094
0.639817 0.342445 0.236645
0.660232 0.349995 0.244195
0.680646 0.357546 0.251746
0.682346 0.358174 0.252374
0.069863 0.188888 0.069863
0.083554 0.188888 0.069863
0.097183 0.188888 0.069863
0.110795 0.188888 0.069863
0.124407 0.188888 0.069863
0.138019 0.188888 0.069863
0.151631 0.188888 0.069863
0.165243 0.188888 0.069863
0.178855 0.188888 0.069863
0.194568 0.190988 0.071963
0.216169 0.198978 0.079953
0.237771 0.206968 0.087943
0.259372 0.214957 0.095932
0.280974 0.222947 0.103922
0.302575 0.230936 0.111911
0.324177 0.238926 0.119901
0.374430 0.257513 0.138488
0.394844 0.265063 0.146038
0.415259 0.272614 0.153589
0.435673 0.280164 0.161139
0.456088 0.287715 0.168690
0.476502 0.295266 0.176241
0.496917 0.302816 0.183791
0.517331 0.310367 0.191342
0.537745 0.317917 0.198892
0.558160 0.325468 0.206443
0.578574 0.333018 0.213993
0.598989 0.340569 0.221544
0.619403 0.348119 0.229094
0.639817 0.355670 0.236645
0.660232 0.363220 0.244195
0.680646 0.370771 0.251746
0.682346 0.371399 0.252374
0.077625 0.209875 0.077625
0.091316 0.209875 0.077625
0.104946 0.209875 0.077625
0.118558 0.209875 0.077625
0.132169 0.209875 0.077625
0.145781 0.209875 0.077625
0.159393 0.209875 0.077625
0.173005 0.209875 0.077625
0.186617 0.209875 0.077625
0.200229 0.209875 0.077625
0.216169 0.212203 0.079953
0.237771 0.220193 0.087943
0.259372 0.228182 0.095932
0.280974 0.236172 0.103922
0.302575 0.244161 0.111911
0.324177 0.252151 0.119901
0.374430 0.270738 0.138488
0.394844 0.278288 0.146038
0.415259 0.285839 0.153589
0.435673 0.293389 0.161139
0.456088 0.300940 0.168690
0.476502 0.308491 0.176241
0.496917 0.316041 0.183791
0.517331 0.323592 0.191342
0.537745 0.331142 0.198892
0.558160 0.338693 0.206443
0.578574 0.346243 0.213993
0.598989 0.353794 0.221544
0.619403 0.361344 0.229094
0.639817 0.368895 0.236645
0.660232 0.376445 0.244195
0.680646 0.383996 0.251746
0.682346 0.384624 0.252374
0.085388 0.230862 0.085388
0.099079 0.230862 0.085388
0.112708 0.230862 0.085388
0.126320 0.230862 0.085388
0.139932 0.230862 0.085388
0.153544 0.230862 0.085388
0.167156 0.230862 0.085388
0.180768 0.230862 0.085388
0.194380 0.230862 0.085388
0.207992 0.230862 0.085388
0.221604 0.230862 0.085388
0.237771 0.233418 0.087943
0.259372 0.241407 0.095932
0.280974 0.249397 0.103922
0.302575 0.257386 0.111911
0.324177 0.265376 0.119901
0.374430 0.283963 0.138488
0.394844 0.291513 0.146038
0.415259 0.299064 0.153589
0.435673 0.306614 0.161139
0.456088 0.314165 0.168690
0.476502 0.321716 0.176241
0.496917 0.329266 0.183791
0.517331 0.336817 0.191342
0.537745 0.344367 0.198892
0.558160 0.351918 0.206443
0.578574 0.359468 0.213993
0.598989 0.367019 0.221544
0.619403 0.374569 0.229094
0.639817 0.382120 0.236645
0.660232 0.389670 0.244195
0.680646 0.397221 0.251746
0.682346 0.397849 0.252374
0.093150 0.251850 0.093150
0.106841 0.251850 0.093150
0.120471 0.251850 0.093150
0.134083 0.251850 0.093150
0.147694 0.251850 0.093150
0.161306 0.251850 0.093150
0.174918 0.251850 0.093150
0.188530 0.251850 0.093150
0.202142 0.251850 0.093150
0.215754 0.251850 0.093150
0.229366 0.251850 0.093150
0.242978 0.251850 0.093150
0.259372 0.254632 0.095932
0.280974 0.262622 0.103922
0.302575 0.270611 0.111911
0.324177 0.278601 0.119901
0.374430 0.297188 0.138488
0.394844 0.304738 0.146038
0.415259 0.312289 0.153589
0.435673 0.319839 0.161139
0.456088 0.327390 0.168690
0.476502 0.334941 0.176241
0.496917 0.342491 0.183791
0.517331 0.350042 0.191342
0.537745 0.357592 0.198892
0.558160 0.365143 0.206443
0.578574 0.372693 0.213993
0.598989 0.380244 0.221544
0.619403 0.387794 0.229094
0.639817 0.395345 0.236645
0.660232 0.402895 0.244195
0.680646 0.410446 0.251746
0.682346 0.411074 0.252374
0.100913 0.272838 0.100913
0.114604 0.272838 0.100913
0.128233 0.272838 0.100913
0.141845 0.272838 0.100913
0.155457 0.272838 0.100913
0.169069 0.272838 0.100913
0.182681 0.272838 0.100913
0.196293 0.272838 0.100913
0.209905 0.272838 0.100913
0.223517 0.272838 0.100913
0.237129 0.272838 0.100913
0.250741 0.272838 0.100913
0.264353 0.272838 0.100913
0.280974 0.275847 0.103922
0.302575 0.283836 0.111911
0.324177 0.291826 0.119901
0.374430 0.310413 0.138488
0.394844 0.317963 0.146038
0.415259 0.325514 0.153589
0.435673 0.333064 0.161139
0.456088 0.340615 0.168690
0.476502 0.348166 0.176241
0.496917 0.355716 0.183791
0.517331 0.363267 0.191342
0.537745 0.370817 0.198892
0.558160 0.378368 0.206443
0.578574 0.385918 0.213993
0.598989 0.393469 0.221544
0.619403 0.401019 0.229094
0.639817 0.408570 0.236645
0.660232 0.416120 0.244195
0.680646 0.423671 0.251746
0.682346 0.424299 0.252374
0.108675 0.293825 0.108675
0.122366 0.293825 0.108675
0.135996 0.293825 0.108675
0.149608 0.293825 0.108675
0.163219 0.293825 0.108675
0.176831 0.293825 0.108675
0.190443 0.293825 0.108675
0.204055 0.293825 0.108675
0.217667 0.293825 0.108675
0.231279 0.293825 0.108675
0.244891 0.293825 0.108675
0.258503 0.293825 0.108675
0.272115 0.293825 0.108675
0.285727 0.293825 0.108675
0.302575 0.297061 0.111911
0.324177 0.305051 0.119901
0.374430 0.323638 0.138488
0.394844 0.331188 0.146038
0.415259 0.338739 0.153589
0.435673 0.346289 0.161139
0.456088 0.353840 0.168690
0.476502 0.361391 0.176241
0.496917 0.368941 0.183791
0.517331 0.376492 0.191342
0.537745 0.384042 0.198892
0.558160 0.391593 0.206443
0.578574 0.399143 0.213993
0.598989 0.406694 0.221544
0.619403 0.414244 0.229094
0.639817 0.421795 0.236645
0.660232 0.429345 0.244195
0.680646 0.436896 0.251746
0.682346 0.437524 0.252374
0.116438 0.314813 0.116438
0.130129 0.314813 0.116438
0.143758 0.314813 0.116438
0.157370 0.314813 0.116438
0.170982 0.314813 0.116438
0.184594 0.314813 0.116438
0.198206 0.314813 0.116438
0.211818 0.314813 0.116438
0.225430 0.314813 0.116438
0.239042 0.314813 0.116438
0.252654 0.314813 0.116438
0.266266 0.314813 0.116438
0.279878 0.314813 0.116438
0.293489 0.314813 0.116438
0.307101 0.314813 0.116438
0.324177 0.318276 0.119901
0.374430 0.336863 0.138488
0.394844 0.344413 0.146038
0.415259 0.351964 0.153589
0.435673 0.359514 0.161139
0.456088 0.367065 0.168690
0.476502 0.374616 0.176241
0.496917 0.382166 0.183791
0.517331 0.389717 0.191342
0.537745 0.397267 0.198892
0.558160 0.404818 0.206443
0.578574 0.412368 0.213993
0.598989 0.419919 0.221544
0.619403 0.427469 0.229094
0.639817 0.435020 0.236645
0.660232 0.442570 0.244195
0.680646 0.450121 0.251746
0.682346 0.450749 0.252374
0.124200 0.335800 0.124200
0.137891 0.335800 0.124200
0.151521 0.335800 0.124200
0.165133 0.335800 0.124200
0.178744 0.335800 0.124200
0.192356 0.335800 0.124200
0.205968 0.335800 0.124200
0.219580 0.335800 0.124200
0.233192 0.335800 0.124200
0.246804 0.335800 0.124200
0.260416 0.335800 0.124200
0.274028 0.335800 0.124200
0.287640 0.335800 0.124200
0.301252 0.335800 0.124200
0.314864 0.335800 0.124200
0.328476 0.335800 0.124200
0.374430 0.350088 0.138488
0.394844 0.357638 0.146038
0.415259 0.365189 0.153589
0.435673 0.372739 0.161139
0.456088 0.380290 0.168690
0.476502 0.387841 0.176241
0.496917 0.395391 0.183791
0.517331 0.402942 0.191342
0.537745 0.410492 0.198892
0.558160 0.418043 0.206443
0.578574 0.425593 0.213993
0.598989 0.433144 0.221544
0.619403 0.440694 0.229094
0.639817 0.448245 0.236645
0.660232 0.455795 0.244195
0.680646 0.463346 0.251746
0.682346 0.463974 0.252374
0.142336 0.384834 0.142336
0.156027 0.384834 0.142336
0.169656 0.384834 0.142336
0.183268 0.384834 0.142336
0.196880 0.384834 0.142336
0.210492 0.384834 0.142336
0.224104 0.384834 0.142336
0.237716 0.384834 0.142336
0.251328 0.384834 0.142336
0.264940 0.384834 0.142336
0.278552 0.384834 0.142336
0.292164 0.384834 0.142336
0.305776 0.384834 0.142336
0.319388 0.384834 0.142336
0.333000 0.384834 0.142336
0.346612 0.384834 0.142336
0.378278 0.384834 0.142336
0.394844 0.388537 0.146038
0.415259 0.396087 0.153589
0.435673 0.403638 0.161139
0.456088 0.411188 0.168690
0.476502 0.418739 0.176241
0.496917 0.426289 0.183791
0.517331 0.433840 0.191342
0.537745 0.441390 0.198892
0.558160 0.448941 0.206443
0.578574 0.456491 0.213993
0.598989 0.464042 0.221544
0.619403 0.471592 0.229094
0.639817 0.479143 0.236645
0.660232 0.486694 0.244195
0.680646 0.494244 0.251746
0.682346 0.494873 0.252374
0.149672 0.404668 0.149672
0.163363 0.404668 0.149672
0.176992 0.404668 0.149672
0.190604 0.404668 0.149672
0.204216 0.404668 0.149672
0.217828 0.404668 0.149672
0.231440 0.404668 0.149672
0.245052 0.404668 0.149672
0.258664 0.404668 0.149672
0.272276 0.404668 0.149672
0.285888 0.404668 0.149672
0.299500 0.404668 0.149672
0.313112 0.404668 0.149672
0.326724 0.404668 0.149672
0.340336 0.404668 0.149672
0.353948 0.404668 0.149672
0.385614 0.404668 0.149672
0.398478 0.404668 0.149672
0.415259 0.408585 0.153589
0.435673 0.416136 0.161139
0.456088 0.423686 0.168690
0.476502 0.431237 0.176241
0.496917 0.438787 0.183791
0.517331 0.446338 0.191342
0.537745 0.453889 0.198892
0.558160 0.461439 0.206443
0.578574 0.468990 0.213993
0.598989 0.476540 0.221544
0.619403 0.484091 0.229094
0.639817 0.491641 0.236645
0.660232 0.499192 0.244195
0.680646 0.506742 0.251746
0.682346 0.507371 0.252374
0.157008 0.424502 0.157008
0.170699 0.424502 0.157008
0.184328 0.424502 0.157008
0.197940 0.424502 0.157008
0.211552 0.424502 0.157008
0.225164 0.424502 0.157008
0.238776 0.424502 0.157008
0.252388 0.424502 0.157008
0.266000 0.424502 0.157008
0.279612 0.424502 0.157008
0.293224 0.424502 0.157008
0.306836 0.424502 0.157008
0.320448 0.424502 0.157008
0.334060 0.424502 0.157008
0.347672 0.424502 0.157008
0.361284 0.424502 0.157008
0.392950 0.424502 0.157008
0.405814 0.424502 0.157008
0.418678 0.424502 0.157008
0.435673 0.428634 0.161139
0.456088 0.436185 0.168690
0.476502 0.443735 0.176241
0.496917 0.451286 0.183791
0.517331 0.458836 0.191342
0.537745 0.466387 0.198892
0.558160 0.473937 0.206443
0.578574 0.481488 0.213993
0.598989 0.489038 0.221544
0.619403 0.496589 0.229094
0.639817 0.504139 0.236645
0.660232 0.511690 0.244195
0.680646 0.519240 0.251746
0.682346 0.519869 0.252374
0.164344 0.444336 0.164344
0.178035 0.444336 0.164344
0.191664 0.444336 0.164344
0.205276 0.444336 0.164344
0.218888 0.444336 0.164344
0.232500 0.444336 0.164344
0.246112 0.444336 0.164344
0.259724 0.444336 0.164344
0.273336 0.444336 0.164344
0.286948 0.444336 0.164344
0.300560 0.444336 0.164344
0.314172 0.444336 0.164344
0.327784 0.444336 0.164344
0.341396 0.444336 0.164344
0.355008 0.444336 0.164344
0.368619 0.444336 0.164344
0.400286 0.444336 0.164344
0.413150 0.444336 0.164344
0.426014 0.444336 0.164344
0.438877 0.444336 0.164344
0.456088 0.448683 0.168690
0.476502 0.456233 0.176241
0.496917 0.463784 0.183791
0.517331 0.471334 0.191342
0.537745 0.478885 0.198892
0.558160 0.486435 0.206443
0.578574 0.493986 0.213993
0.598989 0.501537 0.221544
0.619403 0.509087 0.229094
0.639817 0.516638 0.236645
0.660232 0.524188 0.244195
0.680646 0.531739 0.251746
0.682346 0.532367 0.252374
0.171679 0.464170 0.171679
0.185371 0.464170 0.171679
0.199000 0.464170 0.171679
0.212612 0.464170 0.171679
0.226224 0.464170 0.171679
0.239836 0.464170 0.171679
0.253448 0.464170 0.171679
0.267060 0.464170 0.171679
0.280672 0.464170 0.171679
0.294284 0.464170 0.171679
0.307896 0.464170 0.171679
0.321508 0.464170 0.171679
0.335120 0.464170 0.171679
0.348731 0.464170 0.171679
0.362343 0.464170 0.171679
0.375955 0.464170 0.171679
0.407622 0.464170 0.171679
0.420486 0.464170 0.171679
0.433349 0.464170 0.171679
0.446213 0.464170 0.171679
0.459077 0.464170 0.171679
0.476502 0.468732 0.176241
0.496917 0.476282 0.183791
0.517331 0.483833 0.191342
0.537745 0.491383 0.198892
0.558160 0.498934 0.206443
0.578574 0.506484 0.213993
0.598989 0.514035 0.221544
0.619403 0.521585 0.229094
0.639817 0.529136 0.236645
0.660232 0.536686 0.244195
0.680646 0.544237 0.251746
0.682346 0.544865 0.252374
0.179015 0.484005 0.179015
0.192707 0.484005 0.179015
0.206336 0.484005 0.179015
0.219948 0.484005 0.179015
0.233560 0.484005 0.179015
0.247172 0.484005 0.179015
0.260784 0.484005 0.179015
0.274396 0.484005 0.179015
0.288008 0.484005 0.179015
0.301620 0.484005 0.179015
0.315232 0.484005 0.179015
0.328843 0.484005 0.179015
0.342455 0.484005 0.179015
0.356067 0.484005 0.179015
0.369679 0.484005 0.179015
0.383291 0.484005 0.179015
0.414958 0.484005 0.179015
0.427822 0.484005 0.179015
0.440685 0.484005 0.179015
0.453549 0.484005 0.179015
0.466413 0.484005 0.179015
0.479277 0.484005 0.179015
0.496917 0.488780 0.183791
0.517331 0.496331 0.191342
0.537745 0.503881 0.198892
0.558160 0.511432 0.206443
0.578574 0.518982 0.213993
0.598989 0.526533 0.221544
0.619403 0.534083 0.229094
0.639817 0.541634 0.236645
0.660232 0.549185 0.244195
0.680646 0.556735 0.251746
0.682346 0.557364 0.252374
0.186351 0.503839 0.186351
0.200042 0.503839 0.186351
0.213672 0.503839 0.186351
0.227284 0.503839 0.186351
0.240896 0.503839 0.186351
0.254508 0.503839 0.186351
0.268120 0.503839 0.186351
0.281732 0.503839 0.186351
0.295344 0.503839 0.186351
0.308955 0.503839 0.186351
0.322567 0.503839 0.186351
0.336179 0.503839 0.186351
0.349791 0.503839 0.186351
0.363403 0.503839 0.186351
0.377015 0.503839 0.186351
0.390627 0.503839 0.186351
0.422294 0.503839 0.186351
0.435157 0.503839 0.186351
0.448021 0.503839 0.186351
0.460885 0.503839 0.186351
0.473749 0.503839 0.186351
0.486613 0.503839 0.186351
0.499477 0.503839 0.186351
0.517331 0.508829 0.191342
0.537745 0.516380 0.198892
0.558160 0.523930 0.206443
0.578574 0.531481 0.213993
0.598989 0.539031 0.221544
0.619403 0.546582 0.229094
0.639817 0.554132 0.236645
0.660232 0.561683 0.244195
0.680646 0.569233 0.251746
0.682346 0.569862 0.252374
0.193687 0.523673 0.193687
0.207378 0.523673 0.193687
0.221008 0.523673 0.193687
0.234620 0.523673 0.193687
0.248232 0.523673 0.193687
0.261844 0.523673 0.193687
0.275456 0.523673 0.193687
0.289068 0.523673 0.193687
0.302679 0.523673 0.193687
0.316291 0.523673 0.193687
0.329903 0.523673 0.193687
0.343515 0.523673 0.193687
0.357127 0.523673 0.193687
0.370739 0.523673 0.193687
0.384351 0.523673 0.193687
0.397963 0.523673 0.193687
0.429629 0.523673 0.193687
0.442493 0.523673 0.193687
0.455357 0.523673 0.193687
0.468221 0.523673 0.193687
0.481085 0.523673 0.193687
0.493949 0.523673 0.193687
0.506813 0.523673 0.193687
0.519677 0.523673 0.193687
0.537745 0.528878 0.198892
0.558160 0.536428 0.206443
0.578574 0.543979 0.213993
0.598989 0.551529 0.221544
0.619403 0.559080 0.229094
0.639817 0.566630 0.236645
0.660232 0.574181 0.244195
0.680646 0.581731 0.251746
0.682346 0.582360 0.252374
0.201023 0.543507 0.201023
0.214714 0.543507 0.201023
0.228344 0.543507 0.201023
0.241956 0.543507 0.201023
0.255568 0.543507 0.201023
0.269180 0.543507 0.201023
0.282791 0.543507 0.201023
0.296403 0.543507 0.201023
0.310015 0.543507 0.201023
0.323627 0.543507 0.201023
0.337239 0.543507 0.201023
0.350851 0.543507 0.201023
0.364463 0.543507 0.201023
0.378075 0.543507 0.201023
0.391687 0.543507 0.201023
0.405299 0.543507 0.201023
0.436965 0.543507 0.201023
0.449829 0.543507 0.201023
0.462693 0.543507 0.201023
0.475557 0.543507 0.201023
0.488421 0.543507 0.201023
0.501285 0.543507 0.201023
0.514149 0.543507 0.201023
0.527012 0.543507 0.201023
0.539876 0.543507 0.201023
0.558160 0.548926 0.206443
0.578574 0.556477 0.213993
0.598989 0.564028 0.221544
0.619403 0.571578 0.229094
0.639817 0.579129 0.236645
0.660232 0.586679 0.244195
0.680646 0.594230 0.251746
0.682346 0.594858 0.252374
0.208359 0.563341 0.208359
0.222050 0.563341 0.208359
0.235680 0.563341 0.208359
0.249292 0.563341 0.208359
0.262903 0.563341 0.208359
0.276515 0.563341 0.208359
0.290127 0.563341 0.208359
0.303739 0.563341 0.208359
0.317351 0.563341 0.208359
0.330963 0.563341 0.208359
0.344575 0.563341 0.208359
0.358187 0.563341 0.208359
0.371799 0.563341 0.208359
0.385411 0.563341 0.208359
0.399023 0.563341 0.208359
0.412635 0.563341 0.208359
0.444301 0.563341 0.208359
0.457165 0.563341 0.208359
0.470029 0.563341 0.208359
0.482893 0.563341 0.208359
0.495757 0.563341 0.208359
0.508621 0.563341 0.208359
0.521485 0.563341 0.208359
0.534348 0.563341 0.208359
