docs/luts/fuji_recipes/NEGA_RR_Eterna.cube
TITLE "Fujifilm Recipe: RR Eterna (NEGA)"
# FilmSim=NEGA HL=-2 SH=-1 Col=-4 WB=Auto WBR=2 WBB=2
LUT_3D_SIZE 9
DOMAIN_MIN 0.0 0.0 0.0
DOMAIN_MAX 1.0 1.0 1.0
0.055360 0.055360 0.055360
0.170654 0.123831 0.123831
0.274488 0.185496 0.185496
0.359458 0.236392 0.236392
0.454087 0.292852 0.292852
0.548716 0.349313 0.349313
0.605253 0.383046 0.383046
0.605253 0.383046 0.383046
0.605253 0.383046 0.383046
0.120570 0.165164 0.120570
0.170654 0.168425 0.123831
0.274488 0.230090 0.185496
0.359458 0.280985 0.236392
0.454087 0.337446 0.292852
0.548716 0.393906 0.349313
0.605253 0.427640 0.383046
0.605253 0.427640 0.383046
0.605253 0.427640 0.383046
0.179299 0.264054 0.179299
0.226122 0.264054 0.179299
0.274488 0.270251 0.185496
0.359458 0.321146 0.236392
0.454087 0.377607 0.292852
0.548716 0.434067 0.349313
0.605253 0.467801 0.383046
0.605253 0.467801 0.383046
0.605253 0.467801 0.383046
0.235111 0.358033 0.235111
0.281935 0.358033 0.235111
0.324104 0.358033 0.235111
0.359458 0.359313 0.236392
0.454087 0.410068 0.292852
0.548716 0.466356 0.349313
0.605253 0.499986 0.383046
0.605253 0.499986 0.383046
0.605253 0.499986 0.383046
0.281801 0.435565 0.281801
0.328624 0.435565 0.281801
0.370794 0.435565 0.281801
0.404729 0.435565 0.281801
0.454087 0.446583 0.292852
0.548716 0.502871 0.349313
0.605253 0.536501 0.383046
0.605253 0.536501 0.383046
0.605253 0.536501 0.383046
0.335573 0.525688 0.335573
0.382396 0.525688 0.335573
0.424565 0.525688 0.335573
0.458337 0.525688 0.335573
0.496678 0.525688 0.335573
0.548716 0.539386 0.349313
0.605253 0.573016 0.383046
0.605253 0.573016 0.383046
0.605253 0.573016 0.383046
0.383046 0.605253 0.383046
0.429869 0.605253 0.383046
0.472038 0.605253 0.383046
0.505665 0.605253 0.383046
0.544005 0.605253 0.383046
0.582346 0.605253 0.383046
0.605253 0.605253 0.383046
0.605253 0.605253 0.383046
0.605253 0.605253 0.383046
0.383046 0.605253 0.383046
0.429869 0.605253 0.383046
0.472038 0.605253 0.383046
0.505665 0.605253 0.383046
0.544005 0.605253 0.383046
0.582346 0.605253 0.383046
0.605253 0.605253 0.383046
0.605253 0.605253 0.383046
0.605253 0.605253 0.383046
0.383046 0.605253 0.383046
0.429869 0.605253 0.383046
0.472038 0.605253 0.383046
0.505665 0.605253 0.383046
0.544005 0.605253 0.383046
0.582346 0.605253 0.383046
0.605253 0.605253 0.383046
0.605253 0.605253 0.383046
0.605253 0.605253 0.383046
0.123831 0.123831 0.170654
0.170654 0.123831 0.170654
0.274488 0.185496 0.232319
0.359458 0.236392 0.283215
0.454087 0.292852 0.339676
0.548716 0.349313 0.396136
0.605253 0.383046 0.429869
0.605253 0.383046 0.429869
0.605253 0.383046 0.429869
0.123831 0.168425 0.170654
0.235865 0.233635 0.235865
0.339699 0.295300 0.297530
0.424249 0.345960 0.348189
0.518878 0.402420 0.404650
0.613506 0.458881 0.461110
0.670044 0.492614 0.494843
0.670044 0.492614 0.494843
0.670044 0.492614 0.494843
0.179299 0.264054 0.226122
0.294593 0.332525 0.294593
0.342959 0.338721 0.300790
0.427488 0.389369 0.351438
0.522117 0.445830 0.407898
0.616746 0.502290 0.464359
0.673283 0.536023 0.498092
0.673283 0.536023 0.498092
0.673283 0.536023 0.498092
0.235111 0.358033 0.281935
0.343075 0.413472 0.343075
0.385244 0.413472 0.343075
0.427488 0.421809 0.351438
0.522117 0.478098 0.407898
0.616746 0.534386 0.464359
0.673283 0.568016 0.498092
0.673283 0.568016 0.498092
0.673283 0.568016 0.498092
0.281801 0.435565 0.328624
0.396847 0.503595 0.396847
0.439016 0.503595 0.396847
0.472759 0.503595 0.396847
0.522117 0.514613 0.407898
0.616746 0.570901 0.464359
0.673283 0.604531 0.498092
0.673283 0.604531 0.498092
0.673283 0.604531 0.498092
0.335573 0.525688 0.382396
0.450619 0.593718 0.450619
0.492788 0.593718 0.450619
0.526367 0.593718 0.450619
0.564707 0.593718 0.450619
0.616746 0.607416 0.464359
0.673283 0.641046 0.498092
0.673283 0.641046 0.498092
0.673283 0.641046 0.498092
0.383046 0.605253 0.429869
0.498092 0.673283 0.498092
0.540261 0.673283 0.498092
0.573695 0.673283 0.498092
0.612035 0.673283 0.498092
0.650376 0.673283 0.498092
0.673283 0.673283 0.498092
0.673283 0.673283 0.498092
0.673283 0.673283 0.498092
0.383046 0.605253 0.429869
0.498092 0.673283 0.498092
0.540261 0.673283 0.498092
0.573695 0.673283 0.498092
0.612035 0.673283 0.498092
0.650376 0.673283 0.498092
0.673283 0.673283 0.498092
0.673283 0.673283 0.498092
0.673283 0.673283 0.498092
0.383046 0.605253 0.429869
0.498092 0.673283 0.498092
0.540261 0.673283 0.498092
0.573695 0.673283 0.498092
0.612035 0.673283 0.498092
0.650376 0.673283 0.498092
0.673283 0.673283 0.498092
0.673283 0.673283 0.498092
0.673283 0.673283 0.498092
0.185496 0.185496 0.274488
0.232319 0.185496 0.274488
0.274488 0.185496 0.274488
0.359458 0.236392 0.325384
0.454087 0.292852 0.381845
0.548716 0.349313 0.438305
0.605253 0.383046 0.472038
0.605253 0.383046 0.472038
0.605253 0.383046 0.472038
0.185496 0.230090 0.274488
0.297530 0.295300 0.339699
0.339699 0.295300 0.339699
0.424249 0.345960 0.390358
0.518878 0.402420 0.446819
0.613506 0.458881 0.503279
0.670044 0.492614 0.537012
0.670044 0.492614 0.537012
0.670044 0.492614 0.537012
0.185496 0.270251 0.274488
0.300790 0.338721 0.342959
0.398427 0.394189 0.398427
0.482599 0.444636 0.448874
0.577228 0.501097 0.505334
0.671857 0.557557 0.561795
0.728394 0.591290 0.595528
0.728394 0.591290 0.595528
0.728394 0.591290 0.595528
0.235111 0.358033 0.324104
0.343075 0.413472 0.385244
0.446686 0.474740 0.446686
0.488756 0.483077 0.455048
0.583385 0.539365 0.511509
0.678014 0.595653 0.567969
0.734551 0.629284 0.601703
0.734551 0.629284 0.601703
0.734551 0.629284 0.601703
0.281801 0.435565 0.370794
0.396847 0.503595 0.439016
0.500458 0.564863 0.500458
0.534027 0.564863 0.500458
0.583385 0.575880 0.511509
0.678014 0.632168 0.567969
0.734551 0.665798 0.601703
0.734551 0.665798 0.601703
0.734551 0.665798 0.601703
0.335573 0.525688 0.424565
0.450619 0.593718 0.492788
0.554230 0.654986 0.554230
0.587634 0.654986 0.554230
0.625975 0.654986 0.554230
0.678014 0.668683 0.567969
0.734551 0.702313 0.601703
0.734551 0.702313 0.601703
0.734551 0.702313 0.601703
0.383046 0.605253 0.472038
0.498092 0.673283 0.540261
0.601703 0.734551 0.601703
0.634962 0.734551 0.601703
0.673303 0.734551 0.601703
0.711644 0.734551 0.601703
0.734551 0.734551 0.601703
0.734551 0.734551 0.601703
0.734551 0.734551 0.601703
0.383046 0.605253 0.472038
0.498092 0.673283 0.540261
0.601703 0.734551 0.601703
0.634962 0.734551 0.601703
0.673303 0.734551 0.601703
0.711644 0.734551 0.601703
0.734551 0.734551 0.601703
0.734551 0.734551 0.601703
0.734551 0.734551 0.601703
0.383046 0.605253 0.472038
0.498092 0.673283 0.540261
0.601703 0.734551 0.601703
0.634962 0.734551 0.601703
0.673303 0.734551 0.601703
0.711644 0.734551 0.601703
0.734551 0.734551 0.601703
0.734551 0.734551 0.601703
0.734551 0.734551 0.601703
0.236392 0.236392 0.359458
0.283215 0.236392 0.359458
0.325384 0.236392 0.359458
0.359458 0.236392 0.359458
0.454087 0.292852 0.415746
0.548716 0.349313 0.472035
0.605253 0.383046 0.505665
0.605253 0.383046 0.505665
0.605253 0.383046 0.505665
0.236392 0.280985 0.359458
0.348189 0.345960 0.424249
0.390358 0.345960 0.424249
0.424249 0.345960 0.424249
0.518878 0.402420 0.480537
0.613506 0.458881 0.536825
0.670044 0.492614 0.570455
0.670044 0.492614 0.570455
0.670044 0.492614 0.570455
0.236392 0.321146 0.359458
0.351438 0.389369 0.427488
0.448874 0.444636 0.482599
0.482599 0.444636 0.482599
0.577228 0.501097 0.538887
0.671857 0.557557 0.595175
0.728394 0.591290 0.628805
0.728394 0.591290 0.628805
0.728394 0.591290 0.628805
0.236392 0.359313 0.359458
0.351438 0.421809 0.427488
0.455048 0.483077 0.488756
0.530285 0.524607 0.530285
0.624693 0.580673 0.586352
0.719100 0.636740 0.642419
0.775505 0.670238 0.675916
0.775505 0.670238 0.675916
0.775505 0.670238 0.675916
0.281801 0.435565 0.404729
0.396847 0.503595 0.472759
0.500458 0.564863 0.534027
0.583682 0.614518 0.583682
0.632997 0.625492 0.594656
0.727404 0.681559 0.650723
0.783809 0.715057 0.684220
0.783809 0.715057 0.684220
0.783809 0.715057 0.684220
0.335573 0.525688 0.458337
0.450619 0.593718 0.526367
0.554230 0.654986 0.587634
0.637079 0.704430 0.637079
0.675420 0.704430 0.637079
0.727404 0.718074 0.650723
0.783809 0.751572 0.684220
0.783809 0.751572 0.684220
0.783809 0.751572 0.684220
0.383046 0.605253 0.505665
0.498092 0.673283 0.573695
0.601703 0.734551 0.634962
0.684220 0.783809 0.684220
0.722561 0.783809 0.684220
0.760902 0.783809 0.684220
0.783809 0.783809 0.684220
0.783809 0.783809 0.684220
0.783809 0.783809 0.684220
0.383046 0.605253 0.505665
0.498092 0.673283 0.573695
0.601703 0.734551 0.634962
0.684220 0.783809 0.684220
0.722561 0.783809 0.684220
0.760902 0.783809 0.684220
0.783809 0.783809 0.684220
0.783809 0.783809 0.684220
0.783809 0.783809 0.684220
0.383046 0.605253 0.505665
0.498092 0.673283 0.573695
0.601703 0.734551 0.634962
0.684220 0.783809 0.684220
0.722561 0.783809 0.684220
0.760902 0.783809 0.684220
0.783809 0.783809 0.684220
0.783809 0.783809 0.684220
0.783809 0.783809 0.684220
0.292852 0.292852 0.454087
0.339676 0.292852 0.454087
0.381845 0.292852 0.454087
0.415746 0.292852 0.454087
0.454087 0.292852 0.454087
0.548716 0.349313 0.510375
0.605253 0.383046 0.544005
0.605253 0.383046 0.544005
0.605253 0.383046 0.544005
0.292852 0.337446 0.454087
0.404650 0.402420 0.518878
0.446819 0.402420 0.518878
0.480537 0.402420 0.518878
0.518878 0.402420 0.518878
0.613506 0.458881 0.575166
0.670044 0.492614 0.608796
0.670044 0.492614 0.608796
0.670044 0.492614 0.608796
0.292852 0.377607 0.454087
0.407898 0.445830 0.522117
0.505334 0.501097 0.577228
0.538887 0.501097 0.577228
0.577228 0.501097 0.577228
0.671857 0.557557 0.633516
0.728394 0.591290 0.667146
0.728394 0.591290 0.667146
0.728394 0.591290 0.667146
0.292852 0.410068 0.454087
0.407898 0.478098 0.522117
0.511509 0.539365 0.583385
0.586352 0.580673 0.624693
0.624693 0.580673 0.624693
0.719100 0.636740 0.680759
0.775505 0.670238 0.714257
0.775505 0.670238 0.714257
0.775505 0.670238 0.714257
0.292852 0.446583 0.454087
0.407898 0.514613 0.522117
0.511509 0.575880 0.583385
0.594656 0.625492 0.632997
0.678089 0.670585 0.678089
0.772497 0.726651 0.734156
0.828902 0.760149 0.767654
0.828902 0.760149 0.767654
0.828902 0.760149 0.767654
0.335573 0.525688 0.496678
0.450619 0.593718 0.564707
0.554230 0.654986 0.625975
0.637079 0.704430 0.675420
0.731486 0.760497 0.731486
0.783471 0.774140 0.745130
0.839876 0.807638 0.778628
0.839876 0.807638 0.778628
0.839876 0.807638 0.778628
0.383046 0.605253 0.544005
0.498092 0.673283 0.612035
0.601703 0.734551 0.673303
0.684220 0.783809 0.722561
0.778628 0.839876 0.778628
0.816968 0.839876 0.778628
0.839876 0.839876 0.778628
0.839876 0.839876 0.778628
0.839876 0.839876 0.778628
0.383046 0.605253 0.544005
0.498092 0.673283 0.612035
0.601703 0.734551 0.673303
0.684220 0.783809 0.722561
0.778628 0.839876 0.778628
0.816968 0.839876 0.778628
0.839876 0.839876 0.778628
0.839876 0.839876 0.778628
0.839876 0.839876 0.778628
0.383046 0.605253 0.544005
0.498092 0.673283 0.612035
0.601703 0.734551 0.673303
0.684220 0.783809 0.722561
0.778628 0.839876 0.778628
0.816968 0.839876 0.778628
0.839876 0.839876 0.778628
0.839876 0.839876 0.778628
0.839876 0.839876 0.778628
0.349313 0.349313 0.548716
0.396136 0.349313 0.548716
0.438305 0.349313 0.548716
0.472035 0.349313 0.548716
0.510375 0.349313 0.548716
0.548716 0.349313 0.548716
0.605253 0.383046 0.582346
0.605253 0.383046 0.582346
0.605253 0.383046 0.582346
0.349313 0.393906 0.548716
0.461110 0.458881 0.613506
0.503279 0.458881 0.613506
0.536825 0.458881 0.613506
0.575166 0.458881 0.613506
0.613506 0.458881 0.613506
0.670044 0.492614 0.647137
0.670044 0.492614 0.647137
0.670044 0.492614 0.647137
0.349313 0.434067 0.548716
0.464359 0.502290 0.616746
0.561795 0.557557 0.671857
0.595175 0.557557 0.671857
0.633516 0.557557 0.671857
0.671857 0.557557 0.671857
0.728394 0.591290 0.705487
0.728394 0.591290 0.705487
0.728394 0.591290 0.705487
0.349313 0.466356 0.548716
0.464359 0.534386 0.616746
0.567969 0.595653 0.678014
0.642419 0.636740 0.719100
0.680759 0.636740 0.719100
0.719100 0.636740 0.719100
0.775505 0.670238 0.752598
0.775505 0.670238 0.752598
0.775505 0.670238 0.752598
0.349313 0.502871 0.548716
0.464359 0.570901 0.616746
0.567969 0.632168 0.678014
0.650723 0.681559 0.727404
0.734156 0.726651 0.772497
0.772497 0.726651 0.772497
0.828902 0.760149 0.805994
0.828902 0.760149 0.805994
0.828902 0.760149 0.805994
0.349313 0.539386 0.548716
0.464359 0.607416 0.616746
0.567969 0.668683 0.678014
0.650723 0.718074 0.727404
0.745130 0.774140 0.783471
0.825893 0.816563 0.825893
0.882298 0.850061 0.859391
0.882298 0.850061 0.859391
0.882298 0.850061 0.859391
0.383046 0.605253 0.582346
0.498092 0.673283 0.650376
0.601703 0.734551 0.711644
0.684220 0.783809 0.760902
0.778628 0.839876 0.816968
0.873035 0.895942 0.873035
0.895942 0.895942 0.873035
0.895942 0.895942 0.873035
0.895942 0.895942 0.873035
0.383046 0.605253 0.582346
0.498092 0.673283 0.650376
0.601703 0.734551 0.711644
0.684220 0.783809 0.760902
0.778628 0.839876 0.816968
0.873035 0.895942 0.873035
0.895942 0.895942 0.873035
0.895942 0.895942 0.873035
0.895942 0.895942 0.873035
0.383046 0.605253 0.582346
0.498092 0.673283 0.650376
0.601703 0.734551 0.711644
0.684220 0.783809 0.760902
0.778628 0.839876 0.816968
0.873035 0.895942 0.873035
0.895942 0.895942 0.873035
0.895942 0.895942 0.873035
0.895942 0.895942 0.873035
0.383046 0.383046 0.605253
0.429869 0.383046 0.605253
0.472038 0.383046 0.605253
0.505665 0.383046 0.605253
0.544005 0.383046 0.605253
0.582346 0.383046 0.605253
0.605253 0.383046 0.605253
0.605253 0.383046 0.605253
0.605253 0.383046 0.605253
0.383046 0.427640 0.605253
0.494843 0.492614 0.670044
0.537012 0.492614 0.670044
0.570455 0.492614 0.670044
0.608796 0.492614 0.670044
0.647137 0.492614 0.670044
0.670044 0.492614 0.670044
0.670044 0.492614 0.670044
0.670044 0.492614 0.670044
0.383046 0.467801 0.605253
0.498092 0.536023 0.673283
0.595528 0.591290 0.728394
0.628805 0.591290 0.728394
0.667146 0.591290 0.728394
0.705487 0.591290 0.728394
0.728394 0.591290 0.728394
0.728394 0.591290 0.728394
0.728394 0.591290 0.728394
0.383046 0.499986 0.605253
0.498092 0.568016 0.673283
0.601703 0.629284 0.734551
0.675916 0.670238 0.775505
0.714257 0.670238 0.775505
0.752598 0.670238 0.775505
0.775505 0.670238 0.775505
0.775505 0.670238 0.775505
0.775505 0.670238 0.775505
0.383046 0.536501 0.605253
0.498092 0.604531 0.673283
0.601703 0.665798 0.734551
0.684220 0.715057 0.783809
0.767654 0.760149 0.828902
0.805994 0.760149 0.828902
0.828902 0.760149 0.828902
0.828902 0.760149 0.828902
0.828902 0.760149 0.828902
0.383046 0.573016 0.605253
0.498092 0.641046 0.673283
0.601703 0.702313 0.734551
0.684220 0.751572 0.783809
0.778628 0.807638 0.839876
0.859391 0.850061 0.882298
0.882298 0.850061 0.882298
0.882298 0.850061 0.882298
0.882298 0.850061 0.882298
0.383046 0.605253 0.605253
0.498092 0.673283 0.673283
0.601703 0.734551 0.734551
0.684220 0.783809 0.783809
0.778628 0.839876 0.839876
0.873035 0.895942 0.895942
0.929440 0.929440 0.929440
0.929440 0.929440 0.929440
0.929440 0.929440 0.929440
0.383046 0.605253 0.605253
0.498092 0.673283 0.673283
0.601703 0.734551 0.734551
0.684220 0.783809 0.783809
0.778628 0.839876 0.839876
0.873035 0.895942 0.895942
0.929440 0.929440 0.929440
0.929440 0.929440 0.929440
0.929440 0.929440 0.929440
0.383046 0.605253 0.605253
0.498092 0.673283 0.673283
0.601703 0.734551 0.734551
0.684220 0.783809 0.783809
0.778628 0.839876 0.839876
0.873035 0.895942 0.895942
0.929440 0.929440 0.929440
0.929440 0.929440 0.929440
0.929440 0.929440 0.929440
0.383046 0.383046 0.605253
0.429869 0.383046 0.605253
0.472038 0.383046 0.605253
0.505665 0.383046 0.605253
0.544005 0.383046 0.605253
0.582346 0.383046 0.605253
0.605253 0.383046 0.605253
0.605253 0.383046 0.605253
0.605253 0.383046 0.605253
0.383046 0.427640 0.605253
0.494843 0.492614 0.670044
0.537012 0.492614 0.670044
0.570455 0.492614 0.670044
0.608796 0.492614 0.670044
0.647137 0.492614 0.670044
0.670044 0.492614 0.670044
0.670044 0.492614 0.670044
0.670044 0.492614 0.670044
0.383046 0.467801 0.605253
0.498092 0.536023 0.673283
0.595528 0.591290 0.728394
0.628805 0.591290 0.728394
0.667146 0.591290 0.728394
0.705487 0.591290 0.728394
0.728394 0.591290 0.728394
0.728394 0.591290 0.728394
0.728394 0.591290 0.728394
0.383046 0.499986 0.605253
0.498092 0.568016 0.673283
0.601703 0.629284 0.734551
0.675916 0.670238 0.775505
0.714257 0.670238 0.775505
0.752598 0.670238 0.775505
0.775505 0.670238 0.775505
0.775505 0.670238 0.775505
0.775505 0.670238 0.775505
0.383046 0.536501 0.605253
0.498092 0.604531 0.673283
0.601703 0.665798 0.734551
0.684220 0.715057 0.783809
0.767654 0.760149 0.828902
0.805994 0.760149 0.828902
0.828902 0.760149 0.828902
0.828902 0.760149 0.828902
0.828902 0.760149 0.828902
0.383046 0.573016 0.605253
0.498092 0.641046 0.673283
0.601703 0.702313 0.734551
0.684220 0.751572 0.783809
0.778628 0.807638 0.839876
0.859391 0.850061 0.882298
0.882298 0.850061 0.882298
0.882298 0.850061 0.882298
0.882298 0.850061 0.882298
0.383046 0.605253 0.605253
0.498092 0.673283 0.673283
0.601703 0.734551 0.734551
0.684220 0.783809 0.783809
0.778628 0.839876 0.839876
0.873035 0.895942 0.895942
0.929440 0.929440 0.929440
0.929440 0.929440 0.929440
0.929440 0.929440 0.929440
0.383046 0.605253 0.605253
0.498092 0.673283 0.673283
0.601703 0.734551 0.734551
0.684220 0.783809 0.783809
0.778628 0.839876 0.839876
0.873035 0.895942 0.895942
0.929440 0.929440 0.929440
0.929440 0.929440 0.929440
0.929440 0.929440 0.929440
0.383046 0.605253 0.605253
0.498092 0.673283 0.673283
0.601703 0.734551 0.734551
0.684220 0.783809 0.783809
0.778628 0.839876 0.839876
0.873035 0.895942 0.895942
0.929440 0.929440 0.929440
0.929440 0.929440 0.929440
0.929440 0.929440 0.929440
0.383046 0.383046 0.605253
0.429869 0.383046 0.605253
0.472038 0.383046 0.605253
0.505665 0.383046 0.605253
0.544005 0.383046 0.605253
0.582346 0.383046 0.605253
0.605253 0.383046 0.605253
0.605253 0.383046 0.605253
0.605253 0.383046 0.605253
0.383046 0.427640 0.605253
0.494843 0.492614 0.670044
0.537012 0.492614 0.670044
0.570455 0.492614 0.670044
0.608796 0.492614 0.670044
0.647137 0.492614 0.670044
0.670044 0.492614 0.670044
0.670044 0.492614 0.670044
0.670044 0.492614 0.670044
0.383046 0.467801 0.605253
0.498092 0.536023 0.673283
0.595528 0.591290 0.728394
0.628805 0.591290 0.728394
0.667146 0.591290 0.728394
0.705487 0.591290 0.728394
0.728394 0.591290 0.728394
0.728394 0.591290 0.728394
0.728394 0.591290 0.728394
0.383046 0.499986 0.605253
0.498092 0.568016 0.673283
0.601703 0.629284 0.734551
0.675916 0.670238 0.775505
0.714257 0.670238 0.775505
0.752598 0.670238 0.775505
0.775505 0.670238 0.775505
0.775505 0.670238 0.775505
0.775505 0.670238 0.775505
0.383046 0.536501 0.605253
0.498092 0.604531 0.673283
0.601703 0.665798 0.734551
0.684220 0.715057 0.783809
0.767654 0.760149 0.828902
0.805994 0.760149 0.828902
0.828902 0.760149 0.828902
0.828902 0.760149 0.828902
0.828902 0.760149 0.828902
0.383046 0.573016 0.605253
0.498092 0.641046 0.673283
0.601703 0.702313 0.734551
0.684220 0.751572 0.783809
0.778628 0.807638 0.839876
0.859391 0.850061 0.882298
0.882298 0.850061 0.882298
0.882298 0.850061 0.882298
0.882298 0.850061 0.882298
0.383046 0.605253 0.605253
0.498092 0.673283 0.673283
0.601703 0.734551 0.734551
0.684220 0.783809 0.783809
0.778628 0.839876 0.839876
0.873035 0.895942 0.895942
0.929440 0.929440 0.929440
0.929440 0.929440 0.929440
0.929440 0.929440 0.929440
0.383046 0.605253 0.605253
0.498092 0.673283 0.673283
0.601703 0.734551 0.734551
0.684220 0.783809 0.783809
0.778628 0.839876 0.839876
0.873035 0.895942 0.895942
0.929440 0.929440 0.929440
0.929440 0.929440 0.929440
0.929440 0.929440 0.929440
0.383046 0.605253 0.605253
0.498092 0.673283 0.673283
0.601703 0.734551 0.734551
0.684220 0.783809 0.783809
0.778628 0.839876 0.839876
0.873035 0.895942 0.895942
0.929440 0.929440 0.929440
0.929440 0.929440 0.929440
0.929440 0.929440 0.929440
