docs/luts/fuji_recipes/NEGAhi_RR_Pro_Neg_HI.cube
TITLE "Fujifilm Recipe: RR Pro Neg HI (NEGAhi)"
# FilmSim=NEGAhi HL=-1 SH=-1 Col=1 WB=Auto WBR=0 WBB=0
LUT_3D_SIZE 5
DOMAIN_MIN 0.0 0.0 0.0
DOMAIN_MAX 1.0 1.0 1.0
0.040000 0.040000 0.040000
0.334973 0.015644 0.015644
0.593898 0.000000 0.000000
0.850357 0.000000 0.000000
1.000000 0.004360 0.004360
0.015765 0.333514 0.015765
0.334973 0.333394 0.015644
0.593898 0.311199 0.000000
0.850357 0.297243 0.000000
1.000000 0.294404 0.004360
0.000000 0.591543 0.000000
0.312939 0.591543 0.000000
0.593898 0.591176 0.000000
0.850357 0.564665 0.000000
1.000000 0.555349 0.004360
0.000000 0.846940 0.000000
0.298846 0.846940 0.000000
0.567503 0.846940 0.000000
0.850357 0.846585 0.000000
1.000000 0.830441 0.004360
0.004360 1.000000 0.004360
0.295845 1.000000 0.004360
0.557886 1.000000 0.004360
0.834121 1.000000 0.004360
1.000000 1.000000 0.004360
0.015765 0.015765 0.333514
0.334973 0.015644 0.333394
0.593898 0.000000 0.311199
0.850357 0.000000 0.297243
1.000000 0.004360 0.294404
0.015765 0.333514 0.333514
0.310738 0.309159 0.309159
0.575914 0.287264 0.287264
0.855454 0.264182 0.264182
1.000000 0.273639 0.273639
0.000000 0.591543 0.311392
0.289054 0.573346 0.287476
0.575914 0.573134 0.287264
0.855454 0.550053 0.264182
1.000000 0.542263 0.273639
0.000000 0.846940 0.297368
0.266069 0.851729 0.264490
0.553140 0.851729 0.264490
0.855454 0.851422 0.264182
1.000000 0.825451 0.273639
0.004360 1.000000 0.294404
0.275123 1.000000 0.273639
0.544875 1.000000 0.273639
0.829239 1.000000 0.273639
1.000000 1.000000 0.273639
0.000000 0.000000 0.591543
0.312939 0.000000 0.591543
0.593898 0.000000 0.591176
0.850357 0.000000 0.564665
1.000000 0.004360 0.555349
0.000000 0.311392 0.591543
0.289054 0.287476 0.573346
0.575914 0.287264 0.573134
0.855454 0.264182 0.550053
1.000000 0.273639 0.542263
0.000000 0.591543 0.591543
0.288934 0.573226 0.573226
0.554110 0.551331 0.551331
0.833650 0.528249 0.528249
1.000000 0.515903 0.515903
0.000000 0.846940 0.564902
0.265948 0.851609 0.550240
0.531336 0.829926 0.528557
0.833650 0.829618 0.528249
1.000000 0.815399 0.515903
0.004360 1.000000 0.555349
0.274977 1.000000 0.542172
0.518665 1.000000 0.515903
0.819405 1.000000 0.515903
1.000000 1.000000 0.515903
0.000000 0.000000 0.846940
0.298846 0.000000 0.846940
0.567503 0.000000 0.846940
0.850357 0.000000 0.846585
1.000000 0.004360 0.830441
0.000000 0.297368 0.846940
0.266069 0.264490 0.851729
0.553140 0.264490 0.851729
0.855454 0.264182 0.851422
1.000000 0.273639 0.825451
0.000000 0.564902 0.846940
0.265948 0.550240 0.851609
0.531336 0.528557 0.829926
0.833650 0.528249 0.829618
1.000000 0.515903 0.815399
0.000000 0.846940 0.846940
0.265948 0.851609 0.851609
0.531124 0.829714 0.829714
0.810664 0.806632 0.806632
0.978528 0.792772 0.792772
0.004360 1.000000 0.830441
0.274977 1.000000 0.825416
0.518258 1.000000 0.815243
0.796804 0.978528 0.792772
0.978528 0.978528 0.792772
0.004360 0.004360 1.000000
0.295845 0.004360 1.000000
0.557886 0.004360 1.000000
0.834121 0.004360 1.000000
1.000000 0.004360 1.000000
0.004360 0.294404 1.000000
0.275123 0.273639 1.000000
0.544875 0.273639 1.000000
0.829239 0.273639 1.000000
1.000000 0.273639 1.000000
0.004360 0.555349 1.000000
0.274977 0.542172 1.000000
0.518665 0.515903 1.000000
0.819405 0.515903 1.000000
1.000000 0.515903 1.000000
0.004360 0.830441 1.000000
0.274977 0.825416 1.000000
0.518258 0.815243 1.000000
0.796804 0.792772 0.978528
0.978528 0.792772 0.978528
0.004360 1.000000 1.000000
0.274977 1.000000 1.000000
0.518258 1.000000 1.000000
0.796496 0.978220 0.978220
0.964360 0.964360 0.964360
