docs/luts/fuji_recipes/NEGA_JP_Soft_Portrait.cube
TITLE "Fujifilm Recipe: JP Soft Portrait (NEGA)"
# FilmSim=NEGA HL=0 SH=0 Col=-1 WB=Auto WBR=0 WBB=0
LUT_3D_SIZE 33
DOMAIN_MIN 0.0 0.0 0.0
DOMAIN_MAX 1.0 1.0 1.0
0.016000 0.016000 0.016000
0.042848 0.019902 0.019902
0.069696 0.023804 0.023804
0.096543 0.027707 0.027707
0.123391 0.031609 0.031609
0.150239 0.035511 0.035511
0.177087 0.039413 0.039413
0.203935 0.043315 0.043315
0.230783 0.047217 0.047217
0.257630 0.051120 0.051120
0.284478 0.055022 0.055022
0.311326 0.058924 0.058924
0.338174 0.062826 0.062826
0.365022 0.066728 0.066728
0.391870 0.070630 0.070630
0.418717 0.074533 0.074533
0.445398 0.078410 0.078410
0.465210 0.081290 0.081290
0.491839 0.085161 0.085161
0.518469 0.089031 0.089031
0.545099 0.092901 0.092901
0.571728 0.096772 0.096772
0.598358 0.100642 0.100642
0.624987 0.104513 0.104513
0.651617 0.108383 0.108383
0.678246 0.112254 0.112254
0.704876 0.116124 0.116124
0.731505 0.119995 0.119995
0.758135 0.123865 0.123865
0.784765 0.127735 0.127735
0.811394 0.131606 0.131606
0.838024 0.135476 0.135476
0.864653 0.139347 0.139347
0.019902 0.042848 0.019902
0.042848 0.042848 0.019902
0.069696 0.046750 0.023804
0.096543 0.050652 0.027707
0.123391 0.054554 0.031609
0.150239 0.058457 0.035511
0.177087 0.062359 0.039413
0.203935 0.066261 0.043315
0.230783 0.070163 0.047217
0.257630 0.074065 0.051120
0.284478 0.077967 0.055022
0.311326 0.081870 0.058924
0.338174 0.085772 0.062826
0.365022 0.089674 0.066728
0.391870 0.093576 0.070630
0.418717 0.097478 0.074533
0.445398 0.101356 0.078410
0.465210 0.104236 0.081290
0.491839 0.108106 0.085161
0.518469 0.111977 0.089031
0.545099 0.115847 0.092901
0.571728 0.119717 0.096772
0.598358 0.123588 0.100642
0.624987 0.127458 0.104513
0.651617 0.131329 0.108383
0.678246 0.135199 0.112254
0.704876 0.139070 0.116124
0.731505 0.142940 0.119995
0.758135 0.146811 0.123865
0.784765 0.150681 0.127735
0.811394 0.154552 0.131606
0.838024 0.158422 0.135476
0.864653 0.162292 0.139347
0.023804 0.069696 0.023804
0.046750 0.069696 0.023804
0.069696 0.069696 0.023804
0.096543 0.073598 0.027707
0.123391 0.077500 0.031609
0.150239 0.081402 0.035511
0.177087 0.085304 0.039413
0.203935 0.089207 0.043315
0.230783 0.093109 0.047217
0.257630 0.097011 0.051120
0.284478 0.100913 0.055022
0.311326 0.104815 0.058924
0.338174 0.108717 0.062826
0.365022 0.112620 0.066728
0.391870 0.116522 0.070630
0.418717 0.120424 0.074533
0.445398 0.124302 0.078410
0.465210 0.127181 0.081290
0.491839 0.131052 0.085161
0.518469 0.134922 0.089031
0.545099 0.138793 0.092901
0.571728 0.142663 0.096772
0.598358 0.146534 0.100642
0.624987 0.150404 0.104513
0.651617 0.154275 0.108383
0.678246 0.158145 0.112254
0.704876 0.162015 0.116124
0.731505 0.165886 0.119995
0.758135 0.169756 0.123865
0.784765 0.173627 0.127735
0.811394 0.177497 0.131606
0.838024 0.181368 0.135476
0.864653 0.185238 0.139347
0.027707 0.096543 0.027707
0.050652 0.096543 0.027707
0.073598 0.096543 0.027707
0.096543 0.096543 0.027707
0.123391 0.100446 0.031609
0.150239 0.104348 0.035511
0.177087 0.108250 0.039413
0.203935 0.112152 0.043315
0.230783 0.116054 0.047217
0.257630 0.119957 0.051120
0.284478 0.123859 0.055022
0.311326 0.127761 0.058924
0.338174 0.131663 0.062826
0.365022 0.135565 0.066728
0.391870 0.139467 0.070630
0.418717 0.143370 0.074533
0.445398 0.147247 0.078410
0.465210 0.150127 0.081290
0.491839 0.153997 0.085161
0.518469 0.157868 0.089031
0.545099 0.161738 0.092901
0.571728 0.165609 0.096772
0.598358 0.169479 0.100642
0.624987 0.173350 0.104513
0.651617 0.177220 0.108383
0.678246 0.181091 0.112254
0.704876 0.184961 0.116124
0.731505 0.188832 0.119995
0.758135 0.192702 0.123865
0.784765 0.196572 0.127735
0.811394 0.200443 0.131606
0.838024 0.204313 0.135476
0.864653 0.208184 0.139347
0.031609 0.123391 0.031609
0.054554 0.123391 0.031609
0.077500 0.123391 0.031609
0.100446 0.123391 0.031609
0.123391 0.123391 0.031609
0.150239 0.127293 0.035511
0.177087 0.131196 0.039413
0.203935 0.135098 0.043315
0.230783 0.139000 0.047217
0.257630 0.142902 0.051120
0.284478 0.146804 0.055022
0.311326 0.150707 0.058924
0.338174 0.154609 0.062826
0.365022 0.158511 0.066728
0.391870 0.162413 0.070630
0.418717 0.166315 0.074533
0.445398 0.170193 0.078410
0.465210 0.173073 0.081290
0.491839 0.176943 0.085161
0.518469 0.180814 0.089031
0.545099 0.184684 0.092901
0.571728 0.188554 0.096772
0.598358 0.192425 0.100642
0.624987 0.196295 0.104513
0.651617 0.200166 0.108383
0.678246 0.204036 0.112254
0.704876 0.207907 0.116124
0.731505 0.211777 0.119995
0.758135 0.215648 0.123865
0.784765 0.219518 0.127735
0.811394 0.223388 0.131606
0.838024 0.227259 0.135476
0.864653 0.231129 0.139347
0.035511 0.150239 0.035511
0.058457 0.150239 0.035511
0.081402 0.150239 0.035511
0.104348 0.150239 0.035511
0.127293 0.150239 0.035511
0.150239 0.150239 0.035511
0.177087 0.154141 0.039413
0.203935 0.158043 0.043315
0.230783 0.161946 0.047217
0.257630 0.165848 0.051120
0.284478 0.169750 0.055022
0.311326 0.173652 0.058924
0.338174 0.177554 0.062826
0.365022 0.181457 0.066728
0.391870 0.185359 0.070630
0.418717 0.189261 0.074533
0.445398 0.193139 0.078410
0.465210 0.196018 0.081290
0.491839 0.199889 0.085161
0.518469 0.203759 0.089031
0.545099 0.207630 0.092901
0.571728 0.211500 0.096772
0.598358 0.215371 0.100642
0.624987 0.219241 0.104513
0.651617 0.223111 0.108383
0.678246 0.226982 0.112254
0.704876 0.230852 0.116124
0.731505 0.234723 0.119995
0.758135 0.238593 0.123865
0.784765 0.242464 0.127735
0.811394 0.246334 0.131606
0.838024 0.250205 0.135476
0.864653 0.254075 0.139347
0.039413 0.177087 0.039413
0.062359 0.177087 0.039413
0.085304 0.177087 0.039413
0.108250 0.177087 0.039413
0.131196 0.177087 0.039413
0.154141 0.177087 0.039413
0.177087 0.177087 0.039413
0.203935 0.180989 0.043315
0.230783 0.184891 0.047217
0.257630 0.188793 0.051120
0.284478 0.192696 0.055022
0.311326 0.196598 0.058924
0.338174 0.200500 0.062826
0.365022 0.204402 0.066728
0.391870 0.208304 0.070630
0.418717 0.212207 0.074533
0.445398 0.216084 0.078410
0.465210 0.218964 0.081290
0.491839 0.222834 0.085161
0.518469 0.226705 0.089031
0.545099 0.230575 0.092901
0.571728 0.234446 0.096772
0.598358 0.238316 0.100642
0.624987 0.242187 0.104513
0.651617 0.246057 0.108383
0.678246 0.249928 0.112254
0.704876 0.253798 0.116124
0.731505 0.257668 0.119995
0.758135 0.261539 0.123865
0.784765 0.265409 0.127735
0.811394 0.269280 0.131606
0.838024 0.273150 0.135476
0.864653 0.277021 0.139347
0.043315 0.203935 0.043315
0.066261 0.203935 0.043315
0.089207 0.203935 0.043315
0.112152 0.203935 0.043315
0.135098 0.203935 0.043315
0.158043 0.203935 0.043315
0.180989 0.203935 0.043315
0.203935 0.203935 0.043315
0.230783 0.207837 0.047217
0.257630 0.211739 0.051120
0.284478 0.215641 0.055022
0.311326 0.219543 0.058924
0.338174 0.223446 0.062826
0.365022 0.227348 0.066728
0.391870 0.231250 0.070630
0.418717 0.235152 0.074533
0.445398 0.239030 0.078410
0.465210 0.241910 0.081290
0.491839 0.245780 0.085161
0.518469 0.249651 0.089031
0.545099 0.253521 0.092901
0.571728 0.257391 0.096772
0.598358 0.261262 0.100642
0.624987 0.265132 0.104513
0.651617 0.269003 0.108383
0.678246 0.272873 0.112254
0.704876 0.276744 0.116124
0.731505 0.280614 0.119995
0.758135 0.284485 0.123865
0.784765 0.288355 0.127735
0.811394 0.292225 0.131606
0.838024 0.296096 0.135476
0.864653 0.299966 0.139347
0.047217 0.230783 0.047217
0.070163 0.230783 0.047217
0.093109 0.230783 0.047217
0.116054 0.230783 0.047217
0.139000 0.230783 0.047217
0.161946 0.230783 0.047217
0.184891 0.230783 0.047217
0.207837 0.230783 0.047217
0.230783 0.230783 0.047217
0.257630 0.234685 0.051120
0.284478 0.238587 0.055022
0.311326 0.242489 0.058924
0.338174 0.246391 0.062826
0.365022 0.250293 0.066728
0.391870 0.254196 0.070630
0.418717 0.258098 0.074533
0.445398 0.261976 0.078410
0.465210 0.264855 0.081290
0.491839 0.268726 0.085161
0.518469 0.272596 0.089031
0.545099 0.276467 0.092901
0.571728 0.280337 0.096772
0.598358 0.284208 0.100642
0.624987 0.288078 0.104513
0.651617 0.291948 0.108383
0.678246 0.295819 0.112254
0.704876 0.299689 0.116124
0.731505 0.303560 0.119995
0.758135 0.307430 0.123865
0.784765 0.311301 0.127735
0.811394 0.315171 0.131606
0.838024 0.319042 0.135476
0.864653 0.322912 0.139347
0.051120 0.257630 0.051120
0.074065 0.257630 0.051120
0.097011 0.257630 0.051120
0.119957 0.257630 0.051120
0.142902 0.257630 0.051120
0.165848 0.257630 0.051120
0.188793 0.257630 0.051120
0.211739 0.257630 0.051120
0.234685 0.257630 0.051120
0.257630 0.257630 0.051120
0.284478 0.261533 0.055022
0.311326 0.265435 0.058924
0.338174 0.269337 0.062826
0.365022 0.273239 0.066728
0.391870 0.277141 0.070630
0.418717 0.281043 0.074533
0.445398 0.284921 0.078410
0.465210 0.287801 0.081290
0.491839 0.291671 0.085161
0.518469 0.295542 0.089031
0.545099 0.299412 0.092901
0.571728 0.303283 0.096772
0.598358 0.307153 0.100642
0.624987 0.311024 0.104513
0.651617 0.314894 0.108383
0.678246 0.318765 0.112254
0.704876 0.322635 0.116124
0.731505 0.326505 0.119995
0.758135 0.330376 0.123865
0.784765 0.334246 0.127735
0.811394 0.338117 0.131606
0.838024 0.341987 0.135476
0.864653 0.345858 0.139347
0.055022 0.284478 0.055022
0.077967 0.284478 0.055022
0.100913 0.284478 0.055022
0.123859 0.284478 0.055022
0.146804 0.284478 0.055022
0.169750 0.284478 0.055022
0.192696 0.284478 0.055022
0.215641 0.284478 0.055022
0.238587 0.284478 0.055022
0.261533 0.284478 0.055022
0.284478 0.284478 0.055022
0.311326 0.288380 0.058924
0.338174 0.292283 0.062826
0.365022 0.296185 0.066728
0.391870 0.300087 0.070630
0.418717 0.303989 0.074533
0.445398 0.307867 0.078410
0.465210 0.310747 0.081290
0.491839 0.314617 0.085161
0.518469 0.318487 0.089031
0.545099 0.322358 0.092901
0.571728 0.326228 0.096772
0.598358 0.330099 0.100642
0.624987 0.333969 0.104513
0.651617 0.337840 0.108383
0.678246 0.341710 0.112254
0.704876 0.345581 0.116124
0.731505 0.349451 0.119995
0.758135 0.353322 0.123865
0.784765 0.357192 0.127735
0.811394 0.361062 0.131606
0.838024 0.364933 0.135476
0.864653 0.368803 0.139347
0.058924 0.311326 0.058924
0.081870 0.311326 0.058924
0.104815 0.311326 0.058924
0.127761 0.311326 0.058924
0.150707 0.311326 0.058924
0.173652 0.311326 0.058924
0.196598 0.311326 0.058924
0.219543 0.311326 0.058924
0.242489 0.311326 0.058924
0.265435 0.311326 0.058924
0.288380 0.311326 0.058924
0.311326 0.311326 0.058924
0.338174 0.315228 0.062826
0.365022 0.319130 0.066728
0.391870 0.323033 0.070630
0.418717 0.326935 0.074533
0.445398 0.330813 0.078410
0.465210 0.333692 0.081290
0.491839 0.337563 0.085161
0.518469 0.341433 0.089031
0.545099 0.345304 0.092901
0.571728 0.349174 0.096772
0.598358 0.353044 0.100642
0.624987 0.356915 0.104513
0.651617 0.360785 0.108383
0.678246 0.364656 0.112254
0.704876 0.368526 0.116124
0.731505 0.372397 0.119995
0.758135 0.376267 0.123865
0.784765 0.380138 0.127735
0.811394 0.384008 0.131606
0.838024 0.387878 0.135476
0.864653 0.391749 0.139347
0.062826 0.338174 0.062826
0.085772 0.338174 0.062826
0.108717 0.338174 0.062826
0.131663 0.338174 0.062826
0.154609 0.338174 0.062826
0.177554 0.338174 0.062826
0.200500 0.338174 0.062826
0.223446 0.338174 0.062826
0.246391 0.338174 0.062826
0.269337 0.338174 0.062826
0.292283 0.338174 0.062826
0.315228 0.338174 0.062826
0.338174 0.338174 0.062826
0.365022 0.342076 0.066728
0.391870 0.345978 0.070630
0.418717 0.349880 0.074533
0.445398 0.353758 0.078410
0.465210 0.356638 0.081290
0.491839 0.360508 0.085161
0.518469 0.364379 0.089031
0.545099 0.368249 0.092901
0.571728 0.372120 0.096772
0.598358 0.375990 0.100642
0.624987 0.379861 0.104513
0.651617 0.383731 0.108383
0.678246 0.387601 0.112254
0.704876 0.391472 0.116124
0.731505 0.395342 0.119995
0.758135 0.399213 0.123865
0.784765 0.403083 0.127735
0.811394 0.406954 0.131606
0.838024 0.410824 0.135476
0.864653 0.414695 0.139347
0.066728 0.365022 0.066728
0.089674 0.365022 0.066728
0.112620 0.365022 0.066728
0.135565 0.365022 0.066728
0.158511 0.365022 0.066728
0.181457 0.365022 0.066728
0.204402 0.365022 0.066728
0.227348 0.365022 0.066728
0.250293 0.365022 0.066728
0.273239 0.365022 0.066728
0.296185 0.365022 0.066728
0.319130 0.365022 0.066728
0.342076 0.365022 0.066728
0.365022 0.365022 0.066728
0.391870 0.368924 0.070630
0.418717 0.372826 0.074533
0.445398 0.376704 0.078410
0.465210 0.379584 0.081290
0.491839 0.383454 0.085161
0.518469 0.387324 0.089031
0.545099 0.391195 0.092901
0.571728 0.395065 0.096772
0.598358 0.398936 0.100642
0.624987 0.402806 0.104513
0.651617 0.406677 0.108383
0.678246 0.410547 0.112254
0.704876 0.414418 0.116124
0.731505 0.418288 0.119995
0.758135 0.422158 0.123865
0.784765 0.426029 0.127735
0.811394 0.429899 0.131606
0.838024 0.433770 0.135476
0.864653 0.437640 0.139347
0.070630 0.391870 0.070630
0.093576 0.391870 0.070630
0.116522 0.391870 0.070630
0.139467 0.391870 0.070630
0.162413 0.391870 0.070630
0.185359 0.391870 0.070630
0.208304 0.391870 0.070630
0.231250 0.391870 0.070630
0.254196 0.391870 0.070630
0.277141 0.391870 0.070630
0.300087 0.391870 0.070630
0.323033 0.391870 0.070630
0.345978 0.391870 0.070630
0.368924 0.391870 0.070630
0.391870 0.391870 0.070630
0.418717 0.395772 0.074533
0.445398 0.399650 0.078410
0.465210 0.402529 0.081290
0.491839 0.406400 0.085161
0.518469 0.410270 0.089031
0.545099 0.414140 0.092901
0.571728 0.418011 0.096772
0.598358 0.421881 0.100642
0.624987 0.425752 0.104513
0.651617 0.429622 0.108383
0.678246 0.433493 0.112254
0.704876 0.437363 0.116124
0.731505 0.441234 0.119995
0.758135 0.445104 0.123865
0.784765 0.448975 0.127735
0.811394 0.452845 0.131606
0.838024 0.456715 0.135476
0.864653 0.460586 0.139347
0.074533 0.418717 0.074533
0.097478 0.418717 0.074533
0.120424 0.418717 0.074533
0.143370 0.418717 0.074533
0.166315 0.418717 0.074533
0.189261 0.418717 0.074533
0.212207 0.418717 0.074533
0.235152 0.418717 0.074533
0.258098 0.418717 0.074533
0.281043 0.418717 0.074533
0.303989 0.418717 0.074533
0.326935 0.418717 0.074533
0.349880 0.418717 0.074533
0.372826 0.418717 0.074533
0.395772 0.418717 0.074533
0.418717 0.418717 0.074533
0.445398 0.422595 0.078410
0.465210 0.425475 0.081290
0.491839 0.429345 0.085161
0.518469 0.433216 0.089031
0.545099 0.437086 0.092901
0.571728 0.440957 0.096772
0.598358 0.444827 0.100642
0.624987 0.448698 0.104513
0.651617 0.452568 0.108383
0.678246 0.456438 0.112254
0.704876 0.460309 0.116124
0.731505 0.464179 0.119995
0.758135 0.468050 0.123865
0.784765 0.471920 0.127735
0.811394 0.475791 0.131606
0.838024 0.479661 0.135476
0.864653 0.483532 0.139347
0.078410 0.445398 0.078410
0.101356 0.445398 0.078410
0.124302 0.445398 0.078410
0.147247 0.445398 0.078410
0.170193 0.445398 0.078410
0.193139 0.445398 0.078410
0.216084 0.445398 0.078410
0.239030 0.445398 0.078410
0.261976 0.445398 0.078410
0.284921 0.445398 0.078410
0.307867 0.445398 0.078410
0.330813 0.445398 0.078410
0.353758 0.445398 0.078410
0.376704 0.445398 0.078410
0.399650 0.445398 0.078410
0.422595 0.445398 0.078410
0.445398 0.445398 0.078410
0.465210 0.448277 0.081290
0.491839 0.452148 0.085161
0.518469 0.456018 0.089031
0.545099 0.459889 0.092901
0.571728 0.463759 0.096772
0.598358 0.467629 0.100642
0.624987 0.471500 0.104513
0.651617 0.475370 0.108383
0.678246 0.479241 0.112254
0.704876 0.483111 0.116124
0.731505 0.486982 0.119995
0.758135 0.490852 0.123865
0.784765 0.494723 0.127735
0.811394 0.498593 0.131606
0.838024 0.502463 0.135476
0.864653 0.506334 0.139347
0.081290 0.465210 0.081290
0.104236 0.465210 0.081290
0.127181 0.465210 0.081290
0.150127 0.465210 0.081290
0.173073 0.465210 0.081290
0.196018 0.465210 0.081290
0.218964 0.465210 0.081290
0.241910 0.465210 0.081290
0.264855 0.465210 0.081290
0.287801 0.465210 0.081290
0.310747 0.465210 0.081290
0.333692 0.465210 0.081290
0.356638 0.465210 0.081290
0.379584 0.465210 0.081290
0.402529 0.465210 0.081290
0.425475 0.465210 0.081290
0.448277 0.465210 0.081290
0.465210 0.465210 0.081290
0.491839 0.469080 0.085161
0.518469 0.472951 0.089031
0.545099 0.476821 0.092901
0.571728 0.480692 0.096772
0.598358 0.484562 0.100642
0.624987 0.488433 0.104513
0.651617 0.492303 0.108383
0.678246 0.496174 0.112254
0.704876 0.500044 0.116124
0.731505 0.503914 0.119995
0.758135 0.507785 0.123865
0.784765 0.511655 0.127735
0.811394 0.515526 0.131606
0.838024 0.519396 0.135476
0.864653 0.523267 0.139347
0.085161 0.491839 0.085161
0.108106 0.491839 0.085161
0.131052 0.491839 0.085161
0.153997 0.491839 0.085161
0.176943 0.491839 0.085161
0.199889 0.491839 0.085161
0.222834 0.491839 0.085161
0.245780 0.491839 0.085161
0.268726 0.491839 0.085161
0.291671 0.491839 0.085161
0.314617 0.491839 0.085161
0.337563 0.491839 0.085161
0.360508 0.491839 0.085161
0.383454 0.491839 0.085161
0.406400 0.491839 0.085161
0.429345 0.491839 0.085161
0.452148 0.491839 0.085161
0.469080 0.491839 0.085161
0.491839 0.491839 0.085161
0.518469 0.495710 0.089031
0.545099 0.499580 0.092901
0.571728 0.503451 0.096772
0.598358 0.507321 0.100642
0.624987 0.511192 0.104513
0.651617 0.515062 0.108383
0.678246 0.518933 0.112254
0.704876 0.522803 0.116124
0.731505 0.526674 0.119995
0.758135 0.530544 0.123865
0.784765 0.534414 0.127735
0.811394 0.538285 0.131606
0.838024 0.542155 0.135476
0.864653 0.546026 0.139347
0.089031 0.518469 0.089031
0.111977 0.518469 0.089031
0.134922 0.518469 0.089031
0.157868 0.518469 0.089031
0.180814 0.518469 0.089031
0.203759 0.518469 0.089031
0.226705 0.518469 0.089031
0.249650 0.518469 0.089031
0.272596 0.518469 0.089031
0.295542 0.518469 0.089031
0.318487 0.518469 0.089031
0.341433 0.518469 0.089031
0.364379 0.518469 0.089031
0.387324 0.518469 0.089031
0.410270 0.518469 0.089031
0.433216 0.518469 0.089031
0.456018 0.518469 0.089031
0.472951 0.518469 0.089031
0.495710 0.518469 0.089031
0.518469 0.518469 0.089031
0.545099 0.522339 0.092901
0.571728 0.526210 0.096772
0.598358 0.530080 0.100642
0.624987 0.533951 0.104513
0.651617 0.537821 0.108383
0.678246 0.541692 0.112254
0.704876 0.545562 0.116124
0.731505 0.549433 0.119995
0.758135 0.553303 0.123865
0.784765 0.557174 0.127735
0.811394 0.561044 0.131606
0.838024 0.564914 0.135476
0.864653 0.568785 0.139347
0.092901 0.545099 0.092901
0.115847 0.545099 0.092901
0.138793 0.545099 0.092901
0.161738 0.545099 0.092901
0.184684 0.545099 0.092901
0.207630 0.545099 0.092901
0.230575 0.545099 0.092901
0.253521 0.545099 0.092901
0.276467 0.545099 0.092901
0.299412 0.545099 0.092901
0.322358 0.545099 0.092901
0.345304 0.545099 0.092901
0.368249 0.545099 0.092901
0.391195 0.545099 0.092901
0.414141 0.545099 0.092901
0.437086 0.545099 0.092901
0.459889 0.545099 0.092901
0.476821 0.545099 0.092901
0.499580 0.545099 0.092901
0.522340 0.545099 0.092901
0.545099 0.545099 0.092901
0.571728 0.548969 0.096772
0.598358 0.552840 0.100642
0.624987 0.556710 0.104513
0.651617 0.560580 0.108383
0.678246 0.564451 0.112254
0.704876 0.568321 0.116124
0.731505 0.572192 0.119995
0.758135 0.576062 0.123865
0.784765 0.579933 0.127735
0.811394 0.583803 0.131606
0.838024 0.587674 0.135476
0.864653 0.591544 0.139347
0.096772 0.571728 0.096772
0.119717 0.571728 0.096772
0.142663 0.571728 0.096772
0.165609 0.571728 0.096772
0.188554 0.571728 0.096772
0.211500 0.571728 0.096772
0.234446 0.571728 0.096772
0.257391 0.571728 0.096772
0.280337 0.571728 0.096772
0.303283 0.571728 0.096772
0.326228 0.571728 0.096772
0.349174 0.571728 0.096772
0.372120 0.571728 0.096772
0.395065 0.571728 0.096772
0.418011 0.571728 0.096772
0.440957 0.571728 0.096772
0.463759 0.571728 0.096772
0.480692 0.571728 0.096772
0.503451 0.571728 0.096772
0.526210 0.571728 0.096772
0.548969 0.571728 0.096772
0.571728 0.571728 0.096772
0.598358 0.575599 0.100642
0.624987 0.579469 0.104513
0.651617 0.583340 0.108383
0.678246 0.587210 0.112254
0.704876 0.591080 0.116124
0.731505 0.594951 0.119995
0.758135 0.598821 0.123865
0.784765 0.602692 0.127735
0.811394 0.606562 0.131606
0.838024 0.610433 0.135476
0.864653 0.614303 0.139347
0.100642 0.598358 0.100642
0.123588 0.598358 0.100642
0.146534 0.598358 0.100642
0.169479 0.598358 0.100642
0.192425 0.598358 0.100642
0.215371 0.598358 0.100642
0.238316 0.598358 0.100642
0.261262 0.598358 0.100642
0.284208 0.598358 0.100642
0.307153 0.598358 0.100642
0.330099 0.598358 0.100642
0.353044 0.598358 0.100642
0.375990 0.598358 0.100642
0.398936 0.598358 0.100642
0.421881 0.598358 0.100642
0.444827 0.598358 0.100642
0.467629 0.598358 0.100642
0.484562 0.598358 0.100642
0.507321 0.598358 0.100642
0.530080 0.598358 0.100642
0.552840 0.598358 0.100642
0.575599 0.598358 0.100642
0.598358 0.598358 0.100642
0.624987 0.602228 0.104513
0.651617 0.606099 0.108383
0.678246 0.609969 0.112254
0.704876 0.613840 0.116124
0.731505 0.617710 0.119995
0.758135 0.621580 0.123865
0.784765 0.625451 0.127735
0.811394 0.629321 0.131606
0.838024 0.633192 0.135476
0.864653 0.637062 0.139347
0.104513 0.624987 0.104513
0.127458 0.624987 0.104513
0.150404 0.624987 0.104513
0.173350 0.624987 0.104513
0.196295 0.624987 0.104513
0.219241 0.624987 0.104513
0.242187 0.624987 0.104513
0.265132 0.624987 0.104513
0.288078 0.624987 0.104513
0.311024 0.624987 0.104513
0.333969 0.624987 0.104513
0.356915 0.624987 0.104513
0.379861 0.624987 0.104513
0.402806 0.624987 0.104513
0.425752 0.624987 0.104513
0.448698 0.624987 0.104513
0.471500 0.624987 0.104513
0.488433 0.624987 0.104513
0.511192 0.624987 0.104513
0.533951 0.624987 0.104513
0.556710 0.624987 0.104513
0.579469 0.624987 0.104513
0.602228 0.624987 0.104513
0.624987 0.624987 0.104513
0.651617 0.628858 0.108383
0.678246 0.632728 0.112254
0.704876 0.636599 0.116124
0.731505 0.640469 0.119995
0.758135 0.644340 0.123865
0.784765 0.648210 0.127735
0.811394 0.652080 0.131606
0.838024 0.655951 0.135476
0.864653 0.659821 0.139347
0.108383 0.651617 0.108383
0.131329 0.651617 0.108383
0.154274 0.651617 0.108383
0.177220 0.651617 0.108383
0.200166 0.651617 0.108383
0.223111 0.651617 0.108383
0.246057 0.651617 0.108383
0.269003 0.651617 0.108383
0.291948 0.651617 0.108383
0.314894 0.651617 0.108383
0.337840 0.651617 0.108383
0.360785 0.651617 0.108383
0.383731 0.651617 0.108383
0.406677 0.651617 0.108383
0.429622 0.651617 0.108383
0.452568 0.651617 0.108383
0.475370 0.651617 0.108383
0.492303 0.651617 0.108383
0.515062 0.651617 0.108383
0.537821 0.651617 0.108383
0.560580 0.651617 0.108383
0.583339 0.651617 0.108383
0.606099 0.651617 0.108383
0.628858 0.651617 0.108383
0.651617 0.651617 0.108383
0.678246 0.655487 0.112254
0.704876 0.659358 0.116124
0.731505 0.663228 0.119995
0.758135 0.667099 0.123865
0.784765 0.670969 0.127735
0.811394 0.674840 0.131606
0.838024 0.678710 0.135476
0.864653 0.682580 0.139347
0.112254 0.678246 0.112254
0.135199 0.678246 0.112254
0.158145 0.678246 0.112254
0.181091 0.678246 0.112254
0.204036 0.678246 0.112254
0.226982 0.678246 0.112254
0.249928 0.678246 0.112254
0.272873 0.678246 0.112254
0.295819 0.678246 0.112254
0.318765 0.678246 0.112254
0.341710 0.678246 0.112254
0.364656 0.678246 0.112254
0.387601 0.678246 0.112254
0.410547 0.678246 0.112254
0.433493 0.678246 0.112254
0.456438 0.678246 0.112254
0.479241 0.678246 0.112254
0.496174 0.678246 0.112254
0.518933 0.678246 0.112254
0.541692 0.678246 0.112254
0.564451 0.678246 0.112254
0.587210 0.678246 0.112254
0.609969 0.678246 0.112254
0.632728 0.678246 0.112254
0.655487 0.678246 0.112254
0.678246 0.678246 0.112254
0.704876 0.682117 0.116124
0.731505 0.685987 0.119995
0.758135 0.689858 0.123865
0.784765 0.693728 0.127735
0.811394 0.697599 0.131606
0.838024 0.701469 0.135476
0.864653 0.705339 0.139347
0.116124 0.704876 0.116124
0.139070 0.704876 0.116124
0.162015 0.704876 0.116124
0.184961 0.704876 0.116124
0.207907 0.704876 0.116124
0.230852 0.704876 0.116124
0.253798 0.704876 0.116124
0.276744 0.704876 0.116124
0.299689 0.704876 0.116124
0.322635 0.704876 0.116124
0.345581 0.704876 0.116124
0.368526 0.704876 0.116124
0.391472 0.704876 0.116124
0.414418 0.704876 0.116124
0.437363 0.704876 0.116124
0.460309 0.704876 0.116124
0.483111 0.704876 0.116124
0.500044 0.704876 0.116124
0.522803 0.704876 0.116124
0.545562 0.704876 0.116124
0.568321 0.704876 0.116124
0.591080 0.704876 0.116124
0.613839 0.704876 0.116124
0.636599 0.704876 0.116124
