docs/luts/fuji_recipes/NEGAhi_RR_Classic_Negative.cube
TITLE "Fujifilm Recipe: RR Classic Negative (NEGAhi)"
# FilmSim=NEGAhi HL=2 SH=2 Col=-2 WB=FLight1 WBR=-2 WBB=4
LUT_3D_SIZE 5
DOMAIN_MIN 0.0 0.0 0.0
DOMAIN_MAX 1.0 1.0 1.0
0.000000 0.000000 0.000000
0.207200 0.045483 0.045483
0.447276 0.098182 0.098182
0.681721 0.149646 0.149646
0.742106 0.162901 0.162901
0.052183 0.237723 0.052183
0.213901 0.237723 0.052183
0.447276 0.283723 0.098182
0.681721 0.335186 0.149646
0.742106 0.348441 0.162901
0.112758 0.513675 0.112758
0.274475 0.513675 0.112758
0.461851 0.513675 0.112758
0.681721 0.550563 0.149646
0.742106 0.563818 0.162901
0.171026 0.779118 0.171026
0.332743 0.779118 0.171026
0.520119 0.779118 0.171026
0.703101 0.779118 0.171026
0.750230 0.779118 0.171026
0.180000 0.820000 0.180000
0.341717 0.820000 0.180000
0.529093 0.820000 0.180000
0.712075 0.820000 0.180000
0.759205 0.820000 0.180000
0.062800 0.062800 0.286090
0.224518 0.062800 0.286090
0.447276 0.098182 0.321472
0.681721 0.149646 0.372936
0.742106 0.162901 0.386191
0.062800 0.248340 0.286090
0.270001 0.293823 0.331573
0.499459 0.335906 0.373655
0.733905 0.387369 0.425119
0.794289 0.400624 0.438374
0.112758 0.513675 0.336047
0.319958 0.559158 0.381530
0.524651 0.576475 0.398847
0.744522 0.613363 0.435736
0.804906 0.626618 0.448991
0.171026 0.779118 0.394315
0.378226 0.824601 0.439798
0.582919 0.841918 0.457115
0.765901 0.841918 0.457115
0.813031 0.841918 0.457115
0.180000 0.820000 0.403289
0.387200 0.865483 0.448772
0.591893 0.882800 0.466090
0.774875 0.882800 0.466090
0.822005 0.882800 0.466090
0.136031 0.136031 0.619697
0.297748 0.136031 0.619697
0.485124 0.136031 0.619697
0.681721 0.149646 0.633312
0.742106 0.162901 0.646567
0.136031 0.321571 0.619697
0.343231 0.367054 0.665180
0.537307 0.373754 0.671880
0.733905 0.387369 0.685495
0.794289 0.400624 0.698750
0.136031 0.536948 0.619697
0.343231 0.582431 0.665180
0.583307 0.635130 0.717879
0.794479 0.663321 0.746070
0.854864 0.676576 0.759325
0.171026 0.779118 0.654692
0.378226 0.824601 0.700175
0.618302 0.877301 0.752874
0.839132 0.915149 0.790722
0.886261 0.915149 0.790722
0.180000 0.820000 0.663666
0.387200 0.865483 0.709149
0.627276 0.918182 0.761848
0.848106 0.956031 0.799697
0.895236 0.956031 0.799697
0.180000 0.180000 0.820000
0.341717 0.180000 0.820000
0.529093 0.180000 0.820000
0.712075 0.180000 0.820000
0.759205 0.180000 0.820000
0.180000 0.365540 0.820000
0.387200 0.411023 0.865483
0.581276 0.417723 0.872183
0.764258 0.417723 0.872183
0.811388 0.417723 0.872183
0.180000 0.580917 0.820000
0.387200 0.626400 0.865483
0.627276 0.679099 0.918182
0.824833 0.693675 0.932758
0.871962 0.693675 0.932758
0.180000 0.788092 0.820000
0.387200 0.833575 0.865483
0.627276 0.886275 0.918182
0.861721 0.937738 0.969646
0.922106 0.950994 0.982901
0.180000 0.820000 0.820000
0.387200 0.865483 0.865483
0.627276 0.918182 0.918182
0.861721 0.969646 0.969646
0.922106 0.982901 0.982901
0.180000 0.180000 0.820000
0.341717 0.180000 0.820000
0.529093 0.180000 0.820000
0.712075 0.180000 0.820000
0.759205 0.180000 0.820000
0.180000 0.365540 0.820000
0.387200 0.411023 0.865483
0.581276 0.417723 0.872183
0.764258 0.417723 0.872183
0.811388 0.417723 0.872183
0.180000 0.580917 0.820000
0.387200 0.626400 0.865483
0.627276 0.679099 0.918182
0.824833 0.693675 0.932758
0.871962 0.693675 0.932758
0.180000 0.788092 0.820000
0.387200 0.833575 0.865483
0.627276 0.886275 0.918182
0.861721 0.937738 0.969646
0.922106 0.950994 0.982901
0.180000 0.820000 0.820000
0.387200 0.865483 0.865483
0.627276 0.918182 0.918182
0.861721 0.969646 0.969646
0.922106 0.982901 0.982901
