docs/luts/fuji_recipes/NEGAhi_PS_Fujifilm_Superia_100.cube
TITLE "Fujifilm Recipe: PS Fujifilm Superia 100 (NEGAhi)"
# FilmSim=NEGAhi HL=-2 SH=2 Col=2 WB=UWater WBR=-1 WBB=-3
LUT_3D_SIZE 33
DOMAIN_MIN 0.0 0.0 0.0
DOMAIN_MAX 1.0 1.0 1.0
0.000000 0.000000 0.000000
0.059682 0.000000 0.000000
0.100097 0.000000 0.000000
0.139838 0.000000 0.000000
0.179580 0.000000 0.000000
0.219321 0.000000 0.000000
0.259062 0.000000 0.000000
0.298803 0.000000 0.000000
0.338544 0.000000 0.000000
0.378286 0.000000 0.000000
0.418027 0.000000 0.000000
0.457768 0.000000 0.000000
0.535448 0.000000 0.000000
0.573005 0.000000 0.000000
0.610562 0.000000 0.000000
0.648119 0.000000 0.000000
0.685676 0.000000 0.000000
0.723233 0.000000 0.000000
0.760791 0.000000 0.000000
0.798348 0.000000 0.000000
0.835905 0.000000 0.000000
0.873462 0.000000 0.000000
0.911019 0.000000 0.000000
0.916705 0.000000 0.000000
0.916705 0.000000 0.000000
0.916705 0.000000 0.000000
0.916705 0.000000 0.000000
0.916705 0.000000 0.000000
0.916705 0.000000 0.000000
0.916705 0.000000 0.000000
0.916705 0.000000 0.000000
0.916705 0.000000 0.000000
0.916705 0.000000 0.000000
0.000000 0.054668 0.000000
0.059682 0.054668 0.000000
0.100097 0.054668 0.000000
0.139838 0.054668 0.000000
0.179580 0.054668 0.000000
0.219321 0.054668 0.000000
0.259062 0.054668 0.000000
0.298803 0.054668 0.000000
0.338544 0.054668 0.000000
0.378286 0.054668 0.000000
0.418027 0.054668 0.000000
0.457768 0.054668 0.000000
0.535448 0.054668 0.000000
0.573005 0.054668 0.000000
0.610562 0.054668 0.000000
0.648119 0.054668 0.000000
0.685676 0.054668 0.000000
0.723233 0.054668 0.000000
0.760791 0.054668 0.000000
0.798348 0.054668 0.000000
0.835905 0.054668 0.000000
0.873462 0.054668 0.000000
0.911019 0.054668 0.000000
0.916705 0.054668 0.000000
0.916705 0.054668 0.000000
0.916705 0.054668 0.000000
0.916705 0.054668 0.000000
0.916705 0.054668 0.000000
0.916705 0.054668 0.000000
0.916705 0.054668 0.000000
0.916705 0.054668 0.000000
0.916705 0.054668 0.000000
0.916705 0.054668 0.000000
0.000000 0.093696 0.000000
0.059682 0.093696 0.000000
0.100097 0.093696 0.000000
0.139838 0.093696 0.000000
0.179580 0.093696 0.000000
0.219321 0.093696 0.000000
0.259062 0.093696 0.000000
0.298803 0.093696 0.000000
0.338544 0.093696 0.000000
0.378286 0.093696 0.000000
0.418027 0.093696 0.000000
0.457768 0.093696 0.000000
0.535448 0.093696 0.000000
0.573005 0.093696 0.000000
0.610562 0.093696 0.000000
0.648119 0.093696 0.000000
0.685676 0.093696 0.000000
0.723233 0.093696 0.000000
0.760791 0.093696 0.000000
0.798348 0.093696 0.000000
0.835905 0.093696 0.000000
0.873462 0.093696 0.000000
0.911019 0.093696 0.000000
0.916705 0.093696 0.000000
0.916705 0.093696 0.000000
0.916705 0.093696 0.000000
0.916705 0.093696 0.000000
0.916705 0.093696 0.000000
0.916705 0.093696 0.000000
0.916705 0.093696 0.000000
0.916705 0.093696 0.000000
0.916705 0.093696 0.000000
0.916705 0.093696 0.000000
0.000000 0.132073 0.000000
0.059682 0.132073 0.000000
0.100097 0.132073 0.000000
0.139838 0.132073 0.000000
0.179580 0.132073 0.000000
0.219321 0.132073 0.000000
0.259062 0.132073 0.000000
0.298803 0.132073 0.000000
0.338544 0.132073 0.000000
0.378286 0.132073 0.000000
0.418027 0.132073 0.000000
0.457768 0.132073 0.000000
0.535448 0.132073 0.000000
0.573005 0.132073 0.000000
0.610562 0.132073 0.000000
0.648119 0.132073 0.000000
0.685676 0.132073 0.000000
0.723233 0.132073 0.000000
0.760791 0.132073 0.000000
0.798348 0.132073 0.000000
0.835905 0.132073 0.000000
0.873462 0.132073 0.000000
0.911019 0.132073 0.000000
0.916705 0.132073 0.000000
0.916705 0.132073 0.000000
0.916705 0.132073 0.000000
0.916705 0.132073 0.000000
0.916705 0.132073 0.000000
0.916705 0.132073 0.000000
0.916705 0.132073 0.000000
0.916705 0.132073 0.000000
0.916705 0.132073 0.000000
0.916705 0.132073 0.000000
0.000000 0.170449 0.000000
0.059682 0.170449 0.000000
0.100097 0.170449 0.000000
0.139838 0.170449 0.000000
0.179580 0.170449 0.000000
0.219321 0.170449 0.000000
0.259062 0.170449 0.000000
0.298803 0.170449 0.000000
0.338544 0.170449 0.000000
0.378286 0.170449 0.000000
0.418027 0.170449 0.000000
0.457768 0.170449 0.000000
0.535448 0.170449 0.000000
0.573005 0.170449 0.000000
0.610562 0.170449 0.000000
0.648119 0.170449 0.000000
0.685676 0.170449 0.000000
0.723233 0.170449 0.000000
0.760791 0.170449 0.000000
0.798348 0.170449 0.000000
0.835905 0.170449 0.000000
0.873462 0.170449 0.000000
0.911019 0.170449 0.000000
0.916705 0.170449 0.000000
0.916705 0.170449 0.000000
0.916705 0.170449 0.000000
0.916705 0.170449 0.000000
0.916705 0.170449 0.000000
0.916705 0.170449 0.000000
0.916705 0.170449 0.000000
0.916705 0.170449 0.000000
0.916705 0.170449 0.000000
0.916705 0.170449 0.000000
0.000000 0.208826 0.000000
0.059682 0.208826 0.000000
0.100097 0.208826 0.000000
0.139838 0.208826 0.000000
0.179580 0.208826 0.000000
0.219321 0.208826 0.000000
0.259062 0.208826 0.000000
0.298803 0.208826 0.000000
0.338544 0.208826 0.000000
0.378286 0.208826 0.000000
0.418027 0.208826 0.000000
0.457768 0.208826 0.000000
0.535448 0.208826 0.000000
0.573005 0.208826 0.000000
0.610562 0.208826 0.000000
0.648119 0.208826 0.000000
0.685676 0.208826 0.000000
0.723233 0.208826 0.000000
0.760791 0.208826 0.000000
0.798348 0.208826 0.000000
0.835905 0.208826 0.000000
0.873462 0.208826 0.000000
0.911019 0.208826 0.000000
0.916705 0.208826 0.000000
0.916705 0.208826 0.000000
0.916705 0.208826 0.000000
0.916705 0.208826 0.000000
0.916705 0.208826 0.000000
0.916705 0.208826 0.000000
0.916705 0.208826 0.000000
0.916705 0.208826 0.000000
0.916705 0.208826 0.000000
0.916705 0.208826 0.000000
0.000000 0.247203 0.000000
0.059682 0.247203 0.000000
0.100097 0.247203 0.000000
0.139838 0.247203 0.000000
0.179580 0.247203 0.000000
0.219321 0.247203 0.000000
0.259062 0.247203 0.000000
0.298803 0.247203 0.000000
0.338544 0.247203 0.000000
0.378286 0.247203 0.000000
0.418027 0.247203 0.000000
0.457768 0.247203 0.000000
0.535448 0.247203 0.000000
0.573005 0.247203 0.000000
0.610562 0.247203 0.000000
0.648119 0.247203 0.000000
0.685676 0.247203 0.000000
0.723233 0.247203 0.000000
0.760791 0.247203 0.000000
0.798348 0.247203 0.000000
0.835905 0.247203 0.000000
0.873462 0.247203 0.000000
0.911019 0.247203 0.000000
0.916705 0.247203 0.000000
0.916705 0.247203 0.000000
0.916705 0.247203 0.000000
0.916705 0.247203 0.000000
0.916705 0.247203 0.000000
0.916705 0.247203 0.000000
0.916705 0.247203 0.000000
0.916705 0.247203 0.000000
0.916705 0.247203 0.000000
0.916705 0.247203 0.000000
0.000000 0.285579 0.000000
0.059682 0.285579 0.000000
0.100097 0.285579 0.000000
0.139838 0.285579 0.000000
0.179580 0.285579 0.000000
0.219321 0.285579 0.000000
0.259062 0.285579 0.000000
0.298803 0.285579 0.000000
0.338544 0.285579 0.000000
0.378286 0.285579 0.000000
0.418027 0.285579 0.000000
0.457768 0.285579 0.000000
0.535448 0.285579 0.000000
0.573005 0.285579 0.000000
0.610562 0.285579 0.000000
0.648119 0.285579 0.000000
0.685676 0.285579 0.000000
0.723233 0.285579 0.000000
0.760791 0.285579 0.000000
0.798348 0.285579 0.000000
0.835905 0.285579 0.000000
0.873462 0.285579 0.000000
0.911019 0.285579 0.000000
0.916705 0.285579 0.000000
0.916705 0.285579 0.000000
0.916705 0.285579 0.000000
0.916705 0.285579 0.000000
0.916705 0.285579 0.000000
0.916705 0.285579 0.000000
0.916705 0.285579 0.000000
0.916705 0.285579 0.000000
0.916705 0.285579 0.000000
0.916705 0.285579 0.000000
0.000000 0.323956 0.000000
0.059682 0.323956 0.000000
0.100097 0.323956 0.000000
0.139838 0.323956 0.000000
0.179580 0.323956 0.000000
0.219321 0.323956 0.000000
0.259062 0.323956 0.000000
0.298803 0.323956 0.000000
0.338544 0.323956 0.000000
0.378286 0.323956 0.000000
0.418027 0.323956 0.000000
0.457768 0.323956 0.000000
0.535448 0.323956 0.000000
0.573005 0.323956 0.000000
0.610562 0.323956 0.000000
0.648119 0.323956 0.000000
0.685676 0.323956 0.000000
0.723233 0.323956 0.000000
0.760791 0.323956 0.000000
0.798348 0.323956 0.000000
0.835905 0.323956 0.000000
0.873462 0.323956 0.000000
0.911019 0.323956 0.000000
0.916705 0.323956 0.000000
0.916705 0.323956 0.000000
0.916705 0.323956 0.000000
0.916705 0.323956 0.000000
0.916705 0.323956 0.000000
0.916705 0.323956 0.000000
0.916705 0.323956 0.000000
0.916705 0.323956 0.000000
0.916705 0.323956 0.000000
0.916705 0.323956 0.000000
0.000000 0.362333 0.000000
0.059682 0.362333 0.000000
0.100097 0.362333 0.000000
0.139838 0.362333 0.000000
0.179580 0.362333 0.000000
0.219321 0.362333 0.000000
0.259062 0.362333 0.000000
0.298803 0.362333 0.000000
0.338544 0.362333 0.000000
0.378286 0.362333 0.000000
0.418027 0.362333 0.000000
0.457768 0.362333 0.000000
0.535448 0.362333 0.000000
0.573005 0.362333 0.000000
0.610562 0.362333 0.000000
0.648119 0.362333 0.000000
0.685676 0.362333 0.000000
0.723233 0.362333 0.000000
0.760791 0.362333 0.000000
0.798348 0.362333 0.000000
0.835905 0.362333 0.000000
0.873462 0.362333 0.000000
0.911019 0.362333 0.000000
0.916705 0.362333 0.000000
0.916705 0.362333 0.000000
0.916705 0.362333 0.000000
0.916705 0.362333 0.000000
0.916705 0.362333 0.000000
0.916705 0.362333 0.000000
0.916705 0.362333 0.000000
0.916705 0.362333 0.000000
0.916705 0.362333 0.000000
0.916705 0.362333 0.000000
0.000000 0.400709 0.000000
0.059682 0.400709 0.000000
0.100097 0.400709 0.000000
0.139838 0.400709 0.000000
0.179580 0.400709 0.000000
0.219321 0.400709 0.000000
0.259062 0.400709 0.000000
0.298803 0.400709 0.000000
0.338544 0.400709 0.000000
0.378286 0.400709 0.000000
0.418027 0.400709 0.000000
0.457768 0.400709 0.000000
0.535448 0.400709 0.000000
0.573005 0.400709 0.000000
0.610562 0.400709 0.000000
0.648119 0.400709 0.000000
0.685676 0.400709 0.000000
0.723233 0.400709 0.000000
0.760791 0.400709 0.000000
0.798348 0.400709 0.000000
0.835905 0.400709 0.000000
0.873462 0.400709 0.000000
0.911019 0.400709 0.000000
0.916705 0.400709 0.000000
0.916705 0.400709 0.000000
0.916705 0.400709 0.000000
0.916705 0.400709 0.000000
0.916705 0.400709 0.000000
0.916705 0.400709 0.000000
0.916705 0.400709 0.000000
0.916705 0.400709 0.000000
0.916705 0.400709 0.000000
0.916705 0.400709 0.000000
0.000000 0.439086 0.000000
0.059682 0.439086 0.000000
0.100097 0.439086 0.000000
0.139838 0.439086 0.000000
0.179580 0.439086 0.000000
0.219321 0.439086 0.000000
0.259062 0.439086 0.000000
0.298803 0.439086 0.000000
0.338544 0.439086 0.000000
0.378286 0.439086 0.000000
0.418027 0.439086 0.000000
0.457768 0.439086 0.000000
0.535448 0.439086 0.000000
0.573005 0.439086 0.000000
0.610562 0.439086 0.000000
0.648119 0.439086 0.000000
0.685676 0.439086 0.000000
0.723233 0.439086 0.000000
0.760791 0.439086 0.000000
0.798348 0.439086 0.000000
0.835905 0.439086 0.000000
0.873462 0.439086 0.000000
0.911019 0.439086 0.000000
0.916705 0.439086 0.000000
0.916705 0.439086 0.000000
0.916705 0.439086 0.000000
0.916705 0.439086 0.000000
0.916705 0.439086 0.000000
0.916705 0.439086 0.000000
0.916705 0.439086 0.000000
0.916705 0.439086 0.000000
0.916705 0.439086 0.000000
0.916705 0.439086 0.000000
0.000000 0.516503 0.000000
0.059682 0.516503 0.000000
0.100097 0.516503 0.000000
0.139838 0.516503 0.000000
0.179580 0.516503 0.000000
0.219321 0.516503 0.000000
0.259062 0.516503 0.000000
0.298803 0.516503 0.000000
0.338544 0.516503 0.000000
0.378286 0.516503 0.000000
0.418027 0.516503 0.000000
0.457768 0.516503 0.000000
0.535448 0.516503 0.000000
0.573005 0.516503 0.000000
0.610562 0.516503 0.000000
0.648119 0.516503 0.000000
0.685676 0.516503 0.000000
0.723233 0.516503 0.000000
0.760791 0.516503 0.000000
0.798348 0.516503 0.000000
0.835905 0.516503 0.000000
0.873462 0.516503 0.000000
0.911019 0.516503 0.000000
0.916705 0.516503 0.000000
0.916705 0.516503 0.000000
0.916705 0.516503 0.000000
0.916705 0.516503 0.000000
0.916705 0.516503 0.000000
0.916705 0.516503 0.000000
0.916705 0.516503 0.000000
0.916705 0.516503 0.000000
0.916705 0.516503 0.000000
0.916705 0.516503 0.000000
0.000000 0.552771 0.000000
0.059682 0.552771 0.000000
0.100097 0.552771 0.000000
0.139838 0.552771 0.000000
0.179580 0.552771 0.000000
0.219321 0.552771 0.000000
0.259062 0.552771 0.000000
0.298803 0.552771 0.000000
0.338544 0.552771 0.000000
0.378286 0.552771 0.000000
0.418027 0.552771 0.000000
0.457768 0.552771 0.000000
0.535448 0.552771 0.000000
0.573005 0.552771 0.000000
0.610562 0.552771 0.000000
0.648119 0.552771 0.000000
0.685676 0.552771 0.000000
0.723233 0.552771 0.000000
0.760791 0.552771 0.000000
0.798348 0.552771 0.000000
0.835905 0.552771 0.000000
0.873462 0.552771 0.000000
0.911019 0.552771 0.000000
0.916705 0.552771 0.000000
0.916705 0.552771 0.000000
0.916705 0.552771 0.000000
0.916705 0.552771 0.000000
0.916705 0.552771 0.000000
0.916705 0.552771 0.000000
0.916705 0.552771 0.000000
0.916705 0.552771 0.000000
0.916705 0.552771 0.000000
0.916705 0.552771 0.000000
0.000000 0.589038 0.000000
0.059682 0.589038 0.000000
0.100097 0.589038 0.000000
0.139838 0.589038 0.000000
0.179580 0.589038 0.000000
0.219321 0.589038 0.000000
0.259062 0.589038 0.000000
0.298803 0.589038 0.000000
0.338544 0.589038 0.000000
0.378286 0.589038 0.000000
0.418027 0.589038 0.000000
0.457768 0.589038 0.000000
0.535448 0.589038 0.000000
0.573005 0.589038 0.000000
0.610562 0.589038 0.000000
0.648119 0.589038 0.000000
0.685676 0.589038 0.000000
0.723233 0.589038 0.000000
0.760791 0.589038 0.000000
0.798348 0.589038 0.000000
0.835905 0.589038 0.000000
0.873462 0.589038 0.000000
0.911019 0.589038 0.000000
0.916705 0.589038 0.000000
0.916705 0.589038 0.000000
0.916705 0.589038 0.000000
0.916705 0.589038 0.000000
0.916705 0.589038 0.000000
0.916705 0.589038 0.000000
0.916705 0.589038 0.000000
0.916705 0.589038 0.000000
0.916705 0.589038 0.000000
0.916705 0.589038 0.000000
0.000000 0.625306 0.000000
0.059682 0.625306 0.000000
0.100097 0.625306 0.000000
0.139838 0.625306 0.000000
0.179580 0.625306 0.000000
0.219321 0.625306 0.000000
0.259062 0.625306 0.000000
0.298803 0.625306 0.000000
0.338544 0.625306 0.000000
0.378286 0.625306 0.000000
0.418027 0.625306 0.000000
0.457768 0.625306 0.000000
0.535448 0.625306 0.000000
0.573005 0.625306 0.000000
0.610562 0.625306 0.000000
0.648119 0.625306 0.000000
0.685676 0.625306 0.000000
0.723233 0.625306 0.000000
0.760791 0.625306 0.000000
0.798348 0.625306 0.000000
0.835905 0.625306 0.000000
0.873462 0.625306 0.000000
0.911019 0.625306 0.000000
0.916705 0.625306 0.000000
0.916705 0.625306 0.000000
0.916705 0.625306 0.000000
0.916705 0.625306 0.000000
0.916705 0.625306 0.000000
0.916705 0.625306 0.000000
0.916705 0.625306 0.000000
0.916705 0.625306 0.000000
0.916705 0.625306 0.000000
0.916705 0.625306 0.000000
0.000000 0.661573 0.000000
0.059682 0.661573 0.000000
0.100097 0.661573 0.000000
0.139838 0.661573 0.000000
0.179580 0.661573 0.000000
0.219321 0.661573 0.000000
0.259062 0.661573 0.000000
0.298803 0.661573 0.000000
0.338544 0.661573 0.000000
0.378286 0.661573 0.000000
0.418027 0.661573 0.000000
0.457768 0.661573 0.000000
0.535448 0.661573 0.000000
0.573005 0.661573 0.000000
0.610562 0.661573 0.000000
0.648119 0.661573 0.000000
0.685676 0.661573 0.000000
0.723233 0.661573 0.000000
0.760791 0.661573 0.000000
0.798348 0.661573 0.000000
0.835905 0.661573 0.000000
0.873462 0.661573 0.000000
0.911019 0.661573 0.000000
0.916705 0.661573 0.000000
0.916705 0.661573 0.000000
0.916705 0.661573 0.000000
0.916705 0.661573 0.000000
0.916705 0.661573 0.000000
0.916705 0.661573 0.000000
0.916705 0.661573 0.000000
0.916705 0.661573 0.000000
0.916705 0.661573 0.000000
0.916705 0.661573 0.000000
0.000000 0.697841 0.000000
0.059682 0.697841 0.000000
0.100097 0.697841 0.000000
0.139838 0.697841 0.000000
0.179580 0.697841 0.000000
0.219321 0.697841 0.000000
0.259062 0.697841 0.000000
0.298803 0.697841 0.000000
0.338544 0.697841 0.000000
0.378286 0.697841 0.000000
0.418027 0.697841 0.000000
0.457768 0.697841 0.000000
0.535448 0.697841 0.000000
0.573005 0.697841 0.000000
0.610562 0.697841 0.000000
0.648119 0.697841 0.000000
0.685676 0.697841 0.000000
0.723233 0.697841 0.000000
0.760791 0.697841 0.000000
0.798348 0.697841 0.000000
0.835905 0.697841 0.000000
0.873462 0.697841 0.000000
0.911019 0.697841 0.000000
0.916705 0.697841 0.000000
0.916705 0.697841 0.000000
0.916705 0.697841 0.000000
0.916705 0.697841 0.000000
0.916705 0.697841 0.000000
0.916705 0.697841 0.000000
0.916705 0.697841 0.000000
0.916705 0.697841 0.000000
0.916705 0.697841 0.000000
0.916705 0.697841 0.000000
0.000000 0.734109 0.000000
0.059682 0.734109 0.000000
0.100097 0.734109 0.000000
0.139838 0.734109 0.000000
0.179580 0.734109 0.000000
0.219321 0.734109 0.000000
0.259062 0.734109 0.000000
0.298803 0.734109 0.000000
0.338544 0.734109 0.000000
0.378286 0.734109 0.000000
0.418027 0.734109 0.000000
0.457768 0.734109 0.000000
0.535448 0.734109 0.000000
0.573005 0.734109 0.000000
0.610562 0.734109 0.000000
0.648119 0.734109 0.000000
0.685676 0.734109 0.000000
0.723233 0.734109 0.000000
0.760791 0.734109 0.000000
0.798348 0.734109 0.000000
0.835905 0.734109 0.000000
0.873462 0.734109 0.000000
0.911019 0.734109 0.000000
0.916705 0.734109 0.000000
0.916705 0.734109 0.000000
0.916705 0.734109 0.000000
0.916705 0.734109 0.000000
0.916705 0.734109 0.000000
0.916705 0.734109 0.000000
0.916705 0.734109 0.000000
0.916705 0.734109 0.000000
0.916705 0.734109 0.000000
0.916705 0.734109 0.000000
0.000000 0.770376 0.000000
0.059682 0.770376 0.000000
0.100097 0.770376 0.000000
0.139838 0.770376 0.000000
0.179580 0.770376 0.000000
0.219321 0.770376 0.000000
0.259062 0.770376 0.000000
0.298803 0.770376 0.000000
0.338544 0.770376 0.000000
0.378286 0.770376 0.000000
0.418027 0.770376 0.000000
0.457768 0.770376 0.000000
0.535448 0.770376 0.000000
0.573005 0.770376 0.000000
0.610562 0.770376 0.000000
0.648119 0.770376 0.000000
0.685676 0.770376 0.000000
0.723233 0.770376 0.000000
0.760791 0.770376 0.000000
0.798348 0.770376 0.000000
0.835905 0.770376 0.000000
0.873462 0.770376 0.000000
0.911019 0.770376 0.000000
0.916705 0.770376 0.000000
0.916705 0.770376 0.000000
0.916705 0.770376 0.000000
0.916705 0.770376 0.000000
0.916705 0.770376 0.000000
0.916705 0.770376 0.000000
0.916705 0.770376 0.000000
0.916705 0.770376 0.000000
0.916705 0.770376 0.000000
0.916705 0.770376 0.000000
0.000000 0.806644 0.000000
0.059682 0.806644 0.000000
0.100097 0.806644 0.000000
0.139838 0.806644 0.000000
0.179580 0.806644 0.000000
0.219321 0.806644 0.000000
0.259062 0.806644 0.000000
0.298803 0.806644 0.000000
0.338544 0.806644 0.000000
0.378286 0.806644 0.000000
0.418027 0.806644 0.000000
0.457768 0.806644 0.000000
0.535448 0.806644 0.000000
0.573005 0.806644 0.000000
0.610562 0.806644 0.000000
0.648119 0.806644 0.000000
0.685676 0.806644 0.000000
0.723233 0.806644 0.000000
0.760791 0.806644 0.000000
0.798348 0.806644 0.000000
0.835905 0.806644 0.000000
0.873462 0.806644 0.000000
0.911019 0.806644 0.000000
0.916705 0.806644 0.000000
0.916705 0.806644 0.000000
0.916705 0.806644 0.000000
0.916705 0.806644 0.000000
0.916705 0.806644 0.000000
0.916705 0.806644 0.000000
0.916705 0.806644 0.000000
0.916705 0.806644 0.000000
0.916705 0.806644 0.000000
0.916705 0.806644 0.000000
0.000000 0.842911 0.000000
0.059682 0.842911 0.000000
0.100097 0.842911 0.000000
0.139838 0.842911 0.000000
0.179580 0.842911 0.000000
0.219321 0.842911 0.000000
0.259062 0.842911 0.000000
0.298803 0.842911 0.000000
0.338544 0.842911 0.000000
0.378286 0.842911 0.000000
0.418027 0.842911 0.000000
0.457768 0.842911 0.000000
0.535448 0.842911 0.000000
0.573005 0.842911 0.000000
0.610562 0.842911 0.000000
0.648119 0.842911 0.000000
0.685676 0.842911 0.000000
0.723233 0.842911 0.000000
0.760791 0.842911 0.000000
0.798348 0.842911 0.000000
0.835905 0.842911 0.000000
0.873462 0.842911 0.000000
0.911019 0.842911 0.000000
0.916705 0.842911 0.000000
0.916705 0.842911 0.000000
0.916705 0.842911 0.000000
0.916705 0.842911 0.000000
0.916705 0.842911 0.000000
0.916705 0.842911 0.000000
0.916705 0.842911 0.000000
0.916705 0.842911 0.000000
0.916705 0.842911 0.000000
0.916705 0.842911 0.000000
0.000000 0.879179 0.000000
0.059682 0.879179 0.000000
0.100097 0.879179 0.000000
0.139838 0.879179 0.000000
0.179580 0.879179 0.000000
0.219321 0.879179 0.000000
0.259062 0.879179 0.000000
0.298803 0.879179 0.000000
0.338544 0.879179 0.000000
0.378286 0.879179 0.000000
0.418027 0.879179 0.000000
0.457768 0.879179 0.000000
0.535448 0.879179 0.000000
0.573005 0.879179 0.000000
0.610562 0.879179 0.000000
0.648119 0.879179 0.000000
0.685676 0.879179 0.000000
0.723233 0.879179 0.000000
0.760791 0.879179 0.000000
0.798348 0.879179 0.000000
0.835905 0.879179 0.000000
0.873462 0.879179 0.000000
0.911019 0.879179 0.000000
0.916705 0.879179 0.000000
0.916705 0.879179 0.000000
0.916705 0.879179 0.000000
0.916705 0.879179 0.000000
0.916705 0.879179 0.000000
0.916705 0.879179 0.000000
0.916705 0.879179 0.000000
0.916705 0.879179 0.000000
0.916705 0.879179 0.000000
0.916705 0.879179 0.000000
0.000000 0.915447 0.000000
0.059682 0.915447 0.000000
0.100097 0.915447 0.000000
0.139838 0.915447 0.000000
0.179580 0.915447 0.000000
0.219321 0.915447 0.000000
0.259062 0.915447 0.000000
0.298803 0.915447 0.000000
0.338544 0.915447 0.000000
0.378286 0.915447 0.000000
0.418027 0.915447 0.000000
0.457768 0.915447 0.000000
0.535448 0.915447 0.000000
0.573005 0.915447 0.000000
0.610562 0.915447 0.000000
0.648119 0.915447 0.000000
0.685676 0.915447 0.000000
0.723233 0.915447 0.000000
0.760791 0.915447 0.000000
0.798348 0.915447 0.000000
0.835905 0.915447 0.000000
0.873462 0.915447 0.000000
0.911019 0.915447 0.000000
0.916705 0.915447 0.000000
0.916705 0.915447 0.000000
0.916705 0.915447 0.000000
0.916705 0.915447 0.000000
0.916705 0.915447 0.000000
0.916705 0.915447 0.000000
0.916705 0.915447 0.000000
0.916705 0.915447 0.000000
0.916705 0.915447 0.000000
0.916705 0.915447 0.000000
0.000000 0.934720 0.000000
0.059682 0.934720 0.000000
0.100097 0.934720 0.000000
0.139838 0.934720 0.000000
0.179580 0.934720 0.000000
0.219321 0.934720 0.000000
0.259062 0.934720 0.000000
0.298803 0.934720 0.000000
0.338544 0.934720 0.000000
0.378286 0.934720 0.000000
0.418027 0.934720 0.000000
0.457768 0.934720 0.000000
0.535448 0.934720 0.000000
0.573005 0.934720 0.000000
0.610562 0.934720 0.000000
0.648119 0.934720 0.000000
0.685676 0.934720 0.000000
0.723233 0.934720 0.000000
0.760791 0.934720 0.000000
0.798348 0.934720 0.000000
0.835905 0.934720 0.000000
0.873462 0.934720 0.000000
0.911019 0.934720 0.000000
0.916705 0.934720 0.000000
0.916705 0.934720 0.000000
0.916705 0.934720 0.000000
0.916705 0.934720 0.000000
0.916705 0.934720 0.000000
0.916705 0.934720 0.000000
0.916705 0.934720 0.000000
0.916705 0.934720 0.000000
0.916705 0.934720 0.000000
0.916705 0.934720 0.000000
0.000000 0.934720 0.000000
0.059682 0.934720 0.000000
0.100097 0.934720 0.000000
0.139838 0.934720 0.000000
0.179580 0.934720 0.000000
0.219321 0.934720 0.000000
0.259062 0.934720 0.000000
0.298803 0.934720 0.000000
0.338544 0.934720 0.000000
0.378286 0.934720 0.000000
0.418027 0.934720 0.000000
0.457768 0.934720 0.000000
0.535448 0.934720 0.000000
0.573005 0.934720 0.000000
0.610562 0.934720 0.000000
0.648119 0.934720 0.000000
0.685676 0.934720 0.000000
0.723233 0.934720 0.000000
0.760791 0.934720 0.000000
0.798348 0.934720 0.000000
0.835905 0.934720 0.000000
0.873462 0.934720 0.000000
0.911019 0.934720 0.000000
0.916705 0.934720 0.000000
0.916705 0.934720 0.000000
0.916705 0.934720 0.000000
0.916705 0.934720 0.000000
0.916705 0.934720 0.000000
0.916705 0.934720 0.000000
0.916705 0.934720 0.000000
0.916705 0.934720 0.000000
0.916705 0.934720 0.000000
0.916705 0.934720 0.000000
0.000000 0.934720 0.000000
0.059682 0.934720 0.000000
0.100097 0.934720 0.000000
0.139838 0.934720 0.000000
0.179580 0.934720 0.000000
0.219321 0.934720 0.000000
0.259062 0.934720 0.000000
0.298803 0.934720 0.000000
0.338544 0.934720 0.000000
0.378286 0.934720 0.000000
0.418027 0.934720 0.000000
0.457768 0.934720 0.000000
0.535448 0.934720 0.000000
0.573005 0.934720 0.000000
0.610562 0.934720 0.000000
0.648119 0.934720 0.000000
0.685676 0.934720 0.000000
0.723233 0.934720 0.000000
0.760791 0.934720 0.000000
0.798348 0.934720 0.000000
0.835905 0.934720 0.000000
0.873462 0.934720 0.000000
0.911019 0.934720 0.000000
0.916705 0.934720 0.000000
