docs/luts/fuji_recipes/NEGA_JP_Soft_Portrait.cube
TITLE "Fujifilm Recipe: JP Soft Portrait (NEGA)"
# FilmSim=NEGA HL=0 SH=0 Col=-1 WB=Auto WBR=0 WBB=0
LUT_3D_SIZE 9
DOMAIN_MIN 0.0 0.0 0.0
DOMAIN_MAX 1.0 1.0 1.0
0.016000 0.016000 0.016000
0.123391 0.031609 0.031609
0.230783 0.047217 0.047217
0.338174 0.062826 0.062826
0.445398 0.078410 0.078410
0.545099 0.092901 0.092901
0.651617 0.108383 0.108383
0.758135 0.123865 0.123865
0.864653 0.139347 0.139347
0.031609 0.123391 0.031609
0.123391 0.123391 0.031609
0.230783 0.139000 0.047217
0.338174 0.154609 0.062826
0.445398 0.170193 0.078410
0.545099 0.184684 0.092901
0.651617 0.200166 0.108383
0.758135 0.215648 0.123865
0.864653 0.231129 0.139347
0.047217 0.230783 0.047217
0.139000 0.230783 0.047217
0.230783 0.230783 0.047217
0.338174 0.246391 0.062826
0.445398 0.261976 0.078410
0.545099 0.276467 0.092901
0.651617 0.291948 0.108383
0.758135 0.307430 0.123865
0.864653 0.322912 0.139347
0.062826 0.338174 0.062826
0.154609 0.338174 0.062826
0.246391 0.338174 0.062826
0.338174 0.338174 0.062826
0.445398 0.353758 0.078410
0.545099 0.368249 0.092901
0.651617 0.383731 0.108383
0.758135 0.399213 0.123865
0.864653 0.414695 0.139347
0.078410 0.445398 0.078410
0.170193 0.445398 0.078410
0.261976 0.445398 0.078410
0.353758 0.445398 0.078410
0.445398 0.445398 0.078410
0.545099 0.459889 0.092901
0.651617 0.475370 0.108383
0.758135 0.490852 0.123865
0.864653 0.506334 0.139347
0.092901 0.545099 0.092901
0.184684 0.545099 0.092901
0.276467 0.545099 0.092901
0.368249 0.545099 0.092901
0.459889 0.545099 0.092901
0.545099 0.545099 0.092901
0.651617 0.560580 0.108383
0.758135 0.576062 0.123865
0.864653 0.591544 0.139347
0.108383 0.651617 0.108383
0.200166 0.651617 0.108383
0.291948 0.651617 0.108383
0.383731 0.651617 0.108383
0.475370 0.651617 0.108383
0.560580 0.651617 0.108383
0.651617 0.651617 0.108383
0.758135 0.667099 0.123865
0.864653 0.682580 0.139347
0.123865 0.758135 0.123865
0.215648 0.758135 0.123865
0.307430 0.758135 0.123865
0.399213 0.758135 0.123865
0.490852 0.758135 0.123865
0.576062 0.758135 0.123865
0.667099 0.758135 0.123865
0.758135 0.758135 0.123865
0.864653 0.773617 0.139347
0.139347 0.864653 0.139347
0.231129 0.864653 0.139347
0.322912 0.864653 0.139347
0.414695 0.864653 0.139347
0.506334 0.864653 0.139347
0.591544 0.864653 0.139347
0.682580 0.864653 0.139347
0.773617 0.864653 0.139347
0.864653 0.864653 0.139347
0.031609 0.031609 0.123391
0.123391 0.031609 0.123391
0.230783 0.047217 0.139000
0.338174 0.062826 0.154609
0.445398 0.078410 0.170193
0.545099 0.092901 0.184684
0.651617 0.108383 0.200166
0.758135 0.123865 0.215648
0.864653 0.139347 0.231129
0.031609 0.123391 0.123391
0.139000 0.139000 0.139000
0.246391 0.154609 0.154609
0.353783 0.170217 0.170217
0.461006 0.185802 0.185802
0.560707 0.200293 0.200293
0.667226 0.215774 0.215774
0.773744 0.231256 0.231256
0.880262 0.246738 0.246738
0.047217 0.230783 0.139000
0.154609 0.246391 0.154609
0.246391 0.246391 0.154609
0.353783 0.262000 0.170217
0.461006 0.277584 0.185802
0.560707 0.292075 0.200293
0.667226 0.307557 0.215774
0.773744 0.323039 0.231256
0.880262 0.338521 0.246738
0.062826 0.338174 0.154609
0.170217 0.353783 0.170217
0.262000 0.353783 0.170217
0.353783 0.353783 0.170217
0.461006 0.369367 0.185802
0.560707 0.383858 0.200293
0.667226 0.399340 0.215774
0.773744 0.414821 0.231256
0.880262 0.430303 0.246738
0.078410 0.445398 0.170193
0.185802 0.461006 0.185802
0.277584 0.461006 0.185802
0.369367 0.461006 0.185802
0.461006 0.461006 0.185802
0.560707 0.475497 0.200293
0.667226 0.490979 0.215774
0.773744 0.506461 0.231256
0.880262 0.521943 0.246738
0.092901 0.545099 0.184684
0.200293 0.560707 0.200293
0.292075 0.560707 0.200293
0.383858 0.560707 0.200293
0.475497 0.560707 0.200293
0.560707 0.560707 0.200293
0.667226 0.576189 0.215774
0.773744 0.591671 0.231256
0.880262 0.607153 0.246738
0.108383 0.651617 0.200166
0.215774 0.667226 0.215774
0.307557 0.667226 0.215774
0.399340 0.667226 0.215774
0.490979 0.667226 0.215774
0.576189 0.667226 0.215774
0.667226 0.667226 0.215774
0.773744 0.682707 0.231256
0.880262 0.698189 0.246738
0.123865 0.758135 0.215648
0.231256 0.773744 0.231256
0.323039 0.773744 0.231256
0.414821 0.773744 0.231256
0.506461 0.773744 0.231256
0.591671 0.773744 0.231256
0.682707 0.773744 0.231256
0.773744 0.773744 0.231256
0.880262 0.789226 0.246738
0.139347 0.864653 0.231129
0.246738 0.880262 0.246738
0.338521 0.880262 0.246738
0.430303 0.880262 0.246738
0.521943 0.880262 0.246738
0.607153 0.880262 0.246738
0.698189 0.880262 0.246738
0.789225 0.880262 0.246738
0.880262 0.880262 0.246738
0.047217 0.047217 0.230783
0.139000 0.047217 0.230783
0.230783 0.047217 0.230783
0.338174 0.062826 0.246391
0.445398 0.078410 0.261976
0.545099 0.092901 0.276467
0.651617 0.108383 0.291948
0.758135 0.123865 0.307430
0.864653 0.139347 0.322912
0.047217 0.139000 0.230783
0.154609 0.154609 0.246391
0.246391 0.154609 0.246391
0.353783 0.170217 0.262000
0.461006 0.185802 0.277584
0.560707 0.200293 0.292075
0.667226 0.215774 0.307557
0.773744 0.231256 0.323039
0.880262 0.246738 0.338521
0.047217 0.230783 0.230783
0.154609 0.246391 0.246391
0.262000 0.262000 0.262000
0.369391 0.277609 0.277609
0.476615 0.293193 0.293193
0.576316 0.307684 0.307684
0.682834 0.323166 0.323166
0.789352 0.338648 0.338648
0.895871 0.354129 0.354129
0.062826 0.338174 0.246391
0.170217 0.353783 0.262000
0.277609 0.369391 0.277609
0.369391 0.369391 0.277609
0.476615 0.384976 0.293193
0.576316 0.399467 0.307684
0.682834 0.414948 0.323166
0.789352 0.430430 0.338648
0.895871 0.445912 0.354129
0.078410 0.445398 0.261976
0.185802 0.461006 0.277584
0.293193 0.476615 0.293193
0.384976 0.476615 0.293193
0.476615 0.476615 0.293193
0.576316 0.491106 0.307684
0.682834 0.506588 0.323166
0.789352 0.522070 0.338648
0.895871 0.537551 0.354129
0.092901 0.545099 0.276467
0.200293 0.560707 0.292075
0.307684 0.576316 0.307684
0.399467 0.576316 0.307684
0.491106 0.576316 0.307684
0.576316 0.576316 0.307684
0.682834 0.591798 0.323166
0.789352 0.607280 0.338648
0.895871 0.622761 0.354129
0.108383 0.651617 0.291948
0.215774 0.667226 0.307557
0.323166 0.682834 0.323166
0.414948 0.682834 0.323166
0.506588 0.682834 0.323166
0.591798 0.682834 0.323166
0.682834 0.682834 0.323166
0.789352 0.698316 0.338648
0.895871 0.713798 0.354129
0.123865 0.758135 0.307430
0.231256 0.773744 0.323039
0.338648 0.789352 0.338648
0.430430 0.789352 0.338648
0.522070 0.789352 0.338648
0.607280 0.789352 0.338648
0.698316 0.789352 0.338648
0.789352 0.789352 0.338648
0.895871 0.804834 0.354129
0.139347 0.864653 0.322912
0.246738 0.880262 0.338521
0.354129 0.895871 0.354129
0.445912 0.895871 0.354129
0.537551 0.895871 0.354129
0.622761 0.895871 0.354129
0.713798 0.895871 0.354129
0.804834 0.895871 0.354129
0.895871 0.895871 0.354129
0.062826 0.062826 0.338174
0.154609 0.062826 0.338174
0.246391 0.062826 0.338174
0.338174 0.062826 0.338174
0.445398 0.078410 0.353758
0.545099 0.092901 0.368249
0.651617 0.108383 0.383731
0.758135 0.123865 0.399213
0.864653 0.139347 0.414695
0.062826 0.154609 0.338174
0.170217 0.170217 0.353783
0.262000 0.170217 0.353783
0.353783 0.170217 0.353783
0.461006 0.185802 0.369367
0.560707 0.200293 0.383858
0.667226 0.215774 0.399340
0.773744 0.231256 0.414821
0.880262 0.246738 0.430303
0.062826 0.246391 0.338174
0.170217 0.262000 0.353783
0.277609 0.277609 0.369391
0.369391 0.277609 0.369391
0.476615 0.293193 0.384976
0.576316 0.307684 0.399467
0.682834 0.323166 0.414948
0.789352 0.338648 0.430430
0.895871 0.354129 0.445912
0.062826 0.338174 0.338174
0.170217 0.353783 0.353783
0.277609 0.369391 0.369391
0.385000 0.385000 0.385000
0.492224 0.400584 0.400584
0.591925 0.415075 0.415075
0.698443 0.430557 0.430557
0.804961 0.446039 0.446039
0.911479 0.461521 0.461521
0.078410 0.445398 0.353758
0.185802 0.461006 0.369367
0.293193 0.476615 0.384976
0.400584 0.492224 0.400584
0.492224 0.492224 0.400584
0.591925 0.506715 0.415075
0.698443 0.522196 0.430557
0.804961 0.537678 0.446039
0.911479 0.553160 0.461521
0.092901 0.545099 0.368249
0.200293 0.560707 0.383858
0.307684 0.576316 0.399467
0.415075 0.591925 0.415075
0.506715 0.591925 0.415075
0.591925 0.591925 0.415075
0.698443 0.607406 0.430557
0.804961 0.622888 0.446039
0.911479 0.638370 0.461521
0.108383 0.651617 0.383731
0.215774 0.667226 0.399340
0.323166 0.682834 0.414948
0.430557 0.698443 0.430557
0.522196 0.698443 0.430557
0.607406 0.698443 0.430557
0.698443 0.698443 0.430557
0.804961 0.713925 0.446039
0.911479 0.729407 0.461521
0.123865 0.758135 0.399213
0.231256 0.773744 0.414821
0.338648 0.789352 0.430430
0.446039 0.804961 0.446039
0.537678 0.804961 0.446039
0.622888 0.804961 0.446039
0.713925 0.804961 0.446039
0.804961 0.804961 0.446039
0.911479 0.820443 0.461521
0.139347 0.864653 0.414695
0.246738 0.880262 0.430303
0.354129 0.895871 0.445912
0.461521 0.911479 0.461521
0.553160 0.911479 0.461521
0.638370 0.911479 0.461521
0.729407 0.911479 0.461521
0.820443 0.911479 0.461521
0.911479 0.911479 0.461521
0.078410 0.078410 0.445398
0.170193 0.078410 0.445398
0.261976 0.078410 0.445398
0.353758 0.078410 0.445398
0.445398 0.078410 0.445398
0.545099 0.092901 0.459889
0.651617 0.108383 0.475370
0.758135 0.123865 0.490852
0.864653 0.139347 0.506334
0.078410 0.170193 0.445398
0.185802 0.185802 0.461006
0.277584 0.185802 0.461006
0.369367 0.185802 0.461006
0.461006 0.185802 0.461006
0.560707 0.200293 0.475497
0.667226 0.215774 0.490979
0.773744 0.231256 0.506461
0.880262 0.246738 0.521943
0.078410 0.261976 0.445398
0.185802 0.277584 0.461006
0.293193 0.293193 0.476615
0.384976 0.293193 0.476615
0.476615 0.293193 0.476615
0.576316 0.307684 0.491106
0.682834 0.323166 0.506588
0.789352 0.338648 0.522070
0.895871 0.354129 0.537551
0.078410 0.353758 0.445398
0.185802 0.369367 0.461006
0.293193 0.384976 0.476615
0.400584 0.400584 0.492224
0.492224 0.400584 0.492224
0.591925 0.415075 0.506715
0.698443 0.430557 0.522196
0.804961 0.446039 0.537678
0.911479 0.461521 0.553160
0.078410 0.445398 0.445398
0.185802 0.461006 0.461006
0.293193 0.476615 0.476615
0.400584 0.492224 0.492224
0.507808 0.507808 0.507808
0.607509 0.522299 0.522299
0.714027 0.537781 0.537781
0.820545 0.553263 0.553263
0.927064 0.568744 0.568744
0.092901 0.545099 0.459889
0.200293 0.560707 0.475497
0.307684 0.576316 0.491106
0.415075 0.591925 0.506715
0.522299 0.607509 0.522299
0.607509 0.607509 0.522299
0.714027 0.622991 0.537781
0.820545 0.638473 0.553263
0.927064 0.653954 0.568744
0.108383 0.651617 0.475370
0.215774 0.667226 0.490979
0.323166 0.682834 0.506588
0.430557 0.698443 0.522196
0.537781 0.714027 0.537781
0.622991 0.714027 0.537781
0.714027 0.714027 0.537781
0.820545 0.729509 0.553263
0.927064 0.744991 0.568744
0.123865 0.758135 0.490852
0.231256 0.773744 0.506461
0.338648 0.789352 0.522070
0.446039 0.804961 0.537678
0.553263 0.820545 0.553263
0.638473 0.820545 0.553263
0.729509 0.820545 0.553263
0.820545 0.820545 0.553263
0.927064 0.836027 0.568744
0.139347 0.864653 0.506334
0.246738 0.880262 0.521943
0.354129 0.895871 0.537551
0.461521 0.911479 0.553160
0.568744 0.927064 0.568744
0.653954 0.927064 0.568744
0.744991 0.927064 0.568744
0.836027 0.927064 0.568744
0.927064 0.927064 0.568744
0.092901 0.092901 0.545099
0.184684 0.092901 0.545099
0.276467 0.092901 0.545099
0.368249 0.092901 0.545099
0.459889 0.092901 0.545099
0.545099 0.092901 0.545099
0.651617 0.108383 0.560580
0.758135 0.123865 0.576062
0.864653 0.139347 0.591544
0.092901 0.184684 0.545099
0.200293 0.200293 0.560707
0.292075 0.200293 0.560707
0.383858 0.200293 0.560707
0.475497 0.200293 0.560707
0.560707 0.200293 0.560707
0.667226 0.215774 0.576189
0.773744 0.231256 0.591671
0.880262 0.246738 0.607153
0.092901 0.276467 0.545099
0.200293 0.292075 0.560707
0.307684 0.307684 0.576316
0.399467 0.307684 0.576316
0.491106 0.307684 0.576316
0.576316 0.307684 0.576316
0.682834 0.323166 0.591798
0.789352 0.338648 0.607280
0.895871 0.354129 0.622761
0.092901 0.368249 0.545099
0.200293 0.383858 0.560707
0.307684 0.399467 0.576316
0.415075 0.415075 0.591925
0.506715 0.415075 0.591925
0.591925 0.415075 0.591925
0.698443 0.430557 0.607406
0.804961 0.446039 0.622888
0.911479 0.461521 0.638370
0.092901 0.459889 0.545099
0.200293 0.475497 0.560707
0.307684 0.491106 0.576316
0.415075 0.506715 0.591925
0.522299 0.522299 0.607509
0.607509 0.522299 0.607509
0.714027 0.537781 0.622991
0.820545 0.553263 0.638473
0.927064 0.568744 0.653954
0.092901 0.545099 0.545099
0.200293 0.560707 0.560707
0.307684 0.576316 0.576316
0.415075 0.591925 0.591925
0.522299 0.607509 0.607509
0.622000 0.622000 0.622000
0.728518 0.637482 0.637482
0.835036 0.652964 0.652964
0.941555 0.668445 0.668445
0.108383 0.651617 0.560580
0.215774 0.667226 0.576189
0.323166 0.682834 0.591798
0.430557 0.698443 0.607406
0.537781 0.714027 0.622991
0.637482 0.728518 0.637482
0.728518 0.728518 0.637482
0.835036 0.744000 0.652964
0.941555 0.759482 0.668445
0.123865 0.758135 0.576062
0.231256 0.773744 0.591671
0.338648 0.789352 0.607280
0.446039 0.804961 0.622888
0.553263 0.820545 0.638473
0.652964 0.835036 0.652964
0.744000 0.835036 0.652964
0.835036 0.835036 0.652964
0.941555 0.850518 0.668445
0.139347 0.864653 0.591544
0.246738 0.880262 0.607153
0.354129 0.895871 0.622761
0.461521 0.911479 0.638370
0.568744 0.927064 0.653954
0.668445 0.941555 0.668445
0.759482 0.941555 0.668445
0.850518 0.941555 0.668445
0.941555 0.941555 0.668445
0.108383 0.108383 0.651617
0.200166 0.108383 0.651617
0.291948 0.108383 0.651617
0.383731 0.108383 0.651617
0.475370 0.108383 0.651617
0.560580 0.108383 0.651617
0.651617 0.108383 0.651617
0.758135 0.123865 0.667099
0.864653 0.139347 0.682580
0.108383 0.200166 0.651617
0.215774 0.215774 0.667226
0.307557 0.215774 0.667226
0.399340 0.215774 0.667226
0.490979 0.215774 0.667226
0.576189 0.215774 0.667226
0.667226 0.215774 0.667226
0.773744 0.231256 0.682707
0.880262 0.246738 0.698189
0.108383 0.291948 0.651617
0.215774 0.307557 0.667226
0.323166 0.323166 0.682834
0.414948 0.323166 0.682834
0.506588 0.323166 0.682834
0.591798 0.323166 0.682834
0.682834 0.323166 0.682834
0.789352 0.338648 0.698316
0.895871 0.354129 0.713798
0.108383 0.383731 0.651617
0.215774 0.399340 0.667226
0.323166 0.414948 0.682834
0.430557 0.430557 0.698443
0.522196 0.430557 0.698443
0.607406 0.430557 0.698443
0.698443 0.430557 0.698443
0.804961 0.446039 0.713925
0.911479 0.461521 0.729407
0.108383 0.475370 0.651617
0.215774 0.490979 0.667226
0.323166 0.506588 0.682834
0.430557 0.522196 0.698443
0.537781 0.537781 0.714027
0.622991 0.537781 0.714027
0.714027 0.537781 0.714027
0.820545 0.553263 0.729509
0.927064 0.568744 0.744991
0.108383 0.560580 0.651617
0.215774 0.576189 0.667226
0.323166 0.591798 0.682834
0.430557 0.607406 0.698443
0.537781 0.622991 0.714027
0.637482 0.637482 0.728518
0.728518 0.637482 0.728518
0.835036 0.652964 0.744000
0.941555 0.668445 0.759482
0.108383 0.651617 0.651617
0.215774 0.667226 0.667226
0.323166 0.682834 0.682834
0.430557 0.698443 0.698443
0.537781 0.714027 0.714027
0.637482 0.728518 0.728518
0.744000 0.744000 0.744000
0.850518 0.759482 0.759482
0.957036 0.774964 0.774964
0.123865 0.758135 0.667099
0.231256 0.773744 0.682707
0.338648 0.789352 0.698316
0.446039 0.804961 0.713925
0.553263 0.820545 0.729509
0.652964 0.835036 0.744000
0.759482 0.850518 0.759482
0.850518 0.850518 0.759482
0.957036 0.866000 0.774964
0.139347 0.864653 0.682580
0.246738 0.880262 0.698189
0.354129 0.895871 0.713798
0.461521 0.911479 0.729407
0.568744 0.927064 0.744991
0.668445 0.941555 0.759482
0.774964 0.957036 0.774964
0.866000 0.957036 0.774964
0.957036 0.957036 0.774964
0.123865 0.123865 0.758135
0.215648 0.123865 0.758135
0.307430 0.123865 0.758135
0.399213 0.123865 0.758135
0.490852 0.123865 0.758135
0.576062 0.123865 0.758135
0.667099 0.123865 0.758135
0.758135 0.123865 0.758135
0.864653 0.139347 0.773617
0.123865 0.215648 0.758135
0.231256 0.231256 0.773744
0.323039 0.231256 0.773744
0.414821 0.231256 0.773744
0.506461 0.231256 0.773744
0.591671 0.231256 0.773744
0.682707 0.231256 0.773744
0.773744 0.231256 0.773744
0.880262 0.246738 0.789225
0.123865 0.307430 0.758135
0.231256 0.323039 0.773744
0.338648 0.338648 0.789352
0.430430 0.338648 0.789352
0.522070 0.338648 0.789352
0.607280 0.338648 0.789352
0.698316 0.338648 0.789352
0.789352 0.338648 0.789352
0.895871 0.354129 0.804834
0.123865 0.399213 0.758135
0.231256 0.414821 0.773744
0.338648 0.430430 0.789352
0.446039 0.446039 0.804961
0.537678 0.446039 0.804961
0.622888 0.446039 0.804961
0.713925 0.446039 0.804961
0.804961 0.446039 0.804961
0.911479 0.461521 0.820443
0.123865 0.490852 0.758135
0.231256 0.506461 0.773744
0.338648 0.522070 0.789352
0.446039 0.537678 0.804961
0.553263 0.553263 0.820545
0.638473 0.553263 0.820545
0.729509 0.553263 0.820545
0.820545 0.553263 0.820545
0.927064 0.568744 0.836027
0.123865 0.576062 0.758135
0.231256 0.591671 0.773744
0.338648 0.607280 0.789352
0.446039 0.622888 0.804961
0.553263 0.638473 0.820545
0.652964 0.652964 0.835036
0.744000 0.652964 0.835036
0.835036 0.652964 0.835036
0.941555 0.668445 0.850518
0.123865 0.667099 0.758135
0.231256 0.682707 0.773744
0.338648 0.698316 0.789352
0.446039 0.713925 0.804961
0.553263 0.729509 0.820545
0.652964 0.744000 0.835036
0.759482 0.759482 0.850518
0.850518 0.759482 0.850518
0.957036 0.774964 0.866000
0.123865 0.758135 0.758135
0.231256 0.773744 0.773744
0.338648 0.789352 0.789352
0.446039 0.804961 0.804961
0.553263 0.820545 0.820545
0.652964 0.835036 0.835036
0.759482 0.850518 0.850518
0.866000 0.866000 0.866000
0.972518 0.881482 0.881482
0.139347 0.864653 0.773617
0.246738 0.880262 0.789225
0.354129 0.895871 0.804834
0.461521 0.911479 0.820443
0.568744 0.927064 0.836027
0.668445 0.941555 0.850518
0.774964 0.957036 0.866000
0.881482 0.972518 0.881482
0.972518 0.972518 0.881482
0.139347 0.139347 0.864653
0.231129 0.139347 0.864653
0.322912 0.139347 0.864653
0.414695 0.139347 0.864653
0.506334 0.139347 0.864653
0.591544 0.139347 0.864653
0.682580 0.139347 0.864653
0.773617 0.139347 0.864653
0.864653 0.139347 0.864653
0.139347 0.231129 0.864653
0.246738 0.246738 0.880262
0.338521 0.246738 0.880262
0.430303 0.246738 0.880262
0.521943 0.246738 0.880262
0.607153 0.246738 0.880262
0.698189 0.246738 0.880262
0.789225 0.246738 0.880262
0.880262 0.246738 0.880262
0.139347 0.322912 0.864653
0.246738 0.338521 0.880262
0.354129 0.354129 0.895871
0.445912 0.354129 0.895871
0.537551 0.354129 0.895871
0.622761 0.354129 0.895871
0.713798 0.354129 0.895871
0.804834 0.354129 0.895871
0.895871 0.354129 0.895871
0.139347 0.414695 0.864653
0.246738 0.430303 0.880262
0.354129 0.445912 0.895871
0.461521 0.461521 0.911479
0.553160 0.461521 0.911479
0.638370 0.461521 0.911479
0.729407 0.461521 0.911479
0.820443 0.461521 0.911479
0.911479 0.461521 0.911479
0.139347 0.506334 0.864653
0.246738 0.521943 0.880262
0.354129 0.537551 0.895871
0.461521 0.553160 0.911479
0.568744 0.568744 0.927064
0.653954 0.568744 0.927064
0.744991 0.568744 0.927064
0.836027 0.568744 0.927064
0.927064 0.568744 0.927064
0.139347 0.591544 0.864653
0.246738 0.607153 0.880262
0.354129 0.622761 0.895871
0.461521 0.638370 0.911479
0.568744 0.653954 0.927064
0.668445 0.668445 0.941555
0.759482 0.668445 0.941555
0.850518 0.668445 0.941555
0.941555 0.668445 0.941555
0.139347 0.682580 0.864653
0.246738 0.698189 0.880262
0.354129 0.713798 0.895871
0.461521 0.729406 0.911479
0.568744 0.744991 0.927064
0.668445 0.759482 0.941555
0.774964 0.774964 0.957036
0.866000 0.774964 0.957036
0.957036 0.774964 0.957036
0.139347 0.773617 0.864653
0.246738 0.789225 0.880262
0.354129 0.804834 0.895871
0.461521 0.820443 0.911479
0.568744 0.836027 0.927064
0.668445 0.850518 0.941555
0.774964 0.866000 0.957036
0.881482 0.881482 0.972518
0.972518 0.881482 0.972518
0.139347 0.864653 0.864653
0.246738 0.880262 0.880262
0.354129 0.895871 0.895871
0.461521 0.911479 0.911479
0.568744 0.927064 0.927064
0.668445 0.941555 0.941555
0.774964 0.957036 0.957036
0.881482 0.972518 0.972518
0.988000 0.988000 0.988000
