docs/luts/fuji_recipes/NEGAhi_VM_VintageK.cube
TITLE "Fujifilm Recipe: VM VintageK (NEGAhi)"
# FilmSim=NEGAhi HL=1 SH=0 Col=-4 WB=Auto WBR=3 WBB=-2
LUT_3D_SIZE 9
DOMAIN_MIN 0.0 0.0 0.0
DOMAIN_MAX 1.0 1.0 1.0
0.000000 0.000000 0.000000
0.086504 0.048658 0.048658
0.172861 0.097234 0.097234
0.259218 0.145810 0.145810
0.346279 0.194782 0.194782
0.435013 0.244695 0.244695
0.523747 0.294608 0.294608
0.612481 0.344520 0.344520
0.640000 0.360000 0.360000
0.045000 0.080000 0.045000
0.086504 0.083658 0.048658
0.172861 0.132234 0.097234
0.259218 0.180810 0.145810
0.346279 0.229782 0.194782
0.435013 0.279695 0.244695
0.523747 0.329608 0.294608
0.612481 0.379520 0.344520
0.640000 0.395000 0.360000
0.090000 0.160000 0.090000
0.127845 0.160000 0.090000
0.172861 0.167234 0.097234
0.259218 0.215810 0.145810
0.346279 0.264782 0.194782
0.435013 0.314695 0.244695
0.523747 0.364608 0.294608
0.612481 0.414520 0.344520
0.640000 0.430000 0.360000
0.135000 0.240000 0.135000
0.172845 0.240000 0.135000
0.210627 0.240000 0.135000
0.259218 0.250810 0.145810
0.346279 0.299782 0.194782
0.435013 0.349695 0.244695
0.523747 0.399608 0.294608
0.612481 0.449520 0.344520
0.640000 0.465000 0.360000
0.180000 0.320000 0.180000
0.217845 0.320000 0.180000
0.255627 0.320000 0.180000
0.293408 0.320000 0.180000
0.346279 0.334782 0.194782
0.435013 0.384695 0.244695
0.523747 0.434608 0.294608
0.612481 0.484520 0.344520
0.640000 0.500000 0.360000
0.226238 0.402202 0.226238
0.264084 0.402202 0.226238
0.301865 0.402202 0.226238
0.339646 0.402202 0.226238
0.377736 0.402202 0.226238
0.435013 0.420658 0.244695
0.523747 0.470571 0.294608
0.612481 0.520484 0.344520
0.640000 0.535963 0.360000
0.272477 0.484403 0.272477
0.310322 0.484403 0.272477
0.348103 0.484403 0.272477
0.385885 0.484403 0.272477
0.423974 0.484403 0.272477
0.462795 0.484403 0.272477
0.523747 0.506534 0.294608
0.612481 0.556447 0.344520
0.640000 0.571926 0.360000
0.318715 0.566605 0.318715
0.356560 0.566605 0.318715
0.394342 0.566605 0.318715
0.432123 0.566605 0.318715
0.470212 0.566605 0.318715
0.509033 0.566605 0.318715
0.547854 0.566605 0.318715
0.612481 0.592410 0.344520
0.640000 0.607890 0.360000
0.360000 0.640000 0.360000
0.397845 0.640000 0.360000
0.435627 0.640000 0.360000
0.473408 0.640000 0.360000
0.511497 0.640000 0.360000
0.550318 0.640000 0.360000
0.589139 0.640000 0.360000
0.627960 0.640000 0.360000
0.640000 0.640000 0.360000
0.042750 0.042750 0.076000
0.086504 0.048658 0.081908
0.172861 0.097234 0.130484
0.259218 0.145810 0.179060
0.346279 0.194782 0.228032
0.435013 0.244695 0.277945
0.523747 0.294608 0.327858
0.612481 0.344520 0.377770
0.640000 0.360000 0.393250
0.045000 0.080000 0.078250
0.129254 0.126408 0.124658
0.215611 0.174984 0.173234
0.301968 0.223560 0.221810
0.389029 0.272532 0.270782
0.477763 0.322445 0.320695
0.566497 0.372358 0.370608
0.655231 0.422270 0.420520
0.682750 0.437750 0.436000
0.090000 0.160000 0.123250
0.170595 0.202750 0.166000
0.215611 0.209984 0.173234
0.301968 0.258560 0.221810
0.389029 0.307532 0.270782
0.477763 0.357445 0.320695
0.566497 0.407358 0.370608
0.655231 0.457270 0.420520
0.682750 0.472750 0.436000
0.135000 0.240000 0.168250
0.215595 0.282750 0.211000
0.253377 0.282750 0.211000
0.301968 0.293560 0.221810
0.389029 0.342532 0.270782
0.477763 0.392445 0.320695
0.566497 0.442358 0.370608
0.655231 0.492270 0.420520
0.682750 0.507750 0.436000
0.180000 0.320000 0.213250
0.260595 0.362750 0.256000
0.298377 0.362750 0.256000
0.336158 0.362750 0.256000
0.389029 0.377532 0.270782
0.477763 0.427445 0.320695
0.566497 0.477358 0.370608
0.655231 0.527270 0.420520
0.682750 0.542750 0.436000
0.226238 0.402202 0.259488
0.306834 0.444952 0.302238
0.344615 0.444952 0.302238
0.382396 0.444952 0.302238
0.420486 0.444952 0.302238
0.477763 0.463408 0.320695
0.566497 0.513321 0.370608
0.655231 0.563234 0.420520
0.682750 0.578713 0.436000
0.272477 0.484403 0.305727
0.353072 0.527153 0.348477
0.390853 0.527153 0.348477
0.428635 0.527153 0.348477
0.466724 0.527153 0.348477
0.505545 0.527153 0.348477
0.566497 0.549284 0.370608
0.655231 0.599197 0.420520
0.682750 0.614676 0.436000
0.318715 0.566605 0.351965
0.399310 0.609355 0.394715
0.437092 0.609355 0.394715
0.474873 0.609355 0.394715
0.512962 0.609355 0.394715
0.551783 0.609355 0.394715
0.590604 0.609355 0.394715
0.655231 0.635160 0.420520
0.682750 0.650640 0.436000
0.360000 0.640000 0.393250
0.440595 0.682750 0.436000
0.478377 0.682750 0.436000
0.516158 0.682750 0.436000
0.554247 0.682750 0.436000
0.593068 0.682750 0.436000
0.631889 0.682750 0.436000
0.670710 0.682750 0.436000
0.682750 0.682750 0.436000
0.085500 0.085500 0.152000
0.123345 0.085500 0.152000
0.172861 0.097234 0.163734
0.259218 0.145810 0.212310
0.346279 0.194782 0.261282
0.435013 0.244695 0.311195
0.523747 0.294608 0.361108
0.612481 0.344520 0.411020
0.640000 0.360000 0.426500
0.085500 0.120500 0.152000
0.168345 0.165500 0.197000
0.217861 0.177234 0.208734
0.304218 0.225810 0.257310
0.391279 0.274782 0.306282
0.480013 0.324695 0.356195
0.568747 0.374608 0.406108
0.657481 0.424520 0.456020
0.685000 0.440000 0.471500
0.090000 0.160000 0.156500
0.176504 0.208658 0.205158
0.258361 0.252734 0.249234
0.344718 0.301310 0.297810
0.431779 0.350282 0.346782
0.520513 0.400195 0.396695
0.609247 0.450108 0.446608
0.697981 0.500020 0.496520
0.725500 0.515500 0.512000
0.135000 0.240000 0.201500
0.221504 0.288658 0.250158
0.296127 0.325500 0.287000
0.344718 0.336310 0.297810
0.431779 0.385282 0.346782
0.520513 0.435195 0.396695
0.609247 0.485108 0.446608
0.697981 0.535020 0.496520
0.725500 0.550500 0.512000
0.180000 0.320000 0.246500
0.266504 0.368658 0.295158
0.341127 0.405500 0.332000
0.378908 0.405500 0.332000
0.431779 0.420282 0.346782
0.520513 0.470195 0.396695
0.609247 0.520108 0.446608
0.697981 0.570020 0.496520
0.725500 0.585500 0.512000
0.226238 0.402202 0.292738
0.312742 0.450860 0.341397
0.387365 0.487702 0.378238
0.425146 0.487702 0.378238
0.463236 0.487702 0.378238
0.520513 0.506158 0.396695
0.609247 0.556071 0.446608
0.697981 0.605984 0.496520
0.725500 0.621463 0.512000
0.272477 0.484403 0.338977
0.358980 0.533061 0.387635
0.433603 0.569903 0.424477
0.471385 0.569903 0.424477
0.509474 0.569903 0.424477
0.548295 0.569903 0.424477
0.609247 0.592034 0.446608
0.697981 0.641947 0.496520
0.725500 0.657426 0.512000
0.318715 0.566605 0.385215
0.405219 0.615263 0.433873
0.479842 0.652105 0.470715
0.517623 0.652105 0.470715
0.555712 0.652105 0.470715
0.594533 0.652105 0.470715
0.633354 0.652105 0.470715
0.697981 0.677910 0.496520
0.725500 0.693390 0.512000
0.360000 0.640000 0.426500
0.446504 0.688658 0.475158
0.521127 0.725500 0.512000
0.558908 0.725500 0.512000
0.596997 0.725500 0.512000
0.635818 0.725500 0.512000
0.674639 0.725500 0.512000
0.713460 0.725500 0.512000
0.725500 0.725500 0.512000
0.128250 0.128250 0.228000
0.166095 0.128250 0.228000
0.203877 0.128250 0.228000
0.259218 0.145810 0.245560
0.346279 0.194782 0.294532
0.435013 0.244695 0.344445
0.523747 0.294608 0.394358
0.612481 0.344520 0.444270
0.640000 0.360000 0.459750
0.128250 0.163250 0.228000
0.211095 0.208250 0.273000
0.248877 0.208250 0.273000
0.304218 0.225810 0.290560
0.391279 0.274782 0.339532
0.480013 0.324695 0.389445
0.568747 0.374608 0.439358
0.657481 0.424520 0.489270
0.685000 0.440000 0.504750
0.128250 0.198250 0.228000
0.214754 0.246908 0.276658
0.293877 0.288250 0.318000
0.349218 0.305810 0.335560
0.436279 0.354782 0.384532
0.525013 0.404695 0.434445
0.613747 0.454608 0.484358
0.702481 0.504520 0.534270
0.730000 0.520000 0.549750
0.135000 0.240000 0.234750
0.221504 0.288658 0.283408
0.307861 0.337234 0.331984
0.387468 0.379060 0.373810
0.474529 0.428032 0.422782
0.563263 0.477945 0.472695
0.651997 0.527858 0.522608
0.740731 0.577770 0.572520
0.768250 0.593250 0.588000
0.180000 0.320000 0.279750
0.266504 0.368658 0.328408
0.352861 0.417234 0.376984
0.421658 0.448250 0.408000
0.474529 0.463032 0.422782
0.563263 0.512945 0.472695
0.651997 0.562858 0.522608
0.740731 0.612770 0.572520
0.768250 0.628250 0.588000
0.226238 0.402202 0.325988
0.312742 0.450860 0.374647
0.399099 0.499436 0.423223
0.467896 0.530452 0.454238
0.505986 0.530452 0.454238
0.563263 0.548908 0.472695
0.651997 0.598821 0.522608
0.740731 0.648734 0.572520
0.768250 0.664213 0.588000
0.272477 0.484403 0.372227
0.358980 0.533061 0.420885
0.445338 0.581637 0.469461
0.514135 0.612653 0.500477
0.552224 0.612653 0.500477
0.591045 0.612653 0.500477
0.651997 0.634784 0.522608
0.740731 0.684697 0.572520
0.768250 0.700176 0.588000
0.318715 0.566605 0.418465
0.405219 0.615263 0.467123
0.491576 0.663839 0.515699
0.560373 0.694855 0.546715
0.598462 0.694855 0.546715
0.637283 0.694855 0.546715
0.676104 0.694855 0.546715
0.740731 0.720660 0.572520
0.768250 0.736140 0.588000
0.360000 0.640000 0.459750
0.446504 0.688658 0.508408
0.532861 0.737234 0.556984
0.601658 0.768250 0.588000
0.639747 0.768250 0.588000
0.678568 0.768250 0.588000
0.717389 0.768250 0.588000
0.756210 0.768250 0.588000
0.768250 0.768250 0.588000
0.171000 0.171000 0.304000
0.208845 0.171000 0.304000
0.246627 0.171000 0.304000
0.284408 0.171000 0.304000
0.346279 0.194782 0.327782
0.435013 0.244695 0.377695
0.523747 0.294608 0.427608
0.612481 0.344520 0.477520
0.640000 0.360000 0.493000
0.171000 0.206000 0.304000
0.253845 0.251000 0.349000
0.291627 0.251000 0.349000
0.329408 0.251000 0.349000
0.391279 0.274782 0.372782
0.480013 0.324695 0.422695
0.568747 0.374608 0.472608
0.657481 0.424520 0.522520
0.685000 0.440000 0.538000
0.171000 0.241000 0.304000
0.257504 0.289658 0.352658
0.336627 0.331000 0.394000
0.374408 0.331000 0.394000
0.436279 0.354782 0.417782
0.525013 0.404695 0.467695
0.613747 0.454608 0.517608
0.702481 0.504520 0.567520
0.730000 0.520000 0.583000
0.171000 0.276000 0.304000
0.257504 0.324658 0.352658
0.343861 0.373234 0.401234
0.419408 0.411000 0.439000
0.481279 0.434782 0.462782
0.570013 0.484695 0.512695
0.658747 0.534608 0.562608
0.747481 0.584520 0.612520
0.775000 0.600000 0.628000
0.180000 0.320000 0.313000
0.266504 0.368658 0.361658
0.352861 0.417234 0.410234
0.439218 0.465810 0.458810
0.517279 0.505782 0.498782
0.606013 0.555695 0.548695
0.694747 0.605608 0.598608
0.783481 0.655520 0.648520
0.811000 0.671000 0.664000
0.226238 0.402202 0.359238
0.312742 0.450860 0.407897
0.399099 0.499436 0.456473
0.485457 0.548012 0.505049
0.548736 0.573202 0.530238
0.606013 0.591658 0.548695
0.694747 0.641571 0.598608
0.783481 0.691484 0.648520
0.811000 0.706963 0.664000
0.272477 0.484403 0.405477
0.358980 0.533061 0.454135
0.445338 0.581637 0.502711
0.531695 0.630213 0.551287
0.594974 0.655403 0.576477
0.633795 0.655403 0.576477
0.694747 0.677534 0.598608
0.783481 0.727447 0.648520
0.811000 0.742926 0.664000
0.318715 0.566605 0.451715
0.405219 0.615263 0.500373
0.491576 0.663839 0.548949
0.577933 0.712415 0.597525
0.641212 0.737605 0.622715
0.680033 0.737605 0.622715
0.718854 0.737605 0.622715
0.783481 0.763410 0.648520
0.811000 0.778890 0.664000
0.360000 0.640000 0.493000
0.446504 0.688658 0.541658
0.532861 0.737234 0.590234
0.619218 0.785810 0.638810
0.682497 0.811000 0.664000
0.721318 0.811000 0.664000
0.760139 0.811000 0.664000
0.798960 0.811000 0.664000
0.811000 0.811000 0.664000
0.214679 0.214679 0.381651
0.252524 0.214679 0.381651
0.290305 0.214679 0.381651
0.328087 0.214679 0.381651
0.366176 0.214679 0.381651
0.435013 0.244695 0.411667
0.523747 0.294608 0.461580
0.612481 0.344520 0.511493
0.640000 0.360000 0.526972
0.214679 0.249679 0.381651
0.297524 0.294679 0.426651
0.335305 0.294679 0.426651
0.373087 0.294679 0.426651
0.411176 0.294679 0.426651
0.480013 0.324695 0.456667
0.568747 0.374608 0.506580
0.657481 0.424520 0.556493
0.685000 0.440000 0.571972
0.214679 0.284679 0.381651
0.301182 0.333337 0.430309
0.380305 0.374679 0.471651
0.418087 0.374679 0.471651
0.456176 0.374679 0.471651
0.525013 0.404695 0.501667
0.613747 0.454608 0.551580
0.702481 0.504520 0.601493
0.730000 0.520000 0.616972
0.214679 0.319679 0.381651
0.301182 0.368337 0.430309
0.387540 0.416913 0.478885
0.463087 0.454679 0.516651
0.501176 0.454679 0.516651
0.570013 0.484695 0.546667
0.658747 0.534608 0.596580
0.747481 0.584520 0.646493
0.775000 0.600000 0.661972
0.214679 0.354679 0.381651
0.301182 0.403337 0.430309
0.387540 0.451913 0.478885
0.473897 0.500489 0.527461
0.546176 0.534679 0.561651
0.615013 0.564695 0.591667
0.703747 0.614608 0.641580
0.792481 0.664520 0.691493
0.820000 0.680000 0.706972
0.226238 0.402202 0.393211
0.312742 0.450860 0.441869
0.399099 0.499436 0.490445
0.485457 0.548012 0.539021
0.572518 0.596984 0.587993
0.649692 0.635337 0.626346
0.738426 0.685250 0.676259
0.827160 0.735162 0.726172
0.854679 0.750642 0.741651
0.272477 0.484403 0.439449
0.358980 0.533061 0.488107
0.445338 0.581637 0.536683
0.531695 0.630213 0.585259
0.618756 0.679185 0.634231
0.677474 0.699082 0.654128
0.738426 0.721213 0.676259
0.827160 0.771126 0.726172
0.854679 0.786605 0.741651
0.318715 0.566605 0.485688
0.405219 0.615263 0.534346
0.491576 0.663839 0.582922
0.577933 0.712415 0.631498
0.664994 0.761387 0.680470
0.723712 0.781284 0.700366
0.762533 0.781284 0.700366
0.827160 0.807089 0.726172
0.854679 0.822568 0.741651
0.360000 0.640000 0.526972
0.446504 0.688658 0.575631
0.532861 0.737234 0.624207
0.619218 0.785810 0.672783
0.706279 0.834782 0.721754
0.764997 0.854679 0.741651
0.803818 0.854679 0.741651
0.842639 0.854679 0.741651
0.854679 0.854679 0.741651
0.258605 0.258605 0.459743
0.296451 0.258605 0.459743
0.334232 0.258605 0.459743
0.372013 0.258605 0.459743
0.410102 0.258605 0.459743
0.448924 0.258605 0.459743
0.523747 0.294608 0.495745
0.612481 0.344520 0.545658
0.640000 0.360000 0.561137
0.258605 0.293605 0.459743
0.341451 0.338605 0.504743
0.379232 0.338605 0.504743
0.417013 0.338605 0.504743
0.455102 0.338605 0.504743
0.493924 0.338605 0.504743
0.568747 0.374608 0.540745
0.657481 0.424520 0.590658
0.685000 0.440000 0.606137
0.258605 0.328605 0.459743
0.345109 0.377264 0.508401
0.424232 0.418605 0.549743
0.462013 0.418605 0.549743
0.500102 0.418605 0.549743
0.538924 0.418605 0.549743
0.613747 0.454608 0.585745
0.702481 0.504520 0.635658
0.730000 0.520000 0.651137
0.258605 0.363605 0.459743
0.345109 0.412264 0.508401
0.431466 0.460839 0.556977
0.507013 0.498605 0.594743
0.545102 0.498605 0.594743
0.583924 0.498605 0.594743
0.658747 0.534608 0.630745
0.747481 0.584520 0.680658
0.775000 0.600000 0.696137
0.258605 0.398605 0.459743
0.345109 0.447264 0.508401
0.431466 0.495839 0.556977
0.517823 0.544415 0.605553
0.590102 0.578605 0.639743
0.628924 0.578605 0.639743
0.703747 0.614608 0.675745
0.792481 0.664520 0.725658
0.820000 0.680000 0.741137
0.258605 0.434568 0.459743
0.345109 0.483227 0.508401
0.431466 0.531803 0.556977
0.517823 0.580379 0.605553
0.604885 0.629351 0.654525
0.675162 0.660807 0.685981
0.749985 0.696809 0.721983
0.838719 0.746722 0.771896
0.866238 0.762202 0.787376
0.272477 0.484403 0.473614
0.358980 0.533061 0.522272
0.445338 0.581637 0.570848
0.531695 0.630213 0.619424
0.618756 0.679185 0.668396
0.707490 0.729098 0.718309
0.782352 0.765139 0.754350
0.871086 0.815052 0.804263
0.898605 0.830532 0.819743
0.318715 0.566605 0.519853
0.405219 0.615263 0.568511
0.491576 0.663839 0.617087
0.577933 0.712415 0.665663
0.664994 0.761387 0.714635
0.753728 0.811300 0.764548
0.806460 0.825210 0.778458
0.871086 0.851015 0.804263
0.898605 0.866495 0.819743
0.360000 0.640000 0.561137
0.446504 0.688658 0.609796
0.532861 0.737234 0.658372
0.619218 0.785810 0.706948
0.706279 0.834782 0.755920
0.795013 0.884695 0.805832
0.847745 0.898605 0.819743
0.886566 0.898605 0.819743
0.898605 0.898605 0.819743
0.302532 0.302532 0.537834
0.340377 0.302532 0.537834
0.378158 0.302532 0.537834
0.415940 0.302532 0.537834
0.454029 0.302532 0.537834
0.492850 0.302532 0.537834
0.531671 0.302532 0.537834
0.612481 0.344520 0.579823
0.640000 0.360000 0.595302
0.302532 0.337532 0.537834
0.385377 0.382532 0.582834
0.423158 0.382532 0.582834
0.460940 0.382532 0.582834
0.499029 0.382532 0.582834
0.537850 0.382532 0.582834
0.576671 0.382532 0.582834
0.657481 0.424520 0.624823
0.685000 0.440000 0.640302
0.302532 0.372532 0.537834
0.389035 0.421190 0.586492
0.468158 0.462532 0.627834
0.505940 0.462532 0.627834
0.544029 0.462532 0.627834
0.582850 0.462532 0.627834
0.621671 0.462532 0.627834
0.702481 0.504520 0.669823
0.730000 0.520000 0.685302
0.302532 0.407532 0.537834
0.389035 0.456190 0.586492
0.475393 0.504766 0.635068
0.550940 0.542532 0.672834
0.589029 0.542532 0.672834
0.627850 0.542532 0.672834
0.666671 0.542532 0.672834
0.747481 0.584520 0.714823
0.775000 0.600000 0.730302
0.302532 0.442532 0.537834
0.389035 0.491190 0.586492
0.475393 0.539766 0.635068
0.561750 0.588342 0.683644
0.634029 0.622532 0.717834
0.672850 0.622532 0.717834
0.711671 0.622532 0.717834
0.792481 0.664520 0.759823
0.820000 0.680000 0.775302
0.302532 0.478495 0.537834
0.389035 0.527153 0.586492
0.475393 0.575729 0.635068
0.561750 0.624305 0.683644
0.648811 0.673277 0.732616
0.719088 0.704733 0.764073
0.757909 0.704733 0.764073
0.838719 0.746722 0.806061
0.866238 0.762202 0.821541
0.302532 0.514458 0.537834
0.389035 0.563116 0.586492
0.475393 0.611692 0.635068
0.561750 0.660268 0.683644
0.648811 0.709240 0.732616
0.737545 0.759153 0.782529
0.804148 0.786935 0.810311
0.884958 0.828924 0.852300
0.912477 0.844403 0.867779
0.318715 0.566605 0.554018
0.405219 0.615263 0.602676
0.491576 0.663839 0.651252
0.577933 0.712415 0.699828
0.664994 0.761387 0.748800
0.753728 0.811300 0.798713
0.842462 0.861212 0.848625
0.915013 0.894942 0.882355
0.942532 0.910421 0.897834
0.360000 0.640000 0.595302
0.446504 0.688658 0.643961
0.532861 0.737234 0.692537
0.619218 0.785810 0.741113
0.706279 0.834782 0.790085
0.795013 0.884695 0.839997
0.883747 0.934608 0.889910
0.930492 0.942532 0.897834
0.942532 0.942532 0.897834
0.346458 0.346458 0.615926
0.384304 0.346458 0.615926
0.422085 0.346458 0.615926
0.459866 0.346458 0.615926
0.497955 0.346458 0.615926
0.536776 0.346458 0.615926
0.575598 0.346458 0.615926
0.614419 0.346458 0.615926
0.640000 0.360000 0.629468
0.346458 0.381458 0.615926
0.429304 0.426458 0.660926
0.467085 0.426458 0.660926
0.504866 0.426458 0.660926
0.542955 0.426458 0.660926
0.581776 0.426458 0.660926
0.620598 0.426458 0.660926
0.659419 0.426458 0.660926
0.685000 0.440000 0.674468
0.346458 0.416458 0.615926
0.432962 0.465116 0.664584
0.512085 0.506458 0.705926
0.549866 0.506458 0.705926
0.587955 0.506458 0.705926
0.626776 0.506458 0.705926
0.665598 0.506458 0.705926
0.704419 0.506458 0.705926
0.730000 0.520000 0.719468
0.346458 0.451458 0.615926
0.432962 0.500116 0.664584
0.519319 0.548692 0.713160
0.594866 0.586458 0.750926
0.632955 0.586458 0.750926
0.671776 0.586458 0.750926
0.710598 0.586458 0.750926
0.749419 0.586458 0.750926
0.775000 0.600000 0.764468
0.346458 0.486458 0.615926
0.432962 0.535116 0.664584
0.519319 0.583692 0.713160
0.605676 0.632268 0.761736
0.677955 0.666458 0.795926
0.716776 0.666458 0.795926
0.755598 0.666458 0.795926
0.794419 0.666458 0.795926
0.820000 0.680000 0.809468
0.346458 0.522421 0.615926
0.432962 0.571080 0.664584
0.519319 0.619656 0.713160
0.605676 0.668232 0.761736
0.692737 0.717204 0.810708
0.763015 0.748660 0.842164
0.801836 0.748660 0.842164
0.840657 0.748660 0.842164
0.866238 0.762202 0.855706
0.346458 0.558385 0.615926
0.432962 0.607043 0.664584
0.519319 0.655619 0.713160
0.605676 0.704195 0.761736
0.692737 0.753167 0.810708
0.781471 0.803080 0.860621
0.848074 0.830861 0.888403
0.886895 0.830861 0.888403
0.912477 0.844403 0.901944
0.346458 0.594348 0.615926
0.432962 0.643006 0.664584
0.519319 0.691582 0.713160
0.605676 0.740158 0.761736
0.692737 0.789130 0.810708
0.781471 0.839043 0.860621
0.870205 0.888955 0.910533
0.933134 0.913063 0.934641
0.958715 0.926605 0.948183
0.360000 0.640000 0.629468
0.446504 0.688658 0.678126
0.532861 0.737234 0.726702
0.619218 0.785810 0.775278
0.706279 0.834782 0.824250
0.795013 0.884695 0.874162
0.883747 0.934608 0.924075
0.972481 0.984520 0.973988
0.986458 0.986458 0.975926
