docs/luts/fuji_recipes/NEGA_RR_Aged_Color.cube
TITLE "Fujifilm Recipe: RR Aged Color (NEGA)"
# FilmSim=NEGA HL=2 SH=3 Col=4 WB=Auto WBR=5 WBB=-3
LUT_3D_SIZE 33
DOMAIN_MIN 0.0 0.0 0.0
DOMAIN_MAX 1.0 1.0 1.0
0.014080 0.014080 0.014080
0.063161 0.003266 0.003266
0.100491 0.000000 0.000000
0.133978 0.000000 0.000000
0.167464 0.000000 0.000000
0.200951 0.000000 0.000000
0.234438 0.000000 0.000000
0.267924 0.000000 0.000000
0.301411 0.000000 0.000000
0.334898 0.000000 0.000000
0.368384 0.000000 0.000000
0.401871 0.000000 0.000000
0.435358 0.000000 0.000000
0.461742 0.000000 0.000000
0.559472 0.000000 0.000000
0.599895 0.000000 0.000000
0.640319 0.000000 0.000000
0.680742 0.000000 0.000000
0.721166 0.000000 0.000000
0.761589 0.000000 0.000000
0.802013 0.000000 0.000000
0.842436 0.000000 0.000000
0.882860 0.000000 0.000000
0.923283 0.000000 0.000000
0.963707 0.000000 0.000000
1.000000 0.004130 0.004130
1.000000 0.032372 0.032372
1.000000 0.032372 0.032372
1.000000 0.032372 0.032372
1.000000 0.032372 0.032372
1.000000 0.032372 0.032372
1.000000 0.032372 0.032372
1.000000 0.032372 0.032372
0.004467 0.057707 0.004467
0.063161 0.056506 0.003266
0.100491 0.047257 0.000000
0.133978 0.043067 0.000000
0.167464 0.040891 0.000000
0.200951 0.039558 0.000000
0.234438 0.038658 0.000000
0.267924 0.038010 0.000000
0.301411 0.037520 0.000000
0.334898 0.037138 0.000000
0.368384 0.036830 0.000000
0.401871 0.036578 0.000000
0.435358 0.036367 0.000000
0.461742 0.036224 0.000000
0.559472 0.035393 0.000000
0.599895 0.035253 0.000000
0.640319 0.035131 0.000000
0.680742 0.035025 0.000000
0.721166 0.034932 0.000000
0.761589 0.034848 0.000000
0.802013 0.034774 0.000000
0.842436 0.034706 0.000000
0.882860 0.034646 0.000000
0.923283 0.034590 0.000000
0.963707 0.034540 0.000000
1.000000 0.038340 0.004130
1.000000 0.064674 0.032372
1.000000 0.064674 0.032372
1.000000 0.064674 0.032372
1.000000 0.064674 0.032372
1.000000 0.064674 0.032372
1.000000 0.064674 0.032372
1.000000 0.064674 0.032372
0.000000 0.092454 0.000000
0.055027 0.092454 0.000000
0.100491 0.089325 0.000000
0.133978 0.081404 0.000000
0.167464 0.077291 0.000000
0.200951 0.074772 0.000000
0.234438 0.073071 0.000000
0.267924 0.071846 0.000000
0.301411 0.070920 0.000000
0.334898 0.070197 0.000000
0.368384 0.069616 0.000000
0.401871 0.069139 0.000000
0.435358 0.068741 0.000000
0.461742 0.068470 0.000000
0.559472 0.066899 0.000000
0.599895 0.066634 0.000000
0.640319 0.066405 0.000000
0.680742 0.066204 0.000000
0.721166 0.066027 0.000000
0.761589 0.065870 0.000000
0.802013 0.065729 0.000000
0.842436 0.065602 0.000000
0.882860 0.065487 0.000000
0.923283 0.065382 0.000000
0.963707 0.065287 0.000000
1.000000 0.068793 0.004130
1.000000 0.093429 0.032372
1.000000 0.093429 0.032372
1.000000 0.093429 0.032372
1.000000 0.093429 0.032372
1.000000 0.093429 0.032372
1.000000 0.093429 0.032372
1.000000 0.093429 0.032372
0.000000 0.122220 0.000000
0.049723 0.122220 0.000000
0.093986 0.122220 0.000000
0.133978 0.119091 0.000000
0.167464 0.113074 0.000000
0.200951 0.109389 0.000000
0.234438 0.106901 0.000000
0.267924 0.105107 0.000000
0.301411 0.103754 0.000000
0.334898 0.102695 0.000000
0.368384 0.101845 0.000000
0.401871 0.101148 0.000000
0.435358 0.100565 0.000000
0.461742 0.100169 0.000000
0.559472 0.097870 0.000000
0.599895 0.097484 0.000000
0.640319 0.097148 0.000000
0.680742 0.096855 0.000000
0.721166 0.096595 0.000000
0.761589 0.096365 0.000000
0.802013 0.096159 0.000000
0.842436 0.095973 0.000000
0.882860 0.095805 0.000000
0.923283 0.095652 0.000000
0.963707 0.095512 0.000000
1.000000 0.098729 0.004130
1.000000 0.121696 0.032372
1.000000 0.121696 0.032372
1.000000 0.121696 0.032372
1.000000 0.121696 0.032372
1.000000 0.121696 0.032372
1.000000 0.121696 0.032372
1.000000 0.121696 0.032372
0.000000 0.151986 0.000000
0.046969 0.151986 0.000000
0.088780 0.151986 0.000000
0.129882 0.151986 0.000000
0.167464 0.148857 0.000000
0.200951 0.144006 0.000000
0.234438 0.140730 0.000000
0.267924 0.138369 0.000000
0.301411 0.136587 0.000000
0.334898 0.135194 0.000000
0.368384 0.134075 0.000000
0.401871 0.133157 0.000000
0.435358 0.132389 0.000000
0.461742 0.131868 0.000000
0.559472 0.128842 0.000000
0.599895 0.128333 0.000000
0.640319 0.127891 0.000000
0.680742 0.127505 0.000000
0.721166 0.127164 0.000000
0.761589 0.126860 0.000000
0.802013 0.126589 0.000000
0.842436 0.126344 0.000000
0.882860 0.126123 0.000000
0.923283 0.125921 0.000000
0.963707 0.125738 0.000000
1.000000 0.128666 0.004130
1.000000 0.149963 0.032372
1.000000 0.149963 0.032372
1.000000 0.149963 0.032372
1.000000 0.149963 0.032372
1.000000 0.149963 0.032372
1.000000 0.149963 0.032372
1.000000 0.149963 0.032372
0.000000 0.181752 0.000000
0.045283 0.181752 0.000000
0.085592 0.181752 0.000000
0.125219 0.181752 0.000000
0.164845 0.181752 0.000000
0.200951 0.178623 0.000000
0.234438 0.174560 0.000000
0.267924 0.171631 0.000000
0.301411 0.169421 0.000000
0.334898 0.167693 0.000000
0.368384 0.166305 0.000000
0.401871 0.165166 0.000000
0.435358 0.164214 0.000000
0.461742 0.163567 0.000000
0.559472 0.159813 0.000000
0.599895 0.159182 0.000000
0.640319 0.158634 0.000000
0.680742 0.158155 0.000000
0.721166 0.157732 0.000000
0.761589 0.157355 0.000000
0.802013 0.157019 0.000000
0.842436 0.156715 0.000000
0.882860 0.156441 0.000000
0.923283 0.156191 0.000000
0.963707 0.155963 0.000000
1.000000 0.158603 0.004130
1.000000 0.178230 0.032372
1.000000 0.178230 0.032372
1.000000 0.178230 0.032372
1.000000 0.178230 0.032372
1.000000 0.178230 0.032372
1.000000 0.178230 0.032372
1.000000 0.178230 0.032372
0.000000 0.211518 0.000000
0.044144 0.211518 0.000000
0.083440 0.211518 0.000000
0.122069 0.211518 0.000000
0.160699 0.211518 0.000000
0.199328 0.211518 0.000000
0.234438 0.208389 0.000000
0.267924 0.204893 0.000000
0.301411 0.202254 0.000000
0.334898 0.200191 0.000000
0.368384 0.198534 0.000000
0.401871 0.197174 0.000000
0.435358 0.196038 0.000000
0.461742 0.195267 0.000000
0.559472 0.190785 0.000000
0.599895 0.190031 0.000000
0.640319 0.189378 0.000000
0.680742 0.188805 0.000000
0.721166 0.188300 0.000000
0.761589 0.187851 0.000000
0.802013 0.187448 0.000000
0.842436 0.187086 0.000000
0.882860 0.186759 0.000000
0.923283 0.186461 0.000000
0.963707 0.186188 0.000000
1.000000 0.188539 0.004130
1.000000 0.206498 0.032372
1.000000 0.206498 0.032372
1.000000 0.206498 0.032372
1.000000 0.206498 0.032372
1.000000 0.206498 0.032372
1.000000 0.206498 0.032372
1.000000 0.206498 0.032372
0.000000 0.241284 0.000000
0.043323 0.241284 0.000000
0.081888 0.241284 0.000000
0.119799 0.241284 0.000000
0.157711 0.241284 0.000000
0.195622 0.241284 0.000000
0.233533 0.241284 0.000000
0.267924 0.238155 0.000000
0.301411 0.235087 0.000000
0.334898 0.232690 0.000000
0.368384 0.230764 0.000000
0.401871 0.229183 0.000000
0.435358 0.227863 0.000000
0.461742 0.226966 0.000000
0.559472 0.221757 0.000000
0.599895 0.220881 0.000000
0.640319 0.220121 0.000000
0.680742 0.219456 0.000000
0.721166 0.218868 0.000000
0.761589 0.218346 0.000000
0.802013 0.217878 0.000000
0.842436 0.217458 0.000000
0.882860 0.217077 0.000000
0.923283 0.216730 0.000000
0.963707 0.216414 0.000000
1.000000 0.218476 0.004130
1.000000 0.234765 0.032372
1.000000 0.234765 0.032372
1.000000 0.234765 0.032372
1.000000 0.234765 0.032372
1.000000 0.234765 0.032372
1.000000 0.234765 0.032372
1.000000 0.234765 0.032372
0.000000 0.271050 0.000000
0.042703 0.271050 0.000000
0.080717 0.271050 0.000000
0.118086 0.271050 0.000000
0.155455 0.271050 0.000000
0.192824 0.271050 0.000000
0.230193 0.271050 0.000000
0.267562 0.271050 0.000000
0.301411 0.267921 0.000000
0.334898 0.265188 0.000000
0.368384 0.262994 0.000000
0.401871 0.261192 0.000000
0.435358 0.259687 0.000000
0.461742 0.258665 0.000000
0.559472 0.252728 0.000000
0.599895 0.251730 0.000000
0.640319 0.250864 0.000000
0.680742 0.250106 0.000000
0.721166 0.249436 0.000000
0.761589 0.248841 0.000000
0.802013 0.248308 0.000000
0.842436 0.247829 0.000000
0.882860 0.247395 0.000000
0.923283 0.247000 0.000000
0.963707 0.246639 0.000000
1.000000 0.248412 0.004130
1.000000 0.263032 0.032372
1.000000 0.263032 0.032372
1.000000 0.263032 0.032372
1.000000 0.263032 0.032372
1.000000 0.263032 0.032372
1.000000 0.263032 0.032372
1.000000 0.263032 0.032372
0.000000 0.300816 0.000000
0.042219 0.300816 0.000000
0.079801 0.300816 0.000000
0.116747 0.300816 0.000000
0.153692 0.300816 0.000000
0.190637 0.300816 0.000000
0.227582 0.300816 0.000000
0.264527 0.300816 0.000000
0.301411 0.300754 0.000000
0.334898 0.297687 0.000000
0.368384 0.295223 0.000000
0.401871 0.293201 0.000000
0.435358 0.291511 0.000000
0.461742 0.290364 0.000000
0.559472 0.283700 0.000000
0.599895 0.282579 0.000000
0.640319 0.281607 0.000000
0.680742 0.280756 0.000000
0.721166 0.280005 0.000000
0.761589 0.279336 0.000000
0.802013 0.278738 0.000000
0.842436 0.278200 0.000000
0.882860 0.277712 0.000000
0.923283 0.277269 0.000000
0.963707 0.276864 0.000000
1.000000 0.278349 0.004130
1.000000 0.291299 0.032372
1.000000 0.291299 0.032372
1.000000 0.291299 0.032372
1.000000 0.291299 0.032372
1.000000 0.291299 0.032372
1.000000 0.291299 0.032372
1.000000 0.291299 0.032372
0.000000 0.330582 0.000000
0.041830 0.330582 0.000000
0.079066 0.330582 0.000000
0.115671 0.330582 0.000000
0.152276 0.330582 0.000000
0.188881 0.330582 0.000000
0.225485 0.330582 0.000000
0.262090 0.330582 0.000000
0.298695 0.330582 0.000000
0.334898 0.330185 0.000000
0.368384 0.327453 0.000000
0.401871 0.325210 0.000000
0.435358 0.323336 0.000000
0.461742 0.322063 0.000000
0.559472 0.314671 0.000000
0.599895 0.313428 0.000000
0.640319 0.312350 0.000000
0.680742 0.311406 0.000000
0.721166 0.310573 0.000000
0.761589 0.309832 0.000000
0.802013 0.309168 0.000000
0.842436 0.308571 0.000000
0.882860 0.308030 0.000000
0.923283 0.307539 0.000000
0.963707 0.307090 0.000000
1.000000 0.308285 0.004130
1.000000 0.319566 0.032372
1.000000 0.319566 0.032372
1.000000 0.319566 0.032372
1.000000 0.319566 0.032372
1.000000 0.319566 0.032372
1.000000 0.319566 0.032372
1.000000 0.319566 0.032372
0.000000 0.360348 0.000000
0.041511 0.360348 0.000000
0.078463 0.360348 0.000000
0.114788 0.360348 0.000000
0.151113 0.360348 0.000000
0.187439 0.360348 0.000000
0.223764 0.360348 0.000000
0.260090 0.360348 0.000000
0.296415 0.360348 0.000000
0.332740 0.360348 0.000000
0.368384 0.359682 0.000000
0.401871 0.357219 0.000000
0.435358 0.355160 0.000000
0.461742 0.353762 0.000000
0.559472 0.345643 0.000000
0.599895 0.344278 0.000000
0.640319 0.343093 0.000000
0.680742 0.342056 0.000000
0.721166 0.341141 0.000000
0.761589 0.340327 0.000000
0.802013 0.339598 0.000000
0.842436 0.338942 0.000000
0.882860 0.338348 0.000000
0.923283 0.337808 0.000000
0.963707 0.337315 0.000000
1.000000 0.338222 0.004130
1.000000 0.347833 0.032372
1.000000 0.347833 0.032372
1.000000 0.347833 0.032372
1.000000 0.347833 0.032372
1.000000 0.347833 0.032372
1.000000 0.347833 0.032372
1.000000 0.347833 0.032372
0.000000 0.390114 0.000000
0.041244 0.390114 0.000000
0.077958 0.390114 0.000000
0.114050 0.390114 0.000000
0.150142 0.390114 0.000000
0.186234 0.390114 0.000000
0.222326 0.390114 0.000000
0.258418 0.390114 0.000000
0.294510 0.390114 0.000000
0.330602 0.390114 0.000000
0.366694 0.390114 0.000000
0.401871 0.389228 0.000000
0.435358 0.386985 0.000000
0.461742 0.385462 0.000000
0.559472 0.376615 0.000000
0.599895 0.375127 0.000000
0.640319 0.373836 0.000000
0.680742 0.372707 0.000000
0.721166 0.371709 0.000000
0.761589 0.370822 0.000000
0.802013 0.370028 0.000000
0.842436 0.369313 0.000000
0.882860 0.368666 0.000000
0.923283 0.368078 0.000000
0.963707 0.367541 0.000000
1.000000 0.368159 0.004130
1.000000 0.376100 0.032372
1.000000 0.376100 0.032372
1.000000 0.376100 0.032372
1.000000 0.376100 0.032372
1.000000 0.376100 0.032372
1.000000 0.376100 0.032372
1.000000 0.376100 0.032372
0.000000 0.419879 0.000000
0.041018 0.419879 0.000000
0.077531 0.419879 0.000000
0.113425 0.419879 0.000000
0.149319 0.419879 0.000000
0.185213 0.419879 0.000000
0.221107 0.419879 0.000000
0.257001 0.419879 0.000000
0.292895 0.419879 0.000000
0.328789 0.419879 0.000000
0.364683 0.419879 0.000000
0.400576 0.419879 0.000000
0.435358 0.418809 0.000000
0.461742 0.417161 0.000000
0.559472 0.407586 0.000000
0.599895 0.405976 0.000000
0.640319 0.404580 0.000000
0.680742 0.403357 0.000000
0.721166 0.402277 0.000000
0.761589 0.401318 0.000000
0.802013 0.400458 0.000000
0.842436 0.399685 0.000000
0.882860 0.398984 0.000000
0.923283 0.398348 0.000000
0.963707 0.397766 0.000000
1.000000 0.398095 0.004130
1.000000 0.404368 0.032372
1.000000 0.404368 0.032372
1.000000 0.404368 0.032372
1.000000 0.404368 0.032372
1.000000 0.404368 0.032372
1.000000 0.404368 0.032372
1.000000 0.404368 0.032372
0.000000 0.449645 0.000000
0.040823 0.449645 0.000000
0.077164 0.449645 0.000000
0.112888 0.449645 0.000000
0.148612 0.449645 0.000000
0.184335 0.449645 0.000000
0.220059 0.449645 0.000000
0.255783 0.449645 0.000000
0.291507 0.449645 0.000000
0.327231 0.449645 0.000000
0.362955 0.449645 0.000000
0.398679 0.449645 0.000000
0.434403 0.449645 0.000000
0.461742 0.448860 0.000000
0.559472 0.438558 0.000000
0.599895 0.436825 0.000000
0.640319 0.435323 0.000000
0.680742 0.434007 0.000000
0.721166 0.432846 0.000000
0.761589 0.431813 0.000000
0.802013 0.430888 0.000000
0.842436 0.430056 0.000000
0.882860 0.429302 0.000000
0.923283 0.428617 0.000000
0.963707 0.427991 0.000000
1.000000 0.428032 0.004130
1.000000 0.432635 0.032372
1.000000 0.432635 0.032372
1.000000 0.432635 0.032372
1.000000 0.432635 0.032372
1.000000 0.432635 0.032372
1.000000 0.432635 0.032372
1.000000 0.432635 0.032372
0.000000 0.472223 0.000000
0.040693 0.472223 0.000000
0.076918 0.472223 0.000000
0.112528 0.472223 0.000000
0.148138 0.472223 0.000000
0.183749 0.472223 0.000000
0.219359 0.472223 0.000000
0.254969 0.472223 0.000000
0.290579 0.472223 0.000000
0.326189 0.472223 0.000000
0.361800 0.472223 0.000000
0.397410 0.472223 0.000000
0.433020 0.472223 0.000000
0.461077 0.472223 0.000000
0.559472 0.462049 0.000000
0.599895 0.528733 0.000000
0.640319 0.527300 0.000000
0.680742 0.526091 0.000000
0.721166 0.525066 0.000000
0.761589 0.524196 0.000000
0.802013 0.523455 0.000000
0.842436 0.522825 0.000000
0.882860 0.522289 0.000000
0.923283 0.521835 0.000000
0.963707 0.521452 0.000000
1.000000 0.520975 0.004130
1.000000 0.520642 0.032372
1.000000 0.520642 0.032372
1.000000 0.520642 0.032372
1.000000 0.520642 0.032372
1.000000 0.520642 0.032372
1.000000 0.520642 0.032372
1.000000 0.520642 0.032372
0.000000 0.567736 0.000000
0.039783 0.567736 0.000000
0.075196 0.567736 0.000000
0.110010 0.567736 0.000000
0.144823 0.567736 0.000000
0.179636 0.567736 0.000000
0.214449 0.567736 0.000000
0.249263 0.567736 0.000000
0.284076 0.567736 0.000000
0.318889 0.567736 0.000000
0.353702 0.567736 0.000000
0.388515 0.567736 0.000000
0.423329 0.567736 0.000000
0.450758 0.567736 0.000000
0.559072 0.567736 0.000000
0.599895 0.566286 0.000000
0.640319 0.564724 0.000000
0.680742 0.563401 0.000000
0.721166 0.562277 0.000000
0.761589 0.561318 0.000000
0.802013 0.560497 0.000000
0.842436 0.559795 0.000000
0.882860 0.559195 0.000000
0.923283 0.558682 0.000000
0.963707 0.558245 0.000000
1.000000 0.557416 0.004130
1.000000 0.555052 0.032372
1.000000 0.555052 0.032372
1.000000 0.555052 0.032372
1.000000 0.555052 0.032372
1.000000 0.555052 0.032372
1.000000 0.555052 0.032372
1.000000 0.555052 0.032372
0.000000 0.603668 0.000000
0.039646 0.603668 0.000000
0.074938 0.603668 0.000000
0.109631 0.603668 0.000000
0.144325 0.603668 0.000000
0.179019 0.603668 0.000000
0.213712 0.603668 0.000000
0.248406 0.603668 0.000000
0.283099 0.603668 0.000000
0.317793 0.603668 0.000000
0.352486 0.603668 0.000000
0.387180 0.603668 0.000000
0.421873 0.603668 0.000000
0.449208 0.603668 0.000000
0.557494 0.603668 0.000000
0.599727 0.603668 0.000000
0.640319 0.602147 0.000000
0.680742 0.600712 0.000000
0.721166 0.599487 0.000000
0.761589 0.598439 0.000000
0.802013 0.597540 0.000000
0.842436 0.596766 0.000000
0.882860 0.596101 0.000000
0.923283 0.595529 0.000000
0.963707 0.595039 0.000000
1.000000 0.593858 0.004130
1.000000 0.589461 0.032372
1.000000 0.589461 0.032372
1.000000 0.589461 0.032372
1.000000 0.589461 0.032372
1.000000 0.589461 0.032372
1.000000 0.589461 0.032372
1.000000 0.589461 0.032372
0.000000 0.639600 0.000000
0.039525 0.639600 0.000000
0.074710 0.639600 0.000000
0.109298 0.639600 0.000000
0.143886 0.639600 0.000000
0.178474 0.639600 0.000000
0.213062 0.639600 0.000000
0.247650 0.639600 0.000000
0.282238 0.639600 0.000000
0.316826 0.639600 0.000000
0.351414 0.639600 0.000000
0.386002 0.639600 0.000000
0.420590 0.639600 0.000000
0.447842 0.639600 0.000000
0.556141 0.639600 0.000000
0.598245 0.639600 0.000000
0.640319 0.639570 0.000000
0.680742 0.638022 0.000000
0.721166 0.636698 0.000000
0.761589 0.635561 0.000000
0.802013 0.634582 0.000000
0.842436 0.633737 0.000000
0.882860 0.633007 0.000000
0.923283 0.632376 0.000000
0.963707 0.631832 0.000000
1.000000 0.630300 0.004130
1.000000 0.623871 0.032372
1.000000 0.623871 0.032372
1.000000 0.623871 0.032372
1.000000 0.623871 0.032372
1.000000 0.623871 0.032372
1.000000 0.623871 0.032372
1.000000 0.623871 0.032372
0.000000 0.675532 0.000000
0.039418 0.675532 0.000000
0.074507 0.675532 0.000000
0.109002 0.675532 0.000000
0.143496 0.675532 0.000000
0.177990 0.675532 0.000000
0.212484 0.675532 0.000000
0.246979 0.675532 0.000000
0.281473 0.675532 0.000000
0.315967 0.675532 0.000000
0.350461 0.675532 0.000000
0.384956 0.675532 0.000000
0.419450 0.675532 0.000000
0.446628 0.675532 0.000000
0.554975 0.675532 0.000000
0.596965 0.675532 0.000000
0.638955 0.675532 0.000000
0.680742 0.675332 0.000000
0.721166 0.673908 0.000000
0.761589 0.672683 0.000000
0.802013 0.671624 0.000000
0.842436 0.670707 0.000000
0.882860 0.669913 0.000000
0.923283 0.669223 0.000000
0.963707 0.668625 0.000000
1.000000 0.666741 0.004130
1.000000 0.658280 0.032372
1.000000 0.658280 0.032372
1.000000 0.658280 0.032372
1.000000 0.658280 0.032372
1.000000 0.658280 0.032372
1.000000 0.658280 0.032372
1.000000 0.658280 0.032372
0.000000 0.711464 0.000000
0.039322 0.711464 0.000000
0.074326 0.711464 0.000000
0.108737 0.711464 0.000000
0.143147 0.711464 0.000000
0.177557 0.711464 0.000000
0.211968 0.711464 0.000000
0.246378 0.711464 0.000000
0.280789 0.711464 0.000000
0.315199 0.711464 0.000000
0.349609 0.711464 0.000000
0.384020 0.711464 0.000000
0.418430 0.711464 0.000000
0.445542 0.711464 0.000000
0.553967 0.711464 0.000000
0.595854 0.711464 0.000000
0.637742 0.711464 0.000000
0.679630 0.711464 0.000000
0.721166 0.711119 0.000000
0.761589 0.709804 0.000000
0.802013 0.708666 0.000000
0.842436 0.707678 0.000000
0.882860 0.706818 0.000000
0.923283 0.706070 0.000000
0.963707 0.705418 0.000000
1.000000 0.703183 0.004130
1.000000 0.692690 0.032372
1.000000 0.692690 0.032372
1.000000 0.692690 0.032372
1.000000 0.692690 0.032372
1.000000 0.692690 0.032372
1.000000 0.692690 0.032372
1.000000 0.692690 0.032372
0.000000 0.747396 0.000000
0.039236 0.747396 0.000000
0.074163 0.747396 0.000000
0.108498 0.747396 0.000000
0.142833 0.747396 0.000000
0.177168 0.747396 0.000000
0.211503 0.747396 0.000000
0.245838 0.747396 0.000000
0.280173 0.747396 0.000000
0.314508 0.747396 0.000000
0.348843 0.747396 0.000000
0.383178 0.747396 0.000000
0.417513 0.747396 0.000000
0.444565 0.747396 0.000000
0.553092 0.747396 0.000000
0.594888 0.747396 0.000000
0.636684 0.747396 0.000000
0.678480 0.747396 0.000000
0.720275 0.747396 0.000000
0.761589 0.746926 0.000000
0.802013 0.745709 0.000000
0.842436 0.744649 0.000000
0.882860 0.743724 0.000000
0.923283 0.742917 0.000000
0.963707 0.742211 0.000000
1.000000 0.739625 0.004130
1.000000 0.727099 0.032372
1.000000 0.727099 0.032372
1.000000 0.727099 0.032372
1.000000 0.727099 0.032372
1.000000 0.727099 0.032372
1.000000 0.727099 0.032372
1.000000 0.727099 0.032372
0.000000 0.783328 0.000000
0.039158 0.783328 0.000000
0.074016 0.783328 0.000000
0.108283 0.783328 0.000000
0.142549 0.783328 0.000000
0.176816 0.783328 0.000000
0.211083 0.783328 0.000000
0.245349 0.783328 0.000000
0.279616 0.783328 0.000000
0.313883 0.783328 0.000000
0.348149 0.783328 0.000000
0.382416 0.783328 0.000000
0.416683 0.783328 0.000000
0.443681 0.783328 0.000000
0.552333 0.783328 0.000000
0.594045 0.783328 0.000000
0.635758 0.783328 0.000000
0.677471 0.783328 0.000000
0.719183 0.783328 0.000000
0.760896 0.783328 0.000000
0.802013 0.782751 0.000000
0.842436 0.781619 0.000000
0.882860 0.780630 0.000000
0.923283 0.779764 0.000000
0.963707 0.779005 0.000000
1.000000 0.776066 0.004130
1.000000 0.761509 0.032372
1.000000 0.761509 0.032372
1.000000 0.761509 0.032372
1.000000 0.761509 0.032372
1.000000 0.761509 0.032372
1.000000 0.761509 0.032372
1.000000 0.761509 0.032372
0.000000 0.819260 0.000000
0.039087 0.819260 0.000000
0.073882 0.819260 0.000000
0.108087 0.819260 0.000000
0.142291 0.819260 0.000000
0.176496 0.819260 0.000000
0.210701 0.819260 0.000000
0.244905 0.819260 0.000000
0.279110 0.819260 0.000000
0.313315 0.819260 0.000000
0.347519 0.819260 0.000000
0.381724 0.819260 0.000000
0.415929 0.819260 0.000000
0.442878 0.819260 0.000000
0.551672 0.819260 0.000000
0.593309 0.819260 0.000000
0.634946 0.819260 0.000000
0.676583 0.819260 0.000000
0.718221 0.819260 0.000000
0.759858 0.819260 0.000000
0.801495 0.819260 0.000000
0.842436 0.818590 0.000000
0.882860 0.817536 0.000000
0.923283 0.816611 0.000000
0.963707 0.815798 0.000000
1.000000 0.812508 0.004130
1.000000 0.795918 0.032372
1.000000 0.795918 0.032372
1.000000 0.795918 0.032372
1.000000 0.795918 0.032372
1.000000 0.795918 0.032372
1.000000 0.795918 0.032372
1.000000 0.795918 0.032372
0.000000 0.855192 0.000000
0.039022 0.855192 0.000000
0.073760 0.855192 0.000000
0.107908 0.855192 0.000000
0.142056 0.855192 0.000000
0.176204 0.855192 0.000000
0.210352 0.855192 0.000000
0.244500 0.855192 0.000000
0.278648 0.855192 0.000000
0.312796 0.855192 0.000000
0.346944 0.855192 0.000000
0.381092 0.855192 0.000000
0.415240 0.855192 0.000000
0.509529 0.855192 0.000000
0.551097 0.855192 0.000000
0.592665 0.855192 0.000000
0.634234 0.855192 0.000000
0.675802 0.855192 0.000000
0.717370 0.855192 0.000000
0.758938 0.855192 0.000000
0.800507 0.855192 0.000000
0.842075 0.855192 0.000000
0.882860 0.854442 0.000000
0.923283 0.853458 0.000000
0.963707 0.852591 0.000000
1.000000 0.848949 0.004130
1.000000 0.830328 0.032372
1.000000 0.830328 0.032372
1.000000 0.830328 0.032372
1.000000 0.830328 0.032372
1.000000 0.830328 0.032372
1.000000 0.830328 0.032372
1.000000 0.830328 0.032372
0.000000 0.891124 0.000000
0.038963 0.891124 0.000000
0.073648 0.891124 0.000000
0.107744 0.891124 0.000000
0.141840 0.891124 0.000000
0.175936 0.891124 0.000000
0.210032 0.891124 0.000000
0.244128 0.891124 0.000000
0.278225 0.891124 0.000000
0.312321 0.891124 0.000000
0.346417 0.891124 0.000000
0.380513 0.891124 0.000000
0.414609 0.891124 0.000000
0.509093 0.891124 0.000000
0.550598 0.891124 0.000000
0.592103 0.891124 0.000000
0.633608 0.891124 0.000000
0.675113 0.891124 0.000000
0.716618 0.891124 0.000000
0.758123 0.891124 0.000000
0.799628 0.891124 0.000000
0.841133 0.891124 0.000000
0.882639 0.891124 0.000000
0.923283 0.890305 0.000000
0.963707 0.889384 0.000000
1.000000 0.885391 0.004130
1.000000 0.864737 0.032372
1.000000 0.864737 0.032372
1.000000 0.864737 0.032372
1.000000 0.864737 0.032372
1.000000 0.864737 0.032372
1.000000 0.864737 0.032372
1.000000 0.864737 0.032372
0.000000 0.927056 0.000000
0.038909 0.927056 0.000000
0.073545 0.927056 0.000000
0.107593 0.927056 0.000000
0.141641 0.927056 0.000000
0.175690 0.927056 0.000000
0.209738 0.927056 0.000000
0.243787 0.927056 0.000000
0.277835 0.927056 0.000000
0.311884 0.927056 0.000000
0.345932 0.927056 0.000000
0.379981 0.927056 0.000000
0.414029 0.927056 0.000000
0.508718 0.927056 0.000000
0.550165 0.927056 0.000000
0.591612 0.927056 0.000000
0.633059 0.927056 0.000000
0.674506 0.927056 0.000000
0.715953 0.927056 0.000000
0.757400 0.927056 0.000000
0.798847 0.927056 0.000000
0.840294 0.927056 0.000000
0.881741 0.927056 0.000000
0.923188 0.927056 0.000000
0.963707 0.926178 0.000000
