docs/luts/fuji_recipes/NEGA_PS_Pro_400H.cube
TITLE "Fujifilm Recipe: PS Pro 400H (NEGA)"
# FilmSim=NEGA HL=-2 SH=0 Col=1 WB=Auto WBR=1 WBB=-3
LUT_3D_SIZE 5
DOMAIN_MIN 0.0 0.0 0.0
DOMAIN_MAX 1.0 1.0 1.0
0.016000 0.016000 0.016000
0.384260 0.002895 0.002895
0.694021 0.000000 0.000000
0.950689 0.000000 0.000000
0.950689 0.000000 0.000000
0.003214 0.375278 0.003214
0.384260 0.374958 0.002895
0.694021 0.364334 0.000000
0.950689 0.360631 0.000000
0.950689 0.360631 0.000000
0.000000 0.679204 0.000000
0.373752 0.679204 0.000000
0.694021 0.678536 0.000000
0.950689 0.669849 0.000000
0.950689 0.669849 0.000000
0.000000 0.950689 0.000000
0.369647 0.950689 0.000000
0.685176 0.950689 0.000000
0.950689 0.950689 0.000000
0.950689 0.950689 0.000000
0.000000 0.950689 0.000000
0.369647 0.950689 0.000000
0.685176 0.950689 0.000000
0.950689 0.950689 0.000000
0.950689 0.950689 0.000000
0.004173 0.004173 0.348332
0.384260 0.002895 0.347053
0.694021 0.000000 0.337009
0.950689 0.000000 0.333584
0.950689 0.000000 0.333584
0.003214 0.375278 0.347373
0.372433 0.363131 0.335227
0.687669 0.353031 0.325126
0.952044 0.345324 0.317419
0.952044 0.345324 0.317419
0.000000 0.679204 0.337289
0.362777 0.672408 0.325571
0.687669 0.671856 0.325126
0.952044 0.662302 0.317419
0.952044 0.662302 0.317419
0.000000 0.950689 0.333584
0.354625 0.952044 0.317419
0.678115 0.952044 0.317419
0.952044 0.952044 0.317419
0.952044 0.952044 0.317419
0.000000 0.950689 0.333584
0.354625 0.952044 0.317419
0.678115 0.952044 0.317419
0.952044 0.952044 0.317419
0.952044 0.952044 0.317419
0.000000 0.000000 0.634754
0.374773 0.000000 0.634754
0.694021 0.000000 0.632082
0.950689 0.000000 0.623868
0.950689 0.000000 0.623868
0.000000 0.365632 0.634754
0.363165 0.353864 0.625511
0.686557 0.352084 0.623305
0.950933 0.344377 0.613751
0.950933 0.344377 0.613751
0.000000 0.679204 0.632712
0.361515 0.670925 0.623486
0.676511 0.660698 0.613259
0.941027 0.651284 0.603845
0.941027 0.651284 0.603845
0.000000 0.950689 0.623868
0.353363 0.950562 0.613380
0.667098 0.941027 0.603845
0.941027 0.941027 0.603845
0.941027 0.941027 0.603845
0.000000 0.950689 0.623868
0.353363 0.950562 0.613380
0.667098 0.941027 0.603845
0.941027 0.941027 0.603845
0.941027 0.941027 0.603845
0.000000 0.000000 0.885878
0.370391 0.000000 0.885878
0.687010 0.000000 0.885878
0.950689 0.000000 0.883644
0.950689 0.000000 0.883644
0.000000 0.361358 0.885878
0.355625 0.346323 0.884175
0.679416 0.346323 0.884175
0.950933 0.344377 0.881763
0.950933 0.344377 0.881763
0.000000 0.671652 0.885878
0.355310 0.663232 0.883805
0.667844 0.652031 0.872604
0.939397 0.649654 0.870227
0.939397 0.649654 0.870227
0.000000 0.950689 0.883644
0.353363 0.950562 0.881392
0.664924 0.938853 0.869683
0.931817 0.931817 0.862647
0.931817 0.931817 0.862647
0.000000 0.950689 0.883644
0.353363 0.950562 0.881392
0.664924 0.938853 0.869683
0.931817 0.931817 0.862647
0.931817 0.931817 0.862647
0.000000 0.000000 0.885878
0.370391 0.000000 0.885878
0.687010 0.000000 0.885878
0.950689 0.000000 0.883644
0.950689 0.000000 0.883644
0.000000 0.361358 0.885878
0.355625 0.346323 0.884175
0.679416 0.346323 0.884175
0.950933 0.344377 0.881763
0.950933 0.344377 0.881763
0.000000 0.671652 0.885878
0.355310 0.663232 0.883805
0.667844 0.652031 0.872604
0.939397 0.649654 0.870227
0.939397 0.649654 0.870227
0.000000 0.950689 0.883644
0.353363 0.950562 0.881392
0.664924 0.938853 0.869683
0.931817 0.931817 0.862647
0.931817 0.931817 0.862647
0.000000 0.950689 0.883644
0.353363 0.950562 0.881392
0.664924 0.938853 0.869683
0.931817 0.931817 0.862647
0.931817 0.931817 0.862647
