docs/luts/fuji_recipes/NEGA_RR_Aged_Color.cube
TITLE "Fujifilm Recipe: RR Aged Color (NEGA)"
# FilmSim=NEGA HL=2 SH=3 Col=4 WB=Auto WBR=5 WBB=-3
LUT_3D_SIZE 5
DOMAIN_MIN 0.0 0.0 0.0
DOMAIN_MAX 1.0 1.0 1.0
0.014080 0.014080 0.014080
0.301411 0.000000 0.000000
0.640319 0.000000 0.000000
0.963707 0.000000 0.000000
1.000000 0.032372 0.032372
0.000000 0.271050 0.000000
0.301411 0.267921 0.000000
0.640319 0.250864 0.000000
0.963707 0.246639 0.000000
1.000000 0.263032 0.032372
0.000000 0.567736 0.000000
0.284076 0.567736 0.000000
0.640319 0.564724 0.000000
0.963707 0.558245 0.000000
1.000000 0.555052 0.032372
0.000000 0.855192 0.000000
0.278648 0.855192 0.000000
0.634234 0.855192 0.000000
0.963707 0.852591 0.000000
1.000000 0.830328 0.032372
0.032372 1.000000 0.032372
0.291864 1.000000 0.032372
0.624559 1.000000 0.032372
0.934244 1.000000 0.032372
1.000000 1.000000 0.032372
0.000000 0.000000 0.252833
0.301411 0.000000 0.247827
0.640319 0.000000 0.232049
0.963707 0.000000 0.228141
1.000000 0.032372 0.245732
0.000000 0.271050 0.250721
0.301059 0.253538 0.225025
0.744977 0.150826 0.122313
1.000000 0.210960 0.190677
1.000000 0.276276 0.259343
0.000000 0.567736 0.233573
0.219861 0.650881 0.143827
0.744977 0.630416 0.122313
1.000000 0.555432 0.190677
1.000000 0.564466 0.259343
0.000000 0.855192 0.229111
0.154487 1.000000 0.082163
0.677401 1.000000 0.082163
1.000000 0.878167 0.190677
1.000000 0.833917 0.259343
0.032372 1.000000 0.245732
0.304499 1.000000 0.259343
0.632502 1.000000 0.259343
0.935635 1.000000 0.259343
1.000000 1.000000 0.259343
0.000000 0.000000 0.465964
0.290827 0.000000 0.465964
0.640319 0.000000 0.452177
0.963707 0.000000 0.513652
1.000000 0.032372 0.513348
0.000000 0.258513 0.465964
0.227554 0.180033 0.589528
0.740082 0.145611 0.556785
1.000000 0.209081 0.505505
1.000000 0.277746 0.524736
0.000000 0.567736 0.455147
0.205954 0.637828 0.569092
0.664787 0.550226 0.481490
1.000000 0.524661 0.472382
1.000000 0.577608 0.537645
0.000000 0.855192 0.514813
0.131238 1.000000 0.489872
0.603554 0.942699 0.420256
1.000000 0.869735 0.472382
1.000000 0.841391 0.537645
0.032372 1.000000 0.513348
0.308418 1.000000 0.526673
0.644213 1.000000 0.537645
0.940969 1.000000 0.537645
1.000000 1.000000 0.537645
0.000000 0.000000 0.790083
0.279517 0.000000 0.790083
0.635597 0.000000 0.790083
0.963707 0.000000 0.785922
1.000000 0.032372 0.767978
0.000000 0.248460 0.790083
0.148741 0.101220 0.934237
0.697856 0.101220 0.934237
1.000000 0.209081 0.804660
1.000000 0.277746 0.773407
0.000000 0.560726 0.790083
0.140049 0.575138 0.926080
0.609697 0.495137 0.846079
1.000000 0.516297 0.787908
1.000000 0.579584 0.783620
0.000000 0.855192 0.788239
0.131238 1.000000 0.899658
0.570459 0.909605 0.806840
1.000000 0.837821 0.740513
1.000000 0.853457 0.793710
0.032372 1.000000 0.767978
0.308418 1.000000 0.774331
0.649483 1.000000 0.786914
0.953035 1.000000 0.793710
1.000000 1.000000 0.793710
0.000000 0.000000 0.953975
0.277563 0.000000 0.953975
0.632692 0.000000 0.953975
0.963707 0.000000 0.953742
1.000000 0.032372 0.924925
0.000000 0.246723 0.953975
0.234126 0.199349 1.000000
0.637709 0.199349 1.000000
1.000000 0.209081 0.989051
1.000000 0.277746 0.926681
0.000000 0.558344 0.953975
0.230020 0.551709 1.000000
0.599226 0.506484 1.000000
1.000000 0.516297 0.988112
1.000000 0.579584 0.934015
0.000000 0.852790 0.953975
0.230020 0.885347 1.000000
0.579676 0.867623 1.000000
0.988721 0.817447 0.973361
1.000000 0.856411 0.947059
0.032372 1.000000 0.924925
0.308418 1.000000 0.926980
0.649483 1.000000 0.937308
0.960472 1.000000 0.951542
1.000000 1.000000 0.951542
