docs/luts/fuji_recipes/NEGA_RR_Eterna.cube
TITLE "Fujifilm Recipe: RR Eterna (NEGA)"
# FilmSim=NEGA HL=-2 SH=-1 Col=-4 WB=Auto WBR=2 WBB=2
LUT_3D_SIZE 5
DOMAIN_MIN 0.0 0.0 0.0
DOMAIN_MAX 1.0 1.0 1.0
0.055360 0.055360 0.055360
0.274488 0.185496 0.185496
0.454087 0.292852 0.292852
0.605253 0.383046 0.383046
0.605253 0.383046 0.383046
0.179299 0.264054 0.179299
0.274488 0.270251 0.185496
0.454087 0.377607 0.292852
0.605253 0.467801 0.383046
0.605253 0.467801 0.383046
0.281801 0.435565 0.281801
0.370794 0.435565 0.281801
0.454087 0.446583 0.292852
0.605253 0.536501 0.383046
0.605253 0.536501 0.383046
0.383046 0.605253 0.383046
0.472038 0.605253 0.383046
0.544005 0.605253 0.383046
0.605253 0.605253 0.383046
0.605253 0.605253 0.383046
0.383046 0.605253 0.383046
0.472038 0.605253 0.383046
0.544005 0.605253 0.383046
0.605253 0.605253 0.383046
0.605253 0.605253 0.383046
0.185496 0.185496 0.274488
0.274488 0.185496 0.274488
0.454087 0.292852 0.381845
0.605253 0.383046 0.472038
0.605253 0.383046 0.472038
0.185496 0.270251 0.274488
0.398427 0.394189 0.398427
0.577228 0.501097 0.505334
0.728394 0.591290 0.595528
0.728394 0.591290 0.595528
0.281801 0.435565 0.370794
0.500458 0.564863 0.500458
0.583385 0.575880 0.511509
0.734551 0.665798 0.601703
0.734551 0.665798 0.601703
0.383046 0.605253 0.472038
0.601703 0.734551 0.601703
0.673303 0.734551 0.601703
0.734551 0.734551 0.601703
0.734551 0.734551 0.601703
0.383046 0.605253 0.472038
0.601703 0.734551 0.601703
0.673303 0.734551 0.601703
0.734551 0.734551 0.601703
0.734551 0.734551 0.601703
0.292852 0.292852 0.454087
0.381845 0.292852 0.454087
0.454087 0.292852 0.454087
0.605253 0.383046 0.544005
0.605253 0.383046 0.544005
0.292852 0.377607 0.454087
0.505334 0.501097 0.577228
0.577228 0.501097 0.577228
0.728394 0.591290 0.667146
0.728394 0.591290 0.667146
0.292852 0.446583 0.454087
0.511509 0.575880 0.583385
0.678089 0.670585 0.678089
0.828902 0.760149 0.767654
0.828902 0.760149 0.767654
0.383046 0.605253 0.544005
0.601703 0.734551 0.673303
0.778628 0.839876 0.778628
0.839876 0.839876 0.778628
0.839876 0.839876 0.778628
0.383046 0.605253 0.544005
0.601703 0.734551 0.673303
0.778628 0.839876 0.778628
0.839876 0.839876 0.778628
0.839876 0.839876 0.778628
0.383046 0.383046 0.605253
0.472038 0.383046 0.605253
0.544005 0.383046 0.605253
0.605253 0.383046 0.605253
0.605253 0.383046 0.605253
0.383046 0.467801 0.605253
0.595528 0.591290 0.728394
0.667146 0.591290 0.728394
0.728394 0.591290 0.728394
0.728394 0.591290 0.728394
0.383046 0.536501 0.605253
0.601703 0.665798 0.734551
0.767654 0.760149 0.828902
0.828902 0.760149 0.828902
0.828902 0.760149 0.828902
0.383046 0.605253 0.605253
0.601703 0.734551 0.734551
0.778628 0.839876 0.839876
0.929440 0.929440 0.929440
0.929440 0.929440 0.929440
0.383046 0.605253 0.605253
0.601703 0.734551 0.734551
0.778628 0.839876 0.839876
0.929440 0.929440 0.929440
0.929440 0.929440 0.929440
0.383046 0.383046 0.605253
0.472038 0.383046 0.605253
0.544005 0.383046 0.605253
0.605253 0.383046 0.605253
0.605253 0.383046 0.605253
0.383046 0.467801 0.605253
0.595528 0.591290 0.728394
0.667146 0.591290 0.728394
0.728394 0.591290 0.728394
0.728394 0.591290 0.728394
0.383046 0.536501 0.605253
0.601703 0.665798 0.734551
0.767654 0.760149 0.828902
0.828902 0.760149 0.828902
0.828902 0.760149 0.828902
0.383046 0.605253 0.605253
0.601703 0.734551 0.734551
0.778628 0.839876 0.839876
0.929440 0.929440 0.929440
0.929440 0.929440 0.929440
0.383046 0.605253 0.605253
0.601703 0.734551 0.734551
0.778628 0.839876 0.839876
0.929440 0.929440 0.929440
0.929440 0.929440 0.929440
