docs/luts/fuji_recipes/NEGA_RR_Classic_Negative.cube
TITLE "Fujifilm Recipe: RR Classic Negative (NEGA)"
# FilmSim=NEGA HL=3 SH=2 Col=-3 WB=6700K WBR=-2 WBB=7
LUT_3D_SIZE 9
DOMAIN_MIN 0.0 0.0 0.0
DOMAIN_MAX 1.0 1.0 1.0
0.014720 0.014720 0.014720
0.095580 0.047860 0.047860
0.175032 0.080422 0.080422
0.254483 0.112985 0.112985
0.333854 0.145514 0.145514
0.450003 0.191419 0.191419
0.545647 0.229945 0.229945
0.641291 0.268470 0.268470
0.704417 0.293898 0.293898
0.047616 0.094984 0.047616
0.095580 0.095228 0.047860
0.175032 0.127791 0.080422
0.254483 0.160354 0.112985
0.333854 0.192883 0.145514
0.450003 0.238788 0.191419
0.545647 0.277313 0.229945
0.641291 0.315839 0.268470
0.704417 0.341267 0.293898
0.080511 0.175249 0.080511
0.128231 0.175249 0.080511
0.175121 0.175249 0.080511
0.254483 0.207722 0.112985
0.333854 0.240252 0.145514
0.450003 0.286157 0.191419
0.545647 0.324682 0.229945
0.641291 0.363208 0.268470
0.704417 0.388635 0.293898
0.113407 0.255513 0.113407
0.161127 0.255513 0.113407
0.208016 0.255513 0.113407
0.254905 0.255513 0.113407
0.333854 0.287620 0.145514
0.450003 0.333525 0.191419
0.545647 0.372051 0.229945
0.641291 0.410577 0.268470
0.704417 0.436004 0.293898
0.146251 0.335652 0.146251
0.193971 0.335652 0.146251
0.240861 0.335652 0.146251
0.287750 0.335652 0.146251
0.334591 0.335652 0.146251
0.450003 0.380820 0.191419
0.545647 0.419346 0.229945
0.641291 0.476410 0.268470
0.704417 0.502167 0.293898
0.192706 0.453200 0.192706
0.240427 0.453200 0.192706
0.287316 0.453200 0.192706
0.334205 0.453200 0.192706
0.381046 0.453200 0.192706
0.451307 0.453200 0.192706
0.545647 0.490921 0.229945
0.641291 0.529947 0.268470
0.704417 0.555704 0.293898
0.231626 0.549822 0.231626
0.279346 0.549822 0.231626
0.326236 0.549822 0.231626
0.373125 0.549822 0.231626
0.419966 0.549822 0.231626
0.490732 0.549822 0.231626
0.547351 0.549822 0.231626
0.641291 0.587144 0.268470
0.704417 0.612901 0.293898
0.270546 0.646444 0.270546
0.318266 0.646444 0.270546
0.365155 0.646444 0.270546
0.412044 0.646444 0.270546
0.458886 0.646444 0.270546
0.530157 0.646444 0.270546
0.586775 0.646444 0.270546
0.643394 0.646444 0.270546
0.704417 0.670099 0.293898
0.309466 0.743066 0.309466
0.357186 0.743066 0.309466
0.404075 0.743066 0.309466
0.450964 0.743066 0.309466
0.516645 0.743066 0.309466
0.569582 0.743066 0.309466
0.626200 0.743066 0.309466
0.682818 0.743066 0.309466
0.720187 0.743066 0.309466
0.051130 0.051130 0.103560
0.098850 0.051130 0.103560
0.175032 0.080422 0.132852
0.254483 0.112985 0.165415
0.333854 0.145514 0.197944
0.450003 0.191419 0.243849
0.545647 0.229945 0.282374
0.641291 0.268470 0.320900
0.704417 0.293898 0.346327
0.051130 0.098499 0.103560
0.131746 0.131395 0.136456
0.207927 0.160687 0.165748
0.287379 0.193249 0.198310
0.366750 0.225778 0.230839
0.483707 0.271982 0.277043
0.579351 0.310508 0.315569
0.674995 0.349034 0.354095
0.738121 0.374461 0.379522
0.080511 0.175249 0.132941
0.161371 0.208388 0.166081
0.211531 0.211659 0.169351
0.290894 0.244133 0.201825
0.370264 0.276662 0.234354
0.487308 0.322898 0.280590
0.582952 0.361423 0.319115
0.678596 0.399949 0.357641
0.741722 0.425376 0.383069
0.113407 0.255513 0.165837
0.194267 0.288653 0.198976
0.244426 0.291923 0.202247
0.291316 0.291923 0.202247
0.370264 0.324031 0.234354
0.487308 0.370266 0.280590
0.582952 0.408792 0.319115
0.678596 0.447318 0.357641
0.741722 0.472745 0.383069
0.146251 0.335652 0.198681
0.227111 0.368792 0.231821
0.277271 0.372062 0.235091
0.324160 0.372062 0.235091
0.371001 0.372062 0.235091
0.487308 0.417561 0.280590
0.582952 0.474689 0.319115
0.678596 0.513714 0.357641
0.741722 0.539472 0.383069
0.192706 0.453200 0.245136
0.273868 0.487153 0.278577
0.324057 0.490504 0.281877
0.370946 0.490504 0.281877
0.417787 0.490504 0.281877
0.488612 0.490504 0.281877
0.582952 0.528226 0.319115
0.678596 0.567251 0.357641
0.741722 0.593009 0.383069
0.231626 0.549822 0.284056
0.312787 0.583776 0.317497
0.362977 0.587126 0.320797
0.409866 0.587126 0.320797
0.456707 0.587126 0.320797
0.528037 0.587126 0.320797
0.584655 0.587126 0.320797
0.678596 0.624449 0.357641
0.741722 0.650206 0.383069
0.270546 0.646444 0.322976
0.351707 0.680398 0.356416
0.401896 0.683749 0.359717
0.448786 0.683749 0.359717
0.514525 0.683749 0.359717
0.567462 0.683749 0.359717
0.624080 0.683749 0.359717
0.680698 0.683749 0.359717
0.741722 0.707404 0.383069
0.309466 0.743066 0.361895
0.389596 0.774234 0.394306
0.439619 0.777135 0.397440
0.486508 0.777135 0.397440
0.552753 0.777135 0.397440
0.605690 0.777135 0.397440
0.662308 0.777135 0.397440
0.718926 0.777135 0.397440
0.756295 0.777135 0.397440
0.088226 0.088226 0.194072
0.135946 0.088226 0.194072
0.182835 0.088226 0.194072
0.254483 0.112985 0.218831
0.333854 0.145514 0.251360
0.450003 0.191419 0.297265
0.545647 0.229945 0.335791
0.641291 0.268470 0.374316
0.704417 0.293898 0.399744
0.088226 0.135594 0.194072
0.168841 0.168490 0.226967
0.215731 0.168490 0.226967
0.287379 0.193249 0.251726
0.366750 0.225778 0.284256
0.483707 0.271982 0.330459
0.579351 0.310508 0.368985
0.674995 0.349034 0.407511
0.738121 0.374461 0.432938
0.088226 0.182963 0.194072
0.169085 0.216103 0.227211
0.248537 0.248665 0.259774
0.320275 0.273514 0.284622
0.399645 0.306043 0.317151
0.517411 0.352546 0.363654
0.613055 0.391071 0.402180
0.708699 0.429597 0.440705
0.771825 0.455024 0.466133
0.113407 0.255513 0.219253
0.194267 0.288653 0.252393
0.273718 0.321215 0.284955
0.328411 0.329019 0.292758
0.407360 0.361126 0.324866
0.525314 0.407699 0.371438
0.620958 0.446224 0.409964
0.716602 0.484750 0.448490
0.779729 0.510177 0.473917
0.146251 0.335652 0.252097
0.227111 0.368792 0.285237
0.306563 0.401354 0.317799
0.361255 0.409158 0.325603
0.408097 0.409158 0.325603
0.525314 0.473670 0.371438
0.620958 0.512695 0.409964
0.716602 0.551721 0.448490
0.779729 0.577478 0.473917
0.192706 0.453200 0.298552
0.273868 0.487153 0.331993
0.353615 0.520516 0.364852
0.408378 0.528511 0.372726
0.473682 0.528511 0.372726
0.526619 0.528511 0.372726
0.620958 0.566232 0.409964
0.716602 0.605258 0.448490
0.779729 0.631015 0.473917
0.231626 0.549822 0.337472
0.312787 0.583776 0.370913
0.392535 0.617138 0.403771
0.447298 0.625133 0.411646
0.513107 0.625133 0.411646
0.566043 0.625133 0.411646
0.622662 0.625133 0.411646
0.716602 0.662455 0.448490
0.779729 0.688213 0.473917
0.270546 0.646444 0.376392
0.351707 0.680398 0.409833
0.431455 0.713760 0.442691
0.486218 0.721755 0.450565
0.552532 0.721755 0.450565
0.605468 0.721755 0.450565
0.662087 0.721755 0.450565
0.718705 0.721755 0.450565
0.779729 0.745410 0.473917
0.309466 0.743066 0.415312
0.389596 0.774234 0.447722
0.467687 0.803117 0.478924
0.522053 0.810039 0.486401
0.588872 0.810039 0.486401
0.641809 0.810039 0.486401
0.698427 0.810039 0.486401
0.755045 0.810039 0.486401
0.792414 0.810039 0.486401
0.125321 0.125321 0.284583
0.173041 0.125321 0.284583
0.219930 0.125321 0.284583
0.266819 0.125321 0.284583
0.333854 0.145514 0.304776
0.450003 0.191419 0.350681
0.545647 0.229945 0.389207
0.641291 0.268470 0.427732
0.704417 0.293898 0.453160
0.125321 0.172690 0.284583
0.205937 0.205585 0.317479
0.252826 0.205585 0.317479
0.299715 0.205585 0.317479
0.366750 0.225778 0.337672
0.483707 0.271982 0.383876
0.579351 0.310508 0.422401
0.674995 0.349034 0.460927
0.738121 0.374461 0.486354
0.125321 0.220058 0.284583
0.206181 0.253198 0.317723
0.285633 0.285761 0.350285
0.332611 0.285850 0.350374
0.399645 0.306043 0.370568
0.517411 0.352546 0.417070
0.613055 0.391071 0.455596
0.708699 0.429597 0.494121
0.771825 0.455024 0.519549
0.125321 0.267427 0.284583
0.206181 0.300567 0.317723
0.285633 0.333129 0.350285
0.365084 0.365692 0.382848
0.432541 0.386307 0.403463
0.551114 0.433109 0.450265
0.646758 0.471634 0.488790
0.742402 0.510160 0.527316
0.805529 0.535588 0.552743
0.146251 0.335652 0.305513
0.227111 0.368792 0.338653
0.306563 0.401354 0.371216
0.396934 0.463440 0.414697
0.474787 0.476079 0.427146
0.563321 0.511676 0.462287
0.658965 0.550702 0.500813
0.754609 0.589728 0.539338
0.817735 0.615485 0.564766
0.192706 0.453200 0.351969
0.273868 0.487153 0.385410
0.353615 0.520516 0.418268
0.433363 0.553878 0.451126
0.511689 0.566517 0.463575
0.564625 0.566517 0.463575
0.658965 0.604239 0.500813
0.754609 0.643264 0.539338
0.817735 0.669022 0.564766
0.231626 0.549822 0.390888
0.312787 0.583776 0.424329
0.392535 0.617138 0.457188
0.472282 0.650501 0.490046
0.551113 0.663140 0.502494
0.604050 0.663140 0.502494
0.660668 0.663140 0.502494
0.754609 0.700462 0.539338
0.817735 0.726219 0.564766
0.270546 0.646444 0.429808
0.351707 0.680398 0.463249
0.431455 0.713760 0.496107
0.511202 0.747123 0.528966
0.590538 0.759762 0.541414
0.643475 0.759762 0.541414
0.700093 0.759762 0.541414
0.756712 0.759762 0.541414
0.817735 0.783417 0.564766
0.309466 0.743066 0.468728
0.389596 0.774234 0.501138
0.467687 0.803117 0.532340
0.545778 0.832000 0.563541
0.624991 0.842942 0.575362
0.677928 0.842942 0.575362
0.734546 0.842942 0.575362
0.791165 0.842942 0.575362
0.828533 0.842942 0.575362
0.172851 0.172851 0.403907
0.220572 0.172851 0.403907
0.267461 0.172851 0.403907
0.314350 0.172851 0.403907
0.361191 0.172851 0.403907
0.450003 0.191419 0.422716
0.545647 0.229945 0.461741
0.641291 0.268470 0.500767
0.704417 0.293898 0.526524
0.172851 0.220220 0.403907
0.253766 0.253415 0.437611
0.300655 0.253415 0.437611
0.347544 0.253415 0.437611
0.394386 0.253415 0.437611
0.483707 0.271982 0.456419
0.579351 0.310508 0.495445
0.674995 0.349034 0.534471
0.738121 0.374461 0.560228
0.172851 0.267589 0.403907
0.254012 0.301030 0.437861
0.333760 0.333888 0.471223
0.380739 0.333978 0.471315
0.427580 0.333978 0.471315
0.517411 0.352546 0.490123
0.613055 0.391071 0.529149
0.708699 0.429597 0.568174
0.771825 0.455024 0.593932
0.172851 0.314958 0.403907
0.254012 0.348399 0.437861
0.333760 0.381257 0.471223
0.413508 0.414115 0.504586
0.479369 0.414541 0.505018
0.551114 0.433109 0.523827
0.646758 0.471634 0.562852
0.742402 0.510160 0.601878
0.805529 0.535588 0.627636
0.172851 0.362253 0.403907
0.254012 0.395693 0.437861
0.333760 0.428552 0.471223
0.413508 0.480229 0.504586
0.523471 0.524763 0.549120
0.596255 0.544610 0.568967
0.692192 0.583929 0.608286
0.788130 0.623248 0.647605
0.851450 0.649199 0.673557
0.192706 0.453200 0.424020
0.273868 0.487153 0.457974
0.353615 0.520516 0.491336
0.433363 0.553878 0.524699
0.543735 0.598564 0.569384
0.614484 0.616376 0.587196
0.709107 0.654381 0.625201
0.805045 0.693700 0.664521
0.868365 0.719651 0.690472
0.231626 0.549822 0.463445
0.312787 0.583776 0.497399
0.392535 0.617138 0.530761
0.472282 0.650501 0.564123
0.583456 0.695482 0.609105
0.654205 0.713295 0.626918
0.710823 0.713295 0.626918
0.805045 0.750898 0.664521
0.868365 0.776849 0.690472
0.270546 0.646444 0.502869
0.351707 0.680398 0.536823
0.431455 0.713760 0.570186
0.511202 0.747123 0.603548
0.623177 0.792401 0.648827
0.693926 0.810214 0.666639
0.750545 0.810214 0.666639
0.807163 0.810214 0.666639
0.868365 0.834046 0.690472
0.309466 0.743066 0.542294
0.389596 0.774234 0.575218
0.467687 0.803117 0.606923
0.545778 0.832000 0.638629
0.656899 0.873100 0.682549
0.726904 0.888899 0.699616
0.783522 0.888899 0.699616
0.840141 0.888899 0.699616
0.877510 0.888899 0.699616
0.216740 0.216740 0.512865
0.264460 0.216740 0.512865
0.311349 0.216740 0.512865
0.358238 0.216740 0.512865
0.405080 0.216740 0.512865
0.475653 0.216740 0.512865
0.545647 0.229945 0.526241
0.641291 0.268470 0.565267
0.704417 0.293898 0.591024
0.216740 0.264109 0.512865
0.297655 0.297303 0.546569
0.344544 0.297303 0.546569
0.391433 0.297303 0.546569
0.438274 0.297303 0.546569
0.509356 0.297303 0.546569
0.579351 0.310508 0.559945
0.674995 0.349034 0.598970
0.738121 0.374461 0.624728
0.216740 0.311477 0.512865
0.297901 0.344918 0.546819
0.377649 0.377777 0.580181
0.424627 0.377866 0.580272
0.490123 0.377866 0.580272
0.543060 0.377866 0.580272
0.613055 0.391071 0.593649
0.708699 0.429597 0.632674
0.771825 0.455024 0.658432
0.216740 0.358846 0.512865
0.297901 0.392287 0.546819
0.377649 0.425145 0.580181
0.457396 0.458004 0.613544
0.523827 0.458430 0.613976
0.576764 0.458430 0.613976
0.646758 0.471634 0.627352
0.742402 0.510160 0.666378
0.805529 0.535588 0.692135
0.216740 0.406141 0.512865
0.297901 0.439582 0.546819
0.377649 0.491324 0.580181
0.457396 0.524687 0.613544
0.568263 0.569555 0.658412
0.622097 0.570452 0.659309
0.692192 0.583929 0.672786
0.788130 0.623248 0.712105
0.851450 0.649199 0.738056
0.216740 0.477545 0.512865
0.297901 0.511499 0.546819
0.377649 0.544861 0.580181
0.457396 0.578224 0.613544
0.568263 0.623092 0.658412
0.657962 0.659854 0.695175
0.729371 0.674645 0.709965
0.825309 0.713964 0.749284
0.888629 0.739915 0.775235
0.231626 0.549822 0.527944
0.312787 0.583776 0.561898
0.392535 0.617138 0.595261
0.472282 0.650501 0.628623
0.583456 0.695482 0.673605
0.673155 0.732245 0.710367
0.755616 0.758087 0.736210
0.849837 0.795690 0.773813
0.913157 0.821641 0.799764
0.270546 0.646444 0.567369
0.351707 0.680398 0.601323
0.431455 0.713760 0.634686
0.511202 0.747123 0.668048
0.623177 0.792401 0.713326
0.712876 0.829163 0.750089
0.795337 0.855006 0.775931
0.851955 0.855006 0.775931
0.913157 0.878839 0.799764
0.309466 0.743066 0.606794
0.389596 0.774234 0.639717
0.467687 0.803117 0.671423
0.545778 0.832000 0.703129
0.656899 0.873100 0.747048
0.745062 0.905708 0.782274
0.826443 0.928630 0.807036
0.883061 0.928630 0.807036
0.920430 0.928630 0.807036
0.260628 0.260628 0.621823
0.308349 0.260628 0.621823
0.355238 0.260628 0.621823
0.402127 0.260628 0.621823
0.448968 0.260628 0.621823
0.520111 0.260628 0.621823
0.576729 0.260628 0.621823
0.641291 0.268470 0.629767
0.704417 0.293898 0.655524
0.260628 0.307997 0.621823
0.341543 0.341192 0.655527
0.388432 0.341192 0.655527
0.435321 0.341192 0.655527
0.500878 0.341192 0.655527
0.553814 0.341192 0.655527
0.610433 0.341192 0.655527
0.674995 0.349034 0.663470
0.738121 0.374461 0.689228
0.260628 0.355366 0.621823
0.341789 0.388807 0.655777
0.421537 0.421665 0.689139
0.468516 0.421755 0.689230
0.534581 0.421755 0.689230
0.587518 0.421755 0.689230
0.644137 0.421755 0.689230
0.708699 0.429597 0.697174
0.771825 0.455024 0.722931
0.260628 0.402735 0.621823
0.341789 0.436176 0.655777
0.421537 0.469034 0.689139
0.501285 0.501892 0.722502
0.568285 0.502318 0.722934
0.621222 0.502318 0.722934
0.677840 0.502318 0.722934
0.742402 0.510160 0.730878
0.805529 0.535588 0.756635
0.260628 0.468466 0.621823
0.341789 0.502420 0.655777
0.421537 0.535782 0.689139
0.501285 0.569145 0.722502
0.613056 0.614348 0.767704
0.666890 0.615245 0.768602
0.723508 0.615245 0.768602
0.788130 0.623248 0.776605
0.851450 0.649199 0.802556
0.260628 0.522003 0.621823
0.341789 0.555957 0.655777
0.421537 0.589319 0.689139
0.501285 0.622682 0.722502
0.613056 0.667884 0.767704
0.702755 0.704647 0.804467
0.760687 0.705961 0.805781
0.825309 0.713964 0.813784
0.888629 0.739915 0.839735
0.260628 0.579200 0.621823
0.341789 0.613154 0.655777
0.421537 0.646517 0.689139
0.501285 0.679879 0.722502
0.613056 0.725082 0.767704
0.702755 0.761844 0.804467
0.798692 0.801163 0.843786
0.865030 0.810883 0.853505
0.928350 0.836834 0.879456
0.270546 0.646444 0.631869
0.351707 0.680398 0.665823
0.431455 0.713760 0.699185
0.511202 0.747123 0.732548
0.623177 0.792401 0.777826
0.712876 0.829163 0.814588
0.808814 0.868483 0.853908
0.896748 0.899798 0.885223
0.957950 0.923631 0.909056
0.309466 0.743066 0.671294
0.389596 0.774234 0.704217
0.467687 0.803117 0.735923
0.545778 0.832000 0.767628
0.656899 0.873100 0.811548
0.745062 0.905708 0.846774
0.839356 0.940584 0.884450
0.925981 0.968361 0.914456
0.963350 0.968361 0.914456
0.304517 0.304517 0.730781
0.352237 0.304517 0.730781
0.399126 0.304517 0.730781
0.446015 0.304517 0.730781
0.511632 0.304517 0.730781
0.564569 0.304517 0.730781
0.621187 0.304517 0.730781
0.677806 0.304517 0.730781
0.715174 0.304517 0.730781
0.304517 0.351886 0.730781
0.385432 0.385080 0.764484
0.432321 0.385080 0.764484
0.479210 0.385080 0.764484
0.545336 0.385080 0.764484
0.598273 0.385080 0.764484
0.654891 0.385080 0.764484
0.711509 0.385080 0.764484
0.748878 0.385080 0.764484
0.304517 0.399254 0.730781
0.385678 0.432695 0.764735
0.465426 0.465554 0.798097
0.512404 0.465643 0.798188
0.579040 0.465643 0.798188
0.631976 0.465643 0.798188
0.688595 0.465643 0.798188
0.745213 0.465643 0.798188
0.782582 0.465643 0.798188
0.304517 0.446623 0.730781
0.385678 0.480064 0.764735
0.465426 0.512922 0.798097
0.545173 0.545781 0.831459
0.612743 0.546207 0.831892
0.665680 0.546207 0.831892
0.722298 0.546207 0.831892
0.778917 0.546207 0.831892
0.816286 0.546207 0.831892
0.304517 0.512924 0.730781
0.385678 0.546878 0.764735
0.465426 0.580240 0.798097
0.545173 0.613603 0.831459
0.656329 0.657621 0.872889
0.710125 0.658480 0.873684
0.766743 0.658480 0.873684
0.823362 0.658480 0.873684
0.860731 0.658480 0.873684
0.304517 0.566461 0.730781
0.385678 0.600415 0.764735
0.465426 0.633777 0.798097
0.545173 0.667140 0.831459
0.656329 0.711157 0.872889
0.744491 0.746383 0.905497
0.802369 0.747642 0.906662
0.858987 0.747642 0.906662
0.896356 0.747642 0.906662
0.304517 0.623658 0.730781
0.385678 0.657612 0.764735
0.465426 0.690975 0.798097
0.545173 0.724337 0.831459
0.656329 0.768355 0.872889
0.744491 0.803581 0.905497
0.838785 0.841256 0.940373
0.897048 0.842901 0.941895
0.934417 0.842901 0.941895
0.304517 0.680856 0.730781
0.385678 0.714810 0.764735
0.465426 0.748172 0.798097
0.545173 0.781535 0.831459
0.656329 0.825552 0.872889
0.744491 0.860778 0.905497
0.838785 0.898454 0.940373
0.933079 0.936130 0.975248
0.972478 0.938159 0.977127
0.309466 0.743066 0.735794
0.389596 0.774234 0.768717
0.467687 0.803117 0.800423
0.545778 0.832000 0.832000
0.656899 0.873100 0.873100
0.745062 0.905708 0.905708
0.839356 0.940584 0.940584
0.933650 0.975460 0.975460
0.995885 0.998478 0.998478
0.309466 0.309466 0.743066
0.357186 0.309466 0.743066
0.404075 0.309466 0.743066
0.450964 0.309466 0.743066
0.516645 0.309466 0.743066
0.569582 0.309466 0.743066
0.626200 0.309466 0.743066
0.682818 0.309466 0.743066
0.720187 0.309466 0.743066
0.309466 0.356834 0.743066
0.389362 0.389011 0.774018
0.436252 0.389011 0.774018
0.483141 0.389011 0.774018
0.549331 0.389011 0.774018
0.602267 0.389011 0.774018
0.658886 0.389011 0.774018
0.715504 0.389011 0.774018
0.752873 0.389011 0.774018
0.309466 0.404203 0.743066
0.389596 0.436614 0.774234
0.467687 0.467815 0.803117
0.514661 0.467900 0.803196
0.581361 0.467900 0.803196
0.634297 0.467900 0.803196
0.690916 0.467900 0.803196
0.747534 0.467900 0.803196
0.784903 0.467900 0.803196
0.309466 0.451572 0.743066
0.389596 0.483982 0.774234
0.467687 0.515184 0.803117
0.545778 0.546385 0.832000
0.613391 0.546790 0.832374
0.666327 0.546790 0.832374
0.722946 0.546790 0.832374
0.779564 0.546790 0.832374
0.816933 0.546790 0.832374
0.309466 0.517937 0.743066
0.389596 0.550860 0.774234
0.467687 0.582566 0.803117
0.545778 0.614272 0.832000
0.656899 0.658191 0.873100
0.710696 0.659051 0.873896
0.767314 0.659051 0.873896
0.823933 0.659051 0.873896
0.861301 0.659051 0.873896
0.309466 0.571474 0.743066
0.389596 0.604397 0.774234
0.467687 0.636103 0.803117
0.545778 0.667809 0.832000
0.656899 0.711728 0.873100
0.745062 0.746954 0.905708
0.802939 0.748213 0.906873
0.859558 0.748213 0.906873
0.896927 0.748213 0.906873
0.309466 0.628671 0.743066
0.389596 0.661595 0.774234
0.467687 0.693300 0.803117
0.545778 0.725006 0.832000
0.656899 0.768926 0.873100
0.745062 0.804151 0.905708
0.839356 0.841827 0.940584
0.897619 0.843472 0.942106
0.934988 0.843472 0.942106
0.309466 0.685869 0.743066
0.389596 0.718792 0.774234
0.467687 0.750498 0.803117
0.545778 0.782204 0.832000
0.656899 0.826123 0.873100
0.745062 0.861349 0.905708
0.839356 0.899025 0.940584
0.933650 0.936700 0.975460
0.973049 0.938730 0.977339
0.309466 0.743066 0.743066
0.389596 0.774234 0.774234
0.467687 0.803117 0.803117
0.545778 0.832000 0.832000
0.656899 0.873100 0.873100
0.745062 0.905708 0.905708
0.839356 0.940584 0.940584
0.933650 0.975460 0.975460
0.995885 0.998478 0.998478
