docs/luts/fuji_recipes/NEGAhi_VM_Pro_Neg_High.cube
TITLE "Fujifilm Recipe: VM Pro Neg High (NEGAhi)"
# FilmSim=NEGAhi HL=0 SH=-1 Col=2 WB=Auto WBR=0 WBB=-1
LUT_3D_SIZE 33
DOMAIN_MIN 0.0 0.0 0.0
DOMAIN_MAX 1.0 1.0 1.0
0.040000 0.040000 0.040000
0.075754 0.034546 0.034546
0.111353 0.029116 0.029116
0.146900 0.023693 0.023693
0.182447 0.018271 0.018271
0.217994 0.012848 0.012848
0.253541 0.007426 0.007426
0.289088 0.002003 0.002003
0.321216 0.000000 0.000000
0.351341 0.000000 0.000000
0.381466 0.000000 0.000000
0.411590 0.000000 0.000000
0.441715 0.000000 0.000000
0.471840 0.000000 0.000000
0.501964 0.000000 0.000000
0.532089 0.000000 0.000000
0.542278 0.000000 0.000000
0.573281 0.000000 0.000000
0.604285 0.000000 0.000000
0.635288 0.000000 0.000000
0.666291 0.000000 0.000000
0.697294 0.000000 0.000000
0.728298 0.000000 0.000000
0.759301 0.000000 0.000000
0.790304 0.000000 0.000000
0.821308 0.000000 0.000000
0.852311 0.000000 0.000000
0.883314 0.000000 0.000000
0.914317 0.000000 0.000000
0.945321 0.000000 0.000000
0.976324 0.000000 0.000000
1.000000 0.007327 0.007327
1.000000 0.034000 0.034000
0.034600 0.075400 0.034600
0.075754 0.075346 0.034546
0.111353 0.069916 0.029116
0.146900 0.064493 0.023693
0.182447 0.059071 0.018271
0.217994 0.053648 0.012848
0.253541 0.048226 0.007426
0.289088 0.042803 0.002003
0.321216 0.039950 0.000000
0.351341 0.038845 0.000000
0.381466 0.037961 0.000000
0.411590 0.037238 0.000000
0.441715 0.036635 0.000000
0.471840 0.036125 0.000000
0.501964 0.035688 0.000000
0.532089 0.035309 0.000000
0.542278 0.035192 0.000000
0.573281 0.034865 0.000000
0.604285 0.034578 0.000000
0.635288 0.034322 0.000000
0.666291 0.034094 0.000000
0.697294 0.033888 0.000000
0.728298 0.033702 0.000000
0.759301 0.033533 0.000000
0.790304 0.033379 0.000000
0.821308 0.033238 0.000000
0.852311 0.033108 0.000000
0.883314 0.032988 0.000000
0.914317 0.032877 0.000000
0.945321 0.032774 0.000000
0.976324 0.032678 0.000000
1.000000 0.039441 0.007327
1.000000 0.064377 0.034000
0.029200 0.110800 0.029200
0.070408 0.110800 0.029200
0.111353 0.110716 0.029116
0.146900 0.105293 0.023693
0.182447 0.099871 0.018271
0.217994 0.094448 0.012848
0.253541 0.089026 0.007426
0.289088 0.083603 0.002003
0.321216 0.079899 0.000000
0.351341 0.077690 0.000000
0.381466 0.075922 0.000000
0.411590 0.074476 0.000000
0.441715 0.073270 0.000000
0.471840 0.072250 0.000000
0.501964 0.071375 0.000000
0.532089 0.070617 0.000000
0.542278 0.070383 0.000000
0.573281 0.069731 0.000000
0.604285 0.069155 0.000000
0.635288 0.068644 0.000000
0.666291 0.068187 0.000000
0.697294 0.067776 0.000000
0.728298 0.067404 0.000000
0.759301 0.067066 0.000000
0.790304 0.066758 0.000000
0.821308 0.066475 0.000000
0.852311 0.066215 0.000000
0.883314 0.065975 0.000000
0.914317 0.065753 0.000000
0.945321 0.065547 0.000000
0.976324 0.065355 0.000000
1.000000 0.071555 0.007327
1.000000 0.094755 0.034000
0.023800 0.146200 0.023800
0.065008 0.146200 0.023800
0.106037 0.146200 0.023800
0.146900 0.146093 0.023693
0.182447 0.140671 0.018271
0.217994 0.135248 0.012848
0.253541 0.129826 0.007426
0.289088 0.124403 0.002003
0.321216 0.119849 0.000000
0.351341 0.116535 0.000000
0.381466 0.113883 0.000000
0.411590 0.111714 0.000000
0.441715 0.109905 0.000000
0.471840 0.108375 0.000000
0.501964 0.107063 0.000000
0.532089 0.105926 0.000000
0.542278 0.105575 0.000000
0.573281 0.104596 0.000000
0.604285 0.103733 0.000000
0.635288 0.102966 0.000000
0.666291 0.102281 0.000000
0.697294 0.101664 0.000000
0.728298 0.101106 0.000000
0.759301 0.100599 0.000000
0.790304 0.100137 0.000000
0.821308 0.099713 0.000000
0.852311 0.099323 0.000000
0.883314 0.098963 0.000000
0.914317 0.098630 0.000000
0.945321 0.098321 0.000000
0.976324 0.098033 0.000000
1.000000 0.103669 0.007327
1.000000 0.125132 0.034000
0.018400 0.181600 0.018400
0.059608 0.181600 0.018400
0.100637 0.181600 0.018400
0.141607 0.181600 0.018400
0.182447 0.181471 0.018271
0.217994 0.176048 0.012848
0.253541 0.170626 0.007426
0.289088 0.165203 0.002003
0.321216 0.159798 0.000000
0.351341 0.155380 0.000000
0.381466 0.151844 0.000000
0.411590 0.148951 0.000000
0.441715 0.146540 0.000000
0.471840 0.144500 0.000000
0.501964 0.142751 0.000000
0.532089 0.141235 0.000000
0.542278 0.140767 0.000000
0.573281 0.139462 0.000000
0.604285 0.138311 0.000000
0.635288 0.137288 0.000000
0.666291 0.136374 0.000000
0.697294 0.135552 0.000000
0.728298 0.134808 0.000000
0.759301 0.134132 0.000000
0.790304 0.133515 0.000000
0.821308 0.132950 0.000000
0.852311 0.132430 0.000000
0.883314 0.131950 0.000000
0.914317 0.131506 0.000000
0.945321 0.131094 0.000000
0.976324 0.130710 0.000000
1.000000 0.135783 0.007327
1.000000 0.155509 0.034000
0.013000 0.217000 0.013000
0.054208 0.217000 0.013000
0.095237 0.217000 0.013000
0.136207 0.217000 0.013000
0.177176 0.217000 0.013000
0.217994 0.216848 0.012848
0.253541 0.211426 0.007426
0.289088 0.206003 0.002003
0.321216 0.199748 0.000000
0.351341 0.194225 0.000000
0.381466 0.189806 0.000000
0.411590 0.186189 0.000000
0.441715 0.183175 0.000000
0.471840 0.180625 0.000000
0.501964 0.178438 0.000000
0.532089 0.176543 0.000000
0.542278 0.175958 0.000000
0.573281 0.174327 0.000000
0.604285 0.172888 0.000000
0.635288 0.171610 0.000000
0.666291 0.170468 0.000000
0.697294 0.169440 0.000000
0.728298 0.168510 0.000000
0.759301 0.167665 0.000000
0.790304 0.166894 0.000000
0.821308 0.166188 0.000000
0.852311 0.165538 0.000000
0.883314 0.164938 0.000000
0.914317 0.164383 0.000000
0.945321 0.163868 0.000000
0.976324 0.163388 0.000000
1.000000 0.167897 0.007327
1.000000 0.185887 0.034000
0.007600 0.252400 0.007600
0.048808 0.252400 0.007600
0.089837 0.252400 0.007600
0.130807 0.252400 0.007600
0.171776 0.252400 0.007600
0.212746 0.252400 0.007600
0.253541 0.252226 0.007426
0.289088 0.246803 0.002003
0.321216 0.239697 0.000000
0.351341 0.233070 0.000000
0.381466 0.227767 0.000000
0.411590 0.223427 0.000000
0.441715 0.219810 0.000000
0.471840 0.216750 0.000000
0.501964 0.214126 0.000000
0.532089 0.211852 0.000000
0.542278 0.211150 0.000000
0.573281 0.209192 0.000000
0.604285 0.207466 0.000000
0.635288 0.205932 0.000000
0.666291 0.204561 0.000000
0.697294 0.203328 0.000000
0.728298 0.202212 0.000000
0.759301 0.201198 0.000000
0.790304 0.200273 0.000000
0.821308 0.199425 0.000000
0.852311 0.198645 0.000000
0.883314 0.197926 0.000000
0.914317 0.197260 0.000000
0.945321 0.196641 0.000000
0.976324 0.196066 0.000000
1.000000 0.200011 0.007327
1.000000 0.216264 0.034000
0.002200 0.287800 0.002200
0.043408 0.287800 0.002200
0.084437 0.287800 0.002200
0.125407 0.287800 0.002200
0.166376 0.287800 0.002200
0.207346 0.287800 0.002200
0.248315 0.287800 0.002200
0.289088 0.287603 0.002003
0.321216 0.279647 0.000000
0.351341 0.271915 0.000000
0.381466 0.265728 0.000000
0.411590 0.260665 0.000000
0.441715 0.256445 0.000000
0.471840 0.252875 0.000000
0.501964 0.249814 0.000000
0.532089 0.247161 0.000000
0.542278 0.246342 0.000000
0.573281 0.244058 0.000000
0.604285 0.242044 0.000000
0.635288 0.240255 0.000000
0.666291 0.238655 0.000000
0.697294 0.237216 0.000000
0.728298 0.235914 0.000000
0.759301 0.234731 0.000000
0.790304 0.233652 0.000000
0.821308 0.232663 0.000000
0.852311 0.231753 0.000000
0.883314 0.230913 0.000000
0.914317 0.230136 0.000000
0.945321 0.229415 0.000000
0.976324 0.228743 0.000000
1.000000 0.232125 0.007327
1.000000 0.246642 0.034000
0.000000 0.320000 0.000000
0.040400 0.320000 0.000000
0.080625 0.320000 0.000000
0.120791 0.320000 0.000000
0.160957 0.320000 0.000000
0.201123 0.320000 0.000000
0.241290 0.320000 0.000000
0.281456 0.320000 0.000000
0.321216 0.319597 0.000000
0.351341 0.310760 0.000000
0.381466 0.303689 0.000000
0.411590 0.297903 0.000000
0.441715 0.293080 0.000000
0.471840 0.289000 0.000000
0.501964 0.285501 0.000000
0.532089 0.282470 0.000000
0.542278 0.281533 0.000000
0.573281 0.278923 0.000000
0.604285 0.276621 0.000000
0.635288 0.274577 0.000000
0.666291 0.272748 0.000000
0.697294 0.271103 0.000000
0.728298 0.269616 0.000000
0.759301 0.268264 0.000000
0.790304 0.267031 0.000000
0.821308 0.265900 0.000000
0.852311 0.264860 0.000000
0.883314 0.263901 0.000000
0.914317 0.263013 0.000000
0.945321 0.262188 0.000000
0.976324 0.261421 0.000000
1.000000 0.264239 0.007327
1.000000 0.277019 0.034000
0.000000 0.350000 0.000000
0.039278 0.350000 0.000000
0.078385 0.350000 0.000000
0.117436 0.350000 0.000000
0.156486 0.350000 0.000000
0.195537 0.350000 0.000000
0.234587 0.350000 0.000000
0.273638 0.350000 0.000000
0.312688 0.350000 0.000000
0.351341 0.349605 0.000000
0.381466 0.341650 0.000000
0.411590 0.335141 0.000000
0.441715 0.329716 0.000000
0.471840 0.325125 0.000000
0.501964 0.321189 0.000000
0.532089 0.317778 0.000000
0.542278 0.316725 0.000000
0.573281 0.313788 0.000000
0.604285 0.311199 0.000000
0.635288 0.308899 0.000000
0.666291 0.306842 0.000000
0.697294 0.304991 0.000000
0.728298 0.303318 0.000000
0.759301 0.301797 0.000000
0.790304 0.300410 0.000000
0.821308 0.299138 0.000000
0.852311 0.297968 0.000000
0.883314 0.296889 0.000000
0.914317 0.295889 0.000000
0.945321 0.294962 0.000000
0.976324 0.294098 0.000000
1.000000 0.296353 0.007327
1.000000 0.307396 0.034000
0.000000 0.380000 0.000000
0.038380 0.380000 0.000000
0.076594 0.380000 0.000000
0.114751 0.380000 0.000000
0.152909 0.380000 0.000000
0.191067 0.380000 0.000000
0.229225 0.380000 0.000000
0.267383 0.380000 0.000000
0.305541 0.380000 0.000000
0.343699 0.380000 0.000000
0.381466 0.379611 0.000000
0.411590 0.372378 0.000000
0.441715 0.366351 0.000000
0.471840 0.361250 0.000000
0.501964 0.356877 0.000000
0.532089 0.353087 0.000000
0.542278 0.351917 0.000000
0.573281 0.348654 0.000000
0.604285 0.345777 0.000000
0.635288 0.343221 0.000000
0.666291 0.340935 0.000000
0.697294 0.338879 0.000000
0.728298 0.337020 0.000000
0.759301 0.335330 0.000000
0.790304 0.333788 0.000000
0.821308 0.332375 0.000000
0.852311 0.331076 0.000000
0.883314 0.329876 0.000000
0.914317 0.328766 0.000000
0.945321 0.327735 0.000000
0.976324 0.326776 0.000000
1.000000 0.328467 0.007327
1.000000 0.337774 0.034000
0.000000 0.410000 0.000000
0.037645 0.410000 0.000000
0.075128 0.410000 0.000000
0.112555 0.410000 0.000000
0.149983 0.410000 0.000000
0.187410 0.410000 0.000000
0.224838 0.410000 0.000000
0.262266 0.410000 0.000000
0.299693 0.410000 0.000000
0.337121 0.410000 0.000000
0.374548 0.410000 0.000000
0.411590 0.409616 0.000000
0.441715 0.402986 0.000000
0.471840 0.397374 0.000000
0.501964 0.392565 0.000000
0.532089 0.388396 0.000000
0.542278 0.387108 0.000000
0.573281 0.383519 0.000000
0.604285 0.380354 0.000000
0.635288 0.377543 0.000000
0.666291 0.375029 0.000000
0.697294 0.372767 0.000000
0.728298 0.370722 0.000000
0.759301 0.368863 0.000000
0.790304 0.367167 0.000000
0.821308 0.365613 0.000000
0.852311 0.364183 0.000000
0.883314 0.362864 0.000000
0.914317 0.361643 0.000000
0.945321 0.360509 0.000000
0.976324 0.359454 0.000000
1.000000 0.360581 0.007327
1.000000 0.368151 0.034000
0.000000 0.440000 0.000000
0.037033 0.440000 0.000000
0.073906 0.440000 0.000000
0.110725 0.440000 0.000000
0.147544 0.440000 0.000000
0.184363 0.440000 0.000000
0.221182 0.440000 0.000000
0.258001 0.440000 0.000000
0.294820 0.440000 0.000000
0.331639 0.440000 0.000000
0.368458 0.440000 0.000000
0.405277 0.440000 0.000000
0.441715 0.439621 0.000000
0.471840 0.433499 0.000000
0.501964 0.428252 0.000000
0.532089 0.423704 0.000000
0.542278 0.422300 0.000000
0.573281 0.418385 0.000000
0.604285 0.414932 0.000000
0.635288 0.411865 0.000000
0.666291 0.409122 0.000000
0.697294 0.406655 0.000000
0.728298 0.404424 0.000000
0.759301 0.402397 0.000000
0.790304 0.400546 0.000000
0.821308 0.398850 0.000000
0.852311 0.397291 0.000000
0.883314 0.395851 0.000000
0.914317 0.394519 0.000000
0.945321 0.393282 0.000000
0.976324 0.392131 0.000000
1.000000 0.392695 0.007327
1.000000 0.398528 0.034000
0.000000 0.470000 0.000000
0.036515 0.470000 0.000000
0.072872 0.470000 0.000000
0.109177 0.470000 0.000000
0.145481 0.470000 0.000000
0.181785 0.470000 0.000000
0.218089 0.470000 0.000000
0.254393 0.470000 0.000000
0.290697 0.470000 0.000000
0.327001 0.470000 0.000000
0.363305 0.470000 0.000000
0.399609 0.470000 0.000000
0.435913 0.470000 0.000000
0.471840 0.469624 0.000000
0.501964 0.463940 0.000000
0.532089 0.459013 0.000000
0.542278 0.457492 0.000000
0.573281 0.453250 0.000000
0.604285 0.449510 0.000000
0.635288 0.446187 0.000000
0.666291 0.443216 0.000000
0.697294 0.440543 0.000000
0.728298 0.438126 0.000000
0.759301 0.435930 0.000000
0.790304 0.433925 0.000000
0.821308 0.432088 0.000000
0.852311 0.430398 0.000000
0.883314 0.428839 0.000000
0.914317 0.427396 0.000000
0.945321 0.426056 0.000000
0.976324 0.424809 0.000000
1.000000 0.424809 0.007327
1.000000 0.428906 0.034000
0.000000 0.500000 0.000000
0.036071 0.500000 0.000000
0.071986 0.500000 0.000000
0.107849 0.500000 0.000000
0.143712 0.500000 0.000000
0.179574 0.500000 0.000000
0.215437 0.500000 0.000000
0.251300 0.500000 0.000000
0.287162 0.500000 0.000000
0.323025 0.500000 0.000000
0.358888 0.500000 0.000000
0.394750 0.500000 0.000000
0.430613 0.500000 0.000000
0.466476 0.500000 0.000000
0.501964 0.499628 0.000000
0.532089 0.494322 0.000000
0.542278 0.492684 0.000000
0.573281 0.488115 0.000000
0.604285 0.484087 0.000000
0.635288 0.480509 0.000000
0.666291 0.477309 0.000000
0.697294 0.474431 0.000000
0.728298 0.471828 0.000000
0.759301 0.469463 0.000000
0.790304 0.467304 0.000000
0.821308 0.465325 0.000000
0.852311 0.463506 0.000000
0.883314 0.461827 0.000000
0.914317 0.460272 0.000000
0.945321 0.458830 0.000000
0.976324 0.457486 0.000000
1.000000 0.456923 0.007327
1.000000 0.459283 0.034000
0.000000 0.530000 0.000000
0.035687 0.530000 0.000000
0.071219 0.530000 0.000000
0.106699 0.530000 0.000000
0.142179 0.530000 0.000000
0.177659 0.530000 0.000000
0.213139 0.530000 0.000000
0.248619 0.530000 0.000000
0.284099 0.530000 0.000000
0.319580 0.530000 0.000000
0.355060 0.530000 0.000000
0.390540 0.530000 0.000000
0.426020 0.530000 0.000000
0.461500 0.530000 0.000000
0.496980 0.530000 0.000000
0.532089 0.529630 0.000000
0.542278 0.527875 0.000000
0.573281 0.522981 0.000000
0.604285 0.518665 0.000000
0.635288 0.514831 0.000000
0.666291 0.511403 0.000000
0.697294 0.508319 0.000000
0.728298 0.505530 0.000000
0.759301 0.502996 0.000000
0.790304 0.500683 0.000000
0.821308 0.498563 0.000000
0.852311 0.496613 0.000000
0.883314 0.494814 0.000000
0.914317 0.493149 0.000000
0.945321 0.491603 0.000000
0.976324 0.490164 0.000000
1.000000 0.489037 0.007327
1.000000 0.489660 0.034000
0.000000 0.560000 0.000000
0.035350 0.560000 0.000000
0.070547 0.560000 0.000000
0.105692 0.560000 0.000000
0.140838 0.560000 0.000000
0.175983 0.560000 0.000000
0.211128 0.560000 0.000000
0.246274 0.560000 0.000000
0.281419 0.560000 0.000000
0.316565 0.560000 0.000000
0.351710 0.560000 0.000000
0.386855 0.560000 0.000000
0.422001 0.560000 0.000000
0.457146 0.560000 0.000000
0.492292 0.560000 0.000000
0.527437 0.560000 0.000000
0.539324 0.560000 0.000000
0.573281 0.557846 0.000000
0.604285 0.553243 0.000000
0.635288 0.549153 0.000000
0.666291 0.545496 0.000000
0.697294 0.542207 0.000000
0.728298 0.539232 0.000000
0.759301 0.536529 0.000000
0.790304 0.534061 0.000000
0.821308 0.531800 0.000000
0.852311 0.529721 0.000000
0.883314 0.527802 0.000000
0.914317 0.526026 0.000000
0.945321 0.524377 0.000000
0.976324 0.522842 0.000000
1.000000 0.521151 0.007327
1.000000 0.520038 0.034000
0.000000 0.570875 0.000000
0.035238 0.570875 0.000000
0.070323 0.570875 0.000000
0.105358 0.570875 0.000000
0.140392 0.570875 0.000000
0.175426 0.570875 0.000000
0.210460 0.570875 0.000000
0.245494 0.570875 0.000000
0.280529 0.570875 0.000000
0.315563 0.570875 0.000000
0.350597 0.570875 0.000000
0.385631 0.570875 0.000000
0.420665 0.570875 0.000000
0.455699 0.570875 0.000000
0.490734 0.570875 0.000000
0.525768 0.570875 0.000000
0.537618 0.570875 0.000000
0.573281 0.570485 0.000000
0.604285 0.565777 0.000000
0.635288 0.561595 0.000000
0.666291 0.557855 0.000000
0.697294 0.554491 0.000000
0.728298 0.551449 0.000000
0.759301 0.548684 0.000000
0.790304 0.546161 0.000000
0.821308 0.543849 0.000000
0.852311 0.541722 0.000000
0.883314 0.539760 0.000000
0.914317 0.537943 0.000000
0.945321 0.536257 0.000000
0.976324 0.534687 0.000000
1.000000 0.532792 0.007327
1.000000 0.531050 0.034000
0.000000 0.601750 0.000000
0.034946 0.601750 0.000000
0.069740 0.601750 0.000000
0.104484 0.601750 0.000000
0.139228 0.601750 0.000000
0.173971 0.601750 0.000000
0.208715 0.601750 0.000000
0.243459 0.601750 0.000000
0.278202 0.601750 0.000000
0.312946 0.601750 0.000000
0.347690 0.601750 0.000000
0.382433 0.601750 0.000000
0.417177 0.601750 0.000000
0.451920 0.601750 0.000000
0.486664 0.601750 0.000000
0.521408 0.601750 0.000000
0.533159 0.601750 0.000000
0.568916 0.601750 0.000000
0.604285 0.601363 0.000000
0.635288 0.596918 0.000000
0.666291 0.592943 0.000000
0.697294 0.589368 0.000000
0.728298 0.586134 0.000000
0.759301 0.583196 0.000000
0.790304 0.580514 0.000000
0.821308 0.578056 0.000000
0.852311 0.575796 0.000000
0.883314 0.573710 0.000000
0.914317 0.571779 0.000000
0.945321 0.569986 0.000000
0.976324 0.568318 0.000000
1.000000 0.565843 0.007327
1.000000 0.562313 0.034000
0.000000 0.632625 0.000000
0.034686 0.632625 0.000000
0.069222 0.632625 0.000000
0.103708 0.632625 0.000000
0.138193 0.632625 0.000000
0.172679 0.632625 0.000000
0.207165 0.632625 0.000000
0.241650 0.632625 0.000000
0.276136 0.632625 0.000000
0.310621 0.632625 0.000000
0.345107 0.632625 0.000000
0.379593 0.632625 0.000000
0.414078 0.632625 0.000000
0.448564 0.632625 0.000000
0.483049 0.632625 0.000000
0.517535 0.632625 0.000000
0.529199 0.632625 0.000000
0.564691 0.632625 0.000000
0.600182 0.632625 0.000000
0.635288 0.632241 0.000000
0.666291 0.628031 0.000000
0.697294 0.624244 0.000000
0.728298 0.620819 0.000000
0.759301 0.617707 0.000000
0.790304 0.614866 0.000000
0.821308 0.612263 0.000000
0.852311 0.609869 0.000000
0.883314 0.607660 0.000000
0.914317 0.605614 0.000000
0.945321 0.603716 0.000000
0.976324 0.601949 0.000000
1.000000 0.598894 0.007327
1.000000 0.593576 0.034000
0.000000 0.663500 0.000000
0.034454 0.663500 0.000000
0.068759 0.663500 0.000000
0.103014 0.663500 0.000000
0.137269 0.663500 0.000000
0.171524 0.663500 0.000000
0.205778 0.663500 0.000000
0.240033 0.663500 0.000000
0.274288 0.663500 0.000000
0.308543 0.663500 0.000000
0.342798 0.663500 0.000000
0.377053 0.663500 0.000000
0.411307 0.663500 0.000000
0.445562 0.663500 0.000000
0.479817 0.663500 0.000000
0.514072 0.663500 0.000000
0.525658 0.663500 0.000000
0.560912 0.663500 0.000000
0.596166 0.663500 0.000000
0.631420 0.663500 0.000000
0.666291 0.663119 0.000000
0.697294 0.659120 0.000000
0.728298 0.655504 0.000000
0.759301 0.652218 0.000000
0.790304 0.649218 0.000000
0.821308 0.646470 0.000000
0.852311 0.643942 0.000000
0.883314 0.641609 0.000000
0.914317 0.639450 0.000000
0.945321 0.637445 0.000000
0.976324 0.635579 0.000000
1.000000 0.631944 0.007327
1.000000 0.624840 0.034000
0.000000 0.694375 0.000000
0.034245 0.694375 0.000000
0.068342 0.694375 0.000000
0.102390 0.694375 0.000000
0.136437 0.694375 0.000000
0.170484 0.694375 0.000000
0.204532 0.694375 0.000000
0.238579 0.694375 0.000000
0.272626 0.694375 0.000000
0.306673 0.694375 0.000000
0.340721 0.694375 0.000000
0.374768 0.694375 0.000000
0.408815 0.694375 0.000000
0.442863 0.694375 0.000000
0.476910 0.694375 0.000000
0.510957 0.694375 0.000000
0.522473 0.694375 0.000000
0.557513 0.694375 0.000000
0.592554 0.694375 0.000000
0.627594 0.694375 0.000000
0.662634 0.694375 0.000000
0.697294 0.693997 0.000000
0.728298 0.690189 0.000000
0.759301 0.686729 0.000000
0.790304 0.683571 0.000000
0.821308 0.680677 0.000000
0.852311 0.678015 0.000000
0.883314 0.675559 0.000000
0.914317 0.673285 0.000000
0.945321 0.671175 0.000000
0.976324 0.669210 0.000000
1.000000 0.664995 0.007327
1.000000 0.656103 0.034000
0.000000 0.725250 0.000000
0.034057 0.725250 0.000000
0.067966 0.725250 0.000000
0.101825 0.725250 0.000000
0.135685 0.725250 0.000000
0.169544 0.725250 0.000000
0.203404 0.725250 0.000000
0.237264 0.725250 0.000000
0.271123 0.725250 0.000000
0.304983 0.725250 0.000000
0.338842 0.725250 0.000000
0.372702 0.725250 0.000000
0.406562 0.725250 0.000000
0.440421 0.725250 0.000000
0.474281 0.725250 0.000000
0.508140 0.725250 0.000000
0.519593 0.725250 0.000000
0.554440 0.725250 0.000000
0.589287 0.725250 0.000000
0.624134 0.725250 0.000000
0.658981 0.725250 0.000000
0.693828 0.725250 0.000000
0.728298 0.724874 0.000000
0.759301 0.721240 0.000000
0.790304 0.717923 0.000000
0.821308 0.714884 0.000000
0.852311 0.712088 0.000000
0.883314 0.709509 0.000000
0.914317 0.707121 0.000000
0.945321 0.704904 0.000000
0.976324 0.702841 0.000000
1.000000 0.698046 0.007327
1.000000 0.687366 0.034000
0.000000 0.756125 0.000000
0.033885 0.756125 0.000000
0.067623 0.756125 0.000000
0.101312 0.756125 0.000000
0.135001 0.756125 0.000000
0.168690 0.756125 0.000000
0.202379 0.756125 0.000000
0.236068 0.756125 0.000000
0.269758 0.756125 0.000000
0.303447 0.756125 0.000000
0.337136 0.756125 0.000000
0.370825 0.756125 0.000000
0.404514 0.756125 0.000000
0.438203 0.756125 0.000000
0.471892 0.756125 0.000000
0.505581 0.756125 0.000000
0.516975 0.756125 0.000000
0.551647 0.756125 0.000000
0.586319 0.756125 0.000000
0.620990 0.756125 0.000000
0.655662 0.756125 0.000000
0.690334 0.756125 0.000000
0.725005 0.756125 0.000000
0.759301 0.755751 0.000000
0.790304 0.752275 0.000000
0.821308 0.749091 0.000000
0.852311 0.746162 0.000000
0.883314 0.743459 0.000000
0.914317 0.740956 0.000000
0.945321 0.738634 0.000000
0.976324 0.736471 0.000000
1.000000 0.731096 0.007327
1.000000 0.718630 0.034000
0.000000 0.787000 0.000000
0.033729 0.787000 0.000000
0.067311 0.787000 0.000000
0.100844 0.787000 0.000000
0.134378 0.787000 0.000000
0.167911 0.787000 0.000000
0.201444 0.787000 0.000000
0.234978 0.787000 0.000000
0.268511 0.787000 0.000000
0.302044 0.787000 0.000000
0.335578 0.787000 0.000000
0.369111 0.787000 0.000000
0.402645 0.787000 0.000000
0.436178 0.787000 0.000000
0.469711 0.787000 0.000000
0.503245 0.787000 0.000000
0.514587 0.787000 0.000000
0.549098 0.787000 0.000000
0.583610 0.787000 0.000000
0.618121 0.787000 0.000000
0.652633 0.787000 0.000000
0.687144 0.787000 0.000000
0.721655 0.787000 0.000000
0.756167 0.787000 0.000000
0.790304 0.786628 0.000000
0.821308 0.783298 0.000000
0.852311 0.780235 0.000000
0.883314 0.777408 0.000000
0.914317 0.774792 0.000000
0.945321 0.772363 0.000000
0.976324 0.770102 0.000000
1.000000 0.764147 0.007327
1.000000 0.749893 0.034000
0.000000 0.817875 0.000000
0.033585 0.817875 0.000000
0.067025 0.817875 0.000000
0.100415 0.817875 0.000000
0.133806 0.817875 0.000000
0.167197 0.817875 0.000000
0.200588 0.817875 0.000000
0.233978 0.817875 0.000000
0.267369 0.817875 0.000000
0.300760 0.817875 0.000000
0.334150 0.817875 0.000000
0.367541 0.817875 0.000000
0.400932 0.817875 0.000000
0.434323 0.817875 0.000000
0.467713 0.817875 0.000000
0.501104 0.817875 0.000000
0.512398 0.817875 0.000000
0.546763 0.817875 0.000000
0.581127 0.817875 0.000000
0.615492 0.817875 0.000000
0.649857 0.817875 0.000000
0.684221 0.817875 0.000000
0.718586 0.817875 0.000000
0.752950 0.817875 0.000000
0.787315 0.817875 0.000000
0.821308 0.817505 0.000000
0.852311 0.814308 0.000000
0.883314 0.811358 0.000000
0.914317 0.808627 0.000000
0.945321 0.806092 0.000000
0.976324 0.803733 0.000000
1.000000 0.797198 0.007327
1.000000 0.781156 0.034000
0.000000 0.848750 0.000000
0.033453 0.848750 0.000000
0.066761 0.848750 0.000000
0.100021 0.848750 0.000000
0.133280 0.848750 0.000000
0.166540 0.848750 0.000000
0.199800 0.848750 0.000000
0.233059 0.848750 0.000000
0.266319 0.848750 0.000000
0.299578 0.848750 0.000000
0.332838 0.848750 0.000000
0.366097 0.848750 0.000000
0.399357 0.848750 0.000000
0.432616 0.848750 0.000000
0.465876 0.848750 0.000000
0.499136 0.848750 0.000000
0.510385 0.848750 0.000000
0.544615 0.848750 0.000000
0.578844 0.848750 0.000000
0.613074 0.848750 0.000000
0.647304 0.848750 0.000000
0.681533 0.848750 0.000000
0.715763 0.848750 0.000000
0.749993 0.848750 0.000000
