docs/luts/fuji_recipes/NEGA_GB_Big_Softy.cube
TITLE "Fujifilm Recipe: GB Big Softy (NEGA)"
# FilmSim=NEGA HL=-1 SH=0 Col=-2 WB=Auto WBR=0 WBB=0
LUT_3D_SIZE 33
DOMAIN_MIN 0.0 0.0 0.0
DOMAIN_MAX 1.0 1.0 1.0
0.016000 0.016000 0.016000
0.040329 0.022421 0.022421
0.064659 0.028841 0.028841
0.088988 0.035262 0.035262
0.113318 0.041682 0.041682
0.137647 0.048103 0.048103
0.161976 0.054524 0.054524
0.186306 0.060944 0.060944
0.210635 0.067365 0.067365
0.234965 0.073785 0.073785
0.259294 0.080206 0.080206
0.283623 0.086627 0.086627
0.307953 0.093047 0.093047
0.332282 0.099468 0.099468
0.356612 0.105888 0.105888
0.380941 0.112309 0.112309
0.405118 0.118690 0.118690
0.422711 0.123348 0.123348
0.445409 0.129402 0.129402
0.468108 0.135456 0.135456
0.490806 0.141510 0.141510
0.513505 0.147564 0.147564
0.536204 0.153617 0.153617
0.558902 0.159671 0.159671
0.581601 0.165725 0.165725
0.604299 0.171779 0.171779
0.626998 0.177833 0.177833
0.649696 0.183886 0.183886
0.672395 0.189940 0.189940
0.695093 0.195994 0.195994
0.717792 0.202048 0.202048
0.740490 0.208102 0.208102
0.763189 0.214156 0.214156
0.022421 0.040329 0.022421
0.040329 0.040329 0.022421
0.064659 0.046750 0.028841
0.088988 0.053171 0.035262
0.113318 0.059591 0.041682
0.137647 0.066012 0.048103
0.161976 0.072432 0.054524
0.186306 0.078853 0.060944
0.210635 0.085274 0.067365
0.234965 0.091694 0.073785
0.259294 0.098115 0.080206
0.283623 0.104535 0.086627
0.307953 0.110956 0.093047
0.332282 0.117377 0.099468
0.356612 0.123797 0.105888
0.380941 0.130218 0.112309
0.405118 0.136598 0.118690
0.422711 0.141257 0.123348
0.445409 0.147311 0.129402
0.468108 0.153365 0.135456
0.490806 0.159419 0.141510
0.513505 0.165472 0.147564
0.536204 0.171526 0.153617
0.558902 0.177580 0.159671
0.581601 0.183634 0.165725
0.604299 0.189688 0.171779
0.626998 0.195741 0.177833
0.649696 0.201795 0.183886
0.672395 0.207849 0.189940
0.695093 0.213903 0.195994
0.717792 0.219957 0.202048
0.740490 0.226011 0.208102
0.763189 0.232064 0.214156
0.028841 0.064659 0.028841
0.046750 0.064659 0.028841
0.064659 0.064659 0.028841
0.088988 0.071079 0.035262
0.113318 0.077500 0.041682
0.137647 0.083921 0.048103
0.161976 0.090341 0.054524
0.186306 0.096762 0.060944
0.210635 0.103182 0.067365
0.234965 0.109603 0.073785
0.259294 0.116024 0.080206
0.283623 0.122444 0.086627
0.307953 0.128865 0.093047
0.332282 0.135285 0.099468
0.356612 0.141706 0.105888
0.380941 0.148127 0.112309
0.405118 0.154507 0.118690
0.422711 0.159166 0.123348
0.445409 0.165220 0.129402
0.468108 0.171273 0.135456
0.490806 0.177327 0.141510
0.513505 0.183381 0.147564
0.536204 0.189435 0.153617
0.558902 0.195489 0.159671
0.581601 0.201543 0.165725
0.604299 0.207596 0.171779
0.626998 0.213650 0.177833
0.649696 0.219704 0.183886
0.672395 0.225758 0.189940
0.695093 0.231812 0.195994
0.717792 0.237866 0.202048
0.740490 0.243919 0.208102
0.763189 0.249973 0.214156
0.035262 0.088988 0.035262
0.053171 0.088988 0.035262
0.071079 0.088988 0.035262
0.088988 0.088988 0.035262
0.113318 0.095409 0.041682
0.137647 0.101829 0.048103
0.161976 0.108250 0.054524
0.186306 0.114671 0.060944
0.210635 0.121091 0.067365
0.234965 0.127512 0.073785
0.259294 0.133932 0.080206
0.283623 0.140353 0.086627
0.307953 0.146774 0.093047
0.332282 0.153194 0.099468
0.356612 0.159615 0.105888
0.380941 0.166035 0.112309
0.405118 0.172416 0.118690
0.422711 0.177075 0.123348
0.445409 0.183128 0.129402
0.468108 0.189182 0.135456
0.490806 0.195236 0.141510
0.513505 0.201290 0.147564
0.536204 0.207344 0.153617
0.558902 0.213398 0.159671
0.581601 0.219451 0.165725
0.604299 0.225505 0.171779
0.626998 0.231559 0.177833
0.649696 0.237613 0.183886
0.672395 0.243667 0.189940
0.695093 0.249721 0.195994
0.717792 0.255774 0.202048
0.740490 0.261828 0.208102
0.763189 0.267882 0.214156
0.041682 0.113318 0.041682
0.059591 0.113318 0.041682
0.077500 0.113318 0.041682
0.095409 0.113318 0.041682
0.113318 0.113318 0.041682
0.137647 0.119738 0.048103
0.161976 0.126159 0.054524
0.186306 0.132579 0.060944
0.210635 0.139000 0.067365
0.234965 0.145421 0.073785
0.259294 0.151841 0.080206
0.283623 0.158262 0.086627
0.307953 0.164682 0.093047
0.332282 0.171103 0.099468
0.356612 0.177524 0.105888
0.380941 0.183944 0.112309
0.405118 0.190325 0.118690
0.422711 0.194983 0.123348
0.445409 0.201037 0.129402
0.468108 0.207091 0.135456
0.490806 0.213145 0.141510
0.513505 0.219199 0.147564
0.536204 0.225253 0.153617
0.558902 0.231306 0.159671
0.581601 0.237360 0.165725
0.604299 0.243414 0.171779
0.626998 0.249468 0.177833
0.649696 0.255522 0.183886
0.672395 0.261576 0.189940
0.695093 0.267629 0.195994
0.717792 0.273683 0.202048
0.740490 0.279737 0.208102
0.763189 0.285791 0.214156
0.048103 0.137647 0.048103
0.066012 0.137647 0.048103
0.083921 0.137647 0.048103
0.101829 0.137647 0.048103
0.119738 0.137647 0.048103
0.137647 0.137647 0.048103
0.161976 0.144068 0.054524
0.186306 0.150488 0.060944
0.210635 0.156909 0.067365
0.234965 0.163329 0.073785
0.259294 0.169750 0.080206
0.283623 0.176171 0.086627
0.307953 0.182591 0.093047
0.332282 0.189012 0.099468
0.356612 0.195432 0.105888
0.380941 0.201853 0.112309
0.405118 0.208234 0.118690
0.422711 0.212892 0.123348
0.445409 0.218946 0.129402
0.468108 0.225000 0.135456
0.490806 0.231054 0.141510
0.513505 0.237108 0.147564
0.536204 0.243161 0.153617
0.558902 0.249215 0.159671
0.581601 0.255269 0.165725
0.604299 0.261323 0.171779
0.626998 0.267377 0.177833
0.649696 0.273430 0.183886
0.672395 0.279484 0.189940
0.695093 0.285538 0.195994
0.717792 0.291592 0.202048
0.740490 0.297646 0.208102
0.763189 0.303700 0.214156
0.054524 0.161976 0.054524
0.072432 0.161976 0.054524
0.090341 0.161976 0.054524
0.108250 0.161976 0.054524
0.126159 0.161976 0.054524
0.144068 0.161976 0.054524
0.161976 0.161976 0.054524
0.186306 0.168397 0.060944
0.210635 0.174818 0.067365
0.234965 0.181238 0.073785
0.259294 0.187659 0.080206
0.283623 0.194079 0.086627
0.307953 0.200500 0.093047
0.332282 0.206921 0.099468
0.356612 0.213341 0.105888
0.380941 0.219762 0.112309
0.405118 0.226142 0.118690
0.422711 0.230801 0.123348
0.445409 0.236855 0.129402
0.468108 0.242909 0.135456
0.490806 0.248963 0.141510
0.513505 0.255016 0.147564
0.536204 0.261070 0.153617
0.558902 0.267124 0.159671
0.581601 0.273178 0.165725
0.604299 0.279232 0.171779
0.626998 0.285285 0.177833
0.649696 0.291339 0.183886
0.672395 0.297393 0.189940
0.695093 0.303447 0.195994
0.717792 0.309501 0.202048
0.740490 0.315555 0.208102
0.763189 0.321608 0.214156
0.060944 0.186306 0.060944
0.078853 0.186306 0.060944
0.096762 0.186306 0.060944
0.114671 0.186306 0.060944
0.132579 0.186306 0.060944
0.150488 0.186306 0.060944
0.168397 0.186306 0.060944
0.186306 0.186306 0.060944
0.210635 0.192726 0.067365
0.234965 0.199147 0.073785
0.259294 0.205568 0.080206
0.283623 0.211988 0.086627
0.307953 0.218409 0.093047
0.332282 0.224829 0.099468
0.356612 0.231250 0.105888
0.380941 0.237671 0.112309
0.405118 0.244051 0.118690
0.422711 0.248710 0.123348
0.445409 0.254764 0.129402
0.468108 0.260817 0.135456
0.490806 0.266871 0.141510
0.513505 0.272925 0.147564
0.536204 0.278979 0.153617
0.558902 0.285033 0.159671
0.581601 0.291087 0.165725
0.604299 0.297140 0.171779
0.626998 0.303194 0.177833
0.649696 0.309248 0.183886
0.672395 0.315302 0.189940
0.695093 0.321356 0.195994
0.717792 0.327410 0.202048
0.740490 0.333463 0.208102
0.763189 0.339517 0.214156
0.067365 0.210635 0.067365
0.085274 0.210635 0.067365
0.103182 0.210635 0.067365
0.121091 0.210635 0.067365
0.139000 0.210635 0.067365
0.156909 0.210635 0.067365
0.174818 0.210635 0.067365
0.192726 0.210635 0.067365
0.210635 0.210635 0.067365
0.234965 0.217056 0.073785
0.259294 0.223476 0.080206
0.283623 0.229897 0.086627
0.307953 0.236318 0.093047
0.332282 0.242738 0.099468
0.356612 0.249159 0.105888
0.380941 0.255579 0.112309
0.405118 0.261960 0.118690
0.422711 0.266619 0.123348
0.445409 0.272672 0.129402
0.468108 0.278726 0.135456
0.490806 0.284780 0.141510
0.513505 0.290834 0.147564
0.536204 0.296888 0.153617
0.558902 0.302942 0.159671
0.581601 0.308995 0.165725
0.604299 0.315049 0.171779
0.626998 0.321103 0.177833
0.649696 0.327157 0.183886
0.672395 0.333211 0.189940
0.695093 0.339265 0.195994
0.717792 0.345318 0.202048
0.740490 0.351372 0.208102
0.763189 0.357426 0.214156
0.073785 0.234965 0.073785
0.091694 0.234965 0.073785
0.109603 0.234965 0.073785
0.127512 0.234965 0.073785
0.145421 0.234965 0.073785
0.163329 0.234965 0.073785
0.181238 0.234965 0.073785
0.199147 0.234965 0.073785
0.217056 0.234965 0.073785
0.234965 0.234965 0.073785
0.259294 0.241385 0.080206
0.283623 0.247806 0.086627
0.307953 0.254226 0.093047
0.332282 0.260647 0.099468
0.356612 0.267068 0.105888
0.380941 0.273488 0.112309
0.405118 0.279869 0.118690
0.422711 0.284527 0.123348
0.445409 0.290581 0.129402
0.468108 0.296635 0.135456
0.490806 0.302689 0.141510
0.513505 0.308743 0.147564
0.536204 0.314797 0.153617
0.558902 0.320850 0.159671
0.581601 0.326904 0.165725
0.604299 0.332958 0.171779
0.626998 0.339012 0.177833
0.649696 0.345066 0.183886
0.672395 0.351120 0.189940
0.695093 0.357173 0.195994
0.717792 0.363227 0.202048
0.740490 0.369281 0.208102
0.763189 0.375335 0.214156
0.080206 0.259294 0.080206
0.098115 0.259294 0.080206
0.116024 0.259294 0.080206
0.133932 0.259294 0.080206
0.151841 0.259294 0.080206
0.169750 0.259294 0.080206
0.187659 0.259294 0.080206
0.205568 0.259294 0.080206
0.223476 0.259294 0.080206
0.241385 0.259294 0.080206
0.259294 0.259294 0.080206
0.283623 0.265715 0.086627
0.307953 0.272135 0.093047
0.332282 0.278556 0.099468
0.356612 0.284976 0.105888
0.380941 0.291397 0.112309
0.405118 0.297778 0.118690
0.422711 0.302436 0.123348
0.445409 0.308490 0.129402
0.468108 0.314544 0.135456
0.490806 0.320598 0.141510
0.513505 0.326652 0.147564
0.536204 0.332705 0.153617
0.558902 0.338759 0.159671
0.581601 0.344813 0.165725
0.604299 0.350867 0.171779
0.626998 0.356921 0.177833
0.649696 0.362974 0.183886
0.672395 0.369028 0.189940
0.695093 0.375082 0.195994
0.717792 0.381136 0.202048
0.740490 0.387190 0.208102
0.763189 0.393244 0.214156
0.086627 0.283623 0.086627
0.104535 0.283623 0.086627
0.122444 0.283623 0.086627
0.140353 0.283623 0.086627
0.158262 0.283623 0.086627
0.176171 0.283623 0.086627
0.194079 0.283623 0.086627
0.211988 0.283623 0.086627
0.229897 0.283623 0.086627
0.247806 0.283623 0.086627
0.265715 0.283623 0.086627
0.283623 0.283623 0.086627
0.307953 0.290044 0.093047
0.332282 0.296465 0.099468
0.356612 0.302885 0.105888
0.380941 0.309306 0.112309
0.405118 0.315686 0.118690
0.422711 0.320345 0.123348
0.445409 0.326399 0.129402
0.468108 0.332453 0.135456
0.490806 0.338507 0.141510
0.513505 0.344560 0.147564
0.536204 0.350614 0.153617
0.558902 0.356668 0.159671
0.581601 0.362722 0.165725
0.604299 0.368776 0.171779
0.626998 0.374829 0.177833
0.649696 0.380883 0.183886
0.672395 0.386937 0.189940
0.695093 0.392991 0.195994
0.717792 0.399045 0.202048
0.740490 0.405099 0.208102
0.763189 0.411152 0.214156
0.093047 0.307953 0.093047
0.110956 0.307953 0.093047
0.128865 0.307953 0.093047
0.146774 0.307953 0.093047
0.164682 0.307953 0.093047
0.182591 0.307953 0.093047
0.200500 0.307953 0.093047
0.218409 0.307953 0.093047
0.236318 0.307953 0.093047
0.254226 0.307953 0.093047
0.272135 0.307953 0.093047
0.290044 0.307953 0.093047
0.307953 0.307953 0.093047
0.332282 0.314373 0.099468
0.356612 0.320794 0.105888
0.380941 0.327215 0.112309
0.405118 0.333595 0.118690
0.422711 0.338254 0.123348
0.445409 0.344308 0.129402
0.468108 0.350361 0.135456
0.490806 0.356415 0.141510
0.513505 0.362469 0.147564
0.536204 0.368523 0.153617
0.558902 0.374577 0.159671
0.581601 0.380631 0.165725
0.604299 0.386684 0.171779
0.626998 0.392738 0.177833
0.649696 0.398792 0.183886
0.672395 0.404846 0.189940
0.695093 0.410900 0.195994
0.717792 0.416954 0.202048
0.740490 0.423007 0.208102
0.763189 0.429061 0.214156
0.099468 0.332282 0.099468
0.117377 0.332282 0.099468
0.135285 0.332282 0.099468
0.153194 0.332282 0.099468
0.171103 0.332282 0.099468
0.189012 0.332282 0.099468
0.206921 0.332282 0.099468
0.224829 0.332282 0.099468
0.242738 0.332282 0.099468
0.260647 0.332282 0.099468
0.278556 0.332282 0.099468
0.296465 0.332282 0.099468
0.314373 0.332282 0.099468
0.332282 0.332282 0.099468
0.356612 0.338703 0.105888
0.380941 0.345123 0.112309
0.405118 0.351504 0.118690
0.422711 0.356163 0.123348
0.445409 0.362216 0.129402
0.468108 0.368270 0.135456
0.490806 0.374324 0.141510
0.513505 0.380378 0.147564
0.536204 0.386432 0.153617
0.558902 0.392486 0.159671
0.581601 0.398539 0.165725
0.604299 0.404593 0.171779
0.626998 0.410647 0.177833
0.649696 0.416701 0.183886
0.672395 0.422755 0.189940
0.695093 0.428809 0.195994
0.717792 0.434862 0.202048
0.740490 0.440916 0.208102
0.763189 0.446970 0.214156
0.105888 0.356612 0.105888
0.123797 0.356612 0.105888
0.141706 0.356612 0.105888
0.159615 0.356612 0.105888
0.177524 0.356612 0.105888
0.195432 0.356612 0.105888
0.213341 0.356612 0.105888
0.231250 0.356612 0.105888
0.249159 0.356612 0.105888
0.267068 0.356612 0.105888
0.284976 0.356612 0.105888
0.302885 0.356612 0.105888
0.320794 0.356612 0.105888
0.338703 0.356612 0.105888
0.356612 0.356612 0.105888
0.380941 0.363032 0.112309
0.405118 0.369413 0.118690
0.422711 0.374071 0.123348
0.445409 0.380125 0.129402
0.468108 0.386179 0.135456
0.490806 0.392233 0.141510
0.513505 0.398287 0.147564
0.536204 0.404341 0.153617
0.558902 0.410394 0.159671
0.581601 0.416448 0.165725
0.604299 0.422502 0.171779
0.626998 0.428556 0.177833
0.649696 0.434610 0.183886
0.672395 0.440663 0.189940
0.695093 0.446717 0.195994
0.717792 0.452771 0.202048
0.740490 0.458825 0.208102
0.763189 0.464879 0.214156
0.112309 0.380941 0.112309
0.130218 0.380941 0.112309
0.148127 0.380941 0.112309
0.166035 0.380941 0.112309
0.183944 0.380941 0.112309
0.201853 0.380941 0.112309
0.219762 0.380941 0.112309
0.237671 0.380941 0.112309
0.255579 0.380941 0.112309
0.273488 0.380941 0.112309
0.291397 0.380941 0.112309
0.309306 0.380941 0.112309
0.327215 0.380941 0.112309
0.345123 0.380941 0.112309
0.363032 0.380941 0.112309
0.380941 0.380941 0.112309
0.405118 0.387322 0.118690
0.422711 0.391980 0.123348
0.445409 0.398034 0.129402
0.468108 0.404088 0.135456
0.490806 0.410142 0.141510
0.513505 0.416196 0.147564
0.536204 0.422249 0.153617
0.558902 0.428303 0.159671
0.581601 0.434357 0.165725
0.604299 0.440411 0.171779
0.626998 0.446465 0.177833
0.649696 0.452518 0.183886
0.672395 0.458572 0.189940
0.695093 0.464626 0.195994
0.717792 0.470680 0.202048
0.740490 0.476734 0.208102
0.763189 0.482788 0.214156
0.118690 0.405118 0.118690
0.136598 0.405118 0.118690
0.154507 0.405118 0.118690
0.172416 0.405118 0.118690
0.190325 0.405118 0.118690
0.208234 0.405118 0.118690
0.226142 0.405118 0.118690
0.244051 0.405118 0.118690
0.261960 0.405118 0.118690
0.279869 0.405118 0.118690
0.297778 0.405118 0.118690
0.315686 0.405118 0.118690
0.333595 0.405118 0.118690
0.351504 0.405118 0.118690
0.369413 0.405118 0.118690
0.387322 0.405118 0.118690
0.405118 0.405118 0.118690
0.422711 0.409777 0.123348
0.445409 0.415831 0.129402
0.468108 0.421885 0.135456
0.490806 0.427939 0.141510
0.513505 0.433993 0.147564
0.536204 0.440046 0.153617
0.558902 0.446100 0.159671
0.581601 0.452154 0.165725
0.604299 0.458208 0.171779
0.626998 0.464262 0.177833
0.649696 0.470299 0.183886
0.672395 0.476300 0.189940
0.695093 0.482301 0.195994
0.717792 0.488303 0.202048
0.740490 0.494304 0.208102
0.763189 0.500305 0.214156
0.123348 0.422711 0.123348
0.141257 0.422711 0.123348
0.159166 0.422711 0.123348
0.177075 0.422711 0.123348
0.194983 0.422711 0.123348
0.212892 0.422711 0.123348
0.230801 0.422711 0.123348
0.248710 0.422711 0.123348
0.266619 0.422711 0.123348
0.284527 0.422711 0.123348
0.302436 0.422711 0.123348
0.320345 0.422711 0.123348
0.338254 0.422711 0.123348
0.356163 0.422711 0.123348
0.374071 0.422711 0.123348
0.391980 0.422711 0.123348
0.409777 0.422711 0.123348
0.422711 0.422711 0.123348
0.445409 0.428712 0.129402
0.468108 0.434713 0.135456
0.490806 0.440714 0.141510
0.513505 0.446715 0.147564
0.536204 0.452716 0.153617
0.558902 0.458718 0.159671
0.581601 0.464719 0.165725
0.604299 0.470720 0.171779
0.626998 0.476721 0.177833
0.649696 0.482722 0.183886
0.672395 0.488723 0.189940
0.695093 0.494724 0.195994
0.717792 0.500725 0.202048
0.740490 0.506727 0.208102
0.763189 0.512728 0.214156
0.129402 0.445409 0.129402
0.147311 0.445409 0.129402
0.165220 0.445409 0.129402
0.183128 0.445409 0.129402
0.201037 0.445409 0.129402
0.218946 0.445409 0.129402
0.236855 0.445409 0.129402
0.254764 0.445409 0.129402
0.272672 0.445409 0.129402
0.290581 0.445409 0.129402
0.308490 0.445409 0.129402
0.326399 0.445409 0.129402
0.344308 0.445409 0.129402
0.362216 0.445409 0.129402
0.380125 0.445409 0.129402
0.398034 0.445409 0.129402
0.415831 0.445409 0.129402
0.428712 0.445409 0.129402
0.445409 0.445409 0.129402
0.468108 0.451411 0.135456
0.490806 0.457412 0.141510
0.513505 0.463413 0.147564
0.536204 0.469414 0.153617
0.558902 0.475415 0.159671
0.581601 0.481416 0.165725
0.604299 0.487417 0.171779
0.626998 0.493418 0.177833
0.649696 0.499420 0.183886
0.672395 0.505421 0.189940
0.695093 0.511422 0.195994
0.717792 0.517423 0.202048
0.740490 0.523424 0.208102
0.763189 0.529425 0.214156
0.135456 0.468108 0.135456
0.153365 0.468108 0.135456
0.171273 0.468108 0.135456
0.189182 0.468108 0.135456
0.207091 0.468108 0.135456
0.225000 0.468108 0.135456
0.242909 0.468108 0.135456
0.260817 0.468108 0.135456
0.278726 0.468108 0.135456
0.296635 0.468108 0.135456
0.314544 0.468108 0.135456
0.332453 0.468108 0.135456
0.350361 0.468108 0.135456
0.368270 0.468108 0.135456
0.386179 0.468108 0.135456
0.404088 0.468108 0.135456
0.421885 0.468108 0.135456
0.434713 0.468108 0.135456
0.451411 0.468108 0.135456
0.468108 0.468108 0.135456
0.490806 0.474109 0.141510
0.513505 0.480110 0.147564
0.536204 0.486111 0.153617
0.558902 0.492112 0.159671
0.581601 0.498114 0.165725
0.604299 0.504115 0.171779
0.626998 0.510116 0.177833
0.649696 0.516117 0.183886
0.672395 0.522118 0.189940
0.695093 0.528119 0.195994
0.717792 0.534120 0.202048
0.740490 0.540121 0.208102
0.763189 0.546123 0.214156
0.141510 0.490806 0.141510
0.159419 0.490806 0.141510
0.177327 0.490806 0.141510
0.195236 0.490806 0.141510
0.213145 0.490806 0.141510
0.231054 0.490806 0.141510
0.248963 0.490806 0.141510
0.266871 0.490806 0.141510
0.284780 0.490806 0.141510
0.302689 0.490806 0.141510
0.320598 0.490806 0.141510
0.338507 0.490806 0.141510
0.356415 0.490806 0.141510
0.374324 0.490806 0.141510
0.392233 0.490806 0.141510
0.410142 0.490806 0.141510
0.427939 0.490806 0.141510
0.440714 0.490806 0.141510
0.457412 0.490806 0.141510
0.474109 0.490806 0.141510
0.490806 0.490806 0.141510
0.513505 0.496808 0.147564
0.536204 0.502809 0.153617
0.558902 0.508810 0.159671
0.581601 0.514811 0.165725
0.604299 0.520812 0.171779
0.626998 0.526813 0.177833
0.649696 0.532814 0.183886
0.672395 0.538815 0.189940
0.695093 0.544817 0.195994
0.717792 0.550818 0.202048
0.740490 0.556819 0.208102
0.763189 0.562820 0.214156
0.147564 0.513505 0.147564
0.165472 0.513505 0.147564
0.183381 0.513505 0.147564
0.201290 0.513505 0.147564
0.219199 0.513505 0.147564
0.237108 0.513505 0.147564
0.255016 0.513505 0.147564
0.272925 0.513505 0.147564
0.290834 0.513505 0.147564
0.308743 0.513505 0.147564
0.326652 0.513505 0.147564
0.344560 0.513505 0.147564
0.362469 0.513505 0.147564
0.380378 0.513505 0.147564
0.398287 0.513505 0.147564
0.416196 0.513505 0.147564
0.433993 0.513505 0.147564
0.446715 0.513505 0.147564
0.463413 0.513505 0.147564
0.480110 0.513505 0.147564
0.496808 0.513505 0.147564
0.513505 0.513505 0.147564
0.536204 0.519506 0.153617
0.558902 0.525507 0.159671
0.581601 0.531508 0.165725
0.604299 0.537509 0.171779
0.626998 0.543511 0.177833
0.649696 0.549512 0.183886
0.672395 0.555513 0.189940
0.695093 0.561514 0.195994
0.717792 0.567515 0.202048
0.740490 0.573516 0.208102
0.763189 0.579517 0.214156
0.153617 0.536204 0.153617
0.171526 0.536204 0.153617
0.189435 0.536204 0.153617
0.207344 0.536204 0.153617
0.225253 0.536204 0.153617
0.243161 0.536204 0.153617
0.261070 0.536204 0.153617
0.278979 0.536204 0.153617
0.296888 0.536204 0.153617
0.314797 0.536204 0.153617
0.332705 0.536204 0.153617
0.350614 0.536204 0.153617
0.368523 0.536204 0.153617
0.386432 0.536204 0.153617
0.404341 0.536204 0.153617
0.422249 0.536204 0.153617
0.440046 0.536204 0.153617
0.452716 0.536204 0.153617
0.469414 0.536204 0.153617
0.486111 0.536204 0.153617
0.502809 0.536204 0.153617
0.519506 0.536204 0.153617
0.536204 0.536204 0.153617
0.558902 0.542205 0.159671
0.581601 0.548206 0.165725
0.604299 0.554207 0.171779
0.626998 0.560208 0.177833
0.649696 0.566209 0.183886
0.672395 0.572210 0.189940
0.695093 0.578211 0.195994
0.717792 0.584212 0.202048
0.740490 0.590214 0.208102
0.763189 0.596215 0.214156
0.159671 0.558902 0.159671
0.177580 0.558902 0.159671
0.195489 0.558902 0.159671
0.213398 0.558902 0.159671
0.231306 0.558902 0.159671
0.249215 0.558902 0.159671
0.267124 0.558902 0.159671
0.285033 0.558902 0.159671
0.302942 0.558902 0.159671
0.320850 0.558902 0.159671
0.338759 0.558902 0.159671
0.356668 0.558902 0.159671
0.374577 0.558902 0.159671
0.392486 0.558902 0.159671
0.410394 0.558902 0.159671
0.428303 0.558902 0.159671
0.446100 0.558902 0.159671
0.458718 0.558902 0.159671
0.475415 0.558902 0.159671
0.492112 0.558902 0.159671
0.508810 0.558902 0.159671
0.525507 0.558902 0.159671
0.542205 0.558902 0.159671
0.558902 0.558902 0.159671
0.581601 0.564903 0.165725
0.604299 0.570904 0.171779
0.626998 0.576905 0.177833
0.649696 0.582907 0.183886
0.672395 0.588908 0.189940
0.695093 0.594909 0.195994
0.717792 0.600910 0.202048
0.740490 0.606911 0.208102
0.763189 0.612912 0.214156
0.165725 0.581601 0.165725
0.183634 0.581601 0.165725
0.201543 0.581601 0.165725
0.219451 0.581601 0.165725
0.237360 0.581601 0.165725
0.255269 0.581601 0.165725
0.273178 0.581601 0.165725
0.291087 0.581601 0.165725
0.308995 0.581601 0.165725
0.326904 0.581601 0.165725
0.344813 0.581601 0.165725
0.362722 0.581601 0.165725
0.380631 0.581601 0.165725
0.398539 0.581601 0.165725
0.416448 0.581601 0.165725
0.434357 0.581601 0.165725
0.452154 0.581601 0.165725
0.464719 0.581601 0.165725
0.481416 0.581601 0.165725
0.498114 0.581601 0.165725
0.514811 0.581601 0.165725
0.531508 0.581601 0.165725
0.548206 0.581601 0.165725
0.564903 0.581601 0.165725
0.581601 0.581601 0.165725
0.604299 0.587602 0.171779
0.626998 0.593603 0.177833
0.649696 0.599604 0.183886
0.672395 0.605605 0.189940
0.695093 0.611606 0.195994
0.717792 0.617607 0.202048
0.740490 0.623608 0.208102
0.763189 0.629610 0.214156
0.171779 0.604299 0.171779
0.189688 0.604299 0.171779
0.207596 0.604299 0.171779
0.225505 0.604299 0.171779
0.243414 0.604299 0.171779
0.261323 0.604299 0.171779
0.279232 0.604299 0.171779
0.297140 0.604299 0.171779
0.315049 0.604299 0.171779
0.332958 0.604299 0.171779
0.350867 0.604299 0.171779
0.368776 0.604299 0.171779
0.386684 0.604299 0.171779
0.404593 0.604299 0.171779
0.422502 0.604299 0.171779
0.440411 0.604299 0.171779
0.458208 0.604299 0.171779
0.470720 0.604299 0.171779
0.487417 0.604299 0.171779
0.504115 0.604299 0.171779
0.520812 0.604299 0.171779
0.537509 0.604299 0.171779
0.554207 0.604299 0.171779
0.570904 0.604299 0.171779
0.587602 0.604299 0.171779
0.604299 0.604299 0.171779
0.626998 0.610300 0.177833
0.649696 0.616301 0.183886
0.672395 0.622302 0.189940
0.695093 0.628304 0.195994
0.717792 0.634305 0.202048
0.740490 0.640306 0.208102
0.763189 0.646307 0.214156
0.177833 0.626998 0.177833
0.195741 0.626998 0.177833
0.213650 0.626998 0.177833
0.231559 0.626998 0.177833
0.249468 0.626998 0.177833
0.267377 0.626998 0.177833
0.285285 0.626998 0.177833
0.303194 0.626998 0.177833
0.321103 0.626998 0.177833
0.339012 0.626998 0.177833
0.356921 0.626998 0.177833
0.374829 0.626998 0.177833
0.392738 0.626998 0.177833
0.410647 0.626998 0.177833
0.428556 0.626998 0.177833
0.446465 0.626998 0.177833
0.464262 0.626998 0.177833
0.476721 0.626998 0.177833
0.493418 0.626998 0.177833
0.510116 0.626998 0.177833
0.526813 0.626998 0.177833
0.543511 0.626998 0.177833
0.560208 0.626998 0.177833
0.576905 0.626998 0.177833
0.593603 0.626998 0.177833
