docs/luts/fuji_recipes/NEGA_RR_Fujicolor_100_Industrial.cube
TITLE "Fujifilm Recipe: RR Fujicolor 100 Industrial (NEGA)"
# FilmSim=NEGA HL=1 SH=2 Col=1 WB=3200K WBR=8 WBB=-8
LUT_3D_SIZE 5
DOMAIN_MIN 0.0 0.0 0.0
DOMAIN_MAX 1.0 1.0 1.0
0.014720 0.014720 0.014720
0.272432 0.000000 0.000000
0.553288 0.000000 0.000000
0.827143 0.000000 0.000000
0.938350 0.000000 0.000000
0.000000 0.261557 0.000000
0.272432 0.260239 0.000000
0.553288 0.243649 0.000000
0.827143 0.239340 0.000000
0.938350 0.239045 0.000000
0.000000 0.522695 0.000000
0.255879 0.522695 0.000000
0.553288 0.521215 0.000000
0.827143 0.513607 0.000000
0.938350 0.513611 0.000000
0.000000 0.778166 0.000000
0.251119 0.778166 0.000000
0.546054 0.778166 0.000000
0.827143 0.776704 0.000000
0.938350 0.776384 0.000000
0.000000 0.938350 0.000000
0.250246 0.938350 0.000000
0.545079 0.938350 0.000000
0.826761 0.938350 0.000000
0.938350 0.938350 0.000000
0.000000 0.000000 0.240790
0.272432 0.000000 0.236957
0.553288 0.000000 0.221851
0.827143 0.000000 0.217928
0.938350 0.000000 0.217659
0.000000 0.261557 0.238156
0.281825 0.269050 0.244655
0.592463 0.236639 0.211705
0.930320 0.173182 0.145666
1.000000 0.213529 0.189525
0.000000 0.522695 0.222559
0.252669 0.559211 0.214592
0.592463 0.555776 0.211705
0.930320 0.527423 0.145666
1.000000 0.523276 0.189525
0.000000 0.778166 0.218419
0.198482 0.870474 0.156899
0.575316 0.870474 0.156899
0.930320 0.865505 0.145666
1.000000 0.818210 0.189525
0.000000 0.938350 0.217659
0.226100 1.000000 0.189525
0.558595 1.000000 0.189525
0.874753 1.000000 0.189525
1.000000 1.000000 0.189525
0.000000 0.000000 0.437418
0.260704 0.000000 0.437418
0.553288 0.000000 0.427955
0.827143 0.000000 0.420387
0.938350 0.000000 0.461361
0.000000 0.249036 0.437418
0.262833 0.249597 0.463286
0.593065 0.235893 0.447419
0.928846 0.171930 0.458973
1.000000 0.214205 0.465196
0.000000 0.522695 0.429321
0.251611 0.559965 0.450823
0.592512 0.554145 0.490439
0.911208 0.511888 0.445260
1.000000 0.527182 0.469018
0.000000 0.778166 0.421335
0.196812 0.868335 0.466790
0.560686 0.852472 0.455079
0.911208 0.846969 0.445260
1.000000 0.819700 0.469018
0.000000 0.938350 0.461361
0.227130 1.000000 0.465506
0.562212 1.000000 0.469018
0.875779 1.000000 0.469018
1.000000 1.000000 0.469018
0.000000 0.000000 0.699883
0.252193 0.000000 0.699883
0.547925 0.000000 0.699883
0.827143 0.000000 0.696084
0.938350 0.000000 0.695864
0.000000 0.240905 0.699883
0.227011 0.213598 0.760865
0.580288 0.213598 0.760865
0.928846 0.171930 0.760523
1.000000 0.214205 0.728122
0.000000 0.516213 0.699883
0.219864 0.543688 0.767581
0.570955 0.531996 0.757640
0.907438 0.509302 0.741016
1.000000 0.528961 0.731080
0.000000 0.778166 0.697365
0.196812 0.868335 0.765699
0.557089 0.847032 0.746099
0.895237 0.832312 0.731734
1.000000 0.825034 0.738050
0.000000 0.938350 0.695864
0.227130 1.000000 0.728279
0.565062 1.000000 0.731822
0.879454 1.000000 0.738050
1.000000 1.000000 0.738050
0.000000 0.000000 0.749834
0.251481 0.000000 0.749834
0.546673 0.000000 0.749834
0.827143 0.000000 0.747527
0.938350 0.000000 0.747242
0.000000 0.240225 0.749834
0.203380 0.189162 0.834880
0.578238 0.189162 0.834880
0.928846 0.171930 0.826592
1.000000 0.214205 0.785728
0.000000 0.515050 0.749834
0.202854 0.537710 0.834171
0.563126 0.523810 0.815716
0.907438 0.509302 0.806338
1.000000 0.528961 0.788060
0.000000 0.778166 0.748923
0.196812 0.868335 0.831189
0.557089 0.847032 0.810502
0.892330 0.829977 0.793908
1.000000 0.827951 0.796995
0.000000 0.938350 0.747242
0.227130 1.000000 0.785852
0.565062 1.000000 0.788645
0.881463 1.000000 0.796995
1.000000 1.000000 0.796995
