docs/luts/fuji_recipes/NEGAhi_RR_Jeff_Davenport_Night.cube
TITLE "Fujifilm Recipe: RR Jeff Davenport Night (NEGAhi)"
# FilmSim=NEGAhi HL=1 SH=0 Col=2 WB=2650K WBR=-1 WBB=4
LUT_3D_SIZE 33
DOMAIN_MIN 0.0 0.0 0.0
DOMAIN_MAX 1.0 1.0 1.0
0.000000 0.000000 0.000000
0.018095 0.000000 0.000000
0.038247 0.000000 0.000000
0.060398 0.000000 0.000000
0.082549 0.000000 0.000000
0.104700 0.000000 0.000000
0.126851 0.000000 0.000000
0.149002 0.000000 0.000000
0.171153 0.000000 0.000000
0.193304 0.000000 0.000000
0.215455 0.000000 0.000000
0.237606 0.000000 0.000000
0.259757 0.000000 0.000000
0.281908 0.000000 0.000000
0.304058 0.000000 0.000000
0.326209 0.000000 0.000000
0.348360 0.000000 0.000000
0.370511 0.000000 0.000000
0.392662 0.000000 0.000000
0.414813 0.000000 0.000000
0.437431 0.000000 0.000000
0.460191 0.000000 0.000000
0.482952 0.000000 0.000000
0.505713 0.000000 0.000000
0.528473 0.000000 0.000000
0.551234 0.000000 0.000000
0.573994 0.000000 0.000000
0.596755 0.000000 0.000000
0.619515 0.000000 0.000000
0.642276 0.000000 0.000000
0.665036 0.000000 0.000000
0.687797 0.000000 0.000000
0.710557 0.000000 0.000000
0.000000 0.026250 0.000000
0.018095 0.026250 0.000000
0.038247 0.026250 0.000000
0.060398 0.026250 0.000000
0.082549 0.026250 0.000000
0.104700 0.026250 0.000000
0.126851 0.026250 0.000000
0.149002 0.026250 0.000000
0.171153 0.026250 0.000000
0.193304 0.026250 0.000000
0.215455 0.026250 0.000000
0.237606 0.026250 0.000000
0.259757 0.026250 0.000000
0.281908 0.026250 0.000000
0.304058 0.026250 0.000000
0.326209 0.026250 0.000000
0.348360 0.026250 0.000000
0.370511 0.026250 0.000000
0.392662 0.026250 0.000000
0.414813 0.026250 0.000000
0.437431 0.026250 0.000000
0.460191 0.026250 0.000000
0.482952 0.026250 0.000000
0.505713 0.026250 0.000000
0.528473 0.026250 0.000000
0.551234 0.026250 0.000000
0.573994 0.026250 0.000000
0.596755 0.026250 0.000000
0.619515 0.026250 0.000000
0.642276 0.026250 0.000000
0.665036 0.026250 0.000000
0.687797 0.026250 0.000000
0.710557 0.026250 0.000000
0.000000 0.052500 0.000000
0.018095 0.052500 0.000000
0.038247 0.052500 0.000000
0.060398 0.052500 0.000000
0.082549 0.052500 0.000000
0.104700 0.052500 0.000000
0.126851 0.052500 0.000000
0.149002 0.052500 0.000000
0.171153 0.052500 0.000000
0.193304 0.052500 0.000000
0.215455 0.052500 0.000000
0.237606 0.052500 0.000000
0.259757 0.052500 0.000000
0.281908 0.052500 0.000000
0.304058 0.052500 0.000000
0.326209 0.052500 0.000000
0.348360 0.052500 0.000000
0.370511 0.052500 0.000000
0.392662 0.052500 0.000000
0.414813 0.052500 0.000000
0.437431 0.052500 0.000000
0.460191 0.052500 0.000000
0.482952 0.052500 0.000000
0.505713 0.052500 0.000000
0.528473 0.052500 0.000000
0.551234 0.052500 0.000000
0.573994 0.052500 0.000000
0.596755 0.052500 0.000000
0.619515 0.052500 0.000000
0.642276 0.052500 0.000000
0.665036 0.052500 0.000000
0.687797 0.052500 0.000000
0.710557 0.052500 0.000000
0.000000 0.078750 0.000000
0.018095 0.078750 0.000000
0.038247 0.078750 0.000000
0.060398 0.078750 0.000000
0.082549 0.078750 0.000000
0.104700 0.078750 0.000000
0.126851 0.078750 0.000000
0.149002 0.078750 0.000000
0.171153 0.078750 0.000000
0.193304 0.078750 0.000000
0.215455 0.078750 0.000000
0.237606 0.078750 0.000000
0.259757 0.078750 0.000000
0.281908 0.078750 0.000000
0.304058 0.078750 0.000000
0.326209 0.078750 0.000000
0.348360 0.078750 0.000000
0.370511 0.078750 0.000000
0.392662 0.078750 0.000000
0.414813 0.078750 0.000000
0.437431 0.078750 0.000000
0.460191 0.078750 0.000000
0.482952 0.078750 0.000000
0.505713 0.078750 0.000000
0.528473 0.078750 0.000000
0.551234 0.078750 0.000000
0.573994 0.078750 0.000000
0.596755 0.078750 0.000000
0.619515 0.078750 0.000000
0.642276 0.078750 0.000000
0.665036 0.078750 0.000000
0.687797 0.078750 0.000000
0.710557 0.078750 0.000000
0.000000 0.105000 0.000000
0.018095 0.105000 0.000000
0.038247 0.105000 0.000000
0.060398 0.105000 0.000000
0.082549 0.105000 0.000000
0.104700 0.105000 0.000000
0.126851 0.105000 0.000000
0.149002 0.105000 0.000000
0.171153 0.105000 0.000000
0.193304 0.105000 0.000000
0.215455 0.105000 0.000000
0.237606 0.105000 0.000000
0.259757 0.105000 0.000000
0.281908 0.105000 0.000000
0.304058 0.105000 0.000000
0.326209 0.105000 0.000000
0.348360 0.105000 0.000000
0.370511 0.105000 0.000000
0.392662 0.105000 0.000000
0.414813 0.105000 0.000000
0.437431 0.105000 0.000000
0.460191 0.105000 0.000000
0.482952 0.105000 0.000000
0.505713 0.105000 0.000000
0.528473 0.105000 0.000000
0.551234 0.105000 0.000000
0.573994 0.105000 0.000000
0.596755 0.105000 0.000000
0.619515 0.105000 0.000000
0.642276 0.105000 0.000000
0.665036 0.105000 0.000000
0.687797 0.105000 0.000000
0.710557 0.105000 0.000000
0.000000 0.131250 0.000000
0.018095 0.131250 0.000000
0.038247 0.131250 0.000000
0.060398 0.131250 0.000000
0.082549 0.131250 0.000000
0.104700 0.131250 0.000000
0.126851 0.131250 0.000000
0.149002 0.131250 0.000000
0.171153 0.131250 0.000000
0.193304 0.131250 0.000000
0.215455 0.131250 0.000000
0.237606 0.131250 0.000000
0.259757 0.131250 0.000000
0.281908 0.131250 0.000000
0.304058 0.131250 0.000000
0.326209 0.131250 0.000000
0.348360 0.131250 0.000000
0.370511 0.131250 0.000000
0.392662 0.131250 0.000000
0.414813 0.131250 0.000000
0.437431 0.131250 0.000000
0.460191 0.131250 0.000000
0.482952 0.131250 0.000000
0.505713 0.131250 0.000000
0.528473 0.131250 0.000000
0.551234 0.131250 0.000000
0.573994 0.131250 0.000000
0.596755 0.131250 0.000000
0.619515 0.131250 0.000000
0.642276 0.131250 0.000000
0.665036 0.131250 0.000000
0.687797 0.131250 0.000000
0.710557 0.131250 0.000000
0.000000 0.157500 0.000000
0.018095 0.157500 0.000000
0.038247 0.157500 0.000000
0.060398 0.157500 0.000000
0.082549 0.157500 0.000000
0.104700 0.157500 0.000000
0.126851 0.157500 0.000000
0.149002 0.157500 0.000000
0.171153 0.157500 0.000000
0.193304 0.157500 0.000000
0.215455 0.157500 0.000000
0.237606 0.157500 0.000000
0.259757 0.157500 0.000000
0.281908 0.157500 0.000000
0.304058 0.157500 0.000000
0.326209 0.157500 0.000000
0.348360 0.157500 0.000000
0.370511 0.157500 0.000000
0.392662 0.157500 0.000000
0.414813 0.157500 0.000000
0.437431 0.157500 0.000000
0.460191 0.157500 0.000000
0.482952 0.157500 0.000000
0.505713 0.157500 0.000000
0.528473 0.157500 0.000000
0.551234 0.157500 0.000000
0.573994 0.157500 0.000000
0.596755 0.157500 0.000000
0.619515 0.157500 0.000000
0.642276 0.157500 0.000000
0.665036 0.157500 0.000000
0.687797 0.157500 0.000000
0.710557 0.157500 0.000000
0.000000 0.183750 0.000000
0.018095 0.183750 0.000000
0.038247 0.183750 0.000000
0.060398 0.183750 0.000000
0.082549 0.183750 0.000000
0.104700 0.183750 0.000000
0.126851 0.183750 0.000000
0.149002 0.183750 0.000000
0.171153 0.183750 0.000000
0.193304 0.183750 0.000000
0.215455 0.183750 0.000000
0.237606 0.183750 0.000000
0.259757 0.183750 0.000000
0.281908 0.183750 0.000000
0.304058 0.183750 0.000000
0.326209 0.183750 0.000000
0.348360 0.183750 0.000000
0.370511 0.183750 0.000000
0.392662 0.183750 0.000000
0.414813 0.183750 0.000000
0.437431 0.183750 0.000000
0.460191 0.183750 0.000000
0.482952 0.183750 0.000000
0.505713 0.183750 0.000000
0.528473 0.183750 0.000000
0.551234 0.183750 0.000000
0.573994 0.183750 0.000000
0.596755 0.183750 0.000000
0.619515 0.183750 0.000000
0.642276 0.183750 0.000000
0.665036 0.183750 0.000000
0.687797 0.183750 0.000000
0.710557 0.183750 0.000000
0.000000 0.210000 0.000000
0.018095 0.210000 0.000000
0.038247 0.210000 0.000000
0.060398 0.210000 0.000000
0.082549 0.210000 0.000000
0.104700 0.210000 0.000000
0.126851 0.210000 0.000000
0.149002 0.210000 0.000000
0.171153 0.210000 0.000000
0.193304 0.210000 0.000000
0.215455 0.210000 0.000000
0.237606 0.210000 0.000000
0.259757 0.210000 0.000000
0.281908 0.210000 0.000000
0.304058 0.210000 0.000000
0.326209 0.210000 0.000000
0.348360 0.210000 0.000000
0.370511 0.210000 0.000000
0.392662 0.210000 0.000000
0.414813 0.210000 0.000000
0.437431 0.210000 0.000000
0.460191 0.210000 0.000000
0.482952 0.210000 0.000000
0.505713 0.210000 0.000000
0.528473 0.210000 0.000000
0.551234 0.210000 0.000000
0.573994 0.210000 0.000000
0.596755 0.210000 0.000000
0.619515 0.210000 0.000000
0.642276 0.210000 0.000000
0.665036 0.210000 0.000000
0.687797 0.210000 0.000000
0.710557 0.210000 0.000000
0.000000 0.236250 0.000000
0.018095 0.236250 0.000000
0.038247 0.236250 0.000000
0.060398 0.236250 0.000000
0.082549 0.236250 0.000000
0.104700 0.236250 0.000000
0.126851 0.236250 0.000000
0.149002 0.236250 0.000000
0.171153 0.236250 0.000000
0.193304 0.236250 0.000000
0.215455 0.236250 0.000000
0.237606 0.236250 0.000000
0.259757 0.236250 0.000000
0.281908 0.236250 0.000000
0.304058 0.236250 0.000000
0.326209 0.236250 0.000000
0.348360 0.236250 0.000000
0.370511 0.236250 0.000000
0.392662 0.236250 0.000000
0.414813 0.236250 0.000000
0.437431 0.236250 0.000000
0.460191 0.236250 0.000000
0.482952 0.236250 0.000000
0.505713 0.236250 0.000000
0.528473 0.236250 0.000000
0.551234 0.236250 0.000000
0.573994 0.236250 0.000000
0.596755 0.236250 0.000000
0.619515 0.236250 0.000000
0.642276 0.236250 0.000000
0.665036 0.236250 0.000000
0.687797 0.236250 0.000000
0.710557 0.236250 0.000000
0.000000 0.262500 0.000000
0.018095 0.262500 0.000000
0.038247 0.262500 0.000000
0.060398 0.262500 0.000000
0.082549 0.262500 0.000000
0.104700 0.262500 0.000000
0.126851 0.262500 0.000000
0.149002 0.262500 0.000000
0.171153 0.262500 0.000000
0.193304 0.262500 0.000000
0.215455 0.262500 0.000000
0.237606 0.262500 0.000000
0.259757 0.262500 0.000000
0.281908 0.262500 0.000000
0.304058 0.262500 0.000000
0.326209 0.262500 0.000000
0.348360 0.262500 0.000000
0.370511 0.262500 0.000000
0.392662 0.262500 0.000000
0.414813 0.262500 0.000000
0.437431 0.262500 0.000000
0.460191 0.262500 0.000000
0.482952 0.262500 0.000000
0.505713 0.262500 0.000000
0.528473 0.262500 0.000000
0.551234 0.262500 0.000000
0.573994 0.262500 0.000000
0.596755 0.262500 0.000000
0.619515 0.262500 0.000000
0.642276 0.262500 0.000000
0.665036 0.262500 0.000000
0.687797 0.262500 0.000000
0.710557 0.262500 0.000000
0.000000 0.288750 0.000000
0.018095 0.288750 0.000000
0.038247 0.288750 0.000000
0.060398 0.288750 0.000000
0.082549 0.288750 0.000000
0.104700 0.288750 0.000000
0.126851 0.288750 0.000000
0.149002 0.288750 0.000000
0.171153 0.288750 0.000000
0.193304 0.288750 0.000000
0.215455 0.288750 0.000000
0.237606 0.288750 0.000000
0.259757 0.288750 0.000000
0.281908 0.288750 0.000000
0.304058 0.288750 0.000000
0.326209 0.288750 0.000000
0.348360 0.288750 0.000000
0.370511 0.288750 0.000000
0.392662 0.288750 0.000000
0.414813 0.288750 0.000000
0.437431 0.288750 0.000000
0.460191 0.288750 0.000000
0.482952 0.288750 0.000000
0.505713 0.288750 0.000000
0.528473 0.288750 0.000000
0.551234 0.288750 0.000000
0.573994 0.288750 0.000000
0.596755 0.288750 0.000000
0.619515 0.288750 0.000000
0.642276 0.288750 0.000000
0.665036 0.288750 0.000000
0.687797 0.288750 0.000000
0.710557 0.288750 0.000000
0.000000 0.315000 0.000000
0.018095 0.315000 0.000000
0.038247 0.315000 0.000000
0.060398 0.315000 0.000000
0.082549 0.315000 0.000000
0.104700 0.315000 0.000000
0.126851 0.315000 0.000000
0.149002 0.315000 0.000000
0.171153 0.315000 0.000000
0.193304 0.315000 0.000000
0.215455 0.315000 0.000000
0.237606 0.315000 0.000000
0.259757 0.315000 0.000000
0.281908 0.315000 0.000000
0.304058 0.315000 0.000000
0.326209 0.315000 0.000000
0.348360 0.315000 0.000000
0.370511 0.315000 0.000000
0.392662 0.315000 0.000000
0.414813 0.315000 0.000000
0.437431 0.315000 0.000000
0.460191 0.315000 0.000000
0.482952 0.315000 0.000000
0.505713 0.315000 0.000000
0.528473 0.315000 0.000000
0.551234 0.315000 0.000000
0.573994 0.315000 0.000000
0.596755 0.315000 0.000000
0.619515 0.315000 0.000000
0.642276 0.315000 0.000000
0.665036 0.315000 0.000000
0.687797 0.315000 0.000000
0.710557 0.315000 0.000000
0.000000 0.341250 0.000000
0.018095 0.341250 0.000000
0.038247 0.341250 0.000000
0.060398 0.341250 0.000000
0.082549 0.341250 0.000000
0.104700 0.341250 0.000000
0.126851 0.341250 0.000000
0.149002 0.341250 0.000000
0.171153 0.341250 0.000000
0.193304 0.341250 0.000000
0.215455 0.341250 0.000000
0.237606 0.341250 0.000000
0.259757 0.341250 0.000000
0.281908 0.341250 0.000000
0.304058 0.341250 0.000000
0.326209 0.341250 0.000000
0.348360 0.341250 0.000000
0.370511 0.341250 0.000000
0.392662 0.341250 0.000000
0.414813 0.341250 0.000000
0.437431 0.341250 0.000000
0.460191 0.341250 0.000000
0.482952 0.341250 0.000000
0.505713 0.341250 0.000000
0.528473 0.341250 0.000000
0.551234 0.341250 0.000000
0.573994 0.341250 0.000000
0.596755 0.341250 0.000000
0.619515 0.341250 0.000000
0.642276 0.341250 0.000000
0.665036 0.341250 0.000000
0.687797 0.341250 0.000000
0.710557 0.341250 0.000000
0.000000 0.367500 0.000000
0.018095 0.367500 0.000000
0.038247 0.367500 0.000000
0.060398 0.367500 0.000000
0.082549 0.367500 0.000000
0.104700 0.367500 0.000000
0.126851 0.367500 0.000000
0.149002 0.367500 0.000000
0.171153 0.367500 0.000000
0.193304 0.367500 0.000000
0.215455 0.367500 0.000000
0.237606 0.367500 0.000000
0.259757 0.367500 0.000000
0.281908 0.367500 0.000000
0.304058 0.367500 0.000000
0.326209 0.367500 0.000000
0.348360 0.367500 0.000000
0.370511 0.367500 0.000000
0.392662 0.367500 0.000000
0.414813 0.367500 0.000000
0.437431 0.367500 0.000000
0.460191 0.367500 0.000000
0.482952 0.367500 0.000000
0.505713 0.367500 0.000000
0.528473 0.367500 0.000000
0.551234 0.367500 0.000000
0.573994 0.367500 0.000000
0.596755 0.367500 0.000000
0.619515 0.367500 0.000000
0.642276 0.367500 0.000000
0.665036 0.367500 0.000000
0.687797 0.367500 0.000000
0.710557 0.367500 0.000000
0.000000 0.393750 0.000000
0.018095 0.393750 0.000000
0.038247 0.393750 0.000000
0.060398 0.393750 0.000000
0.082549 0.393750 0.000000
0.104700 0.393750 0.000000
0.126851 0.393750 0.000000
0.149002 0.393750 0.000000
0.171153 0.393750 0.000000
0.193304 0.393750 0.000000
0.215455 0.393750 0.000000
0.237606 0.393750 0.000000
0.259757 0.393750 0.000000
0.281908 0.393750 0.000000
0.304058 0.393750 0.000000
0.326209 0.393750 0.000000
0.348360 0.393750 0.000000
0.370511 0.393750 0.000000
0.392662 0.393750 0.000000
0.414813 0.393750 0.000000
0.437431 0.393750 0.000000
0.460191 0.393750 0.000000
0.482952 0.393750 0.000000
0.505713 0.393750 0.000000
0.528473 0.393750 0.000000
0.551234 0.393750 0.000000
0.573994 0.393750 0.000000
0.596755 0.393750 0.000000
0.619515 0.393750 0.000000
0.642276 0.393750 0.000000
0.665036 0.393750 0.000000
0.687797 0.393750 0.000000
0.710557 0.393750 0.000000
0.000000 0.420000 0.000000
0.018095 0.420000 0.000000
0.038247 0.420000 0.000000
0.060398 0.420000 0.000000
0.082549 0.420000 0.000000
0.104700 0.420000 0.000000
0.126851 0.420000 0.000000
0.149002 0.420000 0.000000
0.171153 0.420000 0.000000
0.193304 0.420000 0.000000
0.215455 0.420000 0.000000
0.237606 0.420000 0.000000
0.259757 0.420000 0.000000
0.281908 0.420000 0.000000
0.304058 0.420000 0.000000
0.326209 0.420000 0.000000
0.348360 0.420000 0.000000
0.370511 0.420000 0.000000
0.392662 0.420000 0.000000
0.414813 0.420000 0.000000
0.437431 0.420000 0.000000
0.460191 0.420000 0.000000
0.482952 0.420000 0.000000
0.505713 0.420000 0.000000
0.528473 0.420000 0.000000
0.551234 0.420000 0.000000
0.573994 0.420000 0.000000
0.596755 0.420000 0.000000
0.619515 0.420000 0.000000
0.642276 0.420000 0.000000
0.665036 0.420000 0.000000
0.687797 0.420000 0.000000
0.710557 0.420000 0.000000
0.000000 0.446972 0.000000
0.018095 0.446972 0.000000
0.038247 0.446972 0.000000
0.060398 0.446972 0.000000
0.082549 0.446972 0.000000
0.104700 0.446972 0.000000
0.126851 0.446972 0.000000
0.149002 0.446972 0.000000
0.171153 0.446972 0.000000
0.193304 0.446972 0.000000
0.215455 0.446972 0.000000
0.237606 0.446972 0.000000
0.259757 0.446972 0.000000
0.281908 0.446972 0.000000
0.304058 0.446972 0.000000
0.326209 0.446972 0.000000
0.348360 0.446972 0.000000
0.370511 0.446972 0.000000
0.392662 0.446972 0.000000
0.414813 0.446972 0.000000
0.437431 0.446972 0.000000
0.460191 0.446972 0.000000
0.482952 0.446972 0.000000
0.505713 0.446972 0.000000
0.528473 0.446972 0.000000
0.551234 0.446972 0.000000
0.573994 0.446972 0.000000
0.596755 0.446972 0.000000
0.619515 0.446972 0.000000
0.642276 0.446972 0.000000
0.665036 0.446972 0.000000
0.687797 0.446972 0.000000
0.710557 0.446972 0.000000
0.000000 0.473945 0.000000
0.018095 0.473945 0.000000
0.038247 0.473945 0.000000
0.060398 0.473945 0.000000
0.082549 0.473945 0.000000
0.104700 0.473945 0.000000
0.126851 0.473945 0.000000
0.149002 0.473945 0.000000
0.171153 0.473945 0.000000
0.193304 0.473945 0.000000
0.215455 0.473945 0.000000
0.237606 0.473945 0.000000
0.259757 0.473945 0.000000
0.281908 0.473945 0.000000
0.304058 0.473945 0.000000
0.326209 0.473945 0.000000
0.348360 0.473945 0.000000
0.370511 0.473945 0.000000
0.392662 0.473945 0.000000
0.414813 0.473945 0.000000
0.437431 0.473945 0.000000
0.460191 0.473945 0.000000
0.482952 0.473945 0.000000
0.505713 0.473945 0.000000
0.528473 0.473945 0.000000
0.551234 0.473945 0.000000
0.573994 0.473945 0.000000
0.596755 0.473945 0.000000
0.619515 0.473945 0.000000
0.642276 0.473945 0.000000
0.665036 0.473945 0.000000
0.687797 0.473945 0.000000
0.710557 0.473945 0.000000
0.000000 0.500917 0.000000
0.018095 0.500917 0.000000
0.038247 0.500917 0.000000
0.060398 0.500917 0.000000
0.082549 0.500917 0.000000
0.104700 0.500917 0.000000
0.126851 0.500917 0.000000
0.149002 0.500917 0.000000
0.171153 0.500917 0.000000
0.193304 0.500917 0.000000
0.215455 0.500917 0.000000
0.237606 0.500917 0.000000
0.259757 0.500917 0.000000
0.281908 0.500917 0.000000
0.304058 0.500917 0.000000
0.326209 0.500917 0.000000
0.348360 0.500917 0.000000
0.370511 0.500917 0.000000
0.392662 0.500917 0.000000
0.414813 0.500917 0.000000
0.437431 0.500917 0.000000
0.460191 0.500917 0.000000
0.482952 0.500917 0.000000
0.505713 0.500917 0.000000
0.528473 0.500917 0.000000
0.551234 0.500917 0.000000
0.573994 0.500917 0.000000
0.596755 0.500917 0.000000
0.619515 0.500917 0.000000
0.642276 0.500917 0.000000
0.665036 0.500917 0.000000
0.687797 0.500917 0.000000
0.710557 0.500917 0.000000
0.000000 0.527890 0.000000
0.018095 0.527890 0.000000
0.038247 0.527890 0.000000
0.060398 0.527890 0.000000
0.082549 0.527890 0.000000
0.104700 0.527890 0.000000
0.126851 0.527890 0.000000
0.149002 0.527890 0.000000
0.171153 0.527890 0.000000
0.193304 0.527890 0.000000
0.215455 0.527890 0.000000
0.237606 0.527890 0.000000
0.259757 0.527890 0.000000
0.281908 0.527890 0.000000
0.304058 0.527890 0.000000
0.326209 0.527890 0.000000
0.348360 0.527890 0.000000
0.370511 0.527890 0.000000
0.392662 0.527890 0.000000
0.414813 0.527890 0.000000
0.437431 0.527890 0.000000
0.460191 0.527890 0.000000
0.482952 0.527890 0.000000
0.505713 0.527890 0.000000
0.528473 0.527890 0.000000
0.551234 0.527890 0.000000
0.573994 0.527890 0.000000
0.596755 0.527890 0.000000
0.619515 0.527890 0.000000
0.642276 0.527890 0.000000
0.665036 0.527890 0.000000
0.687797 0.527890 0.000000
0.710557 0.527890 0.000000
0.000000 0.554862 0.000000
0.018095 0.554862 0.000000
0.038247 0.554862 0.000000
0.060398 0.554862 0.000000
0.082549 0.554862 0.000000
0.104700 0.554862 0.000000
0.126851 0.554862 0.000000
0.149002 0.554862 0.000000
0.171153 0.554862 0.000000
0.193304 0.554862 0.000000
0.215455 0.554862 0.000000
0.237606 0.554862 0.000000
0.259757 0.554862 0.000000
0.281908 0.554862 0.000000
0.304058 0.554862 0.000000
0.326209 0.554862 0.000000
0.348360 0.554862 0.000000
0.370511 0.554862 0.000000
0.392662 0.554862 0.000000
0.414813 0.554862 0.000000
0.437431 0.554862 0.000000
0.460191 0.554862 0.000000
0.482952 0.554862 0.000000
0.505713 0.554862 0.000000
0.528473 0.554862 0.000000
0.551234 0.554862 0.000000
0.573994 0.554862 0.000000
0.596755 0.554862 0.000000
0.619515 0.554862 0.000000
0.642276 0.554862 0.000000
0.665036 0.554862 0.000000
0.687797 0.554862 0.000000
0.710557 0.554862 0.000000
0.000000 0.581834 0.000000
0.018095 0.581834 0.000000
0.038247 0.581834 0.000000
0.060398 0.581834 0.000000
0.082549 0.581834 0.000000
0.104700 0.581834 0.000000
0.126851 0.581834 0.000000
0.149002 0.581834 0.000000
0.171153 0.581834 0.000000
0.193304 0.581834 0.000000
0.215455 0.581834 0.000000
0.237606 0.581834 0.000000
0.259757 0.581834 0.000000
0.281908 0.581834 0.000000
0.304058 0.581834 0.000000
0.326209 0.581834 0.000000
0.348360 0.581834 0.000000
0.370511 0.581834 0.000000
0.392662 0.581834 0.000000
0.414813 0.581834 0.000000
0.437431 0.581834 0.000000
0.460191 0.581834 0.000000
0.482952 0.581834 0.000000
0.505713 0.581834 0.000000
0.528473 0.581834 0.000000
0.551234 0.581834 0.000000
0.573994 0.581834 0.000000
0.596755 0.581834 0.000000
0.619515 0.581834 0.000000
0.642276 0.581834 0.000000
0.665036 0.581834 0.000000
0.687797 0.581834 0.000000
0.710557 0.581834 0.000000
0.000000 0.608807 0.000000
0.018095 0.608807 0.000000
0.038247 0.608807 0.000000
0.060398 0.608807 0.000000
0.082549 0.608807 0.000000
0.104700 0.608807 0.000000
0.126851 0.608807 0.000000
0.149002 0.608807 0.000000
0.171153 0.608807 0.000000
0.193304 0.608807 0.000000
0.215455 0.608807 0.000000
0.237606 0.608807 0.000000
0.259757 0.608807 0.000000
0.281908 0.608807 0.000000
0.304058 0.608807 0.000000
0.326209 0.608807 0.000000
0.348360 0.608807 0.000000
0.370511 0.608807 0.000000
0.392662 0.608807 0.000000
0.414813 0.608807 0.000000
0.437431 0.608807 0.000000
0.460191 0.608807 0.000000
0.482952 0.608807 0.000000
0.505713 0.608807 0.000000
0.528473 0.608807 0.000000
0.551234 0.608807 0.000000
0.573994 0.608807 0.000000
0.596755 0.608807 0.000000
0.619515 0.608807 0.000000
0.642276 0.608807 0.000000
0.665036 0.608807 0.000000
0.687797 0.608807 0.000000
0.710557 0.608807 0.000000
0.000000 0.635779 0.000000
0.018095 0.635779 0.000000
0.038247 0.635779 0.000000
0.060398 0.635779 0.000000
0.082549 0.635779 0.000000
0.104700 0.635779 0.000000
0.126851 0.635779 0.000000
0.149002 0.635779 0.000000
0.171153 0.635779 0.000000
0.193304 0.635779 0.000000
0.215455 0.635779 0.000000
0.237606 0.635779 0.000000
0.259757 0.635779 0.000000
0.281908 0.635779 0.000000
0.304058 0.635779 0.000000
0.326209 0.635779 0.000000
0.348360 0.635779 0.000000
0.370511 0.635779 0.000000
0.392662 0.635779 0.000000
0.414813 0.635779 0.000000
0.437431 0.635779 0.000000
0.460191 0.635779 0.000000
0.482952 0.635779 0.000000
0.505713 0.635779 0.000000
0.528473 0.635779 0.000000
0.551234 0.635779 0.000000
0.573994 0.635779 0.000000
0.596755 0.635779 0.000000
0.619515 0.635779 0.000000
0.642276 0.635779 0.000000
0.665036 0.635779 0.000000
0.687797 0.635779 0.000000
0.710557 0.635779 0.000000
0.000000 0.662752 0.000000
0.018095 0.662752 0.000000
0.038247 0.662752 0.000000
0.060398 0.662752 0.000000
0.082549 0.662752 0.000000
0.104700 0.662752 0.000000
0.126851 0.662752 0.000000
0.149002 0.662752 0.000000
0.171153 0.662752 0.000000
0.193304 0.662752 0.000000
0.215455 0.662752 0.000000
0.237606 0.662752 0.000000
0.259757 0.662752 0.000000
0.281908 0.662752 0.000000
0.304058 0.662752 0.000000
0.326209 0.662752 0.000000
0.348360 0.662752 0.000000
0.370511 0.662752 0.000000
0.392662 0.662752 0.000000
0.414813 0.662752 0.000000
0.437431 0.662752 0.000000
0.460191 0.662752 0.000000
0.482952 0.662752 0.000000
0.505713 0.662752 0.000000
0.528473 0.662752 0.000000
0.551234 0.662752 0.000000
0.573994 0.662752 0.000000
0.596755 0.662752 0.000000
0.619515 0.662752 0.000000
0.642276 0.662752 0.000000
0.665036 0.662752 0.000000
0.687797 0.662752 0.000000
0.710557 0.662752 0.000000
0.000000 0.689724 0.000000
0.018095 0.689724 0.000000
0.038247 0.689724 0.000000
0.060398 0.689724 0.000000
0.082549 0.689724 0.000000
0.104700 0.689724 0.000000
0.126851 0.689724 0.000000
0.149002 0.689724 0.000000
0.171153 0.689724 0.000000
0.193304 0.689724 0.000000
0.215455 0.689724 0.000000
0.237606 0.689724 0.000000
0.259757 0.689724 0.000000
0.281908 0.689724 0.000000
0.304058 0.689724 0.000000
0.326209 0.689724 0.000000
0.348360 0.689724 0.000000
0.370511 0.689724 0.000000
0.392662 0.689724 0.000000
0.414813 0.689724 0.000000
0.437431 0.689724 0.000000
0.460191 0.689724 0.000000
0.482952 0.689724 0.000000
0.505713 0.689724 0.000000
