docs/luts/fuji_recipes/NEGA_RR_Classic_Negative.cube
TITLE "Fujifilm Recipe: RR Classic Negative (NEGA)"
# FilmSim=NEGA HL=3 SH=2 Col=-3 WB=6700K WBR=-2 WBB=7
LUT_3D_SIZE 5
DOMAIN_MIN 0.0 0.0 0.0
DOMAIN_MAX 1.0 1.0 1.0
0.014720 0.014720 0.014720
0.175032 0.080422 0.080422
0.333854 0.145514 0.145514
0.545647 0.229945 0.229945
0.704417 0.293898 0.293898
0.080511 0.175249 0.080511
0.175121 0.175249 0.080511
0.333854 0.240252 0.145514
0.545647 0.324682 0.229945
0.704417 0.388635 0.293898
0.146251 0.335652 0.146251
0.240861 0.335652 0.146251
0.334591 0.335652 0.146251
0.545647 0.419346 0.229945
0.704417 0.502167 0.293898
0.231626 0.549822 0.231626
0.326236 0.549822 0.231626
0.419966 0.549822 0.231626
0.547351 0.549822 0.231626
0.704417 0.612901 0.293898
0.309466 0.743066 0.309466
0.404075 0.743066 0.309466
0.516645 0.743066 0.309466
0.626200 0.743066 0.309466
0.720187 0.743066 0.309466
0.088226 0.088226 0.194072
0.182835 0.088226 0.194072
0.333854 0.145514 0.251360
0.545647 0.229945 0.335791
0.704417 0.293898 0.399744
0.088226 0.182963 0.194072
0.248537 0.248665 0.259774
0.399645 0.306043 0.317151
0.613055 0.391071 0.402180
0.771825 0.455024 0.466133
0.146251 0.335652 0.252097
0.306563 0.401354 0.317799
0.408097 0.409158 0.325603
0.620958 0.512695 0.409964
0.779729 0.577478 0.473917
0.231626 0.549822 0.337472
0.392535 0.617138 0.403771
0.513107 0.625133 0.411646
0.622662 0.625133 0.411646
0.779729 0.688213 0.473917
0.309466 0.743066 0.415312
0.467687 0.803117 0.478924
0.588872 0.810039 0.486401
0.698427 0.810039 0.486401
0.792414 0.810039 0.486401
0.172851 0.172851 0.403907
0.267461 0.172851 0.403907
0.361191 0.172851 0.403907
0.545647 0.229945 0.461741
0.704417 0.293898 0.526524
0.172851 0.267589 0.403907
0.333760 0.333888 0.471223
0.427580 0.333978 0.471315
0.613055 0.391071 0.529149
0.771825 0.455024 0.593932
0.172851 0.362253 0.403907
0.333760 0.428552 0.471223
0.523471 0.524763 0.549120
0.692192 0.583929 0.608286
0.851450 0.649199 0.673557
0.231626 0.549822 0.463445
0.392535 0.617138 0.530761
0.583456 0.695482 0.609105
0.710823 0.713295 0.626918
0.868365 0.776849 0.690472
0.309466 0.743066 0.542294
0.467687 0.803117 0.606923
0.656899 0.873100 0.682549
0.783522 0.888899 0.699616
0.877510 0.888899 0.699616
0.260628 0.260628 0.621823
0.355238 0.260628 0.621823
0.448968 0.260628 0.621823
0.576729 0.260628 0.621823
0.704417 0.293898 0.655524
0.260628 0.355366 0.621823
0.421537 0.421665 0.689139
0.534581 0.421755 0.689230
0.644137 0.421755 0.689230
0.771825 0.455024 0.722931
0.260628 0.468466 0.621823
0.421537 0.535782 0.689139
0.613056 0.614348 0.767704
0.723508 0.615245 0.768602
0.851450 0.649199 0.802556
0.260628 0.579200 0.621823
0.421537 0.646517 0.689139
0.613056 0.725082 0.767704
0.798692 0.801163 0.843786
0.928350 0.836834 0.879456
0.309466 0.743066 0.671294
0.467687 0.803117 0.735923
0.656899 0.873100 0.811548
0.839356 0.940584 0.884450
0.963350 0.968361 0.914456
0.309466 0.309466 0.743066
0.404075 0.309466 0.743066
0.516645 0.309466 0.743066
0.626200 0.309466 0.743066
0.720187 0.309466 0.743066
0.309466 0.404203 0.743066
0.467687 0.467815 0.803117
0.581361 0.467900 0.803196
0.690916 0.467900 0.803196
0.784903 0.467900 0.803196
0.309466 0.517937 0.743066
0.467687 0.582566 0.803117
0.656899 0.658191 0.873100
0.767314 0.659051 0.873896
0.861301 0.659051 0.873896
0.309466 0.628671 0.743066
0.467687 0.693300 0.803117
0.656899 0.768926 0.873100
0.839356 0.841827 0.940584
0.934988 0.843472 0.942106
0.309466 0.743066 0.743066
0.467687 0.803117 0.803117
0.656899 0.873100 0.873100
0.839356 0.940584 0.940584
0.995885 0.998478 0.998478
