docs/luts/fuji_recipes/NEGA_RR_Fujicolor_Pro_400H.cube
TITLE "Fujifilm Recipe: RR Fujicolor Pro 400H (NEGA)"
# FilmSim=NEGA HL=0 SH=3 Col=4 WB=Auto WBR=2 WBB=1
LUT_3D_SIZE 33
DOMAIN_MIN 0.0 0.0 0.0
DOMAIN_MAX 1.0 1.0 1.0
0.014080 0.014080 0.014080
0.071246 0.001485 0.001485
0.107794 0.000000 0.000000
0.142273 0.000000 0.000000
0.176752 0.000000 0.000000
0.211231 0.000000 0.000000
0.245710 0.000000 0.000000
0.280189 0.000000 0.000000
0.314668 0.000000 0.000000
0.349147 0.000000 0.000000
0.383626 0.000000 0.000000
0.418105 0.000000 0.000000
0.452584 0.000000 0.000000
0.540550 0.000000 0.000000
0.579202 0.000000 0.000000
0.617854 0.000000 0.000000
0.656506 0.000000 0.000000
0.695159 0.000000 0.000000
0.733811 0.000000 0.000000
0.772463 0.000000 0.000000
0.811116 0.000000 0.000000
0.849768 0.000000 0.000000
0.888420 0.000000 0.000000
0.927072 0.000000 0.000000
0.965725 0.000000 0.000000
0.996831 0.000000 0.000000
0.996831 0.000000 0.000000
0.996831 0.000000 0.000000
0.996831 0.000000 0.000000
0.996831 0.000000 0.000000
0.996831 0.000000 0.000000
0.996831 0.000000 0.000000
0.996831 0.000000 0.000000
0.002084 0.068523 0.002084
0.071246 0.067924 0.001485
0.107794 0.057458 0.000000
0.142273 0.052923 0.000000
0.176752 0.050492 0.000000
0.211231 0.048977 0.000000
0.245710 0.047942 0.000000
0.280189 0.047190 0.000000
0.314668 0.046620 0.000000
0.349147 0.046172 0.000000
0.383626 0.045810 0.000000
0.418105 0.045513 0.000000
0.452584 0.045264 0.000000
0.540550 0.044262 0.000000
0.579202 0.044101 0.000000
0.617854 0.043961 0.000000
0.656506 0.043839 0.000000
0.695159 0.043730 0.000000
0.733811 0.043634 0.000000
0.772463 0.043548 0.000000
0.811116 0.043470 0.000000
0.849768 0.043399 0.000000
0.888420 0.043335 0.000000
0.927072 0.043276 0.000000
0.965725 0.043222 0.000000
0.996831 0.043182 0.000000
0.996831 0.043182 0.000000
0.996831 0.043182 0.000000
0.996831 0.043182 0.000000
0.996831 0.043182 0.000000
0.996831 0.043182 0.000000
0.996831 0.043182 0.000000
0.996831 0.043182 0.000000
0.000000 0.104002 0.000000
0.061119 0.104002 0.000000
0.107794 0.102661 0.000000
0.142273 0.094558 0.000000
0.176752 0.090215 0.000000
0.211231 0.087508 0.000000
0.245710 0.085659 0.000000
0.280189 0.084316 0.000000
0.314668 0.083296 0.000000
0.349147 0.082496 0.000000
0.383626 0.081850 0.000000
0.418105 0.081319 0.000000
0.452584 0.080874 0.000000
0.540550 0.079083 0.000000
0.579202 0.078796 0.000000
0.617854 0.078546 0.000000
0.656506 0.078327 0.000000
0.695159 0.078134 0.000000
0.733811 0.077962 0.000000
0.772463 0.077807 0.000000
0.811116 0.077668 0.000000
0.849768 0.077542 0.000000
0.888420 0.077427 0.000000
0.927072 0.077322 0.000000
0.965725 0.077226 0.000000
0.996831 0.077154 0.000000
0.996831 0.077154 0.000000
0.996831 0.077154 0.000000
0.996831 0.077154 0.000000
0.996831 0.077154 0.000000
0.996831 0.077154 0.000000
0.996831 0.077154 0.000000
0.996831 0.077154 0.000000
0.000000 0.136839 0.000000
0.056119 0.136839 0.000000
0.100268 0.136839 0.000000
0.142273 0.135498 0.000000
0.176752 0.129275 0.000000
0.211231 0.125396 0.000000
0.245710 0.122747 0.000000
0.280189 0.120822 0.000000
0.314668 0.119361 0.000000
0.349147 0.118214 0.000000
0.383626 0.117289 0.000000
0.418105 0.116527 0.000000
0.452584 0.115890 0.000000
0.540550 0.113323 0.000000
0.579202 0.112912 0.000000
0.617854 0.112554 0.000000
0.656506 0.112241 0.000000
0.695159 0.111963 0.000000
0.733811 0.111717 0.000000
0.772463 0.111495 0.000000
0.811116 0.111296 0.000000
0.849768 0.111115 0.000000
0.888420 0.110951 0.000000
0.927072 0.110800 0.000000
0.965725 0.110663 0.000000
0.996831 0.110560 0.000000
0.996831 0.110560 0.000000
0.996831 0.110560 0.000000
0.996831 0.110560 0.000000
0.996831 0.110560 0.000000
0.996831 0.110560 0.000000
0.996831 0.110560 0.000000
0.996831 0.110560 0.000000
0.000000 0.169676 0.000000
0.053439 0.169676 0.000000
0.095480 0.169676 0.000000
0.136820 0.169676 0.000000
0.176752 0.168335 0.000000
0.211231 0.163284 0.000000
0.245710 0.159834 0.000000
0.280189 0.157328 0.000000
0.314668 0.155426 0.000000
0.349147 0.153931 0.000000
0.383626 0.152727 0.000000
0.418105 0.151736 0.000000
0.452584 0.150906 0.000000
0.540550 0.147564 0.000000
0.579202 0.147028 0.000000
0.617854 0.146562 0.000000
0.656506 0.146154 0.000000
0.695159 0.145793 0.000000
0.733811 0.145471 0.000000
0.772463 0.145183 0.000000
0.811116 0.144924 0.000000
0.849768 0.144688 0.000000
0.888420 0.144474 0.000000
0.927072 0.144278 0.000000
0.965725 0.144099 0.000000
0.996831 0.143965 0.000000
0.996831 0.143965 0.000000
0.996831 0.143965 0.000000
0.996831 0.143965 0.000000
0.996831 0.143965 0.000000
0.996831 0.143965 0.000000
0.996831 0.143965 0.000000
0.996831 0.143965 0.000000
0.000000 0.202513 0.000000
0.051769 0.202513 0.000000
0.092496 0.202513 0.000000
0.132544 0.202513 0.000000
0.172591 0.202513 0.000000
0.211231 0.201173 0.000000
0.245710 0.196922 0.000000
0.280189 0.193835 0.000000
0.314668 0.191490 0.000000
0.349147 0.189649 0.000000
0.383626 0.188166 0.000000
0.418105 0.186944 0.000000
0.452584 0.185922 0.000000
0.540550 0.181804 0.000000
0.579202 0.181144 0.000000
0.617854 0.180570 0.000000
0.656506 0.180067 0.000000
0.695159 0.179622 0.000000
0.733811 0.179226 0.000000
0.772463 0.178871 0.000000
0.811116 0.178551 0.000000
0.849768 0.178261 0.000000
0.888420 0.177998 0.000000
0.927072 0.177757 0.000000
0.965725 0.177535 0.000000
0.996831 0.177370 0.000000
0.996831 0.177370 0.000000
0.996831 0.177370 0.000000
0.996831 0.177370 0.000000
0.996831 0.177370 0.000000
0.996831 0.177370 0.000000
0.996831 0.177370 0.000000
0.996831 0.177370 0.000000
0.000000 0.235351 0.000000
0.050628 0.235351 0.000000
0.090458 0.235351 0.000000
0.129623 0.235351 0.000000
0.168788 0.235351 0.000000
0.207953 0.235351 0.000000
0.245710 0.234010 0.000000
0.280189 0.230341 0.000000
0.314668 0.227555 0.000000
0.349147 0.225367 0.000000
0.383626 0.223604 0.000000
0.418105 0.222153 0.000000
0.452584 0.220937 0.000000
0.540550 0.216045 0.000000
0.579202 0.215260 0.000000
0.617854 0.214578 0.000000
0.656506 0.213980 0.000000
0.695159 0.213452 0.000000
0.733811 0.212981 0.000000
0.772463 0.212559 0.000000
0.811116 0.212179 0.000000
0.849768 0.211835 0.000000
0.888420 0.211521 0.000000
0.927072 0.211235 0.000000
0.965725 0.210972 0.000000
0.996831 0.210775 0.000000
0.996831 0.210775 0.000000
0.996831 0.210775 0.000000
0.996831 0.210775 0.000000
0.996831 0.210775 0.000000
0.996831 0.210775 0.000000
0.996831 0.210775 0.000000
0.996831 0.210775 0.000000
0.000000 0.268188 0.000000
0.049799 0.268188 0.000000
0.088977 0.268188 0.000000
0.127501 0.268188 0.000000
0.166025 0.268188 0.000000
0.204549 0.268188 0.000000
0.243073 0.268188 0.000000
0.280189 0.266847 0.000000
0.314668 0.263619 0.000000
0.349147 0.261085 0.000000
0.383626 0.259043 0.000000
0.418105 0.257361 0.000000
0.452584 0.255953 0.000000
0.540550 0.250285 0.000000
0.579202 0.249376 0.000000
0.617854 0.248586 0.000000
0.656506 0.247894 0.000000
0.695159 0.247281 0.000000
0.733811 0.246736 0.000000
0.772463 0.246247 0.000000
0.811116 0.245807 0.000000
0.849768 0.245408 0.000000
0.888420 0.245045 0.000000
0.927072 0.244713 0.000000
0.965725 0.244408 0.000000
0.996831 0.244181 0.000000
0.996831 0.244181 0.000000
0.996831 0.244181 0.000000
0.996831 0.244181 0.000000
0.996831 0.244181 0.000000
0.996831 0.244181 0.000000
0.996831 0.244181 0.000000
0.996831 0.244181 0.000000
0.000000 0.301025 0.000000
0.049170 0.301025 0.000000
0.087852 0.301025 0.000000
0.125890 0.301025 0.000000
0.163927 0.301025 0.000000
0.201964 0.301025 0.000000
0.240002 0.301025 0.000000
0.278039 0.301025 0.000000
0.314668 0.299684 0.000000
0.349147 0.296803 0.000000
0.383626 0.294481 0.000000
0.418105 0.292570 0.000000
0.452584 0.290969 0.000000
0.540550 0.284525 0.000000
0.579202 0.283492 0.000000
0.617854 0.282594 0.000000
0.656506 0.281807 0.000000
0.695159 0.281111 0.000000
0.733811 0.280491 0.000000
0.772463 0.279935 0.000000
0.811116 0.279435 0.000000
0.849768 0.278981 0.000000
0.888420 0.278568 0.000000
0.927072 0.278191 0.000000
0.965725 0.277844 0.000000
0.996831 0.277586 0.000000
0.996831 0.277586 0.000000
0.996831 0.277586 0.000000
0.996831 0.277586 0.000000
0.996831 0.277586 0.000000
0.996831 0.277586 0.000000
0.996831 0.277586 0.000000
0.996831 0.277586 0.000000
0.000000 0.333862 0.000000
0.048676 0.333862 0.000000
0.086970 0.333862 0.000000
0.124625 0.333862 0.000000
0.162280 0.333862 0.000000
0.199935 0.333862 0.000000
0.237590 0.333862 0.000000
0.275245 0.333862 0.000000
0.312900 0.333862 0.000000
0.349147 0.332521 0.000000
0.383626 0.329920 0.000000
0.418105 0.327778 0.000000
0.452584 0.325985 0.000000
0.540550 0.318766 0.000000
0.579202 0.317608 0.000000
0.617854 0.316602 0.000000
0.656506 0.315720 0.000000
0.695159 0.314940 0.000000
0.733811 0.314246 0.000000
0.772463 0.313623 0.000000
0.811116 0.313062 0.000000
0.849768 0.312554 0.000000
0.888420 0.312092 0.000000
0.927072 0.311669 0.000000
0.965725 0.311281 0.000000
0.996831 0.310991 0.000000
0.996831 0.310991 0.000000
0.996831 0.310991 0.000000
0.996831 0.310991 0.000000
0.996831 0.310991 0.000000
0.996831 0.310991 0.000000
0.996831 0.310991 0.000000
0.996831 0.310991 0.000000
0.000000 0.366699 0.000000
0.048277 0.366699 0.000000
0.086258 0.366699 0.000000
0.123605 0.366699 0.000000
0.160952 0.366699 0.000000
0.198299 0.366699 0.000000
0.235646 0.366699 0.000000
0.272993 0.366699 0.000000
0.310340 0.366699 0.000000
0.347687 0.366699 0.000000
0.383626 0.365358 0.000000
0.418105 0.362987 0.000000
0.452584 0.361001 0.000000
0.540550 0.353006 0.000000
0.579202 0.351724 0.000000
0.617854 0.350610 0.000000
0.656506 0.349633 0.000000
0.695159 0.348770 0.000000
0.733811 0.348001 0.000000
0.772463 0.347311 0.000000
0.811116 0.346690 0.000000
0.849768 0.346127 0.000000
0.888420 0.345615 0.000000
0.927072 0.345147 0.000000
0.965725 0.344717 0.000000
0.996831 0.344396 0.000000
0.996831 0.344396 0.000000
0.996831 0.344396 0.000000
0.996831 0.344396 0.000000
0.996831 0.344396 0.000000
0.996831 0.344396 0.000000
0.996831 0.344396 0.000000
0.996831 0.344396 0.000000
0.000000 0.399536 0.000000
0.047950 0.399536 0.000000
0.085672 0.399536 0.000000
0.122766 0.399536 0.000000
0.159859 0.399536 0.000000
0.196953 0.399536 0.000000
0.234046 0.399536 0.000000
0.271140 0.399536 0.000000
0.308233 0.399536 0.000000
0.345326 0.399536 0.000000
0.382420 0.399536 0.000000
0.418105 0.398195 0.000000
0.452584 0.396017 0.000000
0.540550 0.387247 0.000000
0.579202 0.385840 0.000000
0.617854 0.384618 0.000000
0.656506 0.383547 0.000000
0.695159 0.382599 0.000000
0.733811 0.381755 0.000000
0.772463 0.380999 0.000000
0.811116 0.380318 0.000000
0.849768 0.379700 0.000000
0.888420 0.379138 0.000000
0.927072 0.378625 0.000000
0.965725 0.378154 0.000000
0.996831 0.377802 0.000000
0.996831 0.377802 0.000000
0.996831 0.377802 0.000000
0.996831 0.377802 0.000000
0.996831 0.377802 0.000000
0.996831 0.377802 0.000000
0.996831 0.377802 0.000000
0.996831 0.377802 0.000000
0.000000 0.432373 0.000000
0.047675 0.432373 0.000000
0.085182 0.432373 0.000000
0.122063 0.432373 0.000000
0.158944 0.432373 0.000000
0.195825 0.432373 0.000000
0.232706 0.432373 0.000000
0.269587 0.432373 0.000000
0.306468 0.432373 0.000000
0.343349 0.432373 0.000000
0.380230 0.432373 0.000000
0.417111 0.432373 0.000000
0.452584 0.431033 0.000000
0.540550 0.421487 0.000000
0.579202 0.419956 0.000000
0.617854 0.418626 0.000000
0.656506 0.417460 0.000000
0.695159 0.416429 0.000000
0.733811 0.415510 0.000000
0.772463 0.414687 0.000000
0.811116 0.413946 0.000000
0.849768 0.413274 0.000000
0.888420 0.412662 0.000000
0.927072 0.412103 0.000000
0.965725 0.411590 0.000000
0.996831 0.411207 0.000000
0.996831 0.411207 0.000000
0.996831 0.411207 0.000000
0.996831 0.411207 0.000000
0.996831 0.411207 0.000000
0.996831 0.411207 0.000000
0.996831 0.411207 0.000000
0.996831 0.411207 0.000000
0.000000 0.458137 0.000000
0.047489 0.458137 0.000000
0.084850 0.458137 0.000000
0.121587 0.458137 0.000000
0.158324 0.458137 0.000000
0.195061 0.458137 0.000000
0.231798 0.458137 0.000000
0.268535 0.458137 0.000000
0.305272 0.458137 0.000000
0.342009 0.458137 0.000000
0.378746 0.458137 0.000000
0.415483 0.458137 0.000000
0.452220 0.458137 0.000000
0.540550 0.448352 0.000000
0.579202 0.446724 0.000000
0.617854 0.445309 0.000000
0.656506 0.444068 0.000000
0.695159 0.442971 0.000000
0.733811 0.441994 0.000000
0.772463 0.441119 0.000000
0.811116 0.440330 0.000000
0.849768 0.439615 0.000000
0.888420 0.438964 0.000000
0.927072 0.505755 0.000000
0.965725 0.505360 0.000000
0.996831 0.505078 0.000000
0.996831 0.505078 0.000000
0.996831 0.505078 0.000000
0.996831 0.505078 0.000000
0.996831 0.505078 0.000000
0.996831 0.505078 0.000000
0.996831 0.505078 0.000000
0.996831 0.505078 0.000000
0.000000 0.552864 0.000000
0.046418 0.552864 0.000000
0.082936 0.552864 0.000000
0.118845 0.552864 0.000000
0.154754 0.552864 0.000000
0.190663 0.552864 0.000000
0.226571 0.552864 0.000000
0.262480 0.552864 0.000000
0.298389 0.552864 0.000000
0.334297 0.552864 0.000000
0.370206 0.552864 0.000000
0.406115 0.552864 0.000000
0.442024 0.552864 0.000000
0.539969 0.552864 0.000000
0.579202 0.551689 0.000000
0.617854 0.550181 0.000000
0.656506 0.548886 0.000000
0.695159 0.547768 0.000000
0.733811 0.546797 0.000000
0.772463 0.545950 0.000000
0.811116 0.545210 0.000000
0.849768 0.544561 0.000000
0.888420 0.543990 0.000000
0.927072 0.543489 0.000000
0.965725 0.543047 0.000000
0.996831 0.542730 0.000000
0.996831 0.542730 0.000000
0.996831 0.542730 0.000000
0.996831 0.542730 0.000000
0.996831 0.542730 0.000000
0.996831 0.542730 0.000000
0.996831 0.542730 0.000000
0.996831 0.542730 0.000000
0.000000 0.589676 0.000000
0.046264 0.589676 0.000000
0.082661 0.589676 0.000000
0.118451 0.589676 0.000000
0.154240 0.589676 0.000000
0.190030 0.589676 0.000000
0.225819 0.589676 0.000000
0.261609 0.589676 0.000000
0.297398 0.589676 0.000000
0.333188 0.589676 0.000000
0.368978 0.589676 0.000000
0.404767 0.589676 0.000000
0.440557 0.589676 0.000000
0.538405 0.589676 0.000000
0.578745 0.589676 0.000000
0.617854 0.588512 0.000000
0.656506 0.587111 0.000000
0.695159 0.585898 0.000000
0.733811 0.584843 0.000000
0.772463 0.583921 0.000000
0.811116 0.583113 0.000000
0.849768 0.582402 0.000000
0.888420 0.581776 0.000000
0.927072 0.581223 0.000000
0.965725 0.580734 0.000000
0.996831 0.580382 0.000000
0.996831 0.580382 0.000000
0.996831 0.580382 0.000000
0.996831 0.580382 0.000000
0.996831 0.580382 0.000000
0.996831 0.580382 0.000000
0.996831 0.580382 0.000000
0.996831 0.580382 0.000000
0.000000 0.626487 0.000000
0.046129 0.626487 0.000000
0.082420 0.626487 0.000000
0.118105 0.626487 0.000000
0.153790 0.626487 0.000000
0.189475 0.626487 0.000000
0.225160 0.626487 0.000000
0.260845 0.626487 0.000000
0.296530 0.626487 0.000000
0.332215 0.626487 0.000000
0.367900 0.626487 0.000000
0.403585 0.626487 0.000000
0.439270 0.626487 0.000000
0.537061 0.626487 0.000000
0.577282 0.626487 0.000000
0.617504 0.626487 0.000000
0.656506 0.625335 0.000000
0.695159 0.624028 0.000000
0.733811 0.622889 0.000000
0.772463 0.621892 0.000000
0.811116 0.621015 0.000000
0.849768 0.620243 0.000000
0.888420 0.619561 0.000000
0.927072 0.618957 0.000000
0.965725 0.618421 0.000000
0.996831 0.618034 0.000000
0.996831 0.618034 0.000000
0.996831 0.618034 0.000000
0.996831 0.618034 0.000000
0.996831 0.618034 0.000000
0.996831 0.618034 0.000000
0.996831 0.618034 0.000000
0.996831 0.618034 0.000000
0.000000 0.663299 0.000000
0.046010 0.663299 0.000000
0.082206 0.663299 0.000000
0.117799 0.663299 0.000000
0.153392 0.663299 0.000000
0.188984 0.663299 0.000000
0.224577 0.663299 0.000000
0.260170 0.663299 0.000000
0.295762 0.663299 0.000000
0.331355 0.663299 0.000000
0.366948 0.663299 0.000000
0.402540 0.663299 0.000000
0.438133 0.663299 0.000000
0.535897 0.663299 0.000000
0.576014 0.663299 0.000000
0.616132 0.663299 0.000000
0.656249 0.663299 0.000000
0.695159 0.662158 0.000000
0.733811 0.660935 0.000000
0.772463 0.659862 0.000000
0.811116 0.658918 0.000000
0.849768 0.658084 0.000000
0.888420 0.657346 0.000000
0.927072 0.656690 0.000000
0.965725 0.656108 0.000000
0.996831 0.655686 0.000000
0.996831 0.655686 0.000000
0.996831 0.655686 0.000000
0.996831 0.655686 0.000000
0.996831 0.655686 0.000000
0.996831 0.655686 0.000000
0.996831 0.655686 0.000000
0.996831 0.655686 0.000000
0.000000 0.700111 0.000000
0.045903 0.700111 0.000000
0.082016 0.700111 0.000000
0.117527 0.700111 0.000000
0.153037 0.700111 0.000000
0.188548 0.700111 0.000000
0.224058 0.700111 0.000000
0.259568 0.700111 0.000000
0.295079 0.700111 0.000000
0.330589 0.700111 0.000000
0.366099 0.700111 0.000000
0.401610 0.700111 0.000000
0.437120 0.700111 0.000000
0.534884 0.700111 0.000000
0.574909 0.700111 0.000000
0.614934 0.700111 0.000000
0.654958 0.700111 0.000000
0.694983 0.700111 0.000000
0.733811 0.698981 0.000000
0.772463 0.697833 0.000000
0.811116 0.696821 0.000000
0.849768 0.695925 0.000000
0.888420 0.695131 0.000000
0.927072 0.694424 0.000000
0.965725 0.693795 0.000000
0.996831 0.693338 0.000000
0.996831 0.693338 0.000000
0.996831 0.693338 0.000000
0.996831 0.693338 0.000000
0.996831 0.693338 0.000000
0.996831 0.693338 0.000000
0.996831 0.693338 0.000000
0.996831 0.693338 0.000000
0.000000 0.736922 0.000000
0.045808 0.736922 0.000000
0.081846 0.736922 0.000000
0.117283 0.736922 0.000000
0.152719 0.736922 0.000000
0.188156 0.736922 0.000000
0.223593 0.736922 0.000000
0.259029 0.736922 0.000000
0.294466 0.736922 0.000000
0.329903 0.736922 0.000000
0.365339 0.736922 0.000000
0.400776 0.736922 0.000000
0.436213 0.736922 0.000000
0.534000 0.736922 0.000000
0.573941 0.736922 0.000000
0.613883 0.736922 0.000000
0.653824 0.736922 0.000000
0.693766 0.736922 0.000000
0.733707 0.736922 0.000000
0.772463 0.735803 0.000000
0.811116 0.734723 0.000000
0.849768 0.733767 0.000000
0.888420 0.732916 0.000000
0.927072 0.732158 0.000000
0.965725 0.731482 0.000000
0.996831 0.730990 0.000000
0.996831 0.730990 0.000000
0.996831 0.730990 0.000000
0.996831 0.730990 0.000000
0.996831 0.730990 0.000000
0.996831 0.730990 0.000000
0.996831 0.730990 0.000000
0.996831 0.730990 0.000000
0.000000 0.773734 0.000000
0.045722 0.773734 0.000000
0.081693 0.773734 0.000000
0.117063 0.773734 0.000000
0.152433 0.773734 0.000000
0.187803 0.773734 0.000000
0.223173 0.773734 0.000000
0.258544 0.773734 0.000000
0.293914 0.773734 0.000000
0.329284 0.773734 0.000000
0.364654 0.773734 0.000000
0.400025 0.773734 0.000000
0.435395 0.773734 0.000000
0.533223 0.773734 0.000000
0.573090 0.773734 0.000000
0.612957 0.773734 0.000000
0.652823 0.773734 0.000000
0.692690 0.773734 0.000000
0.732557 0.773734 0.000000
0.772423 0.773734 0.000000
0.811116 0.772626 0.000000
0.849768 0.771608 0.000000
0.888420 0.770701 0.000000
0.927072 0.769892 0.000000
0.965725 0.769169 0.000000
0.996831 0.768642 0.000000
0.996831 0.768642 0.000000
0.996831 0.768642 0.000000
0.996831 0.768642 0.000000
0.996831 0.768642 0.000000
0.996831 0.768642 0.000000
0.996831 0.768642 0.000000
0.996831 0.768642 0.000000
0.000000 0.810546 0.000000
0.045644 0.810546 0.000000
0.081554 0.810546 0.000000
0.116864 0.810546 0.000000
0.152174 0.810546 0.000000
0.187484 0.810546 0.000000
0.222794 0.810546 0.000000
0.258104 0.810546 0.000000
0.293414 0.810546 0.000000
0.328724 0.810546 0.000000
0.364034 0.810546 0.000000
0.399344 0.810546 0.000000
0.434654 0.810546 0.000000
0.532541 0.810546 0.000000
0.572340 0.810546 0.000000
0.612138 0.810546 0.000000
0.651937 0.810546 0.000000
0.691736 0.810546 0.000000
0.731535 0.810546 0.000000
0.771334 0.810546 0.000000
0.811116 0.810529 0.000000
0.849768 0.809449 0.000000
0.888420 0.808486 0.000000
0.927072 0.807626 0.000000
0.965725 0.806856 0.000000
0.996831 0.806294 0.000000
0.996831 0.806294 0.000000
0.996831 0.806294 0.000000
0.996831 0.806294 0.000000
0.996831 0.806294 0.000000
0.996831 0.806294 0.000000
0.996831 0.806294 0.000000
0.996831 0.806294 0.000000
0.000000 0.847357 0.000000
0.045573 0.847357 0.000000
0.081427 0.847357 0.000000
0.116682 0.847357 0.000000
0.151937 0.847357 0.000000
0.187193 0.847357 0.000000
0.222448 0.847357 0.000000
0.257703 0.847357 0.000000
0.292958 0.847357 0.000000
0.328214 0.847357 0.000000
0.363469 0.847357 0.000000
0.398724 0.847357 0.000000
0.433979 0.847357 0.000000
0.531939 0.847357 0.000000
0.571676 0.847357 0.000000
0.611413 0.847357 0.000000
0.651150 0.847357 0.000000
0.690887 0.847357 0.000000
0.730624 0.847357 0.000000
0.770361 0.847357 0.000000
0.810098 0.847357 0.000000
0.849768 0.847290 0.000000
0.888420 0.846272 0.000000
0.927072 0.845360 0.000000
0.965725 0.844543 0.000000
0.996831 0.843946 0.000000
0.996831 0.843946 0.000000
0.996831 0.843946 0.000000
0.996831 0.843946 0.000000
0.996831 0.843946 0.000000
0.996831 0.843946 0.000000
0.996831 0.843946 0.000000
0.996831 0.843946 0.000000
0.000000 0.884169 0.000000
0.045509 0.884169 0.000000
0.081311 0.884169 0.000000
0.116516 0.884169 0.000000
0.151722 0.884169 0.000000
0.186927 0.884169 0.000000
0.222132 0.884169 0.000000
0.257337 0.884169 0.000000
0.292542 0.884169 0.000000
0.327747 0.884169 0.000000
0.362953 0.884169 0.000000
0.398158 0.884169 0.000000
0.433363 0.884169 0.000000
0.531408 0.884169 0.000000
0.571088 0.884169 0.000000
0.610769 0.884169 0.000000
0.650450 0.884169 0.000000
0.690130 0.884169 0.000000
0.729811 0.884169 0.000000
0.769491 0.884169 0.000000
0.809172 0.884169 0.000000
0.848853 0.884169 0.000000
0.888420 0.884057 0.000000
0.927072 0.883094 0.000000
0.965725 0.882230 0.000000
0.996831 0.881598 0.000000
0.996831 0.881598 0.000000
0.996831 0.881598 0.000000
0.996831 0.881598 0.000000
0.996831 0.881598 0.000000
0.996831 0.881598 0.000000
0.996831 0.881598 0.000000
0.996831 0.881598 0.000000
0.000000 0.920981 0.000000
0.045449 0.920981 0.000000
0.081205 0.920981 0.000000
0.116364 0.920981 0.000000
0.151524 0.920981 0.000000
0.186683 0.920981 0.000000
0.221842 0.920981 0.000000
0.257001 0.920981 0.000000
0.292160 0.920981 0.000000
0.327320 0.920981 0.000000
0.362479 0.920981 0.000000
0.397638 0.920981 0.000000
0.432797 0.920981 0.000000
0.530938 0.920981 0.000000
0.570567 0.920981 0.000000
0.610196 0.920981 0.000000
0.649825 0.920981 0.000000
0.689453 0.920981 0.000000
0.729082 0.920981 0.000000
0.768711 0.920981 0.000000
0.808340 0.920981 0.000000
0.847969 0.920981 0.000000
0.887598 0.920981 0.000000
0.927072 0.920828 0.000000
0.965725 0.919917 0.000000
0.996831 0.919250 0.000000
0.996831 0.919250 0.000000
0.996831 0.919250 0.000000
0.996831 0.919250 0.000000
0.996831 0.919250 0.000000
0.996831 0.919250 0.000000
0.996831 0.919250 0.000000
0.996831 0.919250 0.000000
0.000000 0.957792 0.000000
0.045395 0.957792 0.000000
0.081107 0.957792 0.000000
0.116224 0.957792 0.000000
0.151341 0.957792 0.000000
0.186458 0.957792 0.000000
0.221575 0.957792 0.000000
0.256692 0.957792 0.000000
0.291809 0.957792 0.000000
0.326926 0.957792 0.000000
0.362043 0.957792 0.000000
0.397160 0.957792 0.000000
0.432276 0.957792 0.000000
0.530523 0.957792 0.000000
0.570104 0.957792 0.000000
0.609685 0.957792 0.000000
0.649266 0.957792 0.000000
0.688847 0.957792 0.000000
0.728429 0.957792 0.000000
0.768010 0.957792 0.000000
0.807591 0.957792 0.000000
0.847172 0.957792 0.000000
0.886753 0.957792 0.000000
0.926334 0.957792 0.000000
0.965725 0.957604 0.000000
0.996831 0.956901 0.000000
0.996831 0.956901 0.000000
0.996831 0.956901 0.000000
0.996831 0.956901 0.000000
0.996831 0.956901 0.000000
0.996831 0.956901 0.000000
0.996831 0.956901 0.000000
0.996831 0.956901 0.000000
0.000000 0.994604 0.000000
0.045344 0.994604 0.000000
0.081017 0.994604 0.000000
0.116095 0.994604 0.000000
0.151173 0.994604 0.000000
0.186251 0.994604 0.000000
0.221328 0.994604 0.000000
0.256406 0.994604 0.000000
0.291484 0.994604 0.000000
0.326562 0.994604 0.000000
0.361640 0.994604 0.000000
0.396717 0.994604 0.000000
0.431795 0.994604 0.000000
0.530156 0.994604 0.000000
0.569693 0.994604 0.000000
0.609230 0.994604 0.000000
0.648767 0.994604 0.000000
0.688304 0.994604 0.000000
0.727841 0.994604 0.000000
0.767378 0.994604 0.000000
0.806915 0.994604 0.000000
0.846452 0.994604 0.000000
0.885990 0.994604 0.000000
0.925527 0.994604 0.000000
