docs/luts/fuji_recipes/NEGA_GB_Big_Softy.cube
TITLE "Fujifilm Recipe: GB Big Softy (NEGA)"
# FilmSim=NEGA HL=-1 SH=0 Col=-2 WB=Auto WBR=0 WBB=0
LUT_3D_SIZE 5
DOMAIN_MIN 0.0 0.0 0.0
DOMAIN_MAX 1.0 1.0 1.0
0.016000 0.016000 0.016000
0.210635 0.067365 0.067365
0.405118 0.118690 0.118690
0.581601 0.165725 0.165725
0.763189 0.214156 0.214156
0.067365 0.210635 0.067365
0.210635 0.210635 0.067365
0.405118 0.261960 0.118690
0.581601 0.308995 0.165725
0.763189 0.357426 0.214156
0.118690 0.405118 0.118690
0.261960 0.405118 0.118690
0.405118 0.405118 0.118690
0.581601 0.452154 0.165725
0.763189 0.500305 0.214156
0.165725 0.581601 0.165725
0.308995 0.581601 0.165725
0.452154 0.581601 0.165725
0.581601 0.581601 0.165725
0.763189 0.629610 0.214156
0.214156 0.763189 0.214156
0.357426 0.763189 0.214156
0.500305 0.763189 0.214156
0.629610 0.763189 0.214156
0.763189 0.763189 0.214156
0.067365 0.067365 0.210635
0.210635 0.067365 0.210635
0.405118 0.118690 0.261960
0.581601 0.165725 0.308995
0.763189 0.214156 0.357426
0.067365 0.210635 0.210635
0.262000 0.262000 0.262000
0.456483 0.313325 0.313325
0.632421 0.360241 0.360241
0.814009 0.408671 0.408671
0.118690 0.405118 0.261960
0.313325 0.456483 0.313325
0.456483 0.456483 0.313325
0.632421 0.503116 0.360241
0.814009 0.551125 0.408671
0.165725 0.581601 0.308995
0.360241 0.632421 0.360241
0.503116 0.632421 0.360241
0.632421 0.632421 0.360241
0.814009 0.680430 0.408671
0.214156 0.763189 0.357426
0.408671 0.814009 0.408671
0.551125 0.814009 0.408671
0.680430 0.814009 0.408671
0.814009 0.814009 0.408671
0.118690 0.118690 0.405118
0.261960 0.118690 0.405118
0.405118 0.118690 0.405118
0.581601 0.165725 0.452154
0.763189 0.214156 0.500305
0.118690 0.261960 0.405118
0.313325 0.313325 0.456483
0.456483 0.313325 0.456483
0.632421 0.360241 0.503116
0.814009 0.408671 0.551125
0.118690 0.405118 0.405118
0.313325 0.456483 0.456483
0.507340 0.507340 0.507340
0.683002 0.553697 0.553697
0.864472 0.601588 0.601588
0.165725 0.581601 0.452154
0.360241 0.632421 0.503116
0.553697 0.683002 0.553697
0.683002 0.683002 0.553697
0.864472 0.730892 0.601588
0.214156 0.763189 0.500305
0.408671 0.814009 0.551125
0.601588 0.864472 0.601588
0.730892 0.864472 0.601588
0.864472 0.864472 0.601588
0.165725 0.165725 0.581601
0.308995 0.165725 0.581601
0.452154 0.165725 0.581601
0.581601 0.165725 0.581601
0.763189 0.214156 0.629610
0.165725 0.308995 0.581601
0.360241 0.360241 0.632421
0.503116 0.360241 0.632421
0.632421 0.360241 0.632421
0.814009 0.408671 0.680430
0.165725 0.452154 0.581601
0.360241 0.503116 0.632421
0.553697 0.553697 0.683002
0.683002 0.553697 0.683002
0.864472 0.601588 0.730892
0.165725 0.581601 0.581601
0.360241 0.632421 0.632421
0.553697 0.683002 0.683002
0.729360 0.729360 0.729360
0.910830 0.777250 0.777250
0.214156 0.763189 0.629610
0.408671 0.814009 0.680430
0.601588 0.864472 0.730892
0.777250 0.910830 0.777250
0.910830 0.910830 0.777250
0.214156 0.214156 0.763189
0.357426 0.214156 0.763189
0.500305 0.214156 0.763189
0.629610 0.214156 0.763189
0.763189 0.214156 0.763189
0.214156 0.357426 0.763189
0.408671 0.408671 0.814009
0.551125 0.408671 0.814009
0.680430 0.408671 0.814009
0.814009 0.408671 0.814009
0.214156 0.500305 0.763189
0.408671 0.551125 0.814009
0.601588 0.601588 0.864472
0.730892 0.601588 0.864472
0.864472 0.601588 0.864472
0.214156 0.629610 0.763189
0.408671 0.680430 0.814009
0.601588 0.730892 0.864472
0.777250 0.777250 0.910830
0.910830 0.777250 0.910830
0.214156 0.763189 0.763189
0.408671 0.814009 0.814009
0.601588 0.864472 0.864472
0.777250 0.910830 0.910830
0.958720 0.958720 0.958720
