docs/luts/fuji_recipes/NEGAhi_NZD_Portra_400.cube
TITLE "Fujifilm Recipe: NZD Portra 400 (NEGAhi)"
# FilmSim=NEGAhi HL=-1 SH=1 Col=-2 WB=Auto WBR=0 WBB=0
LUT_3D_SIZE 33
DOMAIN_MIN 0.0 0.0 0.0
DOMAIN_MAX 1.0 1.0 1.0
0.000000 0.000000 0.000000
0.024846 0.005454 0.005454
0.049584 0.010884 0.010884
0.074286 0.016307 0.016307
0.098989 0.021729 0.021729
0.123691 0.027152 0.027152
0.148393 0.032574 0.032574
0.173095 0.037997 0.037997
0.197797 0.043419 0.043419
0.222500 0.048841 0.048841
0.247202 0.054264 0.054264
0.271904 0.059686 0.059686
0.296606 0.065109 0.065109
0.321309 0.070531 0.070531
0.346011 0.075954 0.075954
0.370713 0.081376 0.081376
0.411756 0.090385 0.090385
0.435653 0.095631 0.095631
0.459551 0.100877 0.100877
0.483448 0.106123 0.106123
0.507345 0.111368 0.111368
0.531243 0.116614 0.116614
0.555140 0.121860 0.121860
0.579037 0.127106 0.127106
0.602935 0.132351 0.132351
0.626832 0.137597 0.137597
0.650729 0.142843 0.142843
0.674627 0.148089 0.148089
0.698524 0.153335 0.153335
0.722421 0.158580 0.158580
0.746318 0.163826 0.163826
0.770216 0.169072 0.169072
0.790775 0.173585 0.173585
0.005400 0.024600 0.005400
0.024846 0.024654 0.005454
0.049584 0.030084 0.010884
0.074286 0.035507 0.016307
0.098989 0.040929 0.021729
0.123691 0.046352 0.027152
0.148393 0.051774 0.032574
0.173095 0.057197 0.037997
0.197797 0.062619 0.043419
0.222500 0.068041 0.048841
0.247202 0.073464 0.054264
0.271904 0.078886 0.059686
0.296606 0.084309 0.065109
0.321309 0.089731 0.070531
0.346011 0.095154 0.075954
0.370713 0.100576 0.081376
0.411756 0.109585 0.090385
0.435653 0.114831 0.095631
0.459551 0.120077 0.100877
0.483448 0.125323 0.106123
0.507345 0.130568 0.111368
0.531243 0.135814 0.116614
0.555140 0.141060 0.121860
0.579037 0.146306 0.127106
0.602935 0.151551 0.132351
0.626832 0.156797 0.137597
0.650729 0.162043 0.142843
0.674627 0.167289 0.148089
0.698524 0.172535 0.153335
0.722421 0.177780 0.158580
0.746318 0.183026 0.163826
0.770216 0.188272 0.169072
0.790775 0.192785 0.173585
0.010800 0.049200 0.010800
0.030192 0.049200 0.010800
0.049584 0.049284 0.010884
0.074286 0.054707 0.016307
0.098989 0.060129 0.021729
0.123691 0.065552 0.027152
0.148393 0.070974 0.032574
0.173095 0.076397 0.037997
0.197797 0.081819 0.043419
0.222500 0.087241 0.048841
0.247202 0.092664 0.054264
0.271904 0.098086 0.059686
0.296606 0.103509 0.065109
0.321309 0.108931 0.070531
0.346011 0.114354 0.075954
0.370713 0.119776 0.081376
0.411756 0.128785 0.090385
0.435653 0.134031 0.095631
0.459551 0.139277 0.100877
0.483448 0.144523 0.106123
0.507345 0.149768 0.111368
0.531243 0.155014 0.116614
0.555140 0.160260 0.121860
0.579037 0.165506 0.127106
0.602935 0.170751 0.132351
0.626832 0.175997 0.137597
0.650729 0.181243 0.142843
0.674627 0.186489 0.148089
0.698524 0.191735 0.153335
0.722421 0.196980 0.158580
0.746318 0.202226 0.163826
0.770216 0.207472 0.169072
0.790775 0.211985 0.173585
0.016200 0.073800 0.016200
0.035592 0.073800 0.016200
0.054900 0.073800 0.016200
0.074286 0.073907 0.016307
0.098989 0.079329 0.021729
0.123691 0.084752 0.027152
0.148393 0.090174 0.032574
0.173095 0.095597 0.037997
0.197797 0.101019 0.043419
0.222500 0.106441 0.048841
0.247202 0.111864 0.054264
0.271904 0.117286 0.059686
0.296606 0.122709 0.065109
0.321309 0.128131 0.070531
0.346011 0.133554 0.075954
0.370713 0.138976 0.081376
0.411756 0.147985 0.090385
0.435653 0.153231 0.095631
0.459551 0.158477 0.100877
0.483448 0.163723 0.106123
0.507345 0.168968 0.111368
0.531243 0.174214 0.116614
0.555140 0.179460 0.121860
0.579037 0.184706 0.127106
0.602935 0.189951 0.132351
0.626832 0.195197 0.137597
0.650729 0.200443 0.142843
0.674627 0.205689 0.148089
0.698524 0.210935 0.153335
0.722421 0.216180 0.158580
0.746318 0.221426 0.163826
0.770216 0.226672 0.169072
0.790775 0.231185 0.173585
0.021600 0.098400 0.021600
0.040992 0.098400 0.021600
0.060300 0.098400 0.021600
0.079580 0.098400 0.021600
0.098989 0.098529 0.021729
0.123691 0.103952 0.027152
0.148393 0.109374 0.032574
0.173095 0.114797 0.037997
0.197797 0.120219 0.043419
0.222500 0.125641 0.048841
0.247202 0.131064 0.054264
0.271904 0.136486 0.059686
0.296606 0.141909 0.065109
0.321309 0.147331 0.070531
0.346011 0.152754 0.075954
0.370713 0.158176 0.081376
0.411756 0.167185 0.090385
0.435653 0.172431 0.095631
0.459551 0.177677 0.100877
0.483448 0.182923 0.106123
0.507345 0.188168 0.111368
0.531243 0.193414 0.116614
0.555140 0.198660 0.121860
0.579037 0.203906 0.127106
0.602935 0.209151 0.132351
0.626832 0.214397 0.137597
0.650729 0.219643 0.142843
0.674627 0.224889 0.148089
0.698524 0.230135 0.153335
0.722421 0.235380 0.158580
0.746318 0.240626 0.163826
0.770216 0.245872 0.169072
0.790775 0.250385 0.173585
0.027000 0.123000 0.027000
0.046392 0.123000 0.027000
0.065700 0.123000 0.027000
0.084980 0.123000 0.027000
0.104259 0.123000 0.027000
0.123691 0.123152 0.027152
0.148393 0.128574 0.032574
0.173095 0.133997 0.037997
0.197797 0.139419 0.043419
0.222500 0.144841 0.048841
0.247202 0.150264 0.054264
0.271904 0.155686 0.059686
0.296606 0.161109 0.065109
0.321309 0.166531 0.070531
0.346011 0.171954 0.075954
0.370713 0.177376 0.081376
0.411756 0.186385 0.090385
0.435653 0.191631 0.095631
0.459551 0.196877 0.100877
0.483448 0.202123 0.106123
0.507345 0.207368 0.111368
0.531243 0.212614 0.116614
0.555140 0.217860 0.121860
0.579037 0.223106 0.127106
0.602935 0.228351 0.132351
0.626832 0.233597 0.137597
0.650729 0.238843 0.142843
0.674627 0.244089 0.148089
0.698524 0.249335 0.153335
0.722421 0.254580 0.158580
0.746318 0.259826 0.163826
0.770216 0.265072 0.169072
0.790775 0.269585 0.173585
0.032400 0.147600 0.032400
0.051792 0.147600 0.032400
0.071100 0.147600 0.032400
0.090380 0.147600 0.032400
0.109659 0.147600 0.032400
0.128939 0.147600 0.032400
0.148393 0.147774 0.032574
0.173095 0.153197 0.037997
0.197797 0.158619 0.043419
0.222500 0.164041 0.048841
0.247202 0.169464 0.054264
0.271904 0.174886 0.059686
0.296606 0.180309 0.065109
0.321309 0.185731 0.070531
0.346011 0.191154 0.075954
0.370713 0.196576 0.081376
0.411756 0.205585 0.090385
0.435653 0.210831 0.095631
0.459551 0.216077 0.100877
0.483448 0.221323 0.106123
0.507345 0.226568 0.111368
0.531243 0.231814 0.116614
0.555140 0.237060 0.121860
0.579037 0.242306 0.127106
0.602935 0.247551 0.132351
0.626832 0.252797 0.137597
0.650729 0.258043 0.142843
0.674627 0.263289 0.148089
0.698524 0.268535 0.153335
0.722421 0.273780 0.158580
0.746318 0.279026 0.163826
0.770216 0.284272 0.169072
0.790775 0.288785 0.173585
0.037800 0.172200 0.037800
0.057192 0.172200 0.037800
0.076500 0.172200 0.037800
0.095780 0.172200 0.037800
0.115059 0.172200 0.037800
0.134339 0.172200 0.037800
0.153619 0.172200 0.037800
0.173095 0.172397 0.037997
0.197797 0.177819 0.043419
0.222500 0.183241 0.048841
0.247202 0.188664 0.054264
0.271904 0.194086 0.059686
0.296606 0.199509 0.065109
0.321309 0.204931 0.070531
0.346011 0.210354 0.075954
0.370713 0.215776 0.081376
0.411756 0.224785 0.090385
0.435653 0.230031 0.095631
0.459551 0.235277 0.100877
0.483448 0.240523 0.106123
0.507345 0.245768 0.111368
0.531243 0.251014 0.116614
0.555140 0.256260 0.121860
0.579037 0.261506 0.127106
0.602935 0.266751 0.132351
0.626832 0.271997 0.137597
0.650729 0.277243 0.142843
0.674627 0.282489 0.148089
0.698524 0.287735 0.153335
0.722421 0.292980 0.158580
0.746318 0.298226 0.163826
0.770216 0.303472 0.169072
0.790775 0.307985 0.173585
0.043200 0.196800 0.043200
0.062592 0.196800 0.043200
0.081900 0.196800 0.043200
0.101180 0.196800 0.043200
0.120459 0.196800 0.043200
0.139739 0.196800 0.043200
0.159019 0.196800 0.043200
0.178299 0.196800 0.043200
0.197797 0.197019 0.043419
0.222500 0.202441 0.048841
0.247202 0.207864 0.054264
0.271904 0.213286 0.059686
0.296606 0.218709 0.065109
0.321309 0.224131 0.070531
0.346011 0.229554 0.075954
0.370713 0.234976 0.081376
0.411756 0.243985 0.090385
0.435653 0.249231 0.095631
0.459551 0.254477 0.100877
0.483448 0.259723 0.106123
0.507345 0.264968 0.111368
0.531243 0.270214 0.116614
0.555140 0.275460 0.121860
0.579037 0.280706 0.127106
0.602935 0.285951 0.132351
0.626832 0.291197 0.137597
0.650729 0.296443 0.142843
0.674627 0.301689 0.148089
0.698524 0.306935 0.153335
0.722421 0.312180 0.158580
0.746318 0.317426 0.163826
0.770216 0.322672 0.169072
0.790775 0.327185 0.173585
0.048600 0.221400 0.048600
0.067992 0.221400 0.048600
0.087300 0.221400 0.048600
0.106580 0.221400 0.048600
0.125859 0.221400 0.048600
0.145139 0.221400 0.048600
0.164419 0.221400 0.048600
0.183699 0.221400 0.048600
0.202979 0.221400 0.048600
0.222500 0.221641 0.048841
0.247202 0.227064 0.054264
0.271904 0.232486 0.059686
0.296606 0.237909 0.065109
0.321309 0.243331 0.070531
0.346011 0.248754 0.075954
0.370713 0.254176 0.081376
0.411756 0.263185 0.090385
0.435653 0.268431 0.095631
0.459551 0.273677 0.100877
0.483448 0.278923 0.106123
0.507345 0.284168 0.111368
0.531243 0.289414 0.116614
0.555140 0.294660 0.121860
0.579037 0.299906 0.127106
0.602935 0.305151 0.132351
0.626832 0.310397 0.137597
0.650729 0.315643 0.142843
0.674627 0.320889 0.148089
0.698524 0.326135 0.153335
0.722421 0.331380 0.158580
0.746318 0.336626 0.163826
0.770216 0.341872 0.169072
0.790775 0.346385 0.173585
0.054000 0.246000 0.054000
0.073392 0.246000 0.054000
0.092700 0.246000 0.054000
0.111980 0.246000 0.054000
0.131259 0.246000 0.054000
0.150539 0.246000 0.054000
0.169819 0.246000 0.054000
0.189099 0.246000 0.054000
0.208379 0.246000 0.054000
0.227658 0.246000 0.054000
0.247202 0.246264 0.054264
0.271904 0.251686 0.059686
0.296606 0.257109 0.065109
0.321309 0.262531 0.070531
0.346011 0.267954 0.075954
0.370713 0.273376 0.081376
0.411756 0.282385 0.090385
0.435653 0.287631 0.095631
0.459551 0.292877 0.100877
0.483448 0.298123 0.106123
0.507345 0.303368 0.111368
0.531243 0.308614 0.116614
0.555140 0.313860 0.121860
0.579037 0.319106 0.127106
0.602935 0.324351 0.132351
0.626832 0.329597 0.137597
0.650729 0.334843 0.142843
0.674627 0.340089 0.148089
0.698524 0.345335 0.153335
0.722421 0.350580 0.158580
0.746318 0.355826 0.163826
0.770216 0.361072 0.169072
0.790775 0.365585 0.173585
0.059400 0.270600 0.059400
0.078792 0.270600 0.059400
0.098100 0.270600 0.059400
0.117380 0.270600 0.059400
0.136659 0.270600 0.059400
0.155939 0.270600 0.059400
0.175219 0.270600 0.059400
0.194499 0.270600 0.059400
0.213779 0.270600 0.059400
0.233058 0.270600 0.059400
0.252338 0.270600 0.059400
0.271904 0.270886 0.059686
0.296606 0.276309 0.065109
0.321309 0.281731 0.070531
0.346011 0.287154 0.075954
0.370713 0.292576 0.081376
0.411756 0.301585 0.090385
0.435653 0.306831 0.095631
0.459551 0.312077 0.100877
0.483448 0.317323 0.106123
0.507345 0.322568 0.111368
0.531243 0.327814 0.116614
0.555140 0.333060 0.121860
0.579037 0.338306 0.127106
0.602935 0.343551 0.132351
0.626832 0.348797 0.137597
0.650729 0.354043 0.142843
0.674627 0.359289 0.148089
0.698524 0.364535 0.153335
0.722421 0.369780 0.158580
0.746318 0.375026 0.163826
0.770216 0.380272 0.169072
0.790775 0.384785 0.173585
0.064800 0.295200 0.064800
0.084192 0.295200 0.064800
0.103500 0.295200 0.064800
0.122780 0.295200 0.064800
0.142059 0.295200 0.064800
0.161339 0.295200 0.064800
0.180619 0.295200 0.064800
0.199899 0.295200 0.064800
0.219179 0.295200 0.064800
0.238458 0.295200 0.064800
0.257738 0.295200 0.064800
0.277018 0.295200 0.064800
0.296606 0.295509 0.065109
0.321309 0.300931 0.070531
0.346011 0.306354 0.075954
0.370713 0.311776 0.081376
0.411756 0.320785 0.090385
0.435653 0.326031 0.095631
0.459551 0.331277 0.100877
0.483448 0.336523 0.106123
0.507345 0.341768 0.111368
0.531243 0.347014 0.116614
0.555140 0.352260 0.121860
0.579037 0.357506 0.127106
0.602935 0.362751 0.132351
0.626832 0.367997 0.137597
0.650729 0.373243 0.142843
0.674627 0.378489 0.148089
0.698524 0.383735 0.153335
0.722421 0.388980 0.158580
0.746318 0.394226 0.163826
0.770216 0.399472 0.169072
0.790775 0.403985 0.173585
0.070200 0.319800 0.070200
0.089592 0.319800 0.070200
0.108900 0.319800 0.070200
0.128180 0.319800 0.070200
0.147459 0.319800 0.070200
0.166739 0.319800 0.070200
0.186019 0.319800 0.070200
0.205299 0.319800 0.070200
0.224579 0.319800 0.070200
0.243858 0.319800 0.070200
0.263138 0.319800 0.070200
0.282418 0.319800 0.070200
0.301698 0.319800 0.070200
0.321309 0.320131 0.070531
0.346011 0.325554 0.075954
0.370713 0.330976 0.081376
0.411756 0.339985 0.090385
0.435653 0.345231 0.095631
0.459551 0.350477 0.100877
0.483448 0.355723 0.106123
0.507345 0.360968 0.111368
0.531243 0.366214 0.116614
0.555140 0.371460 0.121860
0.579037 0.376706 0.127106
0.602935 0.381951 0.132351
0.626832 0.387197 0.137597
0.650729 0.392443 0.142843
0.674627 0.397689 0.148089
0.698524 0.402935 0.153335
0.722421 0.408180 0.158580
0.746318 0.413426 0.163826
0.770216 0.418672 0.169072
0.790775 0.423185 0.173585
0.075600 0.344400 0.075600
0.094992 0.344400 0.075600
0.114300 0.344400 0.075600
0.133580 0.344400 0.075600
0.152859 0.344400 0.075600
0.172139 0.344400 0.075600
0.191419 0.344400 0.075600
0.210699 0.344400 0.075600
0.229979 0.344400 0.075600
0.249258 0.344400 0.075600
0.268538 0.344400 0.075600
0.287818 0.344400 0.075600
0.307098 0.344400 0.075600
0.326377 0.344400 0.075600
0.346011 0.344754 0.075954
0.370713 0.350176 0.081376
0.411756 0.359185 0.090385
0.435653 0.364431 0.095631
0.459551 0.369677 0.100877
0.483448 0.374923 0.106123
0.507345 0.380168 0.111368
0.531243 0.385414 0.116614
0.555140 0.390660 0.121860
0.579037 0.395906 0.127106
0.602935 0.401151 0.132351
0.626832 0.406397 0.137597
0.650729 0.411643 0.142843
0.674627 0.416889 0.148089
0.698524 0.422135 0.153335
0.722421 0.427380 0.158580
0.746318 0.432626 0.163826
0.770216 0.437872 0.169072
0.790775 0.442385 0.173585
0.081000 0.369000 0.081000
0.100392 0.369000 0.081000
0.119700 0.369000 0.081000
0.138980 0.369000 0.081000
0.158259 0.369000 0.081000
0.177539 0.369000 0.081000
0.196819 0.369000 0.081000
0.216099 0.369000 0.081000
0.235379 0.369000 0.081000
0.254658 0.369000 0.081000
0.273938 0.369000 0.081000
0.293218 0.369000 0.081000
0.312498 0.369000 0.081000
0.331777 0.369000 0.081000
0.351057 0.369000 0.081000
0.370713 0.369376 0.081376
0.411756 0.378385 0.090385
0.435653 0.383631 0.095631
0.459551 0.388877 0.100877
0.483448 0.394123 0.106123
0.507345 0.399368 0.111368
0.531243 0.404614 0.116614
0.555140 0.409860 0.121860
0.579037 0.415106 0.127106
0.602935 0.420351 0.132351
0.626832 0.425597 0.137597
0.650729 0.430843 0.142843
0.674627 0.436089 0.148089
0.698524 0.441335 0.153335
0.722421 0.446580 0.158580
0.746318 0.451826 0.163826
0.770216 0.457072 0.169072
0.790775 0.461585 0.173585
0.086400 0.393600 0.086400
0.105792 0.393600 0.086400
0.125100 0.393600 0.086400
0.144380 0.393600 0.086400
0.163659 0.393600 0.086400
0.182939 0.393600 0.086400
0.202219 0.393600 0.086400
0.221499 0.393600 0.086400
0.240779 0.393600 0.086400
0.260058 0.393600 0.086400
0.279338 0.393600 0.086400
0.298618 0.393600 0.086400
0.317898 0.393600 0.086400
0.337177 0.393600 0.086400
0.356457 0.393600 0.086400
0.375737 0.393600 0.086400
0.411756 0.397585 0.090385
0.435653 0.402831 0.095631
0.459551 0.408077 0.100877
0.483448 0.413323 0.106123
0.507345 0.418568 0.111368
0.531243 0.423814 0.116614
0.555140 0.429060 0.121860
0.579037 0.434306 0.127106
0.602935 0.439551 0.132351
0.626832 0.444797 0.137597
0.650729 0.450043 0.142843
0.674627 0.455289 0.148089
0.698524 0.460535 0.153335
0.722421 0.465780 0.158580
0.746318 0.471026 0.163826
0.770216 0.476272 0.169072
0.790775 0.480785 0.173585
0.095224 0.433798 0.095224
0.114616 0.433798 0.095224
0.133924 0.433798 0.095224
0.153204 0.433798 0.095224
0.172484 0.433798 0.095224
0.191763 0.433798 0.095224
0.211043 0.433798 0.095224
0.230323 0.433798 0.095224
0.249603 0.433798 0.095224
0.268882 0.433798 0.095224
0.288162 0.433798 0.095224
0.307442 0.433798 0.095224
0.326722 0.433798 0.095224
0.346001 0.433798 0.095224
0.365281 0.433798 0.095224
0.384561 0.433798 0.095224
0.416595 0.433798 0.095224
0.435653 0.434206 0.095631
0.459551 0.439451 0.100877
0.483448 0.444697 0.106123
0.507345 0.449943 0.111368
0.531243 0.455189 0.116614
0.555140 0.460434 0.121860
0.579037 0.465680 0.127106
0.602935 0.470926 0.132351
0.626832 0.476172 0.137597
0.650729 0.481417 0.142843
0.674627 0.486663 0.148089
0.698524 0.491909 0.153335
0.722421 0.497155 0.158580
0.746318 0.502400 0.163826
0.770216 0.507646 0.169072
0.790775 0.512159 0.173585
0.100448 0.457597 0.100448
0.119840 0.457597 0.100448
0.139148 0.457597 0.100448
0.158428 0.457597 0.100448
0.177708 0.457597 0.100448
0.196987 0.457597 0.100448
0.216267 0.457597 0.100448
0.235547 0.457597 0.100448
0.254827 0.457597 0.100448
0.274106 0.457597 0.100448
0.293386 0.457597 0.100448
0.312666 0.457597 0.100448
0.331946 0.457597 0.100448
0.351225 0.457597 0.100448
0.370505 0.457597 0.100448
0.389785 0.457597 0.100448
0.421819 0.457597 0.100448
0.440470 0.457597 0.100448
0.459551 0.458026 0.100877
0.483448 0.463272 0.106123
0.507345 0.468517 0.111368
0.531243 0.473763 0.116614
0.555140 0.479009 0.121860
0.579037 0.484255 0.127106
0.602935 0.489500 0.132351
0.626832 0.494746 0.137597
0.650729 0.499992 0.142843
0.674627 0.505238 0.148089
0.698524 0.510483 0.153335
0.722421 0.515729 0.158580
0.746318 0.520975 0.163826
0.770216 0.526221 0.169072
0.790775 0.530734 0.173585
0.105672 0.481395 0.105672
0.125064 0.481395 0.105672
0.144372 0.481395 0.105672
0.163652 0.481395 0.105672
0.182932 0.481395 0.105672
0.202211 0.481395 0.105672
0.221491 0.481395 0.105672
0.240771 0.481395 0.105672
0.260051 0.481395 0.105672
0.279330 0.481395 0.105672
0.298610 0.481395 0.105672
0.317890 0.481395 0.105672
0.337170 0.481395 0.105672
0.356450 0.481395 0.105672
0.375729 0.481395 0.105672
0.395009 0.481395 0.105672
0.427043 0.481395 0.105672
0.445694 0.481395 0.105672
0.464346 0.481395 0.105672
0.483448 0.481846 0.106123
0.507345 0.487092 0.111368
0.531243 0.492337 0.116614
0.555140 0.497583 0.121860
0.579037 0.502829 0.127106
0.602935 0.508075 0.132351
0.626832 0.513320 0.137597
0.650729 0.518566 0.142843
0.674627 0.523812 0.148089
0.698524 0.529058 0.153335
0.722421 0.534303 0.158580
0.746318 0.539549 0.163826
0.770216 0.544795 0.169072
0.790775 0.549308 0.173585
0.110896 0.505194 0.110896
0.130288 0.505194 0.110896
0.149596 0.505194 0.110896
0.168876 0.505194 0.110896
0.188156 0.505194 0.110896
0.207435 0.505194 0.110896
0.226715 0.505194 0.110896
0.245995 0.505194 0.110896
0.265275 0.505194 0.110896
0.284555 0.505194 0.110896
0.303834 0.505194 0.110896
0.323114 0.505194 0.110896
0.342394 0.505194 0.110896
0.361674 0.505194 0.110896
0.380953 0.505194 0.110896
0.400233 0.505194 0.110896
0.432267 0.505194 0.110896
0.450918 0.505194 0.110896
0.469570 0.505194 0.110896
0.488221 0.505194 0.110896
0.507345 0.505666 0.111368
0.531243 0.510912 0.116614
0.555140 0.516158 0.121860
0.579037 0.521403 0.127106
0.602935 0.526649 0.132351
0.626832 0.531895 0.137597
0.650729 0.537141 0.142843
0.674627 0.542386 0.148089
0.698524 0.547632 0.153335
0.722421 0.552878 0.158580
0.746318 0.558124 0.163826
0.770216 0.563369 0.169072
0.790775 0.567882 0.173585
0.116120 0.528992 0.116120
0.135512 0.528992 0.116120
0.154820 0.528992 0.116120
0.174100 0.528992 0.116120
0.193380 0.528992 0.116120
0.212659 0.528992 0.116120
0.231939 0.528992 0.116120
0.251219 0.528992 0.116120
0.270499 0.528992 0.116120
0.289779 0.528992 0.116120
0.309058 0.528992 0.116120
0.328338 0.528992 0.116120
0.347618 0.528992 0.116120
0.366898 0.528992 0.116120
0.386177 0.528992 0.116120
0.405457 0.528992 0.116120
0.437491 0.528992 0.116120
0.456142 0.528992 0.116120
0.474794 0.528992 0.116120
0.493445 0.528992 0.116120
0.512097 0.528992 0.116120
0.531243 0.529486 0.116614
0.555140 0.534732 0.121860
0.579037 0.539978 0.127106
0.602935 0.545223 0.132351
0.626832 0.550469 0.137597
0.650729 0.555715 0.142843
0.674627 0.560961 0.148089
0.698524 0.566207 0.153335
0.722421 0.571452 0.158580
0.746318 0.576698 0.163826
0.770216 0.581944 0.169072
0.790775 0.586457 0.173585
0.121344 0.552791 0.121344
0.140736 0.552791 0.121344
0.160044 0.552791 0.121344
0.179324 0.552791 0.121344
0.198604 0.552791 0.121344
0.217884 0.552791 0.121344
0.237163 0.552791 0.121344
0.256443 0.552791 0.121344
0.275723 0.552791 0.121344
0.295003 0.552791 0.121344
0.314282 0.552791 0.121344
0.333562 0.552791 0.121344
0.352842 0.552791 0.121344
0.372122 0.552791 0.121344
0.391401 0.552791 0.121344
0.410681 0.552791 0.121344
0.442715 0.552791 0.121344
0.461366 0.552791 0.121344
0.480018 0.552791 0.121344
0.498670 0.552791 0.121344
0.517321 0.552791 0.121344
0.535973 0.552791 0.121344
0.555140 0.553306 0.121860
0.579037 0.558552 0.127106
0.602935 0.563798 0.132351
0.626832 0.569044 0.137597
0.650729 0.574289 0.142843
0.674627 0.579535 0.148089
0.698524 0.584781 0.153335
0.722421 0.590027 0.158580
0.746318 0.595272 0.163826
0.770216 0.600518 0.169072
0.790775 0.605031 0.173585
0.126568 0.576589 0.126568
0.145960 0.576589 0.126568
0.165268 0.576589 0.126568
0.184548 0.576589 0.126568
0.203828 0.576589 0.126568
0.223108 0.576589 0.126568
0.242387 0.576589 0.126568
0.261667 0.576589 0.126568
0.280947 0.576589 0.126568
0.300227 0.576589 0.126568
0.319506 0.576589 0.126568
0.338786 0.576589 0.126568
0.358066 0.576589 0.126568
0.377346 0.576589 0.126568
0.396625 0.576589 0.126568
0.415905 0.576589 0.126568
0.447939 0.576589 0.126568
0.466590 0.576589 0.126568
0.485242 0.576589 0.126568
0.503894 0.576589 0.126568
0.522545 0.576589 0.126568
0.541197 0.576589 0.126568
0.559848 0.576589 0.126568
0.579037 0.577127 0.127106
0.602935 0.582372 0.132351
0.626832 0.587618 0.137597
0.650729 0.592864 0.142843
0.674627 0.598110 0.148089
0.698524 0.603355 0.153335
0.722421 0.608601 0.158580
0.746318 0.613847 0.163826
0.770216 0.619093 0.169072
0.790775 0.623606 0.173585
0.131792 0.600388 0.131792
0.151184 0.600388 0.131792
0.170492 0.600388 0.131792
0.189772 0.600388 0.131792
0.209052 0.600388 0.131792
0.228332 0.600388 0.131792
0.247611 0.600388 0.131792
0.266891 0.600388 0.131792
0.286171 0.600388 0.131792
0.305451 0.600388 0.131792
0.324730 0.600388 0.131792
0.344010 0.600388 0.131792
0.363290 0.600388 0.131792
0.382570 0.600388 0.131792
0.401850 0.600388 0.131792
0.421129 0.600388 0.131792
0.453163 0.600388 0.131792
0.471814 0.600388 0.131792
0.490466 0.600388 0.131792
0.509118 0.600388 0.131792
0.527769 0.600388 0.131792
0.546421 0.600388 0.131792
0.565072 0.600388 0.131792
0.583724 0.600388 0.131792
0.602935 0.600947 0.132351
0.626832 0.606192 0.137597
0.650729 0.611438 0.142843
0.674627 0.616684 0.148089
0.698524 0.621930 0.153335
0.722421 0.627175 0.158580
0.746318 0.632421 0.163826
0.770216 0.637667 0.169072
0.790775 0.642180 0.173585
0.137016 0.624186 0.137016
0.156408 0.624186 0.137016
0.175716 0.624186 0.137016
0.194996 0.624186 0.137016
0.214276 0.624186 0.137016
0.233556 0.624186 0.137016
0.252835 0.624186 0.137016
0.272115 0.624186 0.137016
0.291395 0.624186 0.137016
0.310675 0.624186 0.137016
0.329955 0.624186 0.137016
0.349234 0.624186 0.137016
0.368514 0.624186 0.137016
0.387794 0.624186 0.137016
0.407074 0.624186 0.137016
0.426353 0.624186 0.137016
0.458387 0.624186 0.137016
0.477039 0.624186 0.137016
0.495690 0.624186 0.137016
0.514342 0.624186 0.137016
0.532993 0.624186 0.137016
0.551645 0.624186 0.137016
0.570296 0.624186 0.137016
0.588948 0.624186 0.137016
0.607600 0.624186 0.137016
0.626832 0.624767 0.137597
0.650729 0.630013 0.142843
0.674627 0.635258 0.148089
0.698524 0.640504 0.153335
0.722421 0.645750 0.158580
0.746318 0.650996 0.163826
0.770216 0.656241 0.169072
0.790775 0.660754 0.173585
0.142240 0.647984 0.142240
0.161633 0.647984 0.142240
0.180940 0.647984 0.142240
0.200220 0.647984 0.142240
0.219500 0.647984 0.142240
0.238780 0.647984 0.142240
0.258059 0.647984 0.142240
0.277339 0.647984 0.142240
0.296619 0.647984 0.142240
0.315899 0.647984 0.142240
0.335179 0.647984 0.142240
0.354458 0.647984 0.142240
0.373738 0.647984 0.142240
0.393018 0.647984 0.142240
0.412298 0.647984 0.142240
0.431577 0.647984 0.142240
0.463611 0.647984 0.142240
0.482263 0.647984 0.142240
0.500914 0.647984 0.142240
0.519566 0.647984 0.142240
0.538217 0.647984 0.142240
0.556869 0.647984 0.142240
0.575520 0.647984 0.142240
0.594172 0.647984 0.142240
