docs/luts/fuji_recipes/NEGAhi_JC_Pro_Port.cube
TITLE "Fujifilm Recipe: JC Pro Port (NEGAhi)"
# FilmSim=NEGAhi HL=-2 SH=2 Col=-3 WB=Auto WBR=1 WBB=0
LUT_3D_SIZE 5
DOMAIN_MIN 0.0 0.0 0.0
DOMAIN_MAX 1.0 1.0 1.0
0.000000 0.000000 0.000000
0.172966 0.063974 0.063974
0.374430 0.138488 0.138488
0.537745 0.198892 0.198892
0.682346 0.252374 0.252374
0.062100 0.167900 0.062100
0.172966 0.169774 0.063974
0.374430 0.244288 0.138488
0.537745 0.304692 0.198892
0.682346 0.358174 0.252374
0.124200 0.335800 0.124200
0.233192 0.335800 0.124200
0.374430 0.350088 0.138488
0.537745 0.410492 0.198892
0.682346 0.463974 0.252374
0.193687 0.523673 0.193687
0.302679 0.523673 0.193687
0.429629 0.523673 0.193687
0.537745 0.528878 0.198892
0.682346 0.582360 0.252374
0.252374 0.682346 0.252374
0.361367 0.682346 0.252374
0.488317 0.682346 0.252374
0.591228 0.682346 0.252374
0.682346 0.682346 0.252374
0.062100 0.062100 0.167900
0.172966 0.063974 0.169774
0.374430 0.138488 0.244288
0.537745 0.198892 0.304692
0.682346 0.252374 0.358174
0.062100 0.167900 0.167900
0.235066 0.231874 0.231874
0.436530 0.306388 0.306388
0.599845 0.366792 0.366792
0.744446 0.420274 0.420274
0.124200 0.335800 0.230000
0.295292 0.397900 0.292100
0.436530 0.412188 0.306388
0.599845 0.472592 0.366792
0.744446 0.526074 0.420274
0.193687 0.523673 0.299487
0.364779 0.585773 0.361587
0.491729 0.585773 0.361587
0.599845 0.590978 0.366792
0.744446 0.644460 0.420274
0.252374 0.682346 0.358174
0.423467 0.744446 0.420274
0.550417 0.744446 0.420274
0.653328 0.744446 0.420274
0.744446 0.744446 0.420274
0.124200 0.124200 0.335800
0.233192 0.124200 0.335800
0.374430 0.138488 0.350088
0.537745 0.198892 0.410492
0.682346 0.252374 0.463974
0.124200 0.230000 0.335800
0.295292 0.292100 0.397900
0.436530 0.306388 0.412188
0.599845 0.366792 0.472592
0.744446 0.420274 0.526074
0.124200 0.335800 0.335800
0.297166 0.399774 0.399774
0.498630 0.474288 0.474288
0.661945 0.534692 0.534692
0.806546 0.588174 0.588174
0.193687 0.523673 0.405287
0.366653 0.587647 0.469261
0.553829 0.647873 0.529487
0.661945 0.653078 0.534692
0.806546 0.706560 0.588174
0.252374 0.682346 0.463974
0.425340 0.746319 0.527948
0.612517 0.806546 0.588174
0.715428 0.806546 0.588174
0.806546 0.806546 0.588174
0.193687 0.193687 0.523673
0.302679 0.193687 0.523673
0.429629 0.193687 0.523673
0.537745 0.198892 0.528878
0.682346 0.252374 0.582360
0.193687 0.299487 0.523673
0.364779 0.361587 0.585773
0.491729 0.361587 0.585773
0.599845 0.366792 0.590978
0.744446 0.420274 0.644460
0.193687 0.405287 0.523673
0.366653 0.469261 0.587647
0.553829 0.529487 0.647873
0.661945 0.534692 0.653078
0.806546 0.588174 0.706560
0.193687 0.523673 0.523673
0.366653 0.587647 0.587647
0.568117 0.662161 0.662161
0.731433 0.722565 0.722565
0.876033 0.776047 0.776047
0.252374 0.682346 0.582360
0.425340 0.746319 0.646334
0.626804 0.820833 0.720848
0.784915 0.876033 0.776047
0.876033 0.876033 0.776047
0.252374 0.252374 0.682346
0.361367 0.252374 0.682346
0.488317 0.252374 0.682346
0.591228 0.252374 0.682346
0.682346 0.252374 0.682346
0.252374 0.358174 0.682346
0.423467 0.420274 0.744446
0.550417 0.420274 0.744446
0.653328 0.420274 0.744446
0.744446 0.420274 0.744446
0.252374 0.463974 0.682346
0.425340 0.527948 0.746319
0.612517 0.588174 0.806546
0.715428 0.588174 0.806546
0.806546 0.588174 0.806546
0.252374 0.582360 0.682346
0.425340 0.646334 0.746319
0.626804 0.720848 0.820833
0.784915 0.776047 0.876033
0.876033 0.776047 0.876033
0.252374 0.682346 0.682346
0.425340 0.746319 0.746319
0.626804 0.820833 0.820833
0.790120 0.881238 0.881238
0.934720 0.934720 0.934720
