docs/luts/fuji_recipes/NEGAhi_NZD_Portra_400.cube
TITLE "Fujifilm Recipe: NZD Portra 400 (NEGAhi)"
# FilmSim=NEGAhi HL=-1 SH=1 Col=-2 WB=Auto WBR=0 WBB=0
LUT_3D_SIZE 5
DOMAIN_MIN 0.0 0.0 0.0
DOMAIN_MAX 1.0 1.0 1.0
0.000000 0.000000 0.000000
0.197797 0.043419 0.043419
0.411756 0.090385 0.090385
0.602935 0.132351 0.132351
0.790775 0.173585 0.173585
0.043200 0.196800 0.043200
0.197797 0.197019 0.043419
0.411756 0.243985 0.090385
0.602935 0.285951 0.132351
0.790775 0.327185 0.173585
0.086400 0.393600 0.086400
0.240779 0.393600 0.086400
0.411756 0.397585 0.090385
0.602935 0.439551 0.132351
0.790775 0.480785 0.173585
0.131792 0.600388 0.131792
0.286171 0.600388 0.131792
0.453163 0.600388 0.131792
0.602935 0.600947 0.132351
0.790775 0.642180 0.173585
0.173585 0.790775 0.173585
0.327963 0.790775 0.173585
0.494955 0.790775 0.173585
0.644168 0.790775 0.173585
0.790775 0.790775 0.173585
0.043200 0.043200 0.196800
0.197797 0.043419 0.197019
0.411756 0.090385 0.243985
0.602935 0.132351 0.285951
0.790775 0.173585 0.327185
0.043200 0.196800 0.196800
0.240997 0.240219 0.240219
0.454956 0.287185 0.287185
0.646135 0.329151 0.329151
0.833975 0.370385 0.370385
0.086400 0.393600 0.240000
0.283979 0.436800 0.283200
0.454956 0.440785 0.287185
0.646135 0.482751 0.329151
0.833975 0.523985 0.370385
0.131792 0.600388 0.285392
0.329371 0.643588 0.328592
0.496363 0.643588 0.328592
0.646135 0.644147 0.329151
0.833975 0.685380 0.370385
0.173585 0.790775 0.327185
0.371163 0.833975 0.370385
0.538155 0.833975 0.370385
0.687368 0.833975 0.370385
0.833975 0.833975 0.370385
0.086400 0.086400 0.393600
0.240779 0.086400 0.393600
0.411756 0.090385 0.397585
0.602935 0.132351 0.439551
0.790775 0.173585 0.480785
0.086400 0.240000 0.393600
0.283979 0.283200 0.436800
0.454956 0.287185 0.440785
0.646135 0.329151 0.482751
0.833975 0.370385 0.523985
0.086400 0.393600 0.393600
0.284197 0.437019 0.437019
0.498156 0.483985 0.483985
0.689335 0.525951 0.525951
0.877175 0.567185 0.567185
0.131792 0.600388 0.438992
0.329590 0.643807 0.482411
0.539563 0.686788 0.525392
0.689335 0.687347 0.525951
0.877175 0.728580 0.567185
0.173585 0.790775 0.480785
0.371382 0.834194 0.524204
0.581355 0.877175 0.567185
0.730568 0.877175 0.567185
0.877175 0.877175 0.567185
0.131792 0.131792 0.600388
0.286171 0.131792 0.600388
0.453163 0.131792 0.600388
0.602935 0.132351 0.600947
0.790775 0.173585 0.642180
0.131792 0.285392 0.600388
0.329371 0.328592 0.643588
0.496363 0.328592 0.643588
0.646135 0.329151 0.644147
0.833975 0.370385 0.685380
0.131792 0.438992 0.600388
0.329590 0.482411 0.643807
0.539563 0.525392 0.686788
0.689335 0.525951 0.687347
0.877175 0.567185 0.728580
0.131792 0.600388 0.600388
0.329590 0.643807 0.643807
0.543548 0.690773 0.690773
0.734727 0.732739 0.732739
0.922568 0.773972 0.773972
0.173585 0.790775 0.642180
0.371382 0.834194 0.685599
0.585341 0.881161 0.732565
0.775960 0.922568 0.773972
0.922568 0.922568 0.773972
0.173585 0.173585 0.790775
0.327963 0.173585 0.790775
0.494955 0.173585 0.790775
0.644168 0.173585 0.790775
0.790775 0.173585 0.790775
0.173585 0.327185 0.790775
0.371163 0.370385 0.833975
0.538155 0.370385 0.833975
0.687368 0.370385 0.833975
0.833975 0.370385 0.833975
0.173585 0.480785 0.790775
0.371382 0.524204 0.834194
0.581355 0.567185 0.877175
0.730568 0.567185 0.877175
0.877175 0.567185 0.877175
0.173585 0.642180 0.790775
0.371382 0.685599 0.834194
0.585341 0.732565 0.881161
0.775960 0.773972 0.922568
0.922568 0.773972 0.922568
0.173585 0.790775 0.790775
0.371382 0.834194 0.834194
0.585341 0.881161 0.881161
0.776519 0.923127 0.923127
0.964360 0.964360 0.964360
