docs/luts/fuji_recipes/NEGA_PE_Pro_Neg_LaRoque.cube
TITLE "Fujifilm Recipe: PE Pro Neg LaRoque (NEGA)"
# FilmSim=NEGA HL=-2 SH=-2 Col=-1 WB=Auto WBR=0 WBB=0
LUT_3D_SIZE 5
DOMAIN_MIN 0.0 0.0 0.0
DOMAIN_MAX 1.0 1.0 1.0
0.094720 0.094720 0.094720
0.292320 0.123440 0.123440
0.489766 0.152138 0.152138
0.635398 0.175352 0.175352
0.822910 0.203000 0.203000
0.123440 0.292320 0.123440
0.292320 0.292320 0.123440
0.489766 0.321018 0.152138
0.635398 0.344232 0.175352
0.822910 0.371880 0.203000
0.152138 0.489766 0.152138
0.321018 0.489766 0.152138
0.489766 0.489766 0.152138
0.635398 0.512980 0.175352
0.822910 0.507589 0.203000
0.175352 0.635398 0.175352
0.344232 0.635398 0.175352
0.512980 0.635398 0.175352
0.635398 0.635398 0.175352
0.822910 0.662686 0.203000
0.203000 0.822910 0.203000
0.371880 0.822910 0.203000
0.507589 0.822910 0.203000
0.662686 0.822910 0.203000
0.822910 0.822910 0.203000
0.123440 0.123440 0.292320
0.292320 0.123440 0.292320
0.489766 0.152138 0.321018
0.635398 0.175352 0.344232
0.822910 0.203000 0.371880
0.123440 0.292320 0.292320
0.321040 0.321040 0.321040
0.518486 0.349738 0.349738
0.663715 0.372912 0.372912
0.851227 0.400560 0.400560
0.152138 0.489766 0.321018
0.349738 0.518486 0.349738
0.518486 0.518486 0.349738
0.663715 0.508618 0.372912
0.851227 0.535906 0.400560
0.175352 0.635398 0.344232
0.372912 0.663715 0.372912
0.508618 0.663715 0.372912
0.663715 0.663715 0.372912
0.851227 0.691003 0.400560
0.203000 0.822910 0.371880
0.400560 0.851227 0.400560
0.535906 0.851227 0.400560
0.691003 0.851227 0.400560
0.851227 0.851227 0.400560
0.152138 0.152138 0.489766
0.321018 0.152138 0.489766
0.489766 0.152138 0.489766
0.635398 0.175352 0.512980
0.822910 0.203000 0.507589
0.152138 0.321018 0.489766
0.349738 0.349738 0.518486
0.518486 0.349738 0.518486
0.663715 0.372912 0.508618
0.851227 0.400560 0.535906
0.152138 0.489766 0.489766
0.349738 0.518486 0.518486
0.506871 0.506871 0.506871
0.688344 0.533247 0.533247
0.875816 0.560495 0.560495
0.175352 0.635398 0.512980
0.372912 0.663715 0.508618
0.533247 0.688344 0.533247
0.688344 0.688344 0.533247
0.875816 0.715592 0.560495
0.203000 0.822910 0.507589
0.400560 0.851227 0.535906
0.560495 0.875816 0.560495
0.715592 0.875816 0.560495
0.875816 0.875816 0.560495
0.175352 0.175352 0.635398
0.344232 0.175352 0.635398
0.512980 0.175352 0.635398
0.635398 0.175352 0.635398
0.822910 0.203000 0.662686
0.175352 0.344232 0.635398
0.372912 0.372912 0.663715
0.508618 0.372912 0.663715
0.663715 0.372912 0.663715
0.851227 0.400560 0.691003
0.175352 0.512980 0.635398
0.372912 0.508618 0.663715
0.533247 0.533247 0.688344
0.688344 0.533247 0.688344
0.875816 0.560495 0.715592
0.175352 0.635398 0.635398
0.372912 0.663715 0.663715
0.533247 0.688344 0.688344
0.714720 0.714720 0.714720
0.902192 0.741968 0.741968
0.203000 0.822910 0.662686
0.400560 0.851227 0.691003
0.560495 0.875816 0.715592
0.741968 0.902192 0.741968
0.902192 0.902192 0.741968
0.203000 0.203000 0.822910
0.371880 0.203000 0.822910
0.507589 0.203000 0.822910
0.662686 0.203000 0.822910
0.822910 0.203000 0.822910
0.203000 0.371880 0.822910
0.400560 0.400560 0.851227
0.535906 0.400560 0.851227
0.691003 0.400560 0.851227
0.851227 0.400560 0.851227
0.203000 0.507589 0.822910
0.400560 0.535906 0.851227
0.560495 0.560495 0.875816
0.715592 0.560495 0.875816
0.875816 0.560495 0.875816
0.203000 0.662686 0.822910
0.400560 0.691003 0.851227
0.560495 0.715592 0.875816
0.741968 0.741968 0.902192
0.902192 0.741968 0.902192
0.203000 0.822910 0.822910
0.400560 0.851227 0.851227
0.560495 0.875816 0.875816
0.741968 0.902192 0.902192
0.929440 0.929440 0.929440
