docs/luts/fuji_recipes/NEGAhi_RR_Classic_Negative.cube
TITLE "Fujifilm Recipe: RR Classic Negative (NEGAhi)"
# FilmSim=NEGAhi HL=2 SH=2 Col=-2 WB=FLight1 WBR=-2 WBB=4
LUT_3D_SIZE 33
DOMAIN_MIN 0.0 0.0 0.0
DOMAIN_MAX 1.0 1.0 1.0
0.000000 0.000000 0.000000
0.029901 0.006564 0.006564
0.055596 0.012204 0.012204
0.080864 0.017751 0.017751
0.106131 0.023297 0.023297
0.131398 0.028844 0.028844
0.156666 0.034390 0.034390
0.181933 0.039937 0.039937
0.207200 0.045483 0.045483
0.232468 0.051030 0.051030
0.257735 0.056576 0.056576
0.283002 0.062122 0.062122
0.308270 0.067669 0.067669
0.333537 0.073215 0.073215
0.358804 0.078762 0.078762
0.417970 0.091750 0.091750
0.447276 0.098182 0.098182
0.476581 0.104615 0.104615
0.505887 0.111048 0.111048
0.535193 0.117481 0.117481
0.564499 0.123914 0.123914
0.593804 0.130347 0.130347
0.623110 0.136780 0.136780
0.652416 0.143213 0.143213
0.681721 0.149646 0.149646
0.711027 0.156079 0.156079
0.740333 0.162512 0.162512
0.742106 0.162901 0.162901
0.742106 0.162901 0.162901
0.742106 0.162901 0.162901
0.742106 0.162901 0.162901
0.742106 0.162901 0.162901
0.742106 0.162901 0.162901
0.008118 0.036981 0.008118
0.031455 0.036981 0.008118
0.055596 0.041067 0.012204
0.080864 0.046614 0.017751
0.106131 0.052160 0.023297
0.131398 0.057707 0.028844
0.156666 0.063253 0.034390
0.181933 0.068800 0.039937
0.207200 0.074346 0.045483
0.232468 0.079893 0.051030
0.257735 0.085439 0.056576
0.283002 0.090986 0.062122
0.308270 0.096532 0.067669
0.333537 0.102079 0.073215
0.358804 0.107625 0.078762
0.417970 0.120613 0.091750
0.447276 0.127046 0.098182
0.476581 0.133479 0.104615
0.505887 0.139912 0.111048
0.535193 0.146345 0.117481
0.564499 0.152777 0.123914
0.593804 0.159210 0.130347
0.623110 0.165643 0.136780
0.652416 0.172076 0.143213
0.681721 0.178509 0.149646
0.711027 0.184942 0.156079
0.740333 0.191375 0.162512
0.742106 0.191764 0.162901
0.742106 0.191764 0.162901
0.742106 0.191764 0.162901
0.742106 0.191764 0.162901
0.742106 0.191764 0.162901
0.742106 0.191764 0.162901
0.014504 0.066075 0.014504
0.037841 0.066075 0.014504
0.057896 0.066075 0.014504
0.080864 0.069321 0.017751
0.106131 0.074867 0.023297
0.131398 0.080414 0.028844
0.156666 0.085960 0.034390
0.181933 0.091507 0.039937
0.207200 0.097053 0.045483
0.232468 0.102600 0.051030
0.257735 0.108146 0.056576
0.283002 0.113693 0.062122
0.308270 0.119239 0.067669
0.333537 0.124786 0.073215
0.358804 0.130332 0.078762
0.417970 0.143320 0.091750
0.447276 0.149753 0.098182
0.476581 0.156186 0.104615
0.505887 0.162619 0.111048
0.535193 0.169052 0.117481
0.564499 0.175485 0.123914
0.593804 0.181918 0.130347
0.623110 0.188351 0.136780
0.652416 0.194784 0.143213
0.681721 0.201217 0.149646
0.711027 0.207649 0.156079
0.740333 0.214082 0.162512
0.742106 0.214472 0.162901
0.742106 0.214472 0.162901
0.742106 0.214472 0.162901
0.742106 0.214472 0.162901
0.742106 0.214472 0.162901
0.742106 0.214472 0.162901
0.020784 0.094683 0.020784
0.044121 0.094683 0.020784
0.064176 0.094683 0.020784
0.083897 0.094683 0.020784
0.106131 0.097196 0.023297
0.131398 0.102742 0.028844
0.156666 0.108289 0.034390
0.181933 0.113835 0.039937
0.207200 0.119382 0.045483
0.232468 0.124928 0.051030
0.257735 0.130475 0.056576
0.283002 0.136021 0.062122
0.308270 0.141568 0.067669
0.333537 0.147114 0.073215
0.358804 0.152661 0.078762
0.417970 0.165648 0.091750
0.447276 0.172081 0.098182
0.476581 0.178514 0.104615
0.505887 0.184947 0.111048
0.535193 0.191380 0.117481
0.564499 0.197813 0.123914
0.593804 0.204246 0.130347
0.623110 0.210679 0.136780
0.652416 0.217112 0.143213
0.681721 0.223545 0.149646
0.711027 0.229978 0.156079
0.740333 0.236411 0.162512
0.742106 0.236800 0.162901
0.742106 0.236800 0.162901
0.742106 0.236800 0.162901
0.742106 0.236800 0.162901
0.742106 0.236800 0.162901
0.742106 0.236800 0.162901
0.027064 0.123291 0.027064
0.050401 0.123291 0.027064
0.070456 0.123291 0.027064
0.090177 0.123291 0.027064
0.109898 0.123291 0.027064
0.131398 0.125070 0.028844
0.156666 0.130617 0.034390
0.181933 0.136163 0.039937
0.207200 0.141710 0.045483
0.232468 0.147256 0.051030
0.257735 0.152803 0.056576
0.283002 0.158349 0.062122
0.308270 0.163896 0.067669
0.333537 0.169442 0.073215
0.358804 0.174989 0.078762
0.417970 0.187976 0.091750
0.447276 0.194409 0.098182
0.476581 0.200842 0.104615
0.505887 0.207275 0.111048
0.535193 0.213708 0.117481
0.564499 0.220141 0.123914
0.593804 0.226574 0.130347
0.623110 0.233007 0.136780
0.652416 0.239440 0.143213
0.681721 0.245873 0.149646
0.711027 0.252306 0.156079
0.740333 0.258739 0.162512
0.742106 0.259128 0.162901
0.742106 0.259128 0.162901
0.742106 0.259128 0.162901
0.742106 0.259128 0.162901
0.742106 0.259128 0.162901
0.742106 0.259128 0.162901
0.033344 0.151899 0.033344
0.056681 0.151899 0.033344
0.076736 0.151899 0.033344
0.096457 0.151899 0.033344
0.116178 0.151899 0.033344
0.135899 0.151899 0.033344
0.156666 0.152945 0.034390
0.181933 0.158492 0.039937
0.207200 0.164038 0.045483
0.232468 0.169585 0.051030
0.257735 0.175131 0.056576
0.283002 0.180678 0.062122
0.308270 0.186224 0.067669
0.333537 0.191771 0.073215
0.358804 0.197317 0.078762
0.417970 0.210305 0.091750
0.447276 0.216738 0.098182
0.476581 0.223171 0.104615
0.505887 0.229604 0.111048
0.535193 0.236037 0.117481
0.564499 0.242470 0.123914
0.593804 0.248902 0.130347
0.623110 0.255335 0.136780
0.652416 0.261768 0.143213
0.681721 0.268201 0.149646
0.711027 0.274634 0.156079
0.740333 0.281067 0.162512
0.742106 0.281456 0.162901
0.742106 0.281456 0.162901
0.742106 0.281456 0.162901
0.742106 0.281456 0.162901
0.742106 0.281456 0.162901
0.742106 0.281456 0.162901
0.039623 0.180507 0.039623
0.062961 0.180507 0.039623
0.083016 0.180507 0.039623
0.102737 0.180507 0.039623
0.122457 0.180507 0.039623
0.142178 0.180507 0.039623
0.161899 0.180507 0.039623
0.181933 0.180820 0.039937
0.207200 0.186367 0.045483
0.232468 0.191913 0.051030
0.257735 0.197459 0.056576
0.283002 0.203006 0.062122
0.308270 0.208552 0.067669
0.333537 0.214099 0.073215
0.358804 0.219645 0.078762
0.417970 0.232633 0.091750
0.447276 0.239066 0.098182
0.476581 0.245499 0.104615
0.505887 0.251932 0.111048
0.535193 0.258365 0.117481
0.564499 0.264798 0.123914
0.593804 0.271231 0.130347
0.623110 0.277664 0.136780
0.652416 0.284097 0.143213
0.681721 0.290530 0.149646
0.711027 0.296963 0.156079
0.740333 0.303396 0.162512
0.742106 0.303785 0.162901
0.742106 0.303785 0.162901
0.742106 0.303785 0.162901
0.742106 0.303785 0.162901
0.742106 0.303785 0.162901
0.742106 0.303785 0.162901
0.045903 0.209115 0.045903
0.069241 0.209115 0.045903
0.089296 0.209115 0.045903
0.109016 0.209115 0.045903
0.128737 0.209115 0.045903
0.148458 0.209115 0.045903
0.168179 0.209115 0.045903
0.187900 0.209115 0.045903
0.207621 0.209115 0.045903
0.232468 0.214241 0.051030
0.257735 0.219788 0.056576
0.283002 0.225334 0.062122
0.308270 0.230881 0.067669
0.333537 0.236427 0.073215
0.358804 0.241974 0.078762
0.417970 0.254961 0.091750
0.447276 0.261394 0.098182
0.476581 0.267827 0.104615
0.505887 0.274260 0.111048
0.535193 0.280693 0.117481
0.564499 0.287126 0.123914
0.593804 0.293559 0.130347
0.623110 0.299992 0.136780
0.652416 0.306425 0.143213
0.681721 0.312858 0.149646
0.711027 0.319291 0.156079
0.740333 0.325724 0.162512
0.742106 0.326113 0.162901
0.742106 0.326113 0.162901
0.742106 0.326113 0.162901
0.742106 0.326113 0.162901
0.742106 0.326113 0.162901
0.742106 0.326113 0.162901
0.052183 0.237723 0.052183
0.075520 0.237723 0.052183
0.095575 0.237723 0.052183
0.115296 0.237723 0.052183
0.135017 0.237723 0.052183
0.154738 0.237723 0.052183
0.174459 0.237723 0.052183
0.194180 0.237723 0.052183
0.213901 0.237723 0.052183
0.233621 0.237723 0.052183
0.257735 0.242116 0.056576
0.283002 0.247663 0.062122
0.308270 0.253209 0.067669
0.333537 0.258756 0.073215
0.358804 0.264302 0.078762
0.417970 0.277290 0.091750
0.447276 0.283723 0.098182
0.476581 0.290156 0.104615
0.505887 0.296588 0.111048
0.535193 0.303021 0.117481
0.564499 0.309454 0.123914
0.593804 0.315887 0.130347
0.623110 0.322320 0.136780
0.652416 0.328753 0.143213
0.681721 0.335186 0.149646
0.711027 0.341619 0.156079
0.740333 0.348052 0.162512
0.742106 0.348441 0.162901
0.742106 0.348441 0.162901
0.742106 0.348441 0.162901
0.742106 0.348441 0.162901
0.742106 0.348441 0.162901
0.742106 0.348441 0.162901
0.058463 0.266331 0.058463
0.081800 0.266331 0.058463
0.101855 0.266331 0.058463
0.121576 0.266331 0.058463
0.141297 0.266331 0.058463
0.161018 0.266331 0.058463
0.180739 0.266331 0.058463
0.200460 0.266331 0.058463
0.220180 0.266331 0.058463
0.239901 0.266331 0.058463
0.259622 0.266331 0.058463
0.283002 0.269991 0.062122
0.308270 0.275537 0.067669
0.333537 0.281084 0.073215
0.358804 0.286630 0.078762
0.417970 0.299618 0.091750
0.447276 0.306051 0.098182
0.476581 0.312484 0.104615
0.505887 0.318917 0.111048
0.535193 0.325350 0.117481
0.564499 0.331783 0.123914
0.593804 0.338216 0.130347
0.623110 0.344649 0.136780
0.652416 0.351082 0.143213
0.681721 0.357515 0.149646
0.711027 0.363947 0.156079
0.740333 0.370380 0.162512
0.742106 0.370770 0.162901
0.742106 0.370770 0.162901
0.742106 0.370770 0.162901
0.742106 0.370770 0.162901
0.742106 0.370770 0.162901
0.742106 0.370770 0.162901
0.064743 0.294939 0.064743
0.088080 0.294939 0.064743
0.108135 0.294939 0.064743
0.127856 0.294939 0.064743
0.147577 0.294939 0.064743
0.167298 0.294939 0.064743
0.187019 0.294939 0.064743
0.206739 0.294939 0.064743
0.226460 0.294939 0.064743
0.246181 0.294939 0.064743
0.265902 0.294939 0.064743
0.285623 0.294939 0.064743
0.308270 0.297866 0.067669
0.333537 0.303412 0.073215
0.358804 0.308959 0.078762
0.417970 0.321946 0.091750
0.447276 0.328379 0.098182
0.476581 0.334812 0.104615
0.505887 0.341245 0.111048
0.535193 0.347678 0.117481
0.564499 0.354111 0.123914
0.593804 0.360544 0.130347
0.623110 0.366977 0.136780
0.652416 0.373410 0.143213
0.681721 0.379843 0.149646
0.711027 0.386276 0.156079
0.740333 0.392709 0.162512
0.742106 0.393098 0.162901
0.742106 0.393098 0.162901
0.742106 0.393098 0.162901
0.742106 0.393098 0.162901
0.742106 0.393098 0.162901
0.742106 0.393098 0.162901
0.071023 0.323548 0.071023
0.094360 0.323548 0.071023
0.114415 0.323548 0.071023
0.134136 0.323548 0.071023
0.153857 0.323548 0.071023
0.173577 0.323548 0.071023
0.193298 0.323548 0.071023
0.213019 0.323548 0.071023
0.232740 0.323548 0.071023
0.252461 0.323548 0.071023
0.272182 0.323548 0.071023
0.291903 0.323548 0.071023
0.311623 0.323548 0.071023
0.333537 0.325740 0.073215
0.358804 0.331287 0.078762
0.417970 0.344274 0.091750
0.447276 0.350707 0.098182
0.476581 0.357140 0.104615
0.505887 0.363573 0.111048
0.535193 0.370006 0.117481
0.564499 0.376439 0.123914
0.593804 0.382872 0.130347
0.623110 0.389305 0.136780
0.652416 0.395738 0.143213
0.681721 0.402171 0.149646
0.711027 0.408604 0.156079
0.740333 0.415037 0.162512
0.742106 0.415426 0.162901
0.742106 0.415426 0.162901
0.742106 0.415426 0.162901
0.742106 0.415426 0.162901
0.742106 0.415426 0.162901
0.742106 0.415426 0.162901
0.077302 0.352156 0.077302
0.100640 0.352156 0.077302
0.120695 0.352156 0.077302
0.140416 0.352156 0.077302
0.160136 0.352156 0.077302
0.179857 0.352156 0.077302
0.199578 0.352156 0.077302
0.219299 0.352156 0.077302
0.239020 0.352156 0.077302
0.258741 0.352156 0.077302
0.278462 0.352156 0.077302
0.298182 0.352156 0.077302
0.317903 0.352156 0.077302
0.337624 0.352156 0.077302
0.358804 0.353615 0.078762
0.417970 0.366603 0.091750
0.447276 0.373036 0.098182
0.476581 0.379469 0.104615
0.505887 0.385902 0.111048
0.535193 0.392335 0.117481
0.564499 0.398768 0.123914
0.593804 0.405200 0.130347
0.623110 0.411633 0.136780
0.652416 0.418066 0.143213
0.681721 0.424499 0.149646
0.711027 0.430932 0.156079
0.740333 0.437365 0.162512
0.742106 0.437754 0.162901
0.742106 0.437754 0.162901
0.742106 0.437754 0.162901
0.742106 0.437754 0.162901
0.742106 0.437754 0.162901
0.742106 0.437754 0.162901
0.090907 0.414133 0.090907
0.114245 0.414133 0.090907
0.134300 0.414133 0.090907
0.154020 0.414133 0.090907
0.173741 0.414133 0.090907
0.193462 0.414133 0.090907
0.213183 0.414133 0.090907
0.232904 0.414133 0.090907
0.252625 0.414133 0.090907
0.272346 0.414133 0.090907
0.292066 0.414133 0.090907
0.311787 0.414133 0.090907
0.331508 0.414133 0.090907
0.351229 0.414133 0.090907
0.370950 0.414133 0.090907
0.417970 0.414976 0.091750
0.447276 0.421409 0.098182
0.476581 0.427841 0.104615
0.505887 0.434274 0.111048
0.535193 0.440707 0.117481
0.564499 0.447140 0.123914
0.593804 0.453573 0.130347
0.623110 0.460006 0.136780
0.652416 0.466439 0.143213
0.681721 0.472872 0.149646
0.711027 0.479305 0.156079
0.740333 0.485738 0.162512
0.742106 0.486127 0.162901
0.742106 0.486127 0.162901
0.742106 0.486127 0.162901
0.742106 0.486127 0.162901
0.742106 0.486127 0.162901
0.742106 0.486127 0.162901
0.098191 0.447314 0.098191
0.121528 0.447314 0.098191
0.141583 0.447314 0.098191
0.161304 0.447314 0.098191
0.181025 0.447314 0.098191
0.200746 0.447314 0.098191
0.220467 0.447314 0.098191
0.240187 0.447314 0.098191
0.259908 0.447314 0.098191
0.279629 0.447314 0.098191
0.299350 0.447314 0.098191
0.319071 0.447314 0.098191
0.338792 0.447314 0.098191
0.358512 0.447314 0.098191
0.378233 0.447314 0.098191
0.424411 0.447314 0.098191
0.447284 0.447314 0.098191
0.476581 0.453738 0.104615
0.505887 0.460171 0.111048
0.535193 0.466604 0.117481
0.564499 0.473037 0.123914
0.593804 0.479470 0.130347
0.623110 0.485903 0.136780
0.652416 0.492336 0.143213
0.681721 0.498769 0.149646
0.711027 0.505202 0.156079
0.740333 0.511635 0.162512
0.742106 0.512024 0.162901
0.742106 0.512024 0.162901
0.742106 0.512024 0.162901
0.742106 0.512024 0.162901
0.742106 0.512024 0.162901
0.742106 0.512024 0.162901
0.105474 0.480494 0.105474
0.128812 0.480494 0.105474
0.148867 0.480494 0.105474
0.168588 0.480494 0.105474
0.188308 0.480494 0.105474
0.208029 0.480494 0.105474
0.227750 0.480494 0.105474
0.247471 0.480494 0.105474
0.267192 0.480494 0.105474
0.286913 0.480494 0.105474
0.306633 0.480494 0.105474
0.326354 0.480494 0.105474
0.346075 0.480494 0.105474
0.365796 0.480494 0.105474
0.385517 0.480494 0.105474
0.431695 0.480494 0.105474
0.454568 0.480494 0.105474
0.477440 0.480494 0.105474
0.505887 0.486068 0.111048
0.535193 0.492501 0.117481
0.564499 0.498934 0.123914
0.593804 0.505367 0.130347
0.623110 0.511800 0.136780
0.652416 0.518233 0.143213
0.681721 0.524666 0.149646
0.711027 0.531099 0.156079
0.740333 0.537532 0.162512
0.742106 0.537921 0.162901
0.742106 0.537921 0.162901
0.742106 0.537921 0.162901
0.742106 0.537921 0.162901
0.742106 0.537921 0.162901
0.742106 0.537921 0.162901
0.112758 0.513675 0.112758
0.136095 0.513675 0.112758
0.156150 0.513675 0.112758
0.175871 0.513675 0.112758
0.195592 0.513675 0.112758
0.215313 0.513675 0.112758
0.235034 0.513675 0.112758
0.254754 0.513675 0.112758
0.274475 0.513675 0.112758
0.294196 0.513675 0.112758
0.313917 0.513675 0.112758
0.333638 0.513675 0.112758
0.353359 0.513675 0.112758
0.373079 0.513675 0.112758
0.392800 0.513675 0.112758
0.438978 0.513675 0.112758
0.461851 0.513675 0.112758
0.484724 0.513675 0.112758
0.507597 0.513675 0.112758
0.535193 0.518398 0.117481
0.564499 0.524831 0.123914
0.593804 0.531264 0.130347
0.623110 0.537697 0.136780
0.652416 0.544130 0.143213
0.681721 0.550563 0.149646
0.711027 0.556996 0.156079
0.740333 0.563429 0.162512
0.742106 0.563818 0.162901
0.742106 0.563818 0.162901
0.742106 0.563818 0.162901
0.742106 0.563818 0.162901
0.742106 0.563818 0.162901
0.742106 0.563818 0.162901
0.120041 0.546855 0.120041
0.143379 0.546855 0.120041
0.163434 0.546855 0.120041
0.183155 0.546855 0.120041
0.202875 0.546855 0.120041
0.222596 0.546855 0.120041
0.242317 0.546855 0.120041
0.262038 0.546855 0.120041
0.281759 0.546855 0.120041
0.301480 0.546855 0.120041
0.321200 0.546855 0.120041
0.340921 0.546855 0.120041
0.360642 0.546855 0.120041
0.380363 0.546855 0.120041
0.400084 0.546855 0.120041
0.446262 0.546855 0.120041
0.469135 0.546855 0.120041
0.492007 0.546855 0.120041
0.514880 0.546855 0.120041
0.537753 0.546855 0.120041
0.564499 0.550728 0.123914
0.593804 0.557161 0.130347
0.623110 0.563594 0.136780
0.652416 0.570027 0.143213
0.681721 0.576460 0.149646
0.711027 0.582893 0.156079
0.740333 0.589326 0.162512
0.742106 0.589715 0.162901
0.742106 0.589715 0.162901
0.742106 0.589715 0.162901
0.742106 0.589715 0.162901
0.742106 0.589715 0.162901
0.742106 0.589715 0.162901
0.127325 0.580036 0.127325
0.150662 0.580036 0.127325
0.170717 0.580036 0.127325
0.190438 0.580036 0.127325
0.210159 0.580036 0.127325
0.229880 0.580036 0.127325
0.249601 0.580036 0.127325
0.269321 0.580036 0.127325
0.289042 0.580036 0.127325
0.308763 0.580036 0.127325
0.328484 0.580036 0.127325
0.348205 0.580036 0.127325
0.367926 0.580036 0.127325
0.387647 0.580036 0.127325
0.407367 0.580036 0.127325
0.453545 0.580036 0.127325
0.476418 0.580036 0.127325
0.499291 0.580036 0.127325
0.522164 0.580036 0.127325
0.545036 0.580036 0.127325
0.567909 0.580036 0.127325
0.593804 0.583058 0.130347
0.623110 0.589491 0.136780
0.652416 0.595924 0.143213
0.681721 0.602357 0.149646
0.711027 0.608790 0.156079
0.740333 0.615223 0.162512
0.742106 0.615612 0.162901
0.742106 0.615612 0.162901
0.742106 0.615612 0.162901
0.742106 0.615612 0.162901
0.742106 0.615612 0.162901
0.742106 0.615612 0.162901
0.134608 0.613216 0.134608
0.157946 0.613216 0.134608
0.178001 0.613216 0.134608
0.197722 0.613216 0.134608
0.217442 0.613216 0.134608
0.237163 0.613216 0.134608
0.256884 0.613216 0.134608
0.276605 0.613216 0.134608
0.296326 0.613216 0.134608
0.316047 0.613216 0.134608
0.335767 0.613216 0.134608
0.355488 0.613216 0.134608
0.375209 0.613216 0.134608
0.394930 0.613216 0.134608
0.414651 0.613216 0.134608
0.460829 0.613216 0.134608
0.483702 0.613216 0.134608
0.506574 0.613216 0.134608
0.529447 0.613216 0.134608
0.552320 0.613216 0.134608
0.575193 0.613216 0.134608
0.598065 0.613216 0.134608
0.623110 0.615388 0.136780
0.652416 0.621821 0.143213
0.681721 0.628254 0.149646
0.711027 0.634687 0.156079
0.740333 0.641120 0.162512
0.742106 0.641509 0.162901
0.742106 0.641509 0.162901
0.742106 0.641509 0.162901
0.742106 0.641509 0.162901
0.742106 0.641509 0.162901
0.742106 0.641509 0.162901
0.141892 0.646396 0.141892
0.165229 0.646396 0.141892
0.185284 0.646396 0.141892
0.205005 0.646396 0.141892
0.224726 0.646396 0.141892
0.244447 0.646396 0.141892
0.264168 0.646396 0.141892
0.283888 0.646396 0.141892
0.303609 0.646396 0.141892
0.323330 0.646396 0.141892
0.343051 0.646396 0.141892
0.362772 0.646396 0.141892
0.382493 0.646396 0.141892
0.402214 0.646396 0.141892
0.421934 0.646396 0.141892
0.468112 0.646396 0.141892
0.490985 0.646396 0.141892
0.513858 0.646396 0.141892
0.536731 0.646396 0.141892
0.559603 0.646396 0.141892
0.582476 0.646396 0.141892
0.605349 0.646396 0.141892
0.628222 0.646396 0.141892
0.652416 0.647718 0.143213
0.681721 0.654151 0.149646
0.711027 0.660584 0.156079
0.740333 0.667017 0.162512
0.742106 0.667406 0.162901
0.742106 0.667406 0.162901
0.742106 0.667406 0.162901
0.742106 0.667406 0.162901
0.742106 0.667406 0.162901
0.742106 0.667406 0.162901
0.149175 0.679577 0.149175
0.172513 0.679577 0.149175
0.192568 0.679577 0.149175
0.212289 0.679577 0.149175
0.232009 0.679577 0.149175
0.251730 0.679577 0.149175
0.271451 0.679577 0.149175
0.291172 0.679577 0.149175
0.310893 0.679577 0.149175
0.330614 0.679577 0.149175
0.350334 0.679577 0.149175
0.370055 0.679577 0.149175
0.389776 0.679577 0.149175
0.409497 0.679577 0.149175
0.429218 0.679577 0.149175
0.475396 0.679577 0.149175
0.498269 0.679577 0.149175
0.521141 0.679577 0.149175
0.544014 0.679577 0.149175
0.566887 0.679577 0.149175
0.589760 0.679577 0.149175
0.612632 0.679577 0.149175
0.635505 0.679577 0.149175
0.658378 0.679577 0.149175
0.681721 0.680048 0.149646
0.711027 0.686481 0.156079
0.740333 0.692914 0.162512
0.742106 0.693303 0.162901
0.742106 0.693303 0.162901
0.742106 0.693303 0.162901
0.742106 0.693303 0.162901
0.742106 0.693303 0.162901
0.742106 0.693303 0.162901
0.156459 0.712757 0.156459
0.179796 0.712757 0.156459
0.199851 0.712757 0.156459
0.219572 0.712757 0.156459
0.239293 0.712757 0.156459
0.259014 0.712757 0.156459
0.278735 0.712757 0.156459
0.298455 0.712757 0.156459
0.318176 0.712757 0.156459
0.337897 0.712757 0.156459
0.357618 0.712757 0.156459
0.377339 0.712757 0.156459
0.397060 0.712757 0.156459
0.416781 0.712757 0.156459
0.436501 0.712757 0.156459
0.482679 0.712757 0.156459
0.505552 0.712757 0.156459
0.528425 0.712757 0.156459
0.551298 0.712757 0.156459
0.574170 0.712757 0.156459
0.597043 0.712757 0.156459
0.619916 0.712757 0.156459
0.642789 0.712757 0.156459
0.665661 0.712757 0.156459
0.688534 0.712757 0.156459
0.711407 0.712757 0.156459
0.740333 0.718810 0.162512
0.742106 0.719200 0.162901
0.742106 0.719200 0.162901
0.742106 0.719200 0.162901
0.742106 0.719200 0.162901
0.742106 0.719200 0.162901
0.742106 0.719200 0.162901
0.163742 0.745938 0.163742
0.187080 0.745938 0.163742
0.207135 0.745938 0.163742
0.226856 0.745938 0.163742
0.246576 0.745938 0.163742
0.266297 0.745938 0.163742
0.286018 0.745938 0.163742
0.305739 0.745938 0.163742
0.325460 0.745938 0.163742
0.345181 0.745938 0.163742
0.364902 0.745938 0.163742
0.384622 0.745938 0.163742
0.404343 0.745938 0.163742
0.424064 0.745938 0.163742
0.443785 0.745938 0.163742
0.489963 0.745938 0.163742
0.512836 0.745938 0.163742
0.535708 0.745938 0.163742
0.558581 0.745938 0.163742
0.581454 0.745938 0.163742
0.604327 0.745938 0.163742
0.627199 0.745938 0.163742
0.650072 0.745938 0.163742
0.672945 0.745938 0.163742
0.695818 0.745938 0.163742
0.718690 0.745938 0.163742
0.741563 0.745938 0.163742
0.742947 0.745938 0.163742
0.742947 0.745938 0.163742
0.742947 0.745938 0.163742
0.742947 0.745938 0.163742
0.742947 0.745938 0.163742
0.742947 0.745938 0.163742
0.171026 0.779118 0.171026
0.194363 0.779118 0.171026
0.214418 0.779118 0.171026
0.234139 0.779118 0.171026
0.253860 0.779118 0.171026
0.273581 0.779118 0.171026
0.293302 0.779118 0.171026
0.313022 0.779118 0.171026
0.332743 0.779118 0.171026
0.352464 0.779118 0.171026
0.372185 0.779118 0.171026
0.391906 0.779118 0.171026
0.411627 0.779118 0.171026
0.431348 0.779118 0.171026
0.451068 0.779118 0.171026
0.497246 0.779118 0.171026
0.520119 0.779118 0.171026
0.542992 0.779118 0.171026
0.565865 0.779118 0.171026
0.588737 0.779118 0.171026
0.611610 0.779118 0.171026
0.634483 0.779118 0.171026
0.657356 0.779118 0.171026
0.680228 0.779118 0.171026
0.703101 0.779118 0.171026
0.725974 0.779118 0.171026
0.748847 0.779118 0.171026
0.750230 0.779118 0.171026
0.750230 0.779118 0.171026
0.750230 0.779118 0.171026
0.750230 0.779118 0.171026
0.750230 0.779118 0.171026
0.750230 0.779118 0.171026
0.178309 0.812299 0.178309
0.201647 0.812299 0.178309
0.221702 0.812299 0.178309
0.241423 0.812299 0.178309
0.261143 0.812299 0.178309
0.280864 0.812299 0.178309
0.300585 0.812299 0.178309
0.320306 0.812299 0.178309
0.340027 0.812299 0.178309
0.359748 0.812299 0.178309
0.379469 0.812299 0.178309
0.399189 0.812299 0.178309
0.418910 0.812299 0.178309
0.438631 0.812299 0.178309
0.458352 0.812299 0.178309
0.504530 0.812299 0.178309
0.527403 0.812299 0.178309
0.550275 0.812299 0.178309
0.573148 0.812299 0.178309
0.596021 0.812299 0.178309
0.618894 0.812299 0.178309
0.641766 0.812299 0.178309
0.664639 0.812299 0.178309
0.687512 0.812299 0.178309
0.710385 0.812299 0.178309
0.733258 0.812299 0.178309
0.756130 0.812299 0.178309
0.757514 0.812299 0.178309
0.757514 0.812299 0.178309
0.757514 0.812299 0.178309
0.757514 0.812299 0.178309
0.757514 0.812299 0.178309
0.757514 0.812299 0.178309
0.180000 0.820000 0.180000
0.203337 0.820000 0.180000
0.223392 0.820000 0.180000
0.243113 0.820000 0.180000
0.262834 0.820000 0.180000
0.282555 0.820000 0.180000
0.302276 0.820000 0.180000
0.321997 0.820000 0.180000
0.341717 0.820000 0.180000
0.361438 0.820000 0.180000
0.381159 0.820000 0.180000
0.400880 0.820000 0.180000
0.420601 0.820000 0.180000
0.440322 0.820000 0.180000
0.460042 0.820000 0.180000
0.506221 0.820000 0.180000
0.529093 0.820000 0.180000
0.551966 0.820000 0.180000
0.574839 0.820000 0.180000
0.597712 0.820000 0.180000
0.620584 0.820000 0.180000
0.643457 0.820000 0.180000
0.666330 0.820000 0.180000
0.689203 0.820000 0.180000
