docs/luts/fuji_recipes/NEGA_RR_Fujicolor_100_Industrial.cube
TITLE "Fujifilm Recipe: RR Fujicolor 100 Industrial (NEGA)"
# FilmSim=NEGA HL=1 SH=2 Col=1 WB=3200K WBR=8 WBB=-8
LUT_3D_SIZE 9
DOMAIN_MIN 0.0 0.0 0.0
DOMAIN_MAX 1.0 1.0 1.0
0.014720 0.014720 0.014720
0.145284 0.005178 0.005178
0.272432 0.000000 0.000000
0.394405 0.000000 0.000000
0.553288 0.000000 0.000000
0.690216 0.000000 0.000000
0.827143 0.000000 0.000000
0.938350 0.000000 0.000000
0.938350 0.000000 0.000000
0.005369 0.142405 0.005369
0.145284 0.142172 0.005178
0.272432 0.132671 0.000000
0.394405 0.127880 0.000000
0.553288 0.124213 0.000000
0.690216 0.122888 0.000000
0.827143 0.122017 0.000000
0.938350 0.121866 0.000000
0.938350 0.121866 0.000000
0.000000 0.261557 0.000000
0.136371 0.261557 0.000000
0.272432 0.260239 0.000000
0.394405 0.250842 0.000000
0.553288 0.243649 0.000000
0.690216 0.241049 0.000000
0.827143 0.239340 0.000000
0.938350 0.239045 0.000000
0.938350 0.239045 0.000000
0.000000 0.375339 0.000000
0.131322 0.375339 0.000000
0.263674 0.375339 0.000000
0.394405 0.373804 0.000000
0.553288 0.363084 0.000000
0.690216 0.359210 0.000000
0.827143 0.356664 0.000000
0.938350 0.356225 0.000000
0.938350 0.356225 0.000000
0.000000 0.522695 0.000000
0.127440 0.522695 0.000000
0.255879 0.522695 0.000000
0.384318 0.522695 0.000000
0.553288 0.521215 0.000000
0.690216 0.516463 0.000000
0.827143 0.513607 0.000000
0.938350 0.513611 0.000000
0.938350 0.513611 0.000000
0.000000 0.650431 0.000000
0.126011 0.650431 0.000000
0.253010 0.650431 0.000000
0.380009 0.650431 0.000000
0.549408 0.650431 0.000000
0.690216 0.648951 0.000000
0.827143 0.645156 0.000000
0.938350 0.644998 0.000000
0.938350 0.644998 0.000000
0.000000 0.778166 0.000000
0.125069 0.778166 0.000000
0.251119 0.778166 0.000000
0.377169 0.778166 0.000000
0.546054 0.778166 0.000000
0.687386 0.778166 0.000000
0.827143 0.776704 0.000000
0.938350 0.776384 0.000000
0.938350 0.776384 0.000000
0.000000 0.905902 0.000000
0.124402 0.905902 0.000000
0.249778 0.905902 0.000000
0.375155 0.905902 0.000000
0.543887 0.905902 0.000000
0.684465 0.905902 0.000000
0.825043 0.905902 0.000000
0.938350 0.907771 0.000000
0.938350 0.907771 0.000000
0.000000 0.938350 0.000000
0.124634 0.938350 0.000000
0.250246 0.938350 0.000000
0.375857 0.938350 0.000000
0.545079 0.938350 0.000000
0.685920 0.938350 0.000000
0.826761 0.938350 0.000000
0.938350 0.938350 0.000000
0.938350 0.938350 0.000000
0.005975 0.005975 0.133274
0.145284 0.005178 0.132303
0.272432 0.000000 0.123113
0.394405 0.000000 0.118667
0.553288 0.000000 0.115264
0.690216 0.000000 0.114034
0.827143 0.000000 0.113226
0.938350 0.000000 0.113087
0.938350 0.000000 0.113087
0.005369 0.142405 0.132533
0.147568 0.144410 0.134396
0.281861 0.131314 0.121019
0.414343 0.120659 0.110508
0.587567 0.105423 0.095385
0.734577 0.094262 0.084283
0.897742 0.067368 0.057027
1.000000 0.078748 0.068851
1.000000 0.078748 0.068851
0.000000 0.261557 0.123736
0.135587 0.269982 0.122023
0.281861 0.268727 0.121019
0.414343 0.256151 0.110508
0.587567 0.239398 0.095385
0.734577 0.227452 0.084283
0.897742 0.205388 0.057027
1.000000 0.210845 0.068851
1.000000 0.210845 0.068851
0.000000 0.375339 0.119155
0.125457 0.393706 0.112081
0.270951 0.393706 0.112081
0.414343 0.391642 0.110508
0.587567 0.373374 0.095385
0.734577 0.360642 0.084283
0.897742 0.343408 0.057027
1.000000 0.342942 0.068851
1.000000 0.342942 0.068851
0.000000 0.522695 0.115632
0.111141 0.554670 0.097916
0.254995 0.554670 0.097916
0.398849 0.554670 0.097916
0.587567 0.551589 0.095385
0.734577 0.538725 0.084283
0.897742 0.528897 0.057027
1.000000 0.521188 0.068851
1.000000 0.521188 0.068851
0.000000 0.650431 0.114336
0.100622 0.691895 0.087477
0.243609 0.691895 0.087477
0.386597 0.691895 0.087477
0.578153 0.691895 0.087477
0.734577 0.688064 0.084283
0.897742 0.683651 0.057027
1.000000 0.669301 0.068851
1.000000 0.669301 0.068851
0.000000 0.778166 0.113481
0.090380 0.828864 0.077292
0.232750 0.828864 0.077292
0.375120 0.828864 0.077292
0.566699 0.828864 0.077292
0.726330 0.828864 0.077292
0.897742 0.838405 0.057027
1.000000 0.817414 0.068851
1.000000 0.817414 0.068851
0.000000 0.905902 0.112876
0.047978 1.000000 0.033950
0.200570 1.000000 0.033950
0.353162 1.000000 0.033950
0.559405 1.000000 0.033950
0.730497 1.000000 0.033950
0.901590 1.000000 0.033950
1.000000 0.965527 0.068851
1.000000 0.965527 0.068851
0.000000 0.938350 0.113087
0.081868 1.000000 0.068851
0.223471 1.000000 0.068851
0.365074 1.000000 0.068851
0.556661 1.000000 0.068851
0.715433 1.000000 0.068851
0.874204 1.000000 0.068851
1.000000 1.000000 0.068851
1.000000 1.000000 0.068851
0.000000 0.000000 0.240790
0.137879 0.000000 0.240790
0.272432 0.000000 0.236957
0.394405 0.000000 0.228400
0.553288 0.000000 0.221851
0.690216 0.000000 0.219483
0.827143 0.000000 0.217928
0.938350 0.000000 0.217659
0.938350 0.000000 0.217659
0.000000 0.134817 0.240790
0.137341 0.134069 0.247297
0.281975 0.131033 0.243661
0.414663 0.120315 0.231329
0.588124 0.105004 0.214735
0.735234 0.093803 0.202864
0.906174 0.058771 0.173906
1.000000 0.078982 0.186935
1.000000 0.078982 0.186935
0.000000 0.261557 0.238156
0.135232 0.270093 0.244884
0.281825 0.269050 0.244655
0.416285 0.254485 0.229192
0.592463 0.236639 0.211705
0.740798 0.224013 0.199279
0.930320 0.173182 0.145666
1.000000 0.213529 0.189525
1.000000 0.213529 0.189525
0.000000 0.375339 0.229339
0.125022 0.394085 0.233099
0.269715 0.395319 0.231094
0.416285 0.393067 0.229192
0.592463 0.373258 0.211705
0.740798 0.359535 0.199279
0.930320 0.323944 0.145666
1.000000 0.345050 0.189525
1.000000 0.345050 0.189525
0.000000 0.522695 0.222559
0.110611 0.555361 0.217419
0.252669 0.559211 0.214592
0.399441 0.559211 0.214592
0.592463 0.555776 0.211705
0.740798 0.541517 0.199279
0.930320 0.527423 0.145666
1.000000 0.523276 0.189525
1.000000 0.523276 0.189525
0.000000 0.650431 0.220064
0.100038 0.692719 0.206168
0.240584 0.697770 0.202818
0.386162 0.697770 0.202818
0.581969 0.697770 0.202818
0.740798 0.693470 0.199279
0.930320 0.696464 0.145666
1.000000 0.670743 0.189525
1.000000 0.670743 0.189525
0.000000 0.778166 0.218419
0.089755 0.829787 0.195400
0.198482 0.870474 0.156899
0.358768 0.870474 0.156899
0.575316 0.870474 0.156899
0.755037 0.870474 0.156899
0.930320 0.865505 0.145666
1.000000 0.818210 0.189525
1.000000 0.818210 0.189525
0.000000 0.905902 0.217253
0.047276 1.000000 0.160354
0.194472 1.000000 0.154625
0.348070 1.000000 0.154625
0.556499 1.000000 0.154625
0.728720 1.000000 0.154625
0.900941 1.000000 0.154625
1.000000 0.965678 0.189525
1.000000 0.965678 0.189525
0.000000 0.938350 0.217659
0.082176 1.000000 0.186999
0.226100 1.000000 0.189525
0.367086 1.000000 0.189525
0.558595 1.000000 0.189525
0.716674 1.000000 0.189525
0.874753 1.000000 0.189525
1.000000 1.000000 0.189525
1.000000 1.000000 0.189525
0.000000 0.000000 0.342332
0.132409 0.000000 0.342332
0.265855 0.000000 0.342332
0.394405 0.000000 0.338133
0.553288 0.000000 0.328437
0.690216 0.000000 0.324932
0.827143 0.000000 0.322629
0.938350 0.000000 0.322231
0.938350 0.000000 0.322231
0.000000 0.129468 0.342332
0.127966 0.124741 0.358166
0.274303 0.124741 0.358166
0.414663 0.120315 0.352517
0.588124 0.105004 0.334523
0.735234 0.093803 0.321919
0.906174 0.058771 0.299593
1.000000 0.078982 0.304782
1.000000 0.078982 0.304782
0.000000 0.253957 0.342332
0.127865 0.261252 0.358235
0.272736 0.259358 0.358718
0.416270 0.253876 0.352617
0.593065 0.235893 0.333203
0.744643 0.220224 0.317823
0.928846 0.171930 0.278900
1.000000 0.214205 0.307474
1.000000 0.214205 0.307474
0.000000 0.375339 0.339522
0.125022 0.394085 0.354592
0.268852 0.395152 0.354640
0.416083 0.393689 0.354914
0.594423 0.371181 0.330963
0.758988 0.344916 0.302306
0.923153 0.317659 0.274050
1.000000 0.348131 0.310200
1.000000 0.348131 0.310200
0.000000 0.522695 0.329485
0.110611 0.555361 0.337485
0.251611 0.559965 0.336153
0.397826 0.560794 0.334226
0.594423 0.557193 0.330963
0.758988 0.543000 0.302306
0.923153 0.521418 0.274050
1.000000 0.526066 0.310200
1.000000 0.526066 0.310200
0.000000 0.650431 0.325791
0.100038 0.692719 0.325473
0.239389 0.698973 0.323210
0.376310 0.712349 0.309456
0.587781 0.712349 0.309456
0.758988 0.707693 0.302306
0.923153 0.689972 0.274050
1.000000 0.672670 0.310200
1.000000 0.672670 0.310200
0.000000 0.778166 0.323356
0.089755 0.829787 0.314159
0.196812 0.868335 0.288568
0.353082 0.863673 0.284917
0.569653 0.863673 0.284917
0.748681 0.863673 0.284917
0.923153 0.858526 0.274050
1.000000 0.819274 0.310200
1.000000 0.819274 0.310200
0.000000 0.905902 0.321630
0.047276 1.000000 0.287470
0.192229 1.000000 0.280471
0.341524 1.000000 0.275375
0.552611 1.000000 0.275375
0.726342 1.000000 0.275375
0.900072 1.000000 0.275375
1.000000 0.965878 0.310200
1.000000 0.965878 0.310200
0.000000 0.938350 0.322231
0.082176 1.000000 0.304834
0.227130 1.000000 0.307794
0.370037 1.000000 0.310200
0.561178 1.000000 0.310200
0.718332 1.000000 0.310200
0.875486 1.000000 0.310200
1.000000 1.000000 0.310200
1.000000 1.000000 0.310200
0.000000 0.000000 0.437418
0.129843 0.000000 0.437418
0.260704 0.000000 0.437418
0.391566 0.000000 0.437418
0.553288 0.000000 0.427955
0.690216 0.000000 0.423388
0.827143 0.000000 0.420387
0.938350 0.000000 0.461361
0.938350 0.000000 0.461361
0.000000 0.126960 0.437418
0.119994 0.116798 0.460917
0.265044 0.116798 0.460917
0.410093 0.116798 0.460917
0.588124 0.105004 0.446367
0.735234 0.093803 0.433080
0.906174 0.058771 0.466995
1.000000 0.078982 0.462460
1.000000 0.078982 0.462460
0.000000 0.249036 0.437418
0.119880 0.252083 0.461028
0.262833 0.249597 0.463286
0.411274 0.249597 0.463286
0.593065 0.235893 0.447419
0.744643 0.220224 0.481178
0.928846 0.171930 0.458973
1.000000 0.214205 0.465196
1.000000 0.214205 0.465196
0.000000 0.371113 0.437418
0.119880 0.387485 0.461028
0.262497 0.387960 0.463307
0.413025 0.390631 0.463229
0.594594 0.370195 0.495148
0.757120 0.343577 0.476183
0.920848 0.315758 0.452613
1.000000 0.349428 0.469022
1.000000 0.349428 0.469022
0.000000 0.522695 0.429321
0.110611 0.555361 0.449589
0.251611 0.559965 0.450823
0.396390 0.560791 0.498434
0.592512 0.554145 0.490439
0.749273 0.535315 0.470436
0.911208 0.511888 0.445260
1.000000 0.527182 0.469018
1.000000 0.527182 0.469018
0.000000 0.650431 0.424508
0.100038 0.692719 0.436866
0.239389 0.698973 0.485145
0.374312 0.709654 0.481484
0.579987 0.703320 0.476653
0.749273 0.698460 0.470436
0.911208 0.679428 0.445260
1.000000 0.673441 0.469018
1.000000 0.673441 0.469018
0.000000 0.778166 0.421335
0.089755 0.829787 0.425043
0.196812 0.868335 0.466790
0.350481 0.860270 0.460807
0.560686 0.852472 0.455079
0.738354 0.852472 0.455079
0.911208 0.846969 0.445260
1.000000 0.819700 0.469018
1.000000 0.819700 0.469018
0.000000 0.905902 0.419086
0.047276 1.000000 0.457357
0.192229 1.000000 0.452784
0.337536 1.000000 0.446368
0.541063 1.000000 0.435130
0.719278 1.000000 0.435130
0.897493 1.000000 0.435130
1.000000 0.965959 0.469018
1.000000 0.965959 0.469018
0.000000 0.938350 0.461361
0.082176 1.000000 0.462516
0.227130 1.000000 0.465506
0.372083 1.000000 0.469818
0.562212 1.000000 0.469018
0.718995 1.000000 0.469018
0.875779 1.000000 0.469018
1.000000 1.000000 0.469018
1.000000 1.000000 0.469018
0.000000 0.000000 0.585890
0.126651 0.000000 0.585890
0.254295 0.000000 0.585890
0.381939 0.000000 0.585890
0.551814 0.000000 0.585890
0.690216 0.000000 0.582009
0.827143 0.000000 0.578689
0.938350 0.000000 0.578613
0.938350 0.000000 0.578613
0.000000 0.123838 0.585890
0.105469 0.102304 0.623184
0.249117 0.102304 0.623184
0.392764 0.102304 0.623184
0.584835 0.102304 0.623184
0.735234 0.093803 0.613064
0.906174 0.058771 0.607921
1.000000 0.078982 0.594595
1.000000 0.078982 0.594595
0.000000 0.242914 0.585890
0.105334 0.236247 0.623362
0.245862 0.232790 0.628528
0.392473 0.232790 0.628528
0.589389 0.232790 0.628528
0.744643 0.220224 0.618744
0.928846 0.171930 0.609748
1.000000 0.214205 0.596659
1.000000 0.214205 0.596659
0.000000 0.361989 0.585890
0.105334 0.370327 0.623362
0.245462 0.369361 0.628839
0.386070 0.361979 0.635169
0.594020 0.361979 0.635169
0.757120 0.343577 0.622872
0.920848 0.315758 0.602862
1.000000 0.349428 0.599545
1.000000 0.349428 0.599545
0.000000 0.519837 0.585890
0.105334 0.548986 0.623362
0.245462 0.552847 0.628839
0.384785 0.555013 0.635121
0.589679 0.553785 0.627930
0.746485 0.533495 0.613843
0.907438 0.509302 0.591944
1.000000 0.528961 0.601048
1.000000 0.528961 0.601048
0.000000 0.650431 0.583312
0.100038 0.692719 0.616981
0.239389 0.698973 0.621673
0.374312 0.709654 0.627170
0.577094 0.699449 0.618158
0.743353 0.693112 0.611608
0.902873 0.672856 0.588846
1.000000 0.676697 0.603534
1.000000 0.676697 0.603534
0.000000 0.778166 0.579704
0.089755 0.829787 0.605185
0.196812 0.868335 0.616245
0.350481 0.860270 0.609487
0.557089 0.847032 0.599124
0.731925 0.844967 0.597836
0.902873 0.839123 0.588846
1.000000 0.821498 0.603534
1.000000 0.821498 0.603534
0.000000 0.905902 0.577358
0.047276 1.000000 0.599884
0.192229 1.000000 0.596512
0.337536 1.000000 0.591782
0.531699 1.000000 0.574998
0.710738 0.999142 0.571239
0.893830 0.999142 0.571239
1.000000 0.966298 0.603534
1.000000 0.966298 0.603534
0.000000 0.938350 0.578613
0.082176 1.000000 0.594637
0.227130 1.000000 0.596893
0.372083 1.000000 0.600144
0.565062 1.000000 0.602149
0.721797 1.000000 0.603534
0.877017 1.000000 0.603534
1.000000 1.000000 0.603534
1.000000 1.000000 0.603534
0.000000 0.000000 0.699883
0.125604 0.000000 0.699883
0.252193 0.000000 0.699883
0.378781 0.000000 0.699883
0.547925 0.000000 0.699883
0.689862 0.000000 0.699883
0.827143 0.000000 0.696084
0.938350 0.000000 0.695864
0.938350 0.000000 0.695864
0.000000 0.122814 0.699883
0.096175 0.093025 0.745608
0.239133 0.093025 0.745608
0.382090 0.093025 0.745608
0.574000 0.093025 0.745608
0.734291 0.093025 0.745608
0.906174 0.058771 0.748847
1.000000 0.078982 0.726731
1.000000 0.078982 0.726731
0.000000 0.240905 0.699883
0.096030 0.226306 0.745811
0.227011 0.213598 0.760865
0.377441 0.213598 0.760865
0.580288 0.213598 0.760865
0.748957 0.213598 0.760865
0.928846 0.171930 0.760523
1.000000 0.214205 0.728122
1.000000 0.214205 0.728122
0.000000 0.358996 0.699883
0.096030 0.359735 0.745811
0.219864 0.350058 0.767581
0.366410 0.341813 0.768480
0.579567 0.341813 0.768480
0.756022 0.341813 0.768480
0.920848 0.315758 0.753112
1.000000 0.349428 0.730067
1.000000 0.349428 0.730067
0.000000 0.516213 0.699883
0.096030 0.538286 0.745811
0.219864 0.543688 0.767581
0.365647 0.539334 0.767403
0.570955 0.531996 0.757640
0.745329 0.531996 0.757640
0.907438 0.509302 0.741016
1.000000 0.528961 0.731080
1.000000 0.528961 0.731080
0.000000 0.648622 0.699883
0.096030 0.687892 0.745811
0.219864 0.705094 0.767581
0.365647 0.703750 0.767403
0.569910 0.693240 0.756024
0.739481 0.689588 0.751605
0.898424 0.669872 0.733832
1.000000 0.679695 0.735234
1.000000 0.679695 0.735234
0.000000 0.778166 0.697365
0.089755 0.829787 0.738343
0.196812 0.868335 0.765699
0.350481 0.860270 0.758166
0.557089 0.847032 0.746099
0.727540 0.839045 0.739796
0.895237 0.832312 0.731734
1.000000 0.825034 0.738050
1.000000 0.825034 0.738050
0.000000 0.905902 0.694390
0.047276 1.000000 0.742412
0.192229 1.000000 0.740241
0.337536 1.000000 0.737195
0.531699 1.000000 0.726390
0.703454 0.990709 0.716329
0.885096 0.989933 0.715700
1.000000 0.966966 0.738050
1.000000 0.966966 0.738050
0.000000 0.938350 0.695864
0.082176 1.000000 0.726759
0.227130 1.000000 0.728279
0.372083 1.000000 0.730471
0.565062 1.000000 0.731822
0.726642 1.000000 0.737410
0.879454 1.000000 0.738050
1.000000 1.000000 0.738050
1.000000 1.000000 0.738050
0.000000 0.000000 0.749834
0.125249 0.000000 0.749834
0.251481 0.000000 0.749834
0.377712 0.000000 0.749834
0.546673 0.000000 0.749834
0.688209 0.000000 0.749834
0.827143 0.000000 0.747527
0.938350 0.000000 0.747242
0.938350 0.000000 0.747242
0.000000 0.122468 0.749834
0.092166 0.089021 0.799191
0.234878 0.089021 0.799191
0.377590 0.089021 0.799191
0.569505 0.089021 0.799191
0.729520 0.089021 0.799191
0.906174 0.058771 0.810600
1.000000 0.078982 0.784632
1.000000 0.078982 0.784632
0.000000 0.240225 0.749834
0.092017 0.222067 0.799404
0.203380 0.189162 0.834880
0.362841 0.189162 0.834880
0.578238 0.189162 0.834880
0.757033 0.189162 0.834880
0.928846 0.171930 0.826592
1.000000 0.214205 0.785728
1.000000 0.214205 0.785728
0.000000 0.357983 0.749834
0.092017 0.355263 0.799404
0.202854 0.337333 0.834171
0.357058 0.332264 0.827608
0.572294 0.332264 0.827608
0.750163 0.332264 0.827608
0.920848 0.315758 0.818950
1.000000 0.349428 0.787261
1.000000 0.349428 0.787261
0.000000 0.515050 0.749834
0.092017 0.533838 0.799404
0.202854 0.537710 0.834171
0.356204 0.531677 0.826426
0.563126 0.523810 0.815716
0.739098 0.523810 0.815716
0.907438 0.509302 0.806338
1.000000 0.528961 0.788060
1.000000 0.528961 0.788060
0.000000 0.647085 0.749834
0.092017 0.683183 0.799404
0.202854 0.704430 0.834171
0.356204 0.697435 0.826426
0.561971 0.686463 0.813853
0.732978 0.682575 0.808508
0.898424 0.669872 0.798436
1.000000 0.679695 0.791333
1.000000 0.679695 0.791333
0.000000 0.778166 0.748923
0.089755 0.829787 0.796692
0.196812 0.868335 0.831189
0.350481 0.860270 0.823317
0.557089 0.847032 0.810502
0.727540 0.839045 0.803125
0.892330 0.829977 0.793908
1.000000 0.827951 0.796995
1.000000 0.827951 0.796995
0.000000 0.905902 0.745673
0.047276 1.000000 0.804866
0.192229 1.000000 0.803221
0.337536 1.000000 0.800915
0.531699 1.000000 0.792729
0.703454 0.990709 0.782855
0.881488 0.985946 0.778953
1.000000 0.967517 0.796995
1.000000 0.967517 0.796995
0.000000 0.938350 0.747242
0.082176 1.000000 0.784654
0.227130 1.000000 0.785852
0.372083 1.000000 0.787580
0.565062 1.000000 0.788645
0.726642 1.000000 0.793049
0.881463 1.000000 0.796995
1.000000 1.000000 0.796995
1.000000 1.000000 0.796995
0.000000 0.000000 0.749834
0.125249 0.000000 0.749834
0.251481 0.000000 0.749834
0.377712 0.000000 0.749834
0.546673 0.000000 0.749834
0.688209 0.000000 0.749834
0.827143 0.000000 0.747527
0.938350 0.000000 0.747242
0.938350 0.000000 0.747242
0.000000 0.122468 0.749834
0.092166 0.089021 0.799191
0.234878 0.089021 0.799191
0.377590 0.089021 0.799191
0.569505 0.089021 0.799191
0.729520 0.089021 0.799191
0.906174 0.058771 0.810600
1.000000 0.078982 0.784632
1.000000 0.078982 0.784632
0.000000 0.240225 0.749834
0.092017 0.222067 0.799404
0.203380 0.189162 0.834880
0.362841 0.189162 0.834880
0.578238 0.189162 0.834880
0.757033 0.189162 0.834880
0.928846 0.171930 0.826592
1.000000 0.214205 0.785728
1.000000 0.214205 0.785728
0.000000 0.357983 0.749834
0.092017 0.355263 0.799404
0.202854 0.337333 0.834171
0.357058 0.332264 0.827608
0.572294 0.332264 0.827608
0.750163 0.332264 0.827608
0.920848 0.315758 0.818950
1.000000 0.349428 0.787261
1.000000 0.349428 0.787261
0.000000 0.515050 0.749834
0.092017 0.533838 0.799404
0.202854 0.537710 0.834171
0.356204 0.531677 0.826426
0.563126 0.523810 0.815716
0.739098 0.523810 0.815716
0.907438 0.509302 0.806338
1.000000 0.528961 0.788060
1.000000 0.528961 0.788060
0.000000 0.647085 0.749834
0.092017 0.683183 0.799404
0.202854 0.704430 0.834171
0.356204 0.697435 0.826426
0.561971 0.686463 0.813853
0.732978 0.682575 0.808508
0.898424 0.669872 0.798436
1.000000 0.679695 0.791333
1.000000 0.679695 0.791333
0.000000 0.778166 0.748923
0.089755 0.829787 0.796692
0.196812 0.868335 0.831189
0.350481 0.860270 0.823317
0.557089 0.847032 0.810502
0.727540 0.839045 0.803125
0.892330 0.829977 0.793908
1.000000 0.827951 0.796995
1.000000 0.827951 0.796995
0.000000 0.905902 0.745673
0.047276 1.000000 0.804866
0.192229 1.000000 0.803221
0.337536 1.000000 0.800915
0.531699 1.000000 0.792729
0.703454 0.990709 0.782855
0.881488 0.985946 0.778953
1.000000 0.967517 0.796995
1.000000 0.967517 0.796995
0.000000 0.938350 0.747242
0.082176 1.000000 0.784654
0.227130 1.000000 0.785852
0.372083 1.000000 0.787580
0.565062 1.000000 0.788645
0.726642 1.000000 0.793049
0.881463 1.000000 0.796995
1.000000 1.000000 0.796995
1.000000 1.000000 0.796995
