docs/luts/fuji_recipes/NEGAhi_RR_Jeff_Davenport_Night.cube
TITLE "Fujifilm Recipe: RR Jeff Davenport Night (NEGAhi)"
# FilmSim=NEGAhi HL=1 SH=0 Col=2 WB=2650K WBR=-1 WBB=4
LUT_3D_SIZE 5
DOMAIN_MIN 0.0 0.0 0.0
DOMAIN_MAX 1.0 1.0 1.0
0.000000 0.000000 0.000000
0.171153 0.000000 0.000000
0.348360 0.000000 0.000000
0.528473 0.000000 0.000000
0.710557 0.000000 0.000000
0.000000 0.210000 0.000000
0.171153 0.210000 0.000000
0.348360 0.210000 0.000000
0.528473 0.210000 0.000000
0.710557 0.210000 0.000000
0.000000 0.420000 0.000000
0.171153 0.420000 0.000000
0.348360 0.420000 0.000000
0.528473 0.420000 0.000000
0.710557 0.420000 0.000000
0.000000 0.635779 0.000000
0.171153 0.635779 0.000000
0.348360 0.635779 0.000000
0.528473 0.635779 0.000000
0.710557 0.635779 0.000000
0.000000 0.840000 0.000000
0.171153 0.840000 0.000000
0.348360 0.840000 0.000000
0.528473 0.840000 0.000000
0.710557 0.840000 0.000000
0.000000 0.000000 0.263555
0.171153 0.000000 0.263555
0.348360 0.000000 0.263555
0.528473 0.000000 0.263555
0.710557 0.000000 0.263555
0.000000 0.210000 0.263555
0.166883 0.234068 0.326690
0.433119 0.195754 0.287631
0.659970 0.136665 0.224665
0.966233 0.000000 0.103378
0.000000 0.420000 0.263555
0.114690 0.524600 0.266899
0.397957 0.521394 0.251835
0.659843 0.477461 0.214422
0.983059 0.383581 0.060804
0.000000 0.635779 0.263555
0.051656 0.788617 0.198219
0.294538 0.840875 0.133337
0.636904 0.840875 0.133337
0.983059 0.828777 0.060804
0.000000 0.840000 0.263555
0.076354 1.000000 0.203957
0.321069 1.000000 0.203957
0.569796 1.000000 0.203957
0.821246 1.000000 0.203957
0.000000 0.000000 0.524026
0.171153 0.000000 0.524026
0.348360 0.000000 0.524026
0.528473 0.000000 0.524026
0.710557 0.000000 0.524026
0.000000 0.210000 0.524026
0.083492 0.146154 0.652691
0.365572 0.138034 0.654458
0.659970 0.136665 0.652662
0.966233 0.000000 0.606169
0.000000 0.420000 0.524026
0.083492 0.484893 0.652691
0.332019 0.466196 0.661030
0.652040 0.448995 0.643715
0.929070 0.341564 0.551904
0.000000 0.635779 0.524026
0.051656 0.788617 0.611361
0.264555 0.832584 0.611725
0.578267 0.781945 0.569826
0.895244 0.747290 0.526177
0.000000 0.840000 0.524026
0.076354 1.000000 0.563655
0.321069 1.000000 0.563655
0.569796 1.000000 0.563655
0.821246 1.000000 0.563655
0.000000 0.000000 0.788802
0.171153 0.000000 0.788802
0.348360 0.000000 0.788802
0.528473 0.000000 0.788802
0.710557 0.000000 0.788802
0.000000 0.210000 0.788802
0.005652 0.068191 1.000000
0.284169 0.059298 1.000000
0.576899 0.059298 1.000000
0.872832 0.059298 1.000000
0.000000 0.420000 0.788802
0.005652 0.406269 1.000000
0.250367 0.372298 1.000000
0.540684 0.349298 1.000000
0.861948 0.349298 1.000000
0.000000 0.635779 0.788802
0.005652 0.753650 1.000000
0.250367 0.739555 1.000000
0.500747 0.706536 1.000000
0.824592 0.671317 0.984972
0.000000 0.840000 0.788802
0.076354 1.000000 0.929298
0.321069 1.000000 0.929298
0.569796 1.000000 0.929298
0.821246 1.000000 0.929298
0.000000 0.000000 0.840000
0.171153 0.000000 0.840000
0.348360 0.000000 0.840000
0.528473 0.000000 0.840000
0.710557 0.000000 0.840000
0.000000 0.210000 0.840000
0.076354 0.130000 1.000000
0.321069 0.130000 1.000000
0.569796 0.130000 1.000000
0.821246 0.130000 1.000000
0.000000 0.420000 0.840000
0.076354 0.420000 1.000000
0.321069 0.420000 1.000000
0.569796 0.420000 1.000000
0.821246 0.420000 1.000000
0.000000 0.635779 0.840000
0.076354 0.717981 1.000000
0.321069 0.717981 1.000000
0.569796 0.717981 1.000000
0.821246 0.717981 1.000000
0.000000 0.840000 0.840000
0.076354 1.000000 1.000000
0.321069 1.000000 1.000000
0.569796 1.000000 1.000000
0.821246 1.000000 1.000000
