docs/luts/fuji_recipes/NEGA_RR_Warm_Contrast.cube
TITLE "Fujifilm Recipe: RR Warm Contrast (NEGA)"
# FilmSim=NEGA HL=1 SH=3 Col=4 WB=Auto WBR=-2 WBB=-4
LUT_3D_SIZE 5
DOMAIN_MIN 0.0 0.0 0.0
DOMAIN_MAX 1.0 1.0 1.0
0.014080 0.014080 0.014080
0.258905 0.000000 0.000000
0.538541 0.000000 0.000000
0.801884 0.000000 0.000000
0.964201 0.000000 0.000000
0.000000 0.271050 0.000000
0.257497 0.271050 0.000000
0.538541 0.253314 0.000000
0.801884 0.248565 0.000000
0.964201 0.246971 0.000000
0.000000 0.566538 0.000000
0.239958 0.566538 0.000000
0.537220 0.566538 0.000000
0.801884 0.559361 0.000000
0.964201 0.557038 0.000000
0.000000 0.843741 0.000000
0.235688 0.843741 0.000000
0.529830 0.843741 0.000000
0.800689 0.843741 0.000000
0.964201 0.840863 0.000000
0.014602 1.000000 0.014602
0.242113 1.000000 0.014602
0.527339 1.000000 0.014602
0.788801 1.000000 0.014602
0.949959 1.000000 0.014602
0.000000 0.000000 0.246761
0.258905 0.000000 0.245279
0.538541 0.000000 0.227983
0.801884 0.000000 0.223709
0.964201 0.000000 0.222274
0.000000 0.271050 0.243945
0.244825 0.263834 0.225817
0.614045 0.182903 0.144886
0.954824 0.105467 0.067449
1.000000 0.211661 0.184590
0.000000 0.566538 0.227329
0.155662 0.650275 0.136653
0.606148 0.650275 0.136653
0.954824 0.583893 0.067449
1.000000 0.553712 0.184590
0.000000 0.843741 0.223284
0.082781 1.000000 0.064131
0.528037 1.000000 0.064131
0.935271 1.000000 0.064131
1.000000 0.864811 0.184590
0.014602 1.000000 0.230139
0.246860 1.000000 0.234991
0.531498 1.000000 0.234991
0.790659 1.000000 0.234991
0.950400 1.000000 0.234991
0.000000 0.000000 0.460908
0.245761 0.000000 0.460908
0.538541 0.000000 0.451320
0.801884 0.000000 0.442859
0.964201 0.000000 0.507963
0.000000 0.258695 0.460908
0.187740 0.206748 0.503913
0.607451 0.175967 0.473133
0.948230 0.098531 0.501756
1.000000 0.209078 0.498438
0.000000 0.566538 0.450026
0.152194 0.646978 0.468368
0.525846 0.569973 0.494430
0.873931 0.503000 0.427457
1.000000 0.522402 0.464837
0.000000 0.843741 0.442018
0.076375 1.000000 0.493794
0.446962 0.927992 0.415546
0.862019 0.927992 0.415546
1.000000 0.855326 0.464837
0.014602 1.000000 0.507549
0.247235 1.000000 0.512194
0.535056 1.000000 0.515589
0.792249 1.000000 0.515589
0.950776 1.000000 0.515589
0.000000 0.000000 0.760026
0.236636 0.000000 0.760026
0.531303 0.000000 0.760026
0.801884 0.000000 0.758749
0.964201 0.000000 0.755148
0.000000 0.249091 0.760026
0.095298 0.114307 0.897361
0.544979 0.110839 0.894064
0.948230 0.098531 0.882258
1.000000 0.209078 0.770179
0.000000 0.560215 0.760026
0.095298 0.592403 0.897361
0.465113 0.509240 0.814198
0.860291 0.489361 0.794319
1.000000 0.513101 0.750008
0.000000 0.843741 0.757637
0.076375 1.000000 0.869662
0.441290 0.922319 0.790375
0.793319 0.859291 0.727347
1.000000 0.827688 0.707938
0.014602 1.000000 0.747243
0.247235 1.000000 0.749627
0.535661 1.000000 0.751692
0.798366 1.000000 0.758690
0.952226 1.000000 0.758690
0.000000 0.000000 0.913800
0.235033 0.000000 0.913800
0.528903 0.000000 0.913800
0.799009 0.000000 0.913800
0.964201 0.000000 0.912596
0.000000 0.247403 0.913800
0.146434 0.161941 1.000000
0.515686 0.158677 1.000000
0.855559 0.158677 1.000000
1.000000 0.209078 0.943269
0.000000 0.557620 0.913800
0.146434 0.553484 1.000000
0.434157 0.476373 1.000000
0.826724 0.462349 1.000000
1.000000 0.513101 0.938289
0.000000 0.841942 0.913800
0.146434 0.909917 1.000000
0.434157 0.894360 1.000000
0.761471 0.827443 0.937864
0.991047 0.801189 0.911610
0.014602 1.000000 0.899919
0.247235 1.000000 0.900863
0.535661 1.000000 0.901681
0.800839 1.000000 0.905623
0.956768 1.000000 0.910584
