docs/luts/fuji_recipes/NEGAhi_VM_Pro_Neg_High.cube
TITLE "Fujifilm Recipe: VM Pro Neg High (NEGAhi)"
# FilmSim=NEGAhi HL=0 SH=-1 Col=2 WB=Auto WBR=0 WBB=-1
LUT_3D_SIZE 9
DOMAIN_MIN 0.0 0.0 0.0
DOMAIN_MAX 1.0 1.0 1.0
0.040000 0.040000 0.040000
0.182447 0.018271 0.018271
0.321216 0.000000 0.000000
0.441715 0.000000 0.000000
0.542278 0.000000 0.000000
0.666291 0.000000 0.000000
0.790304 0.000000 0.000000
0.914317 0.000000 0.000000
1.000000 0.034000 0.034000
0.018400 0.181600 0.018400
0.182447 0.181471 0.018271
0.321216 0.159798 0.000000
0.441715 0.146540 0.000000
0.542278 0.140767 0.000000
0.666291 0.136374 0.000000
0.790304 0.133515 0.000000
0.914317 0.131506 0.000000
1.000000 0.155509 0.034000
0.000000 0.320000 0.000000
0.160957 0.320000 0.000000
0.321216 0.319597 0.000000
0.441715 0.293080 0.000000
0.542278 0.281533 0.000000
0.666291 0.272748 0.000000
0.790304 0.267031 0.000000
0.914317 0.263013 0.000000
1.000000 0.277019 0.034000
0.000000 0.440000 0.000000
0.147544 0.440000 0.000000
0.294820 0.440000 0.000000
0.441715 0.439621 0.000000
0.542278 0.422300 0.000000
0.666291 0.409122 0.000000
0.790304 0.400546 0.000000
0.914317 0.394519 0.000000
1.000000 0.398528 0.034000
0.000000 0.560000 0.000000
0.140838 0.560000 0.000000
0.281419 0.560000 0.000000
0.422001 0.560000 0.000000
0.539324 0.560000 0.000000
0.666291 0.545496 0.000000
0.790304 0.534061 0.000000
0.914317 0.526026 0.000000
1.000000 0.520038 0.034000
0.000000 0.663500 0.000000
0.137269 0.663500 0.000000
0.274288 0.663500 0.000000
0.411307 0.663500 0.000000
0.525658 0.663500 0.000000
0.666291 0.663119 0.000000
0.790304 0.649218 0.000000
0.914317 0.639450 0.000000
1.000000 0.624840 0.034000
0.000000 0.787000 0.000000
0.134378 0.787000 0.000000
0.268511 0.787000 0.000000
0.402645 0.787000 0.000000
0.514587 0.787000 0.000000
0.652633 0.787000 0.000000
0.790304 0.786628 0.000000
0.914317 0.774792 0.000000
1.000000 0.749893 0.034000
0.000000 0.910500 0.000000
0.132346 0.910500 0.000000
0.264452 0.910500 0.000000
0.396558 0.910500 0.000000
0.506808 0.910500 0.000000
0.642767 0.910500 0.000000
0.778726 0.910500 0.000000
0.914317 0.910134 0.000000
1.000000 0.874947 0.034000
0.034000 1.000000 0.034000
0.156236 1.000000 0.034000
0.278251 1.000000 0.034000
0.400265 1.000000 0.034000
0.502093 1.000000 0.034000
0.627666 1.000000 0.034000
0.753239 1.000000 0.034000
0.878812 1.000000 0.034000
1.000000 1.000000 0.034000
0.018940 0.018940 0.178060
0.182447 0.018271 0.177391
0.321216 0.000000 0.155803
0.441715 0.000000 0.142877
0.542278 0.000000 0.137248
0.666291 0.000000 0.132965
0.790304 0.000000 0.130177
0.914317 0.000000 0.128219
1.000000 0.034000 0.152472
0.018400 0.181600 0.177520
0.161387 0.160411 0.156331
0.303575 0.138721 0.134641
0.445764 0.117031 0.112951
0.564428 0.098930 0.094850
0.710764 0.076608 0.072528
0.857099 0.054285 0.050205
1.000000 0.035369 0.031317
1.000000 0.154043 0.151000
0.000000 0.320000 0.156000
0.139916 0.302140 0.134860
0.303575 0.301921 0.134641
0.445764 0.280231 0.112951
0.564428 0.262130 0.094850
0.710764 0.239808 0.072528
0.857099 0.217485 0.050205
1.000000 0.197420 0.031317
1.000000 0.275763 0.151000
0.000000 0.440000 0.143000
0.118316 0.443740 0.113260
0.282194 0.443740 0.113260
0.445764 0.443431 0.112951
0.564428 0.425330 0.094850
0.710764 0.403008 0.072528
0.857099 0.380685 0.050205
1.000000 0.359470 0.031317
1.000000 0.397484 0.151000
0.000000 0.560000 0.136500
0.096716 0.585340 0.091660
0.260594 0.585340 0.091660
0.424472 0.585340 0.091660
0.561238 0.585340 0.091660
0.710764 0.566208 0.072528
0.857099 0.543885 0.050205
1.000000 0.521521 0.031317
1.000000 0.519204 0.151000
0.000000 0.663500 0.133041
0.078086 0.707470 0.073030
0.241964 0.707470 0.073030
0.405842 0.707470 0.073030
0.542608 0.707470 0.073030
0.710764 0.706968 0.072528
0.857099 0.684645 0.050205
1.000000 0.661290 0.031317
1.000000 0.624188 0.151000
0.000000 0.787000 0.130239
0.055856 0.853200 0.050800
0.219734 0.853200 0.050800
0.383612 0.853200 0.050800
0.520378 0.853200 0.050800
0.689036 0.853200 0.050800
0.857099 0.852605 0.050205
1.000000 0.828068 0.031317
1.000000 0.749459 0.151000
0.000000 0.910500 0.128270
0.033626 0.998930 0.028570
0.197504 0.998930 0.028570
0.361382 0.998930 0.028570
0.498148 0.998930 0.028570
0.666806 0.998930 0.028570
0.835464 0.998930 0.028570
1.000000 0.994845 0.031317
1.000000 0.874729 0.151000
0.034000 1.000000 0.152472
0.154771 1.000000 0.151000
0.276997 1.000000 0.151000
0.399223 1.000000 0.151000
0.501228 1.000000 0.151000
0.627019 1.000000 0.151000
0.752810 1.000000 0.151000
0.878602 1.000000 0.151000
1.000000 1.000000 0.151000
0.000000 0.000000 0.314000
0.161989 0.000000 0.314000
0.321216 0.000000 0.311607
0.441715 0.000000 0.285753
0.542278 0.000000 0.274495
0.666291 0.000000 0.265930
0.790304 0.000000 0.260355
0.914317 0.000000 0.256438
1.000000 0.034000 0.270943
0.000000 0.161026 0.314000
0.140456 0.139480 0.294520
0.303035 0.138181 0.293221
0.445224 0.116491 0.271531
0.563888 0.098390 0.253430
0.710224 0.076068 0.231108
0.856559 0.053745 0.208785
1.000000 0.034317 0.188434
1.000000 0.154000 0.269640
0.000000 0.320000 0.312000
0.139247 0.301471 0.293311
0.282515 0.280861 0.272701
0.424704 0.259171 0.251011
0.543368 0.241070 0.232910
0.689704 0.218748 0.210588
0.836039 0.196425 0.188265
0.982375 0.174103 0.165943
1.000000 0.274100 0.268000
0.000000 0.440000 0.286000
0.117647 0.443071 0.271711
0.261134 0.422680 0.251320
0.424704 0.422371 0.251011
0.543368 0.404270 0.232910
0.689704 0.381948 0.210588
0.836039 0.359625 0.188265
0.982375 0.337303 0.165943
1.000000 0.396100 0.268000
0.000000 0.560000 0.273000
0.096047 0.584671 0.250111
0.239534 0.564280 0.229720
0.403412 0.564280 0.229720
0.540178 0.564280 0.229720
0.689704 0.545148 0.210588
0.836039 0.522825 0.188265
0.982375 0.500503 0.165943
1.000000 0.518100 0.268000
0.000000 0.663500 0.266082
0.077417 0.706801 0.231481
0.220904 0.686410 0.211090
0.384782 0.686410 0.211090
0.521548 0.686410 0.211090
0.689704 0.685908 0.210588
0.836039 0.663585 0.188265
0.982375 0.641263 0.165943
1.000000 0.623325 0.268000
0.000000 0.787000 0.260478
0.055187 0.852531 0.209251
0.198674 0.832140 0.188860
0.362552 0.832140 0.188860
0.499318 0.832140 0.188860
0.667976 0.832140 0.188860
0.836039 0.831545 0.188265
0.982375 0.809223 0.165943
1.000000 0.748883 0.268000
0.000000 0.910500 0.256541
0.032957 0.998261 0.187021
0.176444 0.977870 0.166630
0.340322 0.977870 0.166630
0.477088 0.977870 0.166630
0.645746 0.977870 0.166630
0.814404 0.977870 0.166630
0.982375 0.977183 0.165943
1.000000 0.874442 0.268000
0.034000 1.000000 0.270943
0.154718 1.000000 0.269631
0.275337 1.000000 0.268000
0.397844 1.000000 0.268000
0.500083 1.000000 0.268000
0.626163 1.000000 0.268000
0.752243 1.000000 0.268000
0.878323 1.000000 0.268000
1.000000 1.000000 0.268000
0.000000 0.000000 0.431000
0.148232 0.000000 0.431000
0.296195 0.000000 0.431000
0.441715 0.000000 0.428630
0.542278 0.000000 0.411743
0.666291 0.000000 0.398894
0.790304 0.000000 0.390532
0.914317 0.000000 0.384656
1.000000 0.034000 0.389415
0.000000 0.147350 0.431000
0.119396 0.118420 0.432580
0.283274 0.118420 0.432580
0.445224 0.116491 0.430651
0.563888 0.098390 0.412550
0.710224 0.076068 0.390228
0.856559 0.053745 0.367905
1.000000 0.034317 0.346605
1.000000 0.154000 0.388324
0.000000 0.294701 0.431000
0.119267 0.281491 0.432451
0.261674 0.260020 0.410980
0.423624 0.258091 0.409051
0.542288 0.239990 0.390950
0.688624 0.217668 0.368628
0.834959 0.195345 0.346305
0.981295 0.173023 0.323983
1.000000 0.274000 0.386866
0.000000 0.440000 0.429000
0.117647 0.443071 0.430831
0.259835 0.421381 0.409141
0.403644 0.401311 0.389071
0.522308 0.383210 0.370970
0.668644 0.360888 0.348648
0.814979 0.338565 0.326325
0.961315 0.316243 0.304003
1.000000 0.394179 0.385000
0.000000 0.560000 0.409500
0.096047 0.584671 0.409231
0.238235 0.562981 0.387541
0.382352 0.543220 0.367780
0.519118 0.543220 0.367780
0.668644 0.524088 0.348648
0.814979 0.501765 0.326325
0.961315 0.479443 0.304003
1.000000 0.516567 0.385000
0.000000 0.663500 0.399123
0.077417 0.706801 0.390601
0.219605 0.685111 0.368911
0.363722 0.665350 0.349150
0.500488 0.665350 0.349150
0.668644 0.664848 0.348648
0.814979 0.642525 0.326325
0.961315 0.620203 0.304003
1.000000 0.622127 0.385000
0.000000 0.787000 0.390717
0.055187 0.852531 0.368371
0.197375 0.830841 0.346681
0.341492 0.811080 0.326920
0.478258 0.811080 0.326920
0.646916 0.811080 0.326920
0.814979 0.810485 0.326325
0.961315 0.788163 0.304003
1.000000 0.748085 0.385000
0.000000 0.910500 0.384811
0.032957 0.998261 0.346141
0.175145 0.976571 0.324451
0.319262 0.956810 0.304690
0.456028 0.956810 0.304690
0.624686 0.956810 0.304690
0.793344 0.956810 0.304690
0.961315 0.956123 0.304003
1.000000 0.874042 0.385000
0.034000 1.000000 0.389415
0.154718 1.000000 0.388316
0.275216 1.000000 0.386848
0.395928 1.000000 0.385000
0.498493 1.000000 0.385000
0.624974 1.000000 0.385000
0.751455 1.000000 0.385000
0.877936 1.000000 0.385000
1.000000 1.000000 0.385000
0.000000 0.000000 0.548000
0.141353 0.000000 0.548000
0.282450 0.000000 0.548000
0.423547 0.000000 0.548000
0.541300 0.000000 0.548000
0.666291 0.000000 0.531859
0.790304 0.000000 0.520710
0.914317 0.000000 0.512875
1.000000 0.034000 0.507887
0.000000 0.140513 0.548000
0.098336 0.097360 0.570640
0.262214 0.097360 0.570640
0.426092 0.097360 0.570640
0.562858 0.097360 0.570640
0.710224 0.076068 0.549348
0.856559 0.053745 0.527025
1.000000 0.034317 0.504777
1.000000 0.154000 0.507007
0.000000 0.281026 0.548000
0.098207 0.260431 0.570511
0.240614 0.238960 0.549040
0.404492 0.238960 0.549040
0.541258 0.238960 0.549040
0.688624 0.217668 0.527748
0.834959 0.195345 0.505425
0.981295 0.173023 0.483103
1.000000 0.274000 0.505832
0.000000 0.421538 0.548000
0.098207 0.423631 0.570511
0.240395 0.401941 0.548821
0.382892 0.380560 0.527440
0.519658 0.380560 0.527440
0.667024 0.359268 0.506148
0.813359 0.336945 0.483825
0.959695 0.314623 0.461503
1.000000 0.394000 0.504182
0.000000 0.560000 0.546000
0.096047 0.584671 0.568351
0.238235 0.562981 0.546661
0.380424 0.541291 0.524971
0.499088 0.523190 0.506870
0.647584 0.503028 0.486708
0.793919 0.480705 0.464385
0.940255 0.458383 0.442063
1.000000 0.514296 0.502000
0.000000 0.663500 0.532165
0.077417 0.706801 0.549721
0.219605 0.685111 0.528031
0.361794 0.663421 0.506341
0.480458 0.645320 0.488240
0.647584 0.643788 0.486708
0.793919 0.621465 0.464385
0.940255 0.599143 0.442063
1.000000 0.620352 0.502000
0.000000 0.787000 0.520956
0.055187 0.852531 0.527491
0.197375 0.830841 0.505801
0.339564 0.809151 0.484111
0.458228 0.791050 0.466010
0.625856 0.790020 0.464980
0.793919 0.789425 0.464385
0.940255 0.767103 0.442063
1.000000 0.746901 0.502000
0.000000 0.910500 0.513081
0.032957 0.998261 0.505261
0.175145 0.976571 0.483571
0.317334 0.954881 0.461881
0.435998 0.936780 0.443780
0.603626 0.935750 0.442750
0.772284 0.935750 0.442750
0.940255 0.935063 0.442063
1.000000 0.873451 0.502000
0.034000 1.000000 0.507887
0.154718 1.000000 0.507001
0.275216 1.000000 0.505818
0.395715 1.000000 0.504153
0.496278 1.000000 0.502140
0.623212 1.000000 0.502000
0.750287 1.000000 0.502000
0.877362 1.000000 0.502000
1.000000 1.000000 0.502000
0.000000 0.000000 0.648062
0.137719 0.000000 0.648062
0.275187 0.000000 0.648062
0.412655 0.000000 0.648062
0.527381 0.000000 0.648062
0.666291 0.000000 0.645575
0.790304 0.000000 0.632042
0.914317 0.000000 0.622532
1.000000 0.034000 0.609208
0.000000 0.136900 0.648062
0.080325 0.079349 0.688714
0.244203 0.079349 0.688714
0.408081 0.079349 0.688714
0.544847 0.079349 0.688714
0.710224 0.076068 0.685433
0.856559 0.053745 0.663110
1.000000 0.034317 0.640051
1.000000 0.154000 0.608509
0.000000 0.273799 0.648062
0.080196 0.242420 0.688585
0.222603 0.220949 0.667114
0.386481 0.220949 0.667114
0.523247 0.220949 0.667114
0.688624 0.217668 0.663833
0.834959 0.195345 0.641510
0.981295 0.173023 0.619188
1.000000 0.274000 0.607576
0.000000 0.410699 0.648062
0.080196 0.405620 0.688585
0.222384 0.383930 0.666895
0.364881 0.362549 0.645514
0.501647 0.362549 0.645514
0.667024 0.359268 0.642233
0.813359 0.336945 0.619910
0.959695 0.314623 0.597588
1.000000 0.394000 0.606266
0.000000 0.547598 0.648062
0.080196 0.568820 0.688585
0.222384 0.547130 0.666895
0.364572 0.525440 0.645205
0.483237 0.507339 0.627104
0.645424 0.500868 0.620633
0.791759 0.478545 0.598310
0.938095 0.456223 0.575988
1.000000 0.514000 0.604292
0.000000 0.663500 0.645946
0.077417 0.706801 0.685806
0.219605 0.685111 0.664116
0.361794 0.663421 0.642426
0.480458 0.645320 0.624325
0.629572 0.625776 0.604781
0.775908 0.603454 0.582459
0.922243 0.581132 0.560137
1.000000 0.617980 0.602062
0.000000 0.787000 0.632341
0.055187 0.852531 0.663576
0.197375 0.830841 0.641886
0.339564 0.809151 0.620196
0.458228 0.791050 0.602095
0.607845 0.772009 0.583054
0.775908 0.771414 0.582459
0.922243 0.749092 0.560137
1.000000 0.745320 0.602062
0.000000 0.910500 0.622783
0.032957 0.998261 0.641346
0.175145 0.976571 0.619656
0.317334 0.954881 0.597966
0.435998 0.936780 0.579865
0.585615 0.917739 0.560824
0.754273 0.917739 0.560824
0.922243 0.917052 0.560137
1.000000 0.872660 0.602062
0.034000 1.000000 0.609208
0.154718 1.000000 0.608505
0.275216 1.000000 0.607565
0.395715 1.000000 0.606243
0.496278 1.000000 0.604644
0.620858 1.000000 0.602062
0.748727 1.000000 0.602062
0.876596 1.000000 0.602062
1.000000 1.000000 0.602062
0.000000 0.000000 0.768475
0.134745 0.000000 0.768475
0.269246 0.000000 0.768475
0.403746 0.000000 0.768475
0.515994 0.000000 0.768475
0.654418 0.000000 0.768475
0.790304 0.000000 0.766016
0.914317 0.000000 0.754491
1.000000 0.034000 0.731135
0.000000 0.133944 0.768475
0.058651 0.057675 0.830800
0.222529 0.057675 0.830800
0.386407 0.057675 0.830800
0.523173 0.057675 0.830800
0.691831 0.057675 0.830800
0.856559 0.053745 0.826871
1.000000 0.034317 0.802836
1.000000 0.154000 0.730654
0.000000 0.267888 0.768475
0.058522 0.220745 0.830671
0.200929 0.199275 0.809200
0.364807 0.199275 0.809200
0.501573 0.199275 0.809200
0.670231 0.199275 0.809200
0.834959 0.195345 0.805271
0.981295 0.173023 0.782949
1.000000 0.274000 0.730012
0.000000 0.401832 0.768475
0.058522 0.383945 0.830671
0.200710 0.362256 0.808982
0.343207 0.340874 0.787600
0.479973 0.340874 0.787600
0.648631 0.340874 0.787600
0.813359 0.336945 0.783671
0.959695 0.314623 0.761349
1.000000 0.394000 0.729111
0.000000 0.535775 0.768475
0.058522 0.547145 0.830671
0.200710 0.525456 0.808982
0.342898 0.503766 0.787292
0.461563 0.485664 0.769190
0.627031 0.482475 0.766000
0.791759 0.478545 0.762071
0.938095 0.456223 0.739749
1.000000 0.514000 0.727753
0.000000 0.651302 0.768475
0.058522 0.687905 0.830671
0.200710 0.666216 0.808982
0.342898 0.644526 0.787292
0.461563 0.626424 0.769190
0.608401 0.604604 0.747370
0.773129 0.600675 0.743441
0.919465 0.578353 0.721119
1.000000 0.617500 0.725875
0.000000 0.787000 0.766379
0.055187 0.852531 0.827337
0.197375 0.830841 0.805647
0.339564 0.809151 0.783957
0.458228 0.791050 0.765856
0.604564 0.768728 0.743534
0.754234 0.749740 0.724546
0.900569 0.727417 0.702223
1.000000 0.741837 0.722475
0.000000 0.910500 0.754794
0.032957 0.998261 0.805107
0.175145 0.976571 0.783417
0.317334 0.954881 0.761727
0.435998 0.936780 0.743626
0.582334 0.914458 0.721304
0.732598 0.896065 0.702910
0.900569 0.895377 0.702223
1.000000 0.870919 0.722475
0.034000 1.000000 0.731135
0.154718 1.000000 0.730651
0.275216 1.000000 0.730005
0.395715 1.000000 0.729095
0.496278 1.000000 0.727995
0.620291 1.000000 0.725810
0.745291 1.000000 0.722475
0.874909 1.000000 0.722475
1.000000 1.000000 0.722475
0.000000 0.000000 0.888888
0.132657 0.000000 0.888888
0.265073 0.000000 0.888888
0.397489 0.000000 0.888888
0.507998 0.000000 0.888888
0.644276 0.000000 0.888888
0.780554 0.000000 0.888888
0.914317 0.000000 0.886449
1.000000 0.034000 0.853062
0.000000 0.131868 0.888888
0.036977 0.036000 0.972887
0.200855 0.036000 0.972887
0.364733 0.036000 0.972887
0.501498 0.036000 0.972887
0.670156 0.036000 0.972887
0.838814 0.036000 0.972887
1.000000 0.034317 0.965621
1.000000 0.154000 0.852800
0.000000 0.263736 0.888888
0.036847 0.199071 0.972758
0.179255 0.177600 0.951287
0.343133 0.177600 0.951287
0.479898 0.177600 0.951287
0.648556 0.177600 0.951287
0.817214 0.177600 0.951287
0.981295 0.173023 0.946710
1.000000 0.274000 0.852449
0.000000 0.395604 0.888888
0.036847 0.362271 0.972758
0.179036 0.340581 0.951068
0.321533 0.319200 0.929687
0.458298 0.319200 0.929687
0.626956 0.319200 0.929687
0.795614 0.319200 0.929687
0.959695 0.314623 0.925110
1.000000 0.394000 0.851956
0.000000 0.527473 0.888888
0.036847 0.525471 0.972758
0.179036 0.503781 0.951068
0.321224 0.482092 0.929379
0.439888 0.463990 0.911277
0.605356 0.460800 0.908087
0.774014 0.460800 0.908087
0.938095 0.456223 0.903510
1.000000 0.514000 0.851214
0.000000 0.641209 0.888888
0.036847 0.666231 0.972758
0.179036 0.644541 0.951068
0.321224 0.622852 0.929379
0.439888 0.604750 0.911277
0.586726 0.582930 0.889457
0.755384 0.582930 0.889457
0.919465 0.578353 0.884880
1.000000 0.617500 0.850187
0.000000 0.776923 0.888888
0.036847 0.834191 0.972758
0.179036 0.812501 0.951068
0.321224 0.790812 0.929379
0.439888 0.772710 0.911277
0.586224 0.750388 0.888955
0.733154 0.728660 0.867227
0.897235 0.724083 0.862650
1.000000 0.741000 0.847837
0.000000 0.910500 0.886806
0.032957 0.998261 0.968868
0.175145 0.976571 0.947178
0.317334 0.954881 0.925488
0.435998 0.936780 0.907387
0.582334 0.914458 0.885065
0.728669 0.892135 0.862742
0.878895 0.873703 0.844310
1.000000 0.866287 0.842887
0.034000 1.000000 0.853062
0.154718 1.000000 0.852798
0.275216 1.000000 0.852444
0.395715 1.000000 0.851947
0.496278 1.000000 0.851346
0.620291 1.000000 0.850152
0.744304 1.000000 0.847742
0.870420 1.000000 0.842887
1.000000 1.000000 0.842887
0.009300 0.009300 1.000000
0.137994 0.009300 1.000000
0.266454 0.009300 1.000000
0.394914 0.009300 1.000000
0.502121 0.009300 1.000000
0.634328 0.009300 1.000000
0.766535 0.009300 1.000000
0.898742 0.009300 1.000000
1.000000 0.034000 0.974989
0.009300 0.137229 1.000000
0.130072 0.129300 1.000000
0.259713 0.129300 1.000000
0.389353 0.129300 1.000000
0.497546 0.129300 1.000000
0.630968 0.129300 1.000000
0.764390 0.129300 1.000000
0.897811 0.129300 1.000000
1.000000 0.154000 0.974945
0.009300 0.265157 1.000000
0.130018 0.258358 1.000000
0.250625 0.249300 1.000000
0.381857 0.249300 1.000000
0.491378 0.249300 1.000000
0.626437 0.249300 1.000000
0.761497 0.249300 1.000000
0.896557 0.249300 1.000000
1.000000 0.274000 0.974885
0.009300 0.393086 1.000000
0.130018 0.387470 1.000000
0.250516 0.379899 1.000000
0.371200 0.369300 1.000000
0.482609 0.369300 1.000000
0.619997 0.369300 1.000000
0.757385 0.369300 1.000000
0.894773 0.369300 1.000000
1.000000 0.394000 0.974801
0.009300 0.521014 1.000000
0.130018 0.516582 1.000000
0.250516 0.510607 1.000000
0.371015 0.502096 1.000000
0.471578 0.491630 1.000000
0.610117 0.489300 1.000000
0.751077 0.489300 1.000000
0.892037 0.489300 1.000000
1.000000 0.514000 0.974675
0.009300 0.631353 1.000000
0.130018 0.627942 1.000000
0.250516 0.623343 1.000000
0.371015 0.616792 1.000000
0.471578 0.608737 1.000000
0.596087 0.592800 1.000000
0.742120 0.592800 1.000000
0.888152 0.592800 1.000000
1.000000 0.617500 0.974500
0.009300 0.763012 1.000000
0.130018 0.760820 1.000000
0.250516 0.757863 1.000000
0.371015 0.753652 1.000000
0.471578 0.748474 1.000000
0.595591 0.737907 1.000000
0.720517 0.716300 1.000000
0.878783 0.716300 1.000000
1.000000 0.741000 0.974100
0.009300 0.894672 1.000000
0.130018 0.893698 1.000000
0.250516 0.892384 1.000000
0.371015 0.890512 1.000000
0.471578 0.888211 1.000000
0.595591 0.883514 1.000000
0.719604 0.873499 1.000000
0.857908 0.852716 0.987084
1.000000 0.864500 0.972900
0.034000 1.000000 0.974989
0.154718 1.000000 0.974944
0.275216 1.000000 0.974884
0.395715 1.000000 0.974800
0.496278 1.000000 0.974697
0.620291 1.000000 0.974494
0.744304 1.000000 0.974084
0.868317 1.000000 0.972823
0.998446 0.998446 0.964854
