docs/luts/fuji_recipes/NEGAhi_PS_Fujifilm_Superia_100.cube
TITLE "Fujifilm Recipe: PS Fujifilm Superia 100 (NEGAhi)"
# FilmSim=NEGAhi HL=-2 SH=2 Col=2 WB=UWater WBR=-1 WBB=-3
LUT_3D_SIZE 9
DOMAIN_MIN 0.0 0.0 0.0
DOMAIN_MAX 1.0 1.0 1.0
0.000000 0.000000 0.000000
0.179580 0.000000 0.000000
0.338544 0.000000 0.000000
0.535448 0.000000 0.000000
0.685676 0.000000 0.000000
0.835905 0.000000 0.000000
0.916705 0.000000 0.000000
0.916705 0.000000 0.000000
0.916705 0.000000 0.000000
0.000000 0.170449 0.000000
0.179580 0.170449 0.000000
0.338544 0.170449 0.000000
0.535448 0.170449 0.000000
0.685676 0.170449 0.000000
0.835905 0.170449 0.000000
0.916705 0.170449 0.000000
0.916705 0.170449 0.000000
0.916705 0.170449 0.000000
0.000000 0.323956 0.000000
0.179580 0.323956 0.000000
0.338544 0.323956 0.000000
0.535448 0.323956 0.000000
0.685676 0.323956 0.000000
0.835905 0.323956 0.000000
0.916705 0.323956 0.000000
0.916705 0.323956 0.000000
0.916705 0.323956 0.000000
0.000000 0.516503 0.000000
0.179580 0.516503 0.000000
0.338544 0.516503 0.000000
0.535448 0.516503 0.000000
0.685676 0.516503 0.000000
0.835905 0.516503 0.000000
0.916705 0.516503 0.000000
0.916705 0.516503 0.000000
0.916705 0.516503 0.000000
0.000000 0.661573 0.000000
0.179580 0.661573 0.000000
0.338544 0.661573 0.000000
0.535448 0.661573 0.000000
0.685676 0.661573 0.000000
0.835905 0.661573 0.000000
0.916705 0.661573 0.000000
0.916705 0.661573 0.000000
0.916705 0.661573 0.000000
0.000000 0.806644 0.000000
0.179580 0.806644 0.000000
0.338544 0.806644 0.000000
0.535448 0.806644 0.000000
0.685676 0.806644 0.000000
0.835905 0.806644 0.000000
0.916705 0.806644 0.000000
0.916705 0.806644 0.000000
0.916705 0.806644 0.000000
0.000000 0.934720 0.000000
0.179580 0.934720 0.000000
0.338544 0.934720 0.000000
0.535448 0.934720 0.000000
0.685676 0.934720 0.000000
0.835905 0.934720 0.000000
0.916705 0.934720 0.000000
0.916705 0.934720 0.000000
0.916705 0.934720 0.000000
0.000000 0.934720 0.000000
0.179580 0.934720 0.000000
0.338544 0.934720 0.000000
0.535448 0.934720 0.000000
0.685676 0.934720 0.000000
0.835905 0.934720 0.000000
0.916705 0.934720 0.000000
0.916705 0.934720 0.000000
0.916705 0.934720 0.000000
0.000000 0.934720 0.000000
0.179580 0.934720 0.000000
0.338544 0.934720 0.000000
0.535448 0.934720 0.000000
0.685676 0.934720 0.000000
0.835905 0.934720 0.000000
0.916705 0.934720 0.000000
0.916705 0.934720 0.000000
0.916705 0.934720 0.000000
0.000000 0.000000 0.146509
0.179580 0.000000 0.146509
0.338544 0.000000 0.146509
0.535448 0.000000 0.146509
0.685676 0.000000 0.146509
0.835905 0.000000 0.146509
0.916705 0.000000 0.146509
0.916705 0.000000 0.146509
0.916705 0.000000 0.146509
0.000000 0.170449 0.146509
0.185532 0.173115 0.140556
0.373111 0.144502 0.111942
0.605457 0.109059 0.076500
0.782727 0.082018 0.049458
0.959996 0.054977 0.022417
1.000000 0.092332 0.063213
1.000000 0.092332 0.063213
1.000000 0.092332 0.063213
0.000000 0.323956 0.146509
0.159545 0.355897 0.114568
0.373111 0.353271 0.111942
0.605457 0.317828 0.076500
0.782727 0.290787 0.049458
0.959996 0.263746 0.022417
1.000000 0.279042 0.063213
1.000000 0.279042 0.063213
1.000000 0.279042 0.063213
0.000000 0.516503 0.146509
0.124886 0.583102 0.079910
0.341078 0.583102 0.079910
0.605457 0.579692 0.076500
0.782727 0.552651 0.049458
0.959996 0.525610 0.022417
1.000000 0.513236 0.063213
1.000000 0.513236 0.063213
1.000000 0.513236 0.063213
0.000000 0.661573 0.146509
0.098773 0.754285 0.053797
0.314966 0.754285 0.053797
0.582754 0.754285 0.053797
0.782727 0.749946 0.049458
0.959996 0.722905 0.022417
1.000000 0.689685 0.063213
1.000000 0.689685 0.063213
1.000000 0.689685 0.063213
0.000000 0.806644 0.146509
0.072661 0.925468 0.027684
0.288853 0.925468 0.027684
0.556641 0.925468 0.027684
0.760952 0.925468 0.027684
0.959996 0.920201 0.022417
1.000000 0.866133 0.063213
1.000000 0.866133 0.063213
1.000000 0.866133 0.063213
0.000000 0.934720 0.146509
0.119777 1.000000 0.081229
0.305073 1.000000 0.081229
0.534592 1.000000 0.081229
0.709705 1.000000 0.081229
0.884817 1.000000 0.081229
0.979000 1.000000 0.081229
0.979000 1.000000 0.081229
0.979000 1.000000 0.081229
0.000000 0.934720 0.146509
0.119777 1.000000 0.081229
0.305073 1.000000 0.081229
0.534592 1.000000 0.081229
0.709705 1.000000 0.081229
0.884817 1.000000 0.081229
0.979000 1.000000 0.081229
0.979000 1.000000 0.081229
0.979000 1.000000 0.081229
0.000000 0.934720 0.146509
0.119777 1.000000 0.081229
0.305073 1.000000 0.081229
0.534592 1.000000 0.081229
0.709705 1.000000 0.081229
0.884817 1.000000 0.081229
0.979000 1.000000 0.081229
0.979000 1.000000 0.081229
0.979000 1.000000 0.081229
0.000000 0.000000 0.280754
0.179580 0.000000 0.280754
0.338544 0.000000 0.280754
0.535448 0.000000 0.280754
0.685676 0.000000 0.280754
0.835905 0.000000 0.280754
0.916705 0.000000 0.280754
0.916705 0.000000 0.280754
0.916705 0.000000 0.280754
0.000000 0.170449 0.280754
0.163011 0.150595 0.300609
0.368801 0.140192 0.290207
0.601147 0.104750 0.254764
0.778417 0.077709 0.227723
0.955687 0.050667 0.200682
1.000000 0.087154 0.222083
1.000000 0.087154 0.222083
1.000000 0.087154 0.222083
0.000000 0.323956 0.280754
0.153592 0.349944 0.291189
0.348947 0.329107 0.270352
0.581293 0.293664 0.234909
0.758562 0.266623 0.207868
0.935832 0.239582 0.180827
1.000000 0.251978 0.197459
1.000000 0.251978 0.197459
1.000000 0.251978 0.197459
0.000000 0.516503 0.280754
0.118933 0.577149 0.256531
0.316914 0.558938 0.238319
0.581293 0.555528 0.234909
0.758562 0.528487 0.207868
0.935832 0.501445 0.180827
1.000000 0.494963 0.197459
1.000000 0.494963 0.197459
1.000000 0.494963 0.197459
0.000000 0.661573 0.280754
0.092821 0.748332 0.230418
0.290801 0.730121 0.212207
0.558590 0.730121 0.212207
0.758562 0.725782 0.207868
0.935832 0.698741 0.180827
1.000000 0.678036 0.197459
1.000000 0.678036 0.197459
1.000000 0.678036 0.197459
0.000000 0.806644 0.280754
0.066708 0.919515 0.204306
0.264689 0.901304 0.186094
0.532477 0.901304 0.186094
0.736788 0.901304 0.186094
0.935832 0.896037 0.180827
1.000000 0.861108 0.197459
1.000000 0.861108 0.197459
1.000000 0.861108 0.197459
0.000000 0.934720 0.280754
0.114300 1.000000 0.232967
0.284802 1.000000 0.215474
0.521016 1.000000 0.215474
0.701236 1.000000 0.215474
0.881457 1.000000 0.215474
0.978388 1.000000 0.215474
0.978388 1.000000 0.215474
0.978388 1.000000 0.215474
0.000000 0.934720 0.280754
0.114300 1.000000 0.232967
0.284802 1.000000 0.215474
0.521016 1.000000 0.215474
0.701236 1.000000 0.215474
0.881457 1.000000 0.215474
0.978388 1.000000 0.215474
0.978388 1.000000 0.215474
0.978388 1.000000 0.215474
0.000000 0.934720 0.280754
0.114300 1.000000 0.232967
0.284802 1.000000 0.215474
0.521016 1.000000 0.215474
0.701236 1.000000 0.215474
0.881457 1.000000 0.215474
0.978388 1.000000 0.215474
0.978388 1.000000 0.215474
0.978388 1.000000 0.215474
0.000000 0.000000 0.415000
0.179580 0.000000 0.415000
0.338544 0.000000 0.415000
0.535448 0.000000 0.415000
0.685676 0.000000 0.415000
0.835905 0.000000 0.415000
0.916705 0.000000 0.415000
0.916705 0.000000 0.415000
0.916705 0.000000 0.415000
0.000000 0.170449 0.415000
0.138847 0.126430 0.459019
0.355039 0.126430 0.459019
0.601147 0.104750 0.437338
0.778417 0.077709 0.410297
0.955687 0.050667 0.383256
1.000000 0.087154 0.386297
1.000000 0.087154 0.386297
1.000000 0.087154 0.386297
0.000000 0.323956 0.415000
0.137204 0.333556 0.457375
0.327408 0.307568 0.431388
0.573516 0.285888 0.409707
0.750786 0.258846 0.382666
0.928056 0.231805 0.355625
1.000000 0.240661 0.357292
1.000000 0.240661 0.357292
1.000000 0.240661 0.357292
0.000000 0.516503 0.415000
0.118933 0.577149 0.439105
0.306512 0.548536 0.410491
0.557128 0.531363 0.393319
0.734398 0.504322 0.366278
0.911668 0.477281 0.339237
1.000000 0.466912 0.331704
1.000000 0.466912 0.331704
1.000000 0.466912 0.331704
0.000000 0.661573 0.415000
0.092821 0.748332 0.412992
0.280399 0.719719 0.384379
0.534426 0.705957 0.370617
0.734398 0.701618 0.366278
0.911668 0.674577 0.339237
1.000000 0.660153 0.331704
1.000000 0.660153 0.331704
1.000000 0.660153 0.331704
0.000000 0.806644 0.415000
0.066708 0.919515 0.386880
0.254286 0.890902 0.358266
0.508313 0.877140 0.344504
0.712624 0.877140 0.344504
0.911668 0.871873 0.339237
1.000000 0.853394 0.331704
1.000000 0.853394 0.331704
1.000000 0.853394 0.331704
0.000000 0.934720 0.415000
0.114300 1.000000 0.390423
0.273264 1.000000 0.366463
0.500426 1.000000 0.349720
0.688394 1.000000 0.349720
0.876361 1.000000 0.349720
0.977459 1.000000 0.349720
0.977459 1.000000 0.349720
0.977459 1.000000 0.349720
0.000000 0.934720 0.415000
0.114300 1.000000 0.390423
0.273264 1.000000 0.366463
0.500426 1.000000 0.349720
0.688394 1.000000 0.349720
0.876361 1.000000 0.349720
0.977459 1.000000 0.349720
0.977459 1.000000 0.349720
0.977459 1.000000 0.349720
0.000000 0.934720 0.415000
0.114300 1.000000 0.390423
0.273264 1.000000 0.366463
0.500426 1.000000 0.349720
0.688394 1.000000 0.349720
0.876361 1.000000 0.349720
0.977459 1.000000 0.349720
0.977459 1.000000 0.349720
0.977459 1.000000 0.349720
0.000000 0.000000 0.584341
0.179580 0.000000 0.584341
0.338544 0.000000 0.584341
0.535448 0.000000 0.584341
0.685676 0.000000 0.584341
0.835905 0.000000 0.584341
0.916705 0.000000 0.584341
0.916705 0.000000 0.584341
0.916705 0.000000 0.584341
0.000000 0.170449 0.584341
0.108366 0.095949 0.658841
0.324558 0.095949 0.658841
0.592347 0.095949 0.658841
0.778417 0.077709 0.640601
0.955687 0.050667 0.613560
1.000000 0.087154 0.593441
1.000000 0.087154 0.593441
1.000000 0.087154 0.593441
0.000000 0.323956 0.584341
0.106723 0.303075 0.657198
0.296927 0.277087 0.631210
0.564715 0.277087 0.631210
0.750786 0.258846 0.612970
0.928056 0.231805 0.585929
1.000000 0.240661 0.574226
1.000000 0.240661 0.574226
1.000000 0.240661 0.574226
0.000000 0.516503 0.584341
0.106723 0.564938 0.657198
0.294301 0.536325 0.628584
0.530057 0.504292 0.596552
0.716128 0.486052 0.578311
0.893397 0.459011 0.551270
0.988741 0.444467 0.536726
0.988741 0.444467 0.536726
0.988741 0.444467 0.536726
0.000000 0.661573 0.584341
0.092821 0.748332 0.643296
0.280399 0.719719 0.614682
0.512745 0.684276 0.579240
0.703917 0.671137 0.566100
0.881187 0.644096 0.539059
0.976530 0.629552 0.524515
0.976530 0.629552 0.524515
0.976530 0.629552 0.524515
0.000000 0.806644 0.584341
0.066708 0.919515 0.617183
0.254286 0.890902 0.588570
0.486632 0.855459 0.553127
0.682143 0.846658 0.544326
0.881187 0.841391 0.539059
0.976530 0.826847 0.524515
0.976530 0.826847 0.524515
0.976530 0.826847 0.524515
0.000000 0.934720 0.584341
0.114300 1.000000 0.589042
0.273264 1.000000 0.572889
0.470168 1.000000 0.535049
0.659089 0.997788 0.521273
0.863400 0.997788 0.521273
0.973287 0.997788 0.521273
0.973287 0.997788 0.521273
0.973287 0.997788 0.521273
0.000000 0.934720 0.584341
0.114300 1.000000 0.589042
0.273264 1.000000 0.572889
0.470168 1.000000 0.535049
0.659089 0.997788 0.521273
0.863400 0.997788 0.521273
0.973287 0.997788 0.521273
0.973287 0.997788 0.521273
0.973287 0.997788 0.521273
0.000000 0.934720 0.584341
0.114300 1.000000 0.589042
0.273264 1.000000 0.572889
0.470168 1.000000 0.535049
0.659089 0.997788 0.521273
0.863400 0.997788 0.521273
0.973287 0.997788 0.521273
0.973287 0.997788 0.521273
0.973287 0.997788 0.521273
0.000000 0.000000 0.711209
0.179580 0.000000 0.711209
0.338544 0.000000 0.711209
0.535448 0.000000 0.711209
0.685676 0.000000 0.711209
0.835905 0.000000 0.711209
0.916705 0.000000 0.711209
0.916705 0.000000 0.711209
0.916705 0.000000 0.711209
0.000000 0.170449 0.711209
0.085530 0.073113 0.808545
0.301722 0.073113 0.808545
0.569510 0.073113 0.808545
0.773821 0.073113 0.808545
0.955687 0.050667 0.786100
1.000000 0.087154 0.748630
1.000000 0.087154 0.748630
1.000000 0.087154 0.748630
0.000000 0.323956 0.711209
0.083886 0.280238 0.806902
0.274091 0.254251 0.780914
0.541879 0.254251 0.780914
0.746190 0.254251 0.780914
0.928056 0.231805 0.758469
1.000000 0.240661 0.736750
1.000000 0.240661 0.736750
1.000000 0.240661 0.736750
0.000000 0.516503 0.711209
0.083886 0.542102 0.806902
0.271465 0.513488 0.778288
0.507221 0.481456 0.746256
0.711532 0.481456 0.746256
0.893397 0.459011 0.723810
0.988741 0.444467 0.709267
0.988741 0.444467 0.709267
0.988741 0.444467 0.709267
0.000000 0.661573 0.711209
0.083886 0.739398 0.806902
0.271465 0.710784 0.778288
0.503811 0.675342 0.742846
0.685419 0.652639 0.720143
0.867285 0.630194 0.697698
0.962628 0.615650 0.683154
0.962628 0.615650 0.683154
0.962628 0.615650 0.683154
0.000000 0.806644 0.711209
0.066708 0.919515 0.789724
0.254286 0.890902 0.761110
0.486632 0.855459 0.725667
0.663902 0.828418 0.698626
0.858350 0.818555 0.688763
0.953694 0.804011 0.674219
0.953694 0.804011 0.674219
0.953694 0.804011 0.674219
0.000000 0.934720 0.711209
0.114300 1.000000 0.737845
0.273264 1.000000 0.727541
0.470168 1.000000 0.703402
0.640848 0.979548 0.675573
0.840564 0.974952 0.670977
0.950451 0.974952 0.670977
0.950451 0.974952 0.670977
0.950451 0.974952 0.670977
0.000000 0.934720 0.711209
0.114300 1.000000 0.737845
0.273264 1.000000 0.727541
0.470168 1.000000 0.703402
0.640848 0.979548 0.675573
0.840564 0.974952 0.670977
0.950451 0.974952 0.670977
0.950451 0.974952 0.670977
0.950451 0.974952 0.670977
0.000000 0.934720 0.711209
0.114300 1.000000 0.737845
0.273264 1.000000 0.727541
0.470168 1.000000 0.703402
0.640848 0.979548 0.675573
0.840564 0.974952 0.670977
0.950451 0.974952 0.670977
0.950451 0.974952 0.670977
0.950451 0.974952 0.670977
0.000000 0.000000 0.823215
0.179580 0.000000 0.823215
0.338544 0.000000 0.823215
0.535448 0.000000 0.823215
0.685676 0.000000 0.823215
0.835905 0.000000 0.823215
0.916705 0.000000 0.823215
0.916705 0.000000 0.823215
0.916705 0.000000 0.823215
0.000000 0.170449 0.823215
0.065369 0.052952 0.940713
0.281561 0.052952 0.940713
0.549349 0.052952 0.940713
0.753660 0.052952 0.940713
0.955687 0.050667 0.938428
1.000000 0.087154 0.885640
1.000000 0.087154 0.885640
1.000000 0.087154 0.885640
0.000000 0.323956 0.823215
0.063725 0.260077 0.939069
0.253930 0.234089 0.913081
0.521718 0.234089 0.913081
0.726029 0.234089 0.913081
0.928056 0.231805 0.910797
1.000000 0.240661 0.880235
1.000000 0.240661 0.880235
1.000000 0.240661 0.880235
0.000000 0.516503 0.823215
0.063725 0.521941 0.939069
0.251304 0.493327 0.910455
0.487060 0.461295 0.878423
0.691371 0.461295 0.878423
0.893397 0.459011 0.876139
0.988741 0.444467 0.861595
0.988741 0.444467 0.861595
0.988741 0.444467 0.861595
0.000000 0.661573 0.823215
0.063725 0.719237 0.939069
0.251304 0.690623 0.910455
0.483650 0.655181 0.875013
0.665258 0.632478 0.852310
0.867285 0.630194 0.850026
0.962628 0.615650 0.835482
0.962628 0.615650 0.835482
0.962628 0.615650 0.835482
0.000000 0.806644 0.823215
0.063725 0.916533 0.939069
0.251304 0.887919 0.910455
0.483650 0.852476 0.875013
0.660919 0.825435 0.847972
0.841172 0.801377 0.823913
0.936515 0.786833 0.809369
0.936515 0.786833 0.809369
0.936515 0.786833 0.809369
0.000000 0.934720 0.823215
0.114300 1.000000 0.869216
0.273264 1.000000 0.864076
0.470168 1.000000 0.852033
0.640848 0.979548 0.827901
0.820402 0.954791 0.803144
0.930290 0.954791 0.803144
0.930290 0.954791 0.803144
0.930290 0.954791 0.803144
0.000000 0.934720 0.823215
0.114300 1.000000 0.869216
0.273264 1.000000 0.864076
0.470168 1.000000 0.852033
0.640848 0.979548 0.827901
0.820402 0.954791 0.803144
0.930290 0.954791 0.803144
0.930290 0.954791 0.803144
0.930290 0.954791 0.803144
0.000000 0.934720 0.823215
0.114300 1.000000 0.869216
0.273264 1.000000 0.864076
0.470168 1.000000 0.852033
0.640848 0.979548 0.827901
0.820402 0.954791 0.803144
0.930290 0.954791 0.803144
0.930290 0.954791 0.803144
0.930290 0.954791 0.803144
0.000000 0.000000 0.823215
0.179580 0.000000 0.823215
0.338544 0.000000 0.823215
0.535448 0.000000 0.823215
0.685676 0.000000 0.823215
0.835905 0.000000 0.823215
0.916705 0.000000 0.823215
0.916705 0.000000 0.823215
0.916705 0.000000 0.823215
0.000000 0.170449 0.823215
0.065369 0.052952 0.940713
0.281561 0.052952 0.940713
0.549349 0.052952 0.940713
0.753660 0.052952 0.940713
0.955687 0.050667 0.938428
1.000000 0.087154 0.885640
1.000000 0.087154 0.885640
1.000000 0.087154 0.885640
0.000000 0.323956 0.823215
0.063725 0.260077 0.939069
0.253930 0.234089 0.913081
0.521718 0.234089 0.913081
0.726029 0.234089 0.913081
0.928056 0.231805 0.910797
1.000000 0.240661 0.880235
1.000000 0.240661 0.880235
1.000000 0.240661 0.880235
0.000000 0.516503 0.823215
0.063725 0.521941 0.939069
0.251304 0.493327 0.910455
0.487060 0.461295 0.878423
0.691371 0.461295 0.878423
0.893397 0.459011 0.876139
0.988741 0.444467 0.861595
0.988741 0.444467 0.861595
0.988741 0.444467 0.861595
0.000000 0.661573 0.823215
0.063725 0.719237 0.939069
0.251304 0.690623 0.910455
0.483650 0.655181 0.875013
0.665258 0.632478 0.852310
0.867285 0.630194 0.850026
0.962628 0.615650 0.835482
0.962628 0.615650 0.835482
0.962628 0.615650 0.835482
0.000000 0.806644 0.823215
0.063725 0.916533 0.939069
0.251304 0.887919 0.910455
0.483650 0.852476 0.875013
0.660919 0.825435 0.847972
0.841172 0.801377 0.823913
0.936515 0.786833 0.809369
0.936515 0.786833 0.809369
0.936515 0.786833 0.809369
0.000000 0.934720 0.823215
0.114300 1.000000 0.869216
0.273264 1.000000 0.864076
0.470168 1.000000 0.852033
0.640848 0.979548 0.827901
0.820402 0.954791 0.803144
0.930290 0.954791 0.803144
0.930290 0.954791 0.803144
0.930290 0.954791 0.803144
0.000000 0.934720 0.823215
0.114300 1.000000 0.869216
0.273264 1.000000 0.864076
0.470168 1.000000 0.852033
0.640848 0.979548 0.827901
0.820402 0.954791 0.803144
0.930290 0.954791 0.803144
0.930290 0.954791 0.803144
0.930290 0.954791 0.803144
0.000000 0.934720 0.823215
0.114300 1.000000 0.869216
0.273264 1.000000 0.864076
0.470168 1.000000 0.852033
0.640848 0.979548 0.827901
0.820402 0.954791 0.803144
0.930290 0.954791 0.803144
0.930290 0.954791 0.803144
0.930290 0.954791 0.803144
0.000000 0.000000 0.823215
0.179580 0.000000 0.823215
0.338544 0.000000 0.823215
0.535448 0.000000 0.823215
0.685676 0.000000 0.823215
0.835905 0.000000 0.823215
0.916705 0.000000 0.823215
0.916705 0.000000 0.823215
0.916705 0.000000 0.823215
0.000000 0.170449 0.823215
0.065369 0.052952 0.940713
0.281561 0.052952 0.940713
0.549349 0.052952 0.940713
0.753660 0.052952 0.940713
0.955687 0.050667 0.938428
1.000000 0.087154 0.885640
1.000000 0.087154 0.885640
1.000000 0.087154 0.885640
0.000000 0.323956 0.823215
0.063725 0.260077 0.939069
0.253930 0.234089 0.913081
0.521718 0.234089 0.913081
0.726029 0.234089 0.913081
0.928056 0.231805 0.910797
1.000000 0.240661 0.880235
1.000000 0.240661 0.880235
1.000000 0.240661 0.880235
0.000000 0.516503 0.823215
0.063725 0.521941 0.939069
0.251304 0.493327 0.910455
0.487060 0.461295 0.878423
0.691371 0.461295 0.878423
0.893397 0.459011 0.876139
0.988741 0.444467 0.861595
0.988741 0.444467 0.861595
0.988741 0.444467 0.861595
0.000000 0.661573 0.823215
0.063725 0.719237 0.939069
0.251304 0.690623 0.910455
0.483650 0.655181 0.875013
0.665258 0.632478 0.852310
0.867285 0.630194 0.850026
0.962628 0.615650 0.835482
0.962628 0.615650 0.835482
0.962628 0.615650 0.835482
0.000000 0.806644 0.823215
0.063725 0.916533 0.939069
0.251304 0.887919 0.910455
0.483650 0.852476 0.875013
0.660919 0.825435 0.847972
0.841172 0.801377 0.823913
0.936515 0.786833 0.809369
0.936515 0.786833 0.809369
0.936515 0.786833 0.809369
0.000000 0.934720 0.823215
0.114300 1.000000 0.869216
0.273264 1.000000 0.864076
0.470168 1.000000 0.852033
0.640848 0.979548 0.827901
0.820402 0.954791 0.803144
0.930290 0.954791 0.803144
0.930290 0.954791 0.803144
0.930290 0.954791 0.803144
0.000000 0.934720 0.823215
0.114300 1.000000 0.869216
0.273264 1.000000 0.864076
0.470168 1.000000 0.852033
0.640848 0.979548 0.827901
0.820402 0.954791 0.803144
0.930290 0.954791 0.803144
0.930290 0.954791 0.803144
0.930290 0.954791 0.803144
0.000000 0.934720 0.823215
0.114300 1.000000 0.869216
0.273264 1.000000 0.864076
0.470168 1.000000 0.852033
0.640848 0.979548 0.827901
0.820402 0.954791 0.803144
0.930290 0.954791 0.803144
0.930290 0.954791 0.803144
0.930290 0.954791 0.803144
