docs/luts/fuji_recipes/NEGAhi_VM_Vision__Film_500_Daylight.cube
TITLE "Fujifilm Recipe: VM Vision; Film 500 Daylight (NEGAhi)"
# FilmSim=NEGAhi HL=0 SH=-2 Col=0 WB=Auto WBR=0 WBB=-3
LUT_3D_SIZE 9
DOMAIN_MIN 0.0 0.0 0.0
DOMAIN_MAX 1.0 1.0 1.0
0.080000 0.080000 0.080000
0.195688 0.080000 0.080000
0.311166 0.080000 0.080000
0.426644 0.080000 0.080000
0.502278 0.080000 0.080000
0.626291 0.080000 0.080000
0.750304 0.080000 0.080000
0.874317 0.080000 0.080000
0.994000 0.080000 0.080000
0.080000 0.195000 0.080000
0.195688 0.195000 0.080000
0.311166 0.195000 0.080000
0.426644 0.195000 0.080000
0.502278 0.195000 0.080000
0.626291 0.195000 0.080000
0.750304 0.195000 0.080000
0.874317 0.195000 0.080000
0.994000 0.195000 0.080000
0.080000 0.310000 0.080000
0.195688 0.310000 0.080000
0.311166 0.310000 0.080000
0.426644 0.310000 0.080000
0.502278 0.310000 0.080000
0.626291 0.310000 0.080000
0.750304 0.310000 0.080000
0.874317 0.310000 0.080000
0.994000 0.310000 0.080000
0.080000 0.425000 0.080000
0.195688 0.425000 0.080000
0.311166 0.425000 0.080000
0.426644 0.425000 0.080000
0.502278 0.425000 0.080000
0.626291 0.425000 0.080000
0.750304 0.425000 0.080000
0.874317 0.425000 0.080000
0.994000 0.425000 0.080000
0.080000 0.540000 0.080000
0.195688 0.540000 0.080000
0.311166 0.540000 0.080000
0.426644 0.540000 0.080000
0.502278 0.540000 0.080000
0.626291 0.540000 0.080000
0.750304 0.540000 0.080000
0.874317 0.540000 0.080000
0.994000 0.540000 0.080000
0.080000 0.623500 0.080000
0.195688 0.623500 0.080000
0.311166 0.623500 0.080000
0.426644 0.623500 0.080000
0.502278 0.623500 0.080000
0.626291 0.623500 0.080000
0.750304 0.623500 0.080000
0.874317 0.623500 0.080000
0.994000 0.623500 0.080000
0.080000 0.747000 0.080000
0.195688 0.747000 0.080000
0.311166 0.747000 0.080000
0.426644 0.747000 0.080000
0.502278 0.747000 0.080000
0.626291 0.747000 0.080000
0.750304 0.747000 0.080000
0.874317 0.747000 0.080000
0.994000 0.747000 0.080000
0.080000 0.870500 0.080000
0.195688 0.870500 0.080000
0.311166 0.870500 0.080000
0.426644 0.870500 0.080000
0.502278 0.870500 0.080000
0.626291 0.870500 0.080000
0.750304 0.870500 0.080000
0.874317 0.870500 0.080000
0.994000 0.870500 0.080000
0.080000 0.994000 0.080000
0.195688 0.994000 0.080000
0.311166 0.994000 0.080000
0.426644 0.994000 0.080000
0.502278 0.994000 0.080000
0.626291 0.994000 0.080000
0.750304 0.994000 0.080000
0.874317 0.994000 0.080000
0.994000 0.994000 0.080000
0.080000 0.080000 0.186375
0.195688 0.080000 0.186375
0.311166 0.080000 0.186375
0.426644 0.080000 0.186375
0.502278 0.080000 0.186375
0.626291 0.080000 0.186375
0.750304 0.080000 0.186375
0.874317 0.080000 0.186375
0.994000 0.080000 0.186375
0.080000 0.195000 0.186375
0.195688 0.195000 0.186375
0.311166 0.195000 0.186375
0.426644 0.195000 0.186375
0.502278 0.195000 0.186375
0.626291 0.195000 0.186375
0.750304 0.195000 0.186375
0.874317 0.195000 0.186375
0.994000 0.195000 0.186375
0.080000 0.310000 0.186375
0.195688 0.310000 0.186375
0.311166 0.310000 0.186375
0.426644 0.310000 0.186375
0.502278 0.310000 0.186375
0.626291 0.310000 0.186375
0.750304 0.310000 0.186375
0.874317 0.310000 0.186375
0.994000 0.310000 0.186375
0.080000 0.425000 0.186375
0.195688 0.425000 0.186375
0.311166 0.425000 0.186375
0.426644 0.425000 0.186375
0.502278 0.425000 0.186375
0.626291 0.425000 0.186375
0.750304 0.425000 0.186375
0.874317 0.425000 0.186375
0.994000 0.425000 0.186375
0.080000 0.540000 0.186375
0.195688 0.540000 0.186375
0.311166 0.540000 0.186375
0.426644 0.540000 0.186375
0.502278 0.540000 0.186375
0.626291 0.540000 0.186375
0.750304 0.540000 0.186375
0.874317 0.540000 0.186375
0.994000 0.540000 0.186375
0.080000 0.623500 0.186375
0.195688 0.623500 0.186375
0.311166 0.623500 0.186375
0.426644 0.623500 0.186375
0.502278 0.623500 0.186375
0.626291 0.623500 0.186375
0.750304 0.623500 0.186375
0.874317 0.623500 0.186375
0.994000 0.623500 0.186375
0.080000 0.747000 0.186375
0.195688 0.747000 0.186375
0.311166 0.747000 0.186375
0.426644 0.747000 0.186375
0.502278 0.747000 0.186375
0.626291 0.747000 0.186375
0.750304 0.747000 0.186375
0.874317 0.747000 0.186375
0.994000 0.747000 0.186375
0.080000 0.870500 0.186375
0.195688 0.870500 0.186375
0.311166 0.870500 0.186375
0.426644 0.870500 0.186375
0.502278 0.870500 0.186375
0.626291 0.870500 0.186375
0.750304 0.870500 0.186375
0.874317 0.870500 0.186375
0.994000 0.870500 0.186375
0.080000 0.994000 0.186375
0.195688 0.994000 0.186375
0.311166 0.994000 0.186375
0.426644 0.994000 0.186375
0.502278 0.994000 0.186375
0.626291 0.994000 0.186375
0.750304 0.994000 0.186375
0.874317 0.994000 0.186375
0.994000 0.994000 0.186375
0.080000 0.080000 0.292750
0.195688 0.080000 0.292750
0.311166 0.080000 0.292750
0.426644 0.080000 0.292750
0.502278 0.080000 0.292750
0.626291 0.080000 0.292750
0.750304 0.080000 0.292750
0.874317 0.080000 0.292750
0.994000 0.080000 0.292750
0.080000 0.195000 0.292750
0.195688 0.195000 0.292750
0.311166 0.195000 0.292750
0.426644 0.195000 0.292750
0.502278 0.195000 0.292750
0.626291 0.195000 0.292750
0.750304 0.195000 0.292750
0.874317 0.195000 0.292750
0.994000 0.195000 0.292750
0.080000 0.310000 0.292750
0.195688 0.310000 0.292750
0.311166 0.310000 0.292750
0.426644 0.310000 0.292750
0.502278 0.310000 0.292750
0.626291 0.310000 0.292750
0.750304 0.310000 0.292750
0.874317 0.310000 0.292750
0.994000 0.310000 0.292750
0.080000 0.425000 0.292750
0.195688 0.425000 0.292750
0.311166 0.425000 0.292750
0.426644 0.425000 0.292750
0.502278 0.425000 0.292750
0.626291 0.425000 0.292750
0.750304 0.425000 0.292750
0.874317 0.425000 0.292750
0.994000 0.425000 0.292750
0.080000 0.540000 0.292750
0.195688 0.540000 0.292750
0.311166 0.540000 0.292750
0.426644 0.540000 0.292750
0.502278 0.540000 0.292750
0.626291 0.540000 0.292750
0.750304 0.540000 0.292750
0.874317 0.540000 0.292750
0.994000 0.540000 0.292750
0.080000 0.623500 0.292750
0.195688 0.623500 0.292750
0.311166 0.623500 0.292750
0.426644 0.623500 0.292750
0.502278 0.623500 0.292750
0.626291 0.623500 0.292750
0.750304 0.623500 0.292750
0.874317 0.623500 0.292750
0.994000 0.623500 0.292750
0.080000 0.747000 0.292750
0.195688 0.747000 0.292750
0.311166 0.747000 0.292750
0.426644 0.747000 0.292750
0.502278 0.747000 0.292750
0.626291 0.747000 0.292750
0.750304 0.747000 0.292750
0.874317 0.747000 0.292750
0.994000 0.747000 0.292750
0.080000 0.870500 0.292750
0.195688 0.870500 0.292750
0.311166 0.870500 0.292750
0.426644 0.870500 0.292750
0.502278 0.870500 0.292750
0.626291 0.870500 0.292750
0.750304 0.870500 0.292750
0.874317 0.870500 0.292750
0.994000 0.870500 0.292750
0.080000 0.994000 0.292750
0.195688 0.994000 0.292750
0.311166 0.994000 0.292750
0.426644 0.994000 0.292750
0.502278 0.994000 0.292750
0.626291 0.994000 0.292750
0.750304 0.994000 0.292750
0.874317 0.994000 0.292750
0.994000 0.994000 0.292750
0.080000 0.080000 0.399125
0.195688 0.080000 0.399125
0.311166 0.080000 0.399125
0.426644 0.080000 0.399125
0.502278 0.080000 0.399125
0.626291 0.080000 0.399125
0.750304 0.080000 0.399125
0.874317 0.080000 0.399125
0.994000 0.080000 0.399125
0.080000 0.195000 0.399125
0.195688 0.195000 0.399125
0.311166 0.195000 0.399125
0.426644 0.195000 0.399125
0.502278 0.195000 0.399125
0.626291 0.195000 0.399125
0.750304 0.195000 0.399125
0.874317 0.195000 0.399125
0.994000 0.195000 0.399125
0.080000 0.310000 0.399125
0.195688 0.310000 0.399125
0.311166 0.310000 0.399125
0.426644 0.310000 0.399125
0.502278 0.310000 0.399125
0.626291 0.310000 0.399125
0.750304 0.310000 0.399125
0.874317 0.310000 0.399125
0.994000 0.310000 0.399125
0.080000 0.425000 0.399125
0.195688 0.425000 0.399125
0.311166 0.425000 0.399125
0.426644 0.425000 0.399125
0.502278 0.425000 0.399125
0.626291 0.425000 0.399125
0.750304 0.425000 0.399125
0.874317 0.425000 0.399125
0.994000 0.425000 0.399125
0.080000 0.540000 0.399125
0.195688 0.540000 0.399125
0.311166 0.540000 0.399125
0.426644 0.540000 0.399125
0.502278 0.540000 0.399125
0.626291 0.540000 0.399125
0.750304 0.540000 0.399125
0.874317 0.540000 0.399125
0.994000 0.540000 0.399125
0.080000 0.623500 0.399125
0.195688 0.623500 0.399125
0.311166 0.623500 0.399125
0.426644 0.623500 0.399125
0.502278 0.623500 0.399125
0.626291 0.623500 0.399125
0.750304 0.623500 0.399125
0.874317 0.623500 0.399125
0.994000 0.623500 0.399125
0.080000 0.747000 0.399125
0.195688 0.747000 0.399125
0.311166 0.747000 0.399125
0.426644 0.747000 0.399125
0.502278 0.747000 0.399125
0.626291 0.747000 0.399125
0.750304 0.747000 0.399125
0.874317 0.747000 0.399125
0.994000 0.747000 0.399125
0.080000 0.870500 0.399125
0.195688 0.870500 0.399125
0.311166 0.870500 0.399125
0.426644 0.870500 0.399125
0.502278 0.870500 0.399125
0.626291 0.870500 0.399125
0.750304 0.870500 0.399125
0.874317 0.870500 0.399125
0.994000 0.870500 0.399125
0.080000 0.994000 0.399125
0.195688 0.994000 0.399125
0.311166 0.994000 0.399125
0.426644 0.994000 0.399125
0.502278 0.994000 0.399125
0.626291 0.994000 0.399125
0.750304 0.994000 0.399125
0.874317 0.994000 0.399125
0.994000 0.994000 0.399125
0.080000 0.080000 0.505500
0.195688 0.080000 0.505500
0.311166 0.080000 0.505500
0.426644 0.080000 0.505500
0.502278 0.080000 0.505500
0.626291 0.080000 0.505500
0.750304 0.080000 0.505500
0.874317 0.080000 0.505500
0.994000 0.080000 0.505500
0.080000 0.195000 0.505500
0.195688 0.195000 0.505500
0.311166 0.195000 0.505500
0.426644 0.195000 0.505500
0.502278 0.195000 0.505500
0.626291 0.195000 0.505500
0.750304 0.195000 0.505500
0.874317 0.195000 0.505500
0.994000 0.195000 0.505500
0.080000 0.310000 0.505500
0.195688 0.310000 0.505500
0.311166 0.310000 0.505500
0.426644 0.310000 0.505500
0.502278 0.310000 0.505500
0.626291 0.310000 0.505500
0.750304 0.310000 0.505500
0.874317 0.310000 0.505500
0.994000 0.310000 0.505500
0.080000 0.425000 0.505500
0.195688 0.425000 0.505500
0.311166 0.425000 0.505500
0.426644 0.425000 0.505500
0.502278 0.425000 0.505500
0.626291 0.425000 0.505500
0.750304 0.425000 0.505500
0.874317 0.425000 0.505500
0.994000 0.425000 0.505500
0.080000 0.540000 0.505500
0.195688 0.540000 0.505500
0.311166 0.540000 0.505500
0.426644 0.540000 0.505500
0.502278 0.540000 0.505500
0.626291 0.540000 0.505500
0.750304 0.540000 0.505500
0.874317 0.540000 0.505500
0.994000 0.540000 0.505500
0.080000 0.623500 0.505500
0.195688 0.623500 0.505500
0.311166 0.623500 0.505500
0.426644 0.623500 0.505500
0.502278 0.623500 0.505500
0.626291 0.623500 0.505500
0.750304 0.623500 0.505500
0.874317 0.623500 0.505500
0.994000 0.623500 0.505500
0.080000 0.747000 0.505500
0.195688 0.747000 0.505500
0.311166 0.747000 0.505500
0.426644 0.747000 0.505500
0.502278 0.747000 0.505500
0.626291 0.747000 0.505500
0.750304 0.747000 0.505500
0.874317 0.747000 0.505500
0.994000 0.747000 0.505500
0.080000 0.870500 0.505500
0.195688 0.870500 0.505500
0.311166 0.870500 0.505500
0.426644 0.870500 0.505500
0.502278 0.870500 0.505500
0.626291 0.870500 0.505500
0.750304 0.870500 0.505500
0.874317 0.870500 0.505500
0.994000 0.870500 0.505500
0.080000 0.994000 0.505500
0.195688 0.994000 0.505500
0.311166 0.994000 0.505500
0.426644 0.994000 0.505500
0.502278 0.994000 0.505500
0.626291 0.994000 0.505500
0.750304 0.994000 0.505500
0.874317 0.994000 0.505500
0.994000 0.994000 0.505500
0.080000 0.080000 0.577187
0.195688 0.080000 0.577187
0.311166 0.080000 0.577187
0.426644 0.080000 0.577187
0.502278 0.080000 0.577187
0.626291 0.080000 0.577187
0.750304 0.080000 0.577187
0.874317 0.080000 0.577187
0.994000 0.080000 0.577187
0.080000 0.195000 0.577187
0.195688 0.195000 0.577187
0.311166 0.195000 0.577187
0.426644 0.195000 0.577187
0.502278 0.195000 0.577187
0.626291 0.195000 0.577187
0.750304 0.195000 0.577187
0.874317 0.195000 0.577187
0.994000 0.195000 0.577187
0.080000 0.310000 0.577187
0.195688 0.310000 0.577187
0.311166 0.310000 0.577187
0.426644 0.310000 0.577187
0.502278 0.310000 0.577187
0.626291 0.310000 0.577187
0.750304 0.310000 0.577187
0.874317 0.310000 0.577187
0.994000 0.310000 0.577187
0.080000 0.425000 0.577187
0.195688 0.425000 0.577187
0.311166 0.425000 0.577187
0.426644 0.425000 0.577187
0.502278 0.425000 0.577187
0.626291 0.425000 0.577187
0.750304 0.425000 0.577187
0.874317 0.425000 0.577187
0.994000 0.425000 0.577187
0.080000 0.540000 0.577187
0.195688 0.540000 0.577187
0.311166 0.540000 0.577187
0.426644 0.540000 0.577187
0.502278 0.540000 0.577187
0.626291 0.540000 0.577187
0.750304 0.540000 0.577187
0.874317 0.540000 0.577187
0.994000 0.540000 0.577187
0.080000 0.623500 0.577187
0.195688 0.623500 0.577187
0.311166 0.623500 0.577187
0.426644 0.623500 0.577187
0.502278 0.623500 0.577187
0.626291 0.623500 0.577187
0.750304 0.623500 0.577187
0.874317 0.623500 0.577187
0.994000 0.623500 0.577187
0.080000 0.747000 0.577187
0.195688 0.747000 0.577187
0.311166 0.747000 0.577187
0.426644 0.747000 0.577187
0.502278 0.747000 0.577187
0.626291 0.747000 0.577187
0.750304 0.747000 0.577187
0.874317 0.747000 0.577187
0.994000 0.747000 0.577187
0.080000 0.870500 0.577187
0.195688 0.870500 0.577187
0.311166 0.870500 0.577187
0.426644 0.870500 0.577187
0.502278 0.870500 0.577187
0.626291 0.870500 0.577187
0.750304 0.870500 0.577187
0.874317 0.870500 0.577187
0.994000 0.870500 0.577187
0.080000 0.994000 0.577187
0.195688 0.994000 0.577187
0.311166 0.994000 0.577187
0.426644 0.994000 0.577187
0.502278 0.994000 0.577187
0.626291 0.994000 0.577187
0.750304 0.994000 0.577187
0.874317 0.994000 0.577187
0.994000 0.994000 0.577187
0.080000 0.080000 0.691425
0.195688 0.080000 0.691425
0.311166 0.080000 0.691425
0.426644 0.080000 0.691425
0.502278 0.080000 0.691425
0.626291 0.080000 0.691425
0.750304 0.080000 0.691425
0.874317 0.080000 0.691425
0.994000 0.080000 0.691425
0.080000 0.195000 0.691425
0.195688 0.195000 0.691425
0.311166 0.195000 0.691425
0.426644 0.195000 0.691425
0.502278 0.195000 0.691425
0.626291 0.195000 0.691425
0.750304 0.195000 0.691425
0.874317 0.195000 0.691425
0.994000 0.195000 0.691425
0.080000 0.310000 0.691425
0.195688 0.310000 0.691425
0.311166 0.310000 0.691425
0.426644 0.310000 0.691425
0.502278 0.310000 0.691425
0.626291 0.310000 0.691425
0.750304 0.310000 0.691425
0.874317 0.310000 0.691425
0.994000 0.310000 0.691425
0.080000 0.425000 0.691425
0.195688 0.425000 0.691425
0.311166 0.425000 0.691425
0.426644 0.425000 0.691425
0.502278 0.425000 0.691425
0.626291 0.425000 0.691425
0.750304 0.425000 0.691425
0.874317 0.425000 0.691425
0.994000 0.425000 0.691425
0.080000 0.540000 0.691425
0.195688 0.540000 0.691425
0.311166 0.540000 0.691425
0.426644 0.540000 0.691425
0.502278 0.540000 0.691425
0.626291 0.540000 0.691425
0.750304 0.540000 0.691425
0.874317 0.540000 0.691425
0.994000 0.540000 0.691425
0.080000 0.623500 0.691425
0.195688 0.623500 0.691425
0.311166 0.623500 0.691425
0.426644 0.623500 0.691425
0.502278 0.623500 0.691425
0.626291 0.623500 0.691425
0.750304 0.623500 0.691425
0.874317 0.623500 0.691425
0.994000 0.623500 0.691425
0.080000 0.747000 0.691425
0.195688 0.747000 0.691425
0.311166 0.747000 0.691425
0.426644 0.747000 0.691425
0.502278 0.747000 0.691425
0.626291 0.747000 0.691425
0.750304 0.747000 0.691425
0.874317 0.747000 0.691425
0.994000 0.747000 0.691425
0.080000 0.870500 0.691425
0.195688 0.870500 0.691425
0.311166 0.870500 0.691425
0.426644 0.870500 0.691425
0.502278 0.870500 0.691425
0.626291 0.870500 0.691425
0.750304 0.870500 0.691425
0.874317 0.870500 0.691425
0.994000 0.870500 0.691425
0.080000 0.994000 0.691425
0.195688 0.994000 0.691425
0.311166 0.994000 0.691425
0.426644 0.994000 0.691425
0.502278 0.994000 0.691425
0.626291 0.994000 0.691425
0.750304 0.994000 0.691425
0.874317 0.994000 0.691425
0.994000 0.994000 0.691425
0.080000 0.080000 0.805663
0.195688 0.080000 0.805663
0.311166 0.080000 0.805663
0.426644 0.080000 0.805663
0.502278 0.080000 0.805663
0.626291 0.080000 0.805663
0.750304 0.080000 0.805663
0.874317 0.080000 0.805663
0.994000 0.080000 0.805663
0.080000 0.195000 0.805663
0.195688 0.195000 0.805663
0.311166 0.195000 0.805663
0.426644 0.195000 0.805663
0.502278 0.195000 0.805663
0.626291 0.195000 0.805663
0.750304 0.195000 0.805663
0.874317 0.195000 0.805663
0.994000 0.195000 0.805663
0.080000 0.310000 0.805663
0.195688 0.310000 0.805663
0.311166 0.310000 0.805663
0.426644 0.310000 0.805663
0.502278 0.310000 0.805663
0.626291 0.310000 0.805663
0.750304 0.310000 0.805663
0.874317 0.310000 0.805663
0.994000 0.310000 0.805663
0.080000 0.425000 0.805663
0.195688 0.425000 0.805663
0.311166 0.425000 0.805663
0.426644 0.425000 0.805663
0.502278 0.425000 0.805663
0.626291 0.425000 0.805663
0.750304 0.425000 0.805663
0.874317 0.425000 0.805663
0.994000 0.425000 0.805663
0.080000 0.540000 0.805663
0.195688 0.540000 0.805663
0.311166 0.540000 0.805663
0.426644 0.540000 0.805663
0.502278 0.540000 0.805663
0.626291 0.540000 0.805663
0.750304 0.540000 0.805663
0.874317 0.540000 0.805663
0.994000 0.540000 0.805663
0.080000 0.623500 0.805663
0.195688 0.623500 0.805663
0.311166 0.623500 0.805663
0.426644 0.623500 0.805663
0.502278 0.623500 0.805663
0.626291 0.623500 0.805663
0.750304 0.623500 0.805663
0.874317 0.623500 0.805663
0.994000 0.623500 0.805663
0.080000 0.747000 0.805663
0.195688 0.747000 0.805663
0.311166 0.747000 0.805663
0.426644 0.747000 0.805663
0.502278 0.747000 0.805663
0.626291 0.747000 0.805663
0.750304 0.747000 0.805663
0.874317 0.747000 0.805663
0.994000 0.747000 0.805663
0.080000 0.870500 0.805663
0.195688 0.870500 0.805663
0.311166 0.870500 0.805663
0.426644 0.870500 0.805663
0.502278 0.870500 0.805663
0.626291 0.870500 0.805663
0.750304 0.870500 0.805663
0.874317 0.870500 0.805663
0.994000 0.870500 0.805663
0.080000 0.994000 0.805663
0.195688 0.994000 0.805663
0.311166 0.994000 0.805663
0.426644 0.994000 0.805663
0.502278 0.994000 0.805663
0.626291 0.994000 0.805663
0.750304 0.994000 0.805663
0.874317 0.994000 0.805663
0.994000 0.994000 0.805663
0.080000 0.080000 0.919900
0.195688 0.080000 0.919900
0.311166 0.080000 0.919900
0.426644 0.080000 0.919900
0.502278 0.080000 0.919900
0.626291 0.080000 0.919900
0.750304 0.080000 0.919900
0.874317 0.080000 0.919900
0.994000 0.080000 0.919900
0.080000 0.195000 0.919900
0.195688 0.195000 0.919900
0.311166 0.195000 0.919900
0.426644 0.195000 0.919900
0.502278 0.195000 0.919900
0.626291 0.195000 0.919900
0.750304 0.195000 0.919900
0.874317 0.195000 0.919900
0.994000 0.195000 0.919900
0.080000 0.310000 0.919900
0.195688 0.310000 0.919900
0.311166 0.310000 0.919900
0.426644 0.310000 0.919900
0.502278 0.310000 0.919900
0.626291 0.310000 0.919900
0.750304 0.310000 0.919900
0.874317 0.310000 0.919900
0.994000 0.310000 0.919900
0.080000 0.425000 0.919900
0.195688 0.425000 0.919900
0.311166 0.425000 0.919900
0.426644 0.425000 0.919900
0.502278 0.425000 0.919900
0.626291 0.425000 0.919900
0.750304 0.425000 0.919900
0.874317 0.425000 0.919900
0.994000 0.425000 0.919900
0.080000 0.540000 0.919900
0.195688 0.540000 0.919900
0.311166 0.540000 0.919900
0.426644 0.540000 0.919900
0.502278 0.540000 0.919900
0.626291 0.540000 0.919900
0.750304 0.540000 0.919900
0.874317 0.540000 0.919900
0.994000 0.540000 0.919900
0.080000 0.623500 0.919900
0.195688 0.623500 0.919900
0.311166 0.623500 0.919900
0.426644 0.623500 0.919900
0.502278 0.623500 0.919900
0.626291 0.623500 0.919900
0.750304 0.623500 0.919900
0.874317 0.623500 0.919900
0.994000 0.623500 0.919900
0.080000 0.747000 0.919900
0.195688 0.747000 0.919900
0.311166 0.747000 0.919900
0.426644 0.747000 0.919900
0.502278 0.747000 0.919900
0.626291 0.747000 0.919900
0.750304 0.747000 0.919900
0.874317 0.747000 0.919900
0.994000 0.747000 0.919900
0.080000 0.870500 0.919900
0.195688 0.870500 0.919900
0.311166 0.870500 0.919900
0.426644 0.870500 0.919900
0.502278 0.870500 0.919900
0.626291 0.870500 0.919900
0.750304 0.870500 0.919900
0.874317 0.870500 0.919900
0.994000 0.870500 0.919900
0.080000 0.994000 0.919900
0.195688 0.994000 0.919900
0.311166 0.994000 0.919900
0.426644 0.994000 0.919900
0.502278 0.994000 0.919900
0.626291 0.994000 0.919900
0.750304 0.994000 0.919900
0.874317 0.994000 0.919900
0.994000 0.994000 0.919900
