docs/luts/fuji_recipes/NEGA_JC_Superia_800.cube
TITLE "Fujifilm Recipe: JC Superia 800 (NEGA)"
# FilmSim=NEGA HL=1 SH=2 Col=4 WB=Daylight WBR=-2 WBB=-3
LUT_3D_SIZE 33
DOMAIN_MIN 0.0 0.0 0.0
DOMAIN_MAX 1.0 1.0 1.0
0.014720 0.014720 0.014720
0.049191 0.007125 0.007125
0.083191 0.000000 0.000000
0.110066 0.000000 0.000000
0.136942 0.000000 0.000000
0.163818 0.000000 0.000000
0.190693 0.000000 0.000000
0.217569 0.000000 0.000000
0.244444 0.000000 0.000000
0.271319 0.000000 0.000000
0.298195 0.000000 0.000000
0.325070 0.000000 0.000000
0.351946 0.000000 0.000000
0.378822 0.000000 0.000000
0.405697 0.000000 0.000000
0.432573 0.000000 0.000000
0.459448 0.000000 0.000000
0.478929 0.000000 0.000000
0.546817 0.000000 0.000000
0.576795 0.000000 0.000000
0.606772 0.000000 0.000000
0.636750 0.000000 0.000000
0.666727 0.000000 0.000000
0.696705 0.000000 0.000000
0.726682 0.000000 0.000000
0.756660 0.000000 0.000000
0.786638 0.000000 0.000000
0.816615 0.000000 0.000000
0.846593 0.000000 0.000000
0.876570 0.000000 0.000000
0.906548 0.000000 0.000000
0.936525 0.000000 0.000000
0.966503 0.000000 0.000000
0.006725 0.051005 0.006725
0.048791 0.051005 0.006725
0.083191 0.043785 0.000000
0.110066 0.038620 0.000000
0.136942 0.036037 0.000000
0.163818 0.034488 0.000000
0.190693 0.033455 0.000000
0.217569 0.032717 0.000000
0.244444 0.032164 0.000000
0.271319 0.031733 0.000000
0.298195 0.031389 0.000000
0.325070 0.031107 0.000000
0.351946 0.030872 0.000000
0.378822 0.030674 0.000000
0.405697 0.030504 0.000000
0.432573 0.030356 0.000000
0.459448 0.030227 0.000000
0.478929 0.030143 0.000000
0.546817 0.029666 0.000000
0.576795 0.029574 0.000000
0.606772 0.029491 0.000000
0.636750 0.029416 0.000000
0.666727 0.029349 0.000000
0.696705 0.029287 0.000000
0.726682 0.029231 0.000000
0.756660 0.029179 0.000000
0.786638 0.029132 0.000000
0.816615 0.029088 0.000000
0.846593 0.029048 0.000000
0.876570 0.029010 0.000000
0.906548 0.028975 0.000000
0.936525 0.028942 0.000000
0.966503 0.028911 0.000000
0.000000 0.086020 0.000000
0.040860 0.086020 0.000000
0.081719 0.086020 0.000000
0.110066 0.077240 0.000000
0.136942 0.072075 0.000000
0.163818 0.068976 0.000000
0.190693 0.066910 0.000000
0.217569 0.065434 0.000000
0.244444 0.064327 0.000000
0.271319 0.063467 0.000000
0.298195 0.062778 0.000000
0.325070 0.062214 0.000000
0.351946 0.061745 0.000000
0.378822 0.061348 0.000000
0.405697 0.061007 0.000000
0.432573 0.060712 0.000000
0.459448 0.060454 0.000000
0.478929 0.060286 0.000000
0.546817 0.059332 0.000000
0.576795 0.059147 0.000000
0.606772 0.058981 0.000000
0.636750 0.058832 0.000000
0.666727 0.058697 0.000000
0.696705 0.058574 0.000000
0.726682 0.058462 0.000000
0.756660 0.058359 0.000000
0.786638 0.058264 0.000000
0.816615 0.058176 0.000000
0.846593 0.058095 0.000000
0.876570 0.058020 0.000000
0.906548 0.057949 0.000000
0.936525 0.057884 0.000000
0.966503 0.057822 0.000000
0.000000 0.114310 0.000000
0.036198 0.114310 0.000000
0.072396 0.114310 0.000000
0.108594 0.114310 0.000000
0.136942 0.108112 0.000000
0.163818 0.103464 0.000000
0.190693 0.100365 0.000000
0.217569 0.098151 0.000000
0.244444 0.096491 0.000000
0.271319 0.095200 0.000000
0.298195 0.094167 0.000000
0.325070 0.093322 0.000000
0.351946 0.092617 0.000000
0.378822 0.092021 0.000000
0.405697 0.091511 0.000000
0.432573 0.091068 0.000000
0.459448 0.090681 0.000000
0.478929 0.090429 0.000000
0.546817 0.088998 0.000000
0.576795 0.088721 0.000000
0.606772 0.088472 0.000000
0.636750 0.088248 0.000000
0.666727 0.088046 0.000000
0.696705 0.087861 0.000000
0.726682 0.087693 0.000000
0.756660 0.087538 0.000000
0.786638 0.087396 0.000000
0.816615 0.087264 0.000000
0.846593 0.087143 0.000000
0.876570 0.087029 0.000000
0.906548 0.086924 0.000000
0.936525 0.086826 0.000000
0.966503 0.086733 0.000000
0.000000 0.142600 0.000000
0.033867 0.142600 0.000000
0.067735 0.142600 0.000000
0.101603 0.142600 0.000000
0.135470 0.142600 0.000000
0.163818 0.137952 0.000000
0.190693 0.133820 0.000000
0.217569 0.130868 0.000000
0.244444 0.128655 0.000000
0.271319 0.126933 0.000000
0.298195 0.125556 0.000000
0.325070 0.124429 0.000000
0.351946 0.123490 0.000000
0.378822 0.122695 0.000000
0.405697 0.122014 0.000000
0.432573 0.121424 0.000000
0.459448 0.120907 0.000000
0.478929 0.120572 0.000000
0.546817 0.118664 0.000000
0.576795 0.118294 0.000000
0.606772 0.117963 0.000000
0.636750 0.117665 0.000000
0.666727 0.117394 0.000000
0.696705 0.117148 0.000000
0.726682 0.116924 0.000000
0.756660 0.116718 0.000000
0.786638 0.116528 0.000000
0.816615 0.116353 0.000000
0.846593 0.116190 0.000000
0.876570 0.116039 0.000000
0.906548 0.115899 0.000000
0.936525 0.115767 0.000000
0.966503 0.115645 0.000000
0.000000 0.170890 0.000000
0.032469 0.170890 0.000000
0.064938 0.170890 0.000000
0.097407 0.170890 0.000000
0.129876 0.170890 0.000000
0.162346 0.170890 0.000000
0.190693 0.167275 0.000000
0.217569 0.163585 0.000000
0.244444 0.160818 0.000000
0.271319 0.158666 0.000000
0.298195 0.156945 0.000000
0.325070 0.155536 0.000000
0.351946 0.154362 0.000000
0.378822 0.153369 0.000000
0.405697 0.152518 0.000000
0.432573 0.151780 0.000000
0.459448 0.151134 0.000000
0.478929 0.150714 0.000000
0.546817 0.148330 0.000000
0.576795 0.147868 0.000000
0.606772 0.147454 0.000000
0.636750 0.147081 0.000000
0.666727 0.146743 0.000000
0.696705 0.146436 0.000000
0.726682 0.146155 0.000000
0.756660 0.145897 0.000000
0.786638 0.145660 0.000000
0.816615 0.145441 0.000000
0.846593 0.145238 0.000000
0.876570 0.145049 0.000000
0.906548 0.144873 0.000000
0.936525 0.144709 0.000000
0.966503 0.144556 0.000000
0.000000 0.199180 0.000000
0.031537 0.199180 0.000000
0.063074 0.199180 0.000000
0.094611 0.199180 0.000000
0.126147 0.199180 0.000000
0.157684 0.199180 0.000000
0.189221 0.199180 0.000000
0.217569 0.196302 0.000000
0.244444 0.192982 0.000000
0.271319 0.190400 0.000000
0.298195 0.188334 0.000000
0.325070 0.186643 0.000000
0.351946 0.185235 0.000000
0.378822 0.184043 0.000000
0.405697 0.183021 0.000000
0.432573 0.182136 0.000000
0.459448 0.181361 0.000000
0.478929 0.180857 0.000000
0.546817 0.177996 0.000000
0.576795 0.177441 0.000000
0.606772 0.176944 0.000000
0.636750 0.176497 0.000000
0.666727 0.176092 0.000000
0.696705 0.175723 0.000000
0.726682 0.175386 0.000000
0.756660 0.175076 0.000000
0.786638 0.174792 0.000000
0.816615 0.174529 0.000000
0.846593 0.174285 0.000000
0.876570 0.174059 0.000000
0.906548 0.173848 0.000000
0.936525 0.173651 0.000000
0.966503 0.173467 0.000000
0.000000 0.227470 0.000000
0.030871 0.227470 0.000000
0.061742 0.227470 0.000000
0.092613 0.227470 0.000000
0.123484 0.227470 0.000000
0.154355 0.227470 0.000000
0.185226 0.227470 0.000000
0.216097 0.227470 0.000000
0.244444 0.225146 0.000000
0.271319 0.222133 0.000000
0.298195 0.219723 0.000000
0.325070 0.217751 0.000000
0.351946 0.216107 0.000000
0.378822 0.214717 0.000000
0.405697 0.213525 0.000000
0.432573 0.212492 0.000000
0.459448 0.211588 0.000000
0.478929 0.211000 0.000000
0.546817 0.207662 0.000000
0.576795 0.207015 0.000000
0.606772 0.206435 0.000000
0.636750 0.205913 0.000000
0.666727 0.205440 0.000000
0.696705 0.205010 0.000000
0.726682 0.204617 0.000000
0.756660 0.204256 0.000000
0.786638 0.203924 0.000000
0.816615 0.203617 0.000000
0.846593 0.203333 0.000000
0.876570 0.203069 0.000000
0.906548 0.202823 0.000000
0.936525 0.202593 0.000000
0.966503 0.202378 0.000000
0.000000 0.255760 0.000000
0.030371 0.255760 0.000000
0.060743 0.255760 0.000000
0.091114 0.255760 0.000000
0.121486 0.255760 0.000000
0.151858 0.255760 0.000000
0.182229 0.255760 0.000000
0.212601 0.255760 0.000000
0.242972 0.255760 0.000000
0.271319 0.253866 0.000000
0.298195 0.251112 0.000000
0.325070 0.248858 0.000000
0.351946 0.246980 0.000000
0.378822 0.245390 0.000000
0.405697 0.244028 0.000000
0.432573 0.242848 0.000000
0.459448 0.241815 0.000000
0.478929 0.241143 0.000000
0.546817 0.237328 0.000000
0.576795 0.236588 0.000000
0.606772 0.235926 0.000000
0.636750 0.235329 0.000000
0.666727 0.234789 0.000000
0.696705 0.234297 0.000000
0.726682 0.233848 0.000000
0.756660 0.233435 0.000000
0.786638 0.233056 0.000000
0.816615 0.232705 0.000000
0.846593 0.232380 0.000000
0.876570 0.232078 0.000000
0.906548 0.231797 0.000000
0.936525 0.231535 0.000000
0.966503 0.231289 0.000000
0.000000 0.284050 0.000000
0.029983 0.284050 0.000000
0.059966 0.284050 0.000000
0.089949 0.284050 0.000000
0.119932 0.284050 0.000000
0.149915 0.284050 0.000000
0.179898 0.284050 0.000000
0.209881 0.284050 0.000000
0.239864 0.284050 0.000000
0.269848 0.284050 0.000000
0.298195 0.282501 0.000000
0.325070 0.279965 0.000000
0.351946 0.277852 0.000000
0.378822 0.276064 0.000000
0.405697 0.274532 0.000000
0.432573 0.273204 0.000000
0.459448 0.272042 0.000000
0.478929 0.271286 0.000000
0.546817 0.266994 0.000000
0.576795 0.266162 0.000000
0.606772 0.265417 0.000000
0.636750 0.264745 0.000000
0.666727 0.264137 0.000000
0.696705 0.263584 0.000000
0.726682 0.263078 0.000000
0.756660 0.262615 0.000000
0.786638 0.262188 0.000000
0.816615 0.261793 0.000000
0.846593 0.261428 0.000000
0.876570 0.261088 0.000000
0.906548 0.260772 0.000000
0.936525 0.260477 0.000000
0.966503 0.260200 0.000000
0.000000 0.312340 0.000000
0.029672 0.312340 0.000000
0.059345 0.312340 0.000000
0.089017 0.312340 0.000000
0.118689 0.312340 0.000000
0.148362 0.312340 0.000000
0.178034 0.312340 0.000000
0.207706 0.312340 0.000000
0.237378 0.312340 0.000000
0.267051 0.312340 0.000000
0.296723 0.312340 0.000000
0.325070 0.311072 0.000000
0.351946 0.308725 0.000000
0.378822 0.306738 0.000000
0.405697 0.305035 0.000000
0.432573 0.303560 0.000000
0.459448 0.302268 0.000000
0.478929 0.301429 0.000000
0.546817 0.296660 0.000000
0.576795 0.295735 0.000000
0.606772 0.294907 0.000000
0.636750 0.294162 0.000000
0.666727 0.293486 0.000000
0.696705 0.292871 0.000000
0.726682 0.292309 0.000000
0.756660 0.291794 0.000000
0.786638 0.291320 0.000000
0.816615 0.290881 0.000000
0.846593 0.290475 0.000000
0.876570 0.290098 0.000000
0.906548 0.289747 0.000000
0.936525 0.289418 0.000000
0.966503 0.289111 0.000000
0.000000 0.340630 0.000000
0.029418 0.340630 0.000000
0.058836 0.340630 0.000000
0.088254 0.340630 0.000000
0.117672 0.340630 0.000000
0.147090 0.340630 0.000000
0.176508 0.340630 0.000000
0.205926 0.340630 0.000000
0.235344 0.340630 0.000000
0.264762 0.340630 0.000000
0.294180 0.340630 0.000000
0.323598 0.340630 0.000000
0.351946 0.339597 0.000000
0.378822 0.337412 0.000000
0.405697 0.335539 0.000000
0.432573 0.333916 0.000000
0.459448 0.332495 0.000000
0.478929 0.331572 0.000000
0.546817 0.326325 0.000000
0.576795 0.325309 0.000000
0.606772 0.324398 0.000000
0.636750 0.323578 0.000000
0.666727 0.322835 0.000000
0.696705 0.322158 0.000000
0.726682 0.321540 0.000000
0.756660 0.320973 0.000000
0.786638 0.320452 0.000000
0.816615 0.319969 0.000000
0.846593 0.319523 0.000000
0.876570 0.319108 0.000000
0.906548 0.318721 0.000000
0.936525 0.318360 0.000000
0.966503 0.318022 0.000000
0.000000 0.368920 0.000000
0.029206 0.368920 0.000000
0.058412 0.368920 0.000000
0.087618 0.368920 0.000000
0.116825 0.368920 0.000000
0.146031 0.368920 0.000000
0.175237 0.368920 0.000000
0.204443 0.368920 0.000000
0.233649 0.368920 0.000000
0.262855 0.368920 0.000000
0.292062 0.368920 0.000000
0.321268 0.368920 0.000000
0.350474 0.368920 0.000000
0.378822 0.368086 0.000000
0.405697 0.366042 0.000000
0.432573 0.364272 0.000000
0.459448 0.362722 0.000000
0.478929 0.361715 0.000000
0.546817 0.355991 0.000000
0.576795 0.354882 0.000000
0.606772 0.353889 0.000000
0.636750 0.352994 0.000000
0.666727 0.352183 0.000000
0.696705 0.351445 0.000000
0.726682 0.350771 0.000000
0.756660 0.350153 0.000000
0.786638 0.349583 0.000000
0.816615 0.349058 0.000000
0.846593 0.348570 0.000000
0.876570 0.348118 0.000000
0.906548 0.347696 0.000000
0.936525 0.347302 0.000000
0.966503 0.346934 0.000000
0.000000 0.397210 0.000000
0.029027 0.397210 0.000000
0.058054 0.397210 0.000000
0.087081 0.397210 0.000000
0.116108 0.397210 0.000000
0.145134 0.397210 0.000000
0.174161 0.397210 0.000000
0.203188 0.397210 0.000000
0.232215 0.397210 0.000000
0.261242 0.397210 0.000000
0.290269 0.397210 0.000000
0.319296 0.397210 0.000000
0.348323 0.397210 0.000000
0.377350 0.397210 0.000000
0.405697 0.396546 0.000000
0.432573 0.394628 0.000000
0.459448 0.392949 0.000000
0.478929 0.391858 0.000000
0.546817 0.385657 0.000000
0.576795 0.384456 0.000000
0.606772 0.383380 0.000000
0.636750 0.382410 0.000000
0.666727 0.381532 0.000000
0.696705 0.380732 0.000000
0.726682 0.380002 0.000000
0.756660 0.379332 0.000000
0.786638 0.378715 0.000000
0.816615 0.378146 0.000000
0.846593 0.377618 0.000000
0.876570 0.377127 0.000000
0.906548 0.376671 0.000000
0.936525 0.376244 0.000000
0.966503 0.375845 0.000000
0.000000 0.425500 0.000000
0.028873 0.425500 0.000000
0.057746 0.425500 0.000000
0.086620 0.425500 0.000000
0.115493 0.425500 0.000000
0.144366 0.425500 0.000000
0.173239 0.425500 0.000000
0.202113 0.425500 0.000000
0.230986 0.425500 0.000000
0.259859 0.425500 0.000000
0.288732 0.425500 0.000000
0.317605 0.425500 0.000000
0.346479 0.425500 0.000000
0.375352 0.425500 0.000000
0.404225 0.425500 0.000000
0.432573 0.424984 0.000000
0.459448 0.423176 0.000000
0.478929 0.422001 0.000000
0.546817 0.415323 0.000000
0.576795 0.414030 0.000000
0.606772 0.412870 0.000000
0.636750 0.411826 0.000000
0.666727 0.410880 0.000000
0.696705 0.410020 0.000000
0.726682 0.409233 0.000000
0.756660 0.408512 0.000000
0.786638 0.407847 0.000000
0.816615 0.407234 0.000000
0.846593 0.406665 0.000000
0.876570 0.406137 0.000000
0.906548 0.405645 0.000000
0.936525 0.405186 0.000000
0.966503 0.404756 0.000000
0.000000 0.453790 0.000000
0.028740 0.453790 0.000000
0.057480 0.453790 0.000000
0.086220 0.453790 0.000000
0.114960 0.453790 0.000000
0.143700 0.453790 0.000000
0.172440 0.453790 0.000000
0.201180 0.453790 0.000000
0.229920 0.453790 0.000000
0.258660 0.453790 0.000000
0.287400 0.453790 0.000000
0.316140 0.453790 0.000000
0.344880 0.453790 0.000000
0.373620 0.453790 0.000000
0.402360 0.453790 0.000000
0.431101 0.453790 0.000000
0.459448 0.453403 0.000000
0.478929 0.452143 0.000000
0.546817 0.444989 0.000000
0.576795 0.443603 0.000000
0.606772 0.442361 0.000000
0.636750 0.441242 0.000000
0.666727 0.440229 0.000000
0.696705 0.439307 0.000000
0.726682 0.438464 0.000000
0.756660 0.437691 0.000000
0.786638 0.436979 0.000000
0.816615 0.436322 0.000000
0.846593 0.435713 0.000000
0.876570 0.435147 0.000000
0.906548 0.434620 0.000000
0.936525 0.434128 0.000000
0.966503 0.433667 0.000000
0.000000 0.481903 0.000000
0.028624 0.481903 0.000000
0.057248 0.481903 0.000000
0.085873 0.481903 0.000000
0.114497 0.481903 0.000000
0.143121 0.481903 0.000000
0.171745 0.481903 0.000000
0.200369 0.481903 0.000000
0.228993 0.481903 0.000000
0.257618 0.481903 0.000000
0.286242 0.481903 0.000000
0.314866 0.481903 0.000000
0.343490 0.481903 0.000000
0.372114 0.481903 0.000000
0.400739 0.481903 0.000000
0.429363 0.481903 0.000000
0.457987 0.481903 0.000000
0.478735 0.481903 0.000000
0.546817 0.474470 0.000000
0.576795 0.472992 0.000000
0.606772 0.471668 0.000000
0.636750 0.470475 0.000000
0.666727 0.469394 0.000000
0.696705 0.468411 0.000000
0.726682 0.467512 0.000000
0.756660 0.466688 0.000000
0.786638 0.465929 0.000000
0.816615 0.465228 0.000000
0.846593 0.464579 0.000000
0.876570 0.509209 0.000000
0.906548 0.508769 0.000000
0.936525 0.508368 0.000000
0.966503 0.508005 0.000000
0.000000 0.543662 0.000000
0.028192 0.543662 0.000000
0.056385 0.543662 0.000000
0.084577 0.543662 0.000000
0.112770 0.543662 0.000000
0.140962 0.543662 0.000000
0.169155 0.543662 0.000000
0.197347 0.543662 0.000000
0.225540 0.543662 0.000000
0.253732 0.543662 0.000000
0.281925 0.543662 0.000000
0.310117 0.543662 0.000000
0.338310 0.543662 0.000000
0.366502 0.543662 0.000000
0.394695 0.543662 0.000000
0.422887 0.543662 0.000000
0.451080 0.543662 0.000000
0.471515 0.543662 0.000000
0.546817 0.543491 0.000000
0.576795 0.541978 0.000000
0.606772 0.540640 0.000000
0.636750 0.539451 0.000000
0.666727 0.538390 0.000000
0.696705 0.537441 0.000000
0.726682 0.536587 0.000000
0.756660 0.535819 0.000000
0.786638 0.535124 0.000000
0.816615 0.534496 0.000000
0.846593 0.533927 0.000000
0.876570 0.533410 0.000000
0.906548 0.532939 0.000000
0.936525 0.532512 0.000000
0.966503 0.532122 0.000000
0.000000 0.575217 0.000000
0.028099 0.575217 0.000000
0.056198 0.575217 0.000000
0.084298 0.575217 0.000000
0.112397 0.575217 0.000000
0.140496 0.575217 0.000000
0.168595 0.575217 0.000000
0.196695 0.575217 0.000000
0.224794 0.575217 0.000000
0.252893 0.575217 0.000000
0.280992 0.575217 0.000000
0.309092 0.575217 0.000000
0.337191 0.575217 0.000000
0.365290 0.575217 0.000000
0.393389 0.575217 0.000000
0.421489 0.575217 0.000000
0.449588 0.575217 0.000000
0.469956 0.575217 0.000000
0.545369 0.575217 0.000000
0.576795 0.575137 0.000000
0.606772 0.573706 0.000000
0.636750 0.572434 0.000000
0.666727 0.571297 0.000000
0.696705 0.570279 0.000000
0.726682 0.569362 0.000000
0.756660 0.568536 0.000000
0.786638 0.567788 0.000000
0.816615 0.567111 0.000000
0.846593 0.566496 0.000000
0.876570 0.565937 0.000000
0.906548 0.565427 0.000000
0.936525 0.564963 0.000000
0.966503 0.564539 0.000000
0.000000 0.606772 0.000000
0.028016 0.606772 0.000000
0.056032 0.606772 0.000000
0.084049 0.606772 0.000000
0.112065 0.606772 0.000000
0.140081 0.606772 0.000000
0.168097 0.606772 0.000000
0.196113 0.606772 0.000000
0.224130 0.606772 0.000000
0.252146 0.606772 0.000000
0.280162 0.606772 0.000000
0.308178 0.606772 0.000000
0.336195 0.606772 0.000000
0.364211 0.606772 0.000000
0.392227 0.606772 0.000000
0.420243 0.606772 0.000000
0.448259 0.606772 0.000000
0.468567 0.606772 0.000000
0.543946 0.606772 0.000000
0.575359 0.606772 0.000000
0.606772 0.606772 0.000000
0.636750 0.605416 0.000000
0.666727 0.604204 0.000000
0.696705 0.603117 0.000000
0.726682 0.602137 0.000000
0.756660 0.601253 0.000000
0.786638 0.600452 0.000000
0.816615 0.599726 0.000000
0.846593 0.599065 0.000000
0.876570 0.598464 0.000000
0.906548 0.597915 0.000000
0.936525 0.597414 0.000000
0.966503 0.596955 0.000000
0.000000 0.638328 0.000000
0.027942 0.638328 0.000000
0.055884 0.638328 0.000000
0.083825 0.638328 0.000000
0.111767 0.638328 0.000000
0.139709 0.638328 0.000000
0.167651 0.638328 0.000000
0.195593 0.638328 0.000000
0.223534 0.638328 0.000000
0.251476 0.638328 0.000000
0.279418 0.638328 0.000000
0.307360 0.638328 0.000000
0.335302 0.638328 0.000000
0.363244 0.638328 0.000000
0.391185 0.638328 0.000000
0.419127 0.638328 0.000000
0.447069 0.638328 0.000000
0.467323 0.638328 0.000000
0.542690 0.638328 0.000000
0.574019 0.638328 0.000000
0.605349 0.638328 0.000000
0.636679 0.638328 0.000000
0.666727 0.637111 0.000000
0.696705 0.635955 0.000000
0.726682 0.634912 0.000000
0.756660 0.633970 0.000000
0.786638 0.633117 0.000000
0.816615 0.632341 0.000000
0.846593 0.631635 0.000000
0.876570 0.630991 0.000000
0.906548 0.630402 0.000000
0.936525 0.629864 0.000000
0.966503 0.629372 0.000000
0.000000 0.669883 0.000000
0.027875 0.669883 0.000000
0.055750 0.669883 0.000000
0.083624 0.669883 0.000000
0.111499 0.669883 0.000000
0.139374 0.669883 0.000000
0.167249 0.669883 0.000000
0.195123 0.669883 0.000000
0.222998 0.669883 0.000000
0.250873 0.669883 0.000000
0.278748 0.669883 0.000000
0.306622 0.669883 0.000000
0.334497 0.669883 0.000000
0.362372 0.669883 0.000000
0.390247 0.669883 0.000000
0.418121 0.669883 0.000000
0.445996 0.669883 0.000000
0.466201 0.669883 0.000000
0.541575 0.669883 0.000000
0.572830 0.669883 0.000000
0.604084 0.669883 0.000000
0.635339 0.669883 0.000000
0.666593 0.669883 0.000000
0.696705 0.668793 0.000000
0.726682 0.667687 0.000000
0.756660 0.666688 0.000000
0.786638 0.665781 0.000000
0.816615 0.664956 0.000000
0.846593 0.664204 0.000000
0.876570 0.663518 0.000000
0.906548 0.662890 0.000000
0.936525 0.662315 0.000000
0.966503 0.661788 0.000000
0.000000 0.701438 0.000000
0.027814 0.701438 0.000000
0.055628 0.701438 0.000000
0.083442 0.701438 0.000000
0.111256 0.701438 0.000000
0.139070 0.701438 0.000000
0.166884 0.701438 0.000000
0.194698 0.701438 0.000000
0.222512 0.701438 0.000000
0.250326 0.701438 0.000000
0.278140 0.701438 0.000000
0.305954 0.701438 0.000000
0.333768 0.701438 0.000000
0.361582 0.701438 0.000000
0.389396 0.701438 0.000000
0.417210 0.701438 0.000000
0.445024 0.701438 0.000000
0.465186 0.701438 0.000000
0.540583 0.701438 0.000000
0.571769 0.701438 0.000000
0.602955 0.701438 0.000000
0.634141 0.701438 0.000000
0.665328 0.701438 0.000000
0.696514 0.701438 0.000000
0.726682 0.700462 0.000000
0.756660 0.699405 0.000000
0.786638 0.698445 0.000000
0.816615 0.697571 0.000000
0.846593 0.696773 0.000000
0.876570 0.696045 0.000000
0.906548 0.695378 0.000000
0.936525 0.694766 0.000000
0.966503 0.694205 0.000000
0.000000 0.732994 0.000000
0.027759 0.732994 0.000000
0.055517 0.732994 0.000000
0.083276 0.732994 0.000000
0.111035 0.732994 0.000000
0.138794 0.732994 0.000000
0.166552 0.732994 0.000000
0.194311 0.732994 0.000000
0.222070 0.732994 0.000000
0.249829 0.732994 0.000000
0.277587 0.732994 0.000000
0.305346 0.732994 0.000000
0.333105 0.732994 0.000000
0.360864 0.732994 0.000000
0.388622 0.732994 0.000000
0.416381 0.732994 0.000000
0.444140 0.732994 0.000000
0.464261 0.732994 0.000000
0.539695 0.732994 0.000000
0.570819 0.732994 0.000000
0.601944 0.732994 0.000000
0.633068 0.732994 0.000000
0.664192 0.732994 0.000000
0.695317 0.732994 0.000000
0.726441 0.732994 0.000000
0.756660 0.732122 0.000000
0.786638 0.731109 0.000000
0.816615 0.730186 0.000000
0.846593 0.729343 0.000000
0.876570 0.728572 0.000000
0.906548 0.727865 0.000000
0.936525 0.727217 0.000000
0.966503 0.726621 0.000000
0.000000 0.764549 0.000000
0.027708 0.764549 0.000000
0.055416 0.764549 0.000000
0.083125 0.764549 0.000000
0.110833 0.764549 0.000000
0.138541 0.764549 0.000000
0.166249 0.764549 0.000000
0.193957 0.764549 0.000000
0.221666 0.764549 0.000000
0.249374 0.764549 0.000000
0.277082 0.764549 0.000000
0.304790 0.764549 0.000000
0.332499 0.764549 0.000000
0.360207 0.764549 0.000000
0.387915 0.764549 0.000000
0.415623 0.764549 0.000000
0.443331 0.764549 0.000000
0.463416 0.764549 0.000000
0.538899 0.764549 0.000000
0.569967 0.764549 0.000000
0.601035 0.764549 0.000000
0.632102 0.764549 0.000000
0.663170 0.764549 0.000000
0.694238 0.764549 0.000000
0.725305 0.764549 0.000000
0.756373 0.764549 0.000000
0.786638 0.763773 0.000000
0.816615 0.762800 0.000000
0.846593 0.761912 0.000000
0.876570 0.761099 0.000000
0.906548 0.760353 0.000000
0.936525 0.759668 0.000000
0.966503 0.759037 0.000000
0.000000 0.796104 0.000000
0.027662 0.796104 0.000000
0.055324 0.796104 0.000000
0.082986 0.796104 0.000000
0.110647 0.796104 0.000000
0.138309 0.796104 0.000000
0.165971 0.796104 0.000000
0.193633 0.796104 0.000000
0.221295 0.796104 0.000000
0.248957 0.796104 0.000000
0.276619 0.796104 0.000000
0.304280 0.796104 0.000000
0.331942 0.796104 0.000000
0.359604 0.796104 0.000000
0.387266 0.796104 0.000000
0.414928 0.796104 0.000000
0.442590 0.796104 0.000000
0.462641 0.796104 0.000000
0.538184 0.796104 0.000000
0.569200 0.796104 0.000000
0.600215 0.796104 0.000000
0.631231 0.796104 0.000000
0.662247 0.796104 0.000000
0.693263 0.796104 0.000000
0.724278 0.796104 0.000000
0.755294 0.796104 0.000000
0.786310 0.796104 0.000000
0.816615 0.795415 0.000000
0.846593 0.794482 0.000000
0.876570 0.793626 0.000000
0.906548 0.792841 0.000000
0.936525 0.792119 0.000000
0.966503 0.791454 0.000000
0.000000 0.827659 0.000000
0.027619 0.827659 0.000000
0.055238 0.827659 0.000000
0.082858 0.827659 0.000000
0.110477 0.827659 0.000000
0.138096 0.827659 0.000000
0.165715 0.827659 0.000000
0.193334 0.827659 0.000000
0.220953 0.827659 0.000000
0.248573 0.827659 0.000000
0.276192 0.827659 0.000000
0.303811 0.827659 0.000000
0.331430 0.827659 0.000000
0.359049 0.827659 0.000000
0.386668 0.827659 0.000000
0.414288 0.827659 0.000000
0.441907 0.827659 0.000000
0.461927 0.827659 0.000000
0.537540 0.827659 0.000000
0.568507 0.827659 0.000000
0.599475 0.827659 0.000000
0.630443 0.827659 0.000000
0.661411 0.827659 0.000000
0.692379 0.827659 0.000000
