docs/luts/fuji_recipes/NEGA_RR_CineStill_800T.cube
TITLE "Fujifilm Recipe: RR CineStill 800T (NEGA)"
# FilmSim=NEGA HL=3 SH=1 Col=-1 WB=3200K WBR=0 WBB=0
LUT_3D_SIZE 33
DOMAIN_MIN 0.0 0.0 0.0
DOMAIN_MAX 1.0 1.0 1.0
0.015360 0.015360 0.015360
0.040072 0.018952 0.018952
0.065224 0.022607 0.022607
0.090550 0.026288 0.026288
0.115877 0.029970 0.029970
0.141203 0.033651 0.033651
0.166529 0.037332 0.037332
0.191855 0.041013 0.041013
0.217181 0.044694 0.044694
0.242507 0.048375 0.048375
0.267834 0.052056 0.052056
0.293160 0.055737 0.055737
0.318486 0.059418 0.059418
0.343812 0.063099 0.063099
0.369138 0.066780 0.066780
0.394464 0.070461 0.070461
0.419790 0.074142 0.074142
0.438270 0.076828 0.076828
0.485445 0.082660 0.082660
0.514733 0.086723 0.086723
0.544020 0.090786 0.090786
0.573308 0.094850 0.094850
0.602595 0.098913 0.098913
0.631883 0.102976 0.102976
0.661170 0.107039 0.107039
0.690458 0.111102 0.111102
0.719746 0.115166 0.115166
0.749033 0.119229 0.119229
0.778321 0.123292 0.123292
0.805587 0.127075 0.127075
0.805587 0.127075 0.127075
0.805587 0.127075 0.127075
0.805587 0.127075 0.127075
0.020069 0.047758 0.020069
0.041189 0.047758 0.020069
0.065224 0.050297 0.022607
0.090550 0.053978 0.026288
0.115877 0.057659 0.029970
0.141203 0.061340 0.033651
0.166529 0.065021 0.037332
0.191855 0.068702 0.041013
0.217181 0.072383 0.044694
0.242507 0.076064 0.048375
0.267834 0.079745 0.052056
0.293160 0.083426 0.055737
0.318486 0.087107 0.059418
0.343812 0.090788 0.063099
0.369138 0.094469 0.066780
0.394464 0.098150 0.070461
0.419790 0.101831 0.074142
0.438270 0.104517 0.076828
0.485445 0.110349 0.082660
0.514733 0.114412 0.086723
0.544020 0.118476 0.090786
0.573308 0.122539 0.094850
0.602595 0.126602 0.098913
0.631883 0.130665 0.102976
0.661170 0.134729 0.107039
0.690458 0.138792 0.111102
0.719746 0.142855 0.115166
0.749033 0.146918 0.119229
0.778321 0.150981 0.123292
0.805587 0.154764 0.127075
0.805587 0.154764 0.127075
0.805587 0.154764 0.127075
0.805587 0.154764 0.127075
0.024261 0.076599 0.024261
0.045381 0.076599 0.024261
0.066877 0.076599 0.024261
0.090550 0.078626 0.026288
0.115877 0.082307 0.029970
0.141203 0.085988 0.033651
0.166529 0.089669 0.037332
0.191855 0.093350 0.041013
0.217181 0.097031 0.044694
0.242507 0.100712 0.048375
0.267834 0.104393 0.052056
0.293160 0.108074 0.055737
0.318486 0.111755 0.059418
0.343812 0.115436 0.063099
0.369138 0.119117 0.066780
0.394464 0.122798 0.070461
0.419790 0.126480 0.074142
0.438270 0.129165 0.076828
0.485445 0.134998 0.082660
0.514733 0.139061 0.086723
0.544020 0.143124 0.090786
0.573308 0.147187 0.094850
0.602595 0.151251 0.098913
0.631883 0.155314 0.102976
0.661170 0.159377 0.107039
0.690458 0.163440 0.111102
0.719746 0.167504 0.115166
0.749033 0.171567 0.119229
0.778321 0.175630 0.123292
0.805587 0.179413 0.127075
0.805587 0.179413 0.127075
0.805587 0.179413 0.127075
0.805587 0.179413 0.127075
0.028381 0.104950 0.028381
0.049502 0.104950 0.028381
0.070998 0.104950 0.028381
0.092643 0.104950 0.028381
0.115877 0.106538 0.029970
0.141203 0.110219 0.033651
0.166529 0.113900 0.037332
0.191855 0.117581 0.041013
0.217181 0.121262 0.044694
0.242507 0.124943 0.048375
0.267834 0.128624 0.052056
0.293160 0.132305 0.055737
0.318486 0.135986 0.059418
0.343812 0.139667 0.063099
0.369138 0.143348 0.066780
0.394464 0.147029 0.070461
0.419790 0.150710 0.074142
0.438270 0.153396 0.076828
0.485445 0.159228 0.082660
0.514733 0.163292 0.086723
0.544020 0.167355 0.090786
0.573308 0.171418 0.094850
0.602595 0.175481 0.098913
0.631883 0.179544 0.102976
0.661170 0.183608 0.107039
0.690458 0.187671 0.111102
0.719746 0.191734 0.115166
0.749033 0.195797 0.119229
0.778321 0.199861 0.123292
0.805587 0.203643 0.127075
0.805587 0.203643 0.127075
0.805587 0.203643 0.127075
0.805587 0.203643 0.127075
0.032502 0.133301 0.032502
0.053623 0.133301 0.032502
0.075119 0.133301 0.032502
0.096764 0.133301 0.032502
0.118409 0.133301 0.032502
0.141203 0.134449 0.033651
0.166529 0.138131 0.037332
0.191855 0.141812 0.041013
0.217181 0.145493 0.044694
0.242507 0.149174 0.048375
0.267834 0.152855 0.052056
0.293160 0.156536 0.055737
0.318486 0.160217 0.059418
0.343812 0.163898 0.063099
0.369138 0.167579 0.066780
0.394464 0.171260 0.070461
0.419790 0.174941 0.074142
0.438270 0.177626 0.076828
0.485445 0.183459 0.082660
0.514733 0.187522 0.086723
0.544020 0.191585 0.090786
0.573308 0.195649 0.094850
0.602595 0.199712 0.098913
0.631883 0.203775 0.102976
0.661170 0.207838 0.107039
0.690458 0.211901 0.111102
0.719746 0.215965 0.115166
0.749033 0.220028 0.119229
0.778321 0.224091 0.123292
0.805587 0.227874 0.127075
0.805587 0.227874 0.127075
0.805587 0.227874 0.127075
0.805587 0.227874 0.127075
0.036623 0.161652 0.036623
0.057743 0.161652 0.036623
0.079240 0.161652 0.036623
0.100885 0.161652 0.036623
0.122530 0.161652 0.036623
0.144175 0.161652 0.036623
0.166529 0.162361 0.037332
0.191855 0.166042 0.041013
0.217181 0.169723 0.044694
0.242507 0.173404 0.048375
0.267834 0.177085 0.052056
0.293160 0.180766 0.055737
0.318486 0.184447 0.059418
0.343812 0.188128 0.063099
0.369138 0.191809 0.066780
0.394464 0.195490 0.070461
0.419790 0.199171 0.074142
0.438270 0.201857 0.076828
0.485445 0.207689 0.082660
0.514733 0.211753 0.086723
0.544020 0.215816 0.090786
0.573308 0.219879 0.094850
0.602595 0.223942 0.098913
0.631883 0.228006 0.102976
0.661170 0.232069 0.107039
0.690458 0.236132 0.111102
0.719746 0.240195 0.115166
0.749033 0.244258 0.119229
0.778321 0.248322 0.123292
0.805587 0.252104 0.127075
0.805587 0.252104 0.127075
0.805587 0.252104 0.127075
0.805587 0.252104 0.127075
0.040743 0.190003 0.040743
0.061864 0.190003 0.040743
0.083360 0.190003 0.040743
0.105005 0.190003 0.040743
0.126651 0.190003 0.040743
0.148296 0.190003 0.040743
0.169941 0.190003 0.040743
0.191855 0.190273 0.041013
0.217181 0.193954 0.044694
0.242507 0.197635 0.048375
0.267834 0.201316 0.052056
0.293160 0.204997 0.055737
0.318486 0.208678 0.059418
0.343812 0.212359 0.063099
0.369138 0.216040 0.066780
0.394464 0.219721 0.070461
0.419790 0.223402 0.074142
0.438270 0.226088 0.076828
0.485445 0.231920 0.082660
0.514733 0.235983 0.086723
0.544020 0.240046 0.090786
0.573308 0.244110 0.094850
0.602595 0.248173 0.098913
0.631883 0.252236 0.102976
0.661170 0.256299 0.107039
0.690458 0.260363 0.111102
0.719746 0.264426 0.115166
0.749033 0.268489 0.119229
0.778321 0.272552 0.123292
0.805587 0.276335 0.127075
0.805587 0.276335 0.127075
0.805587 0.276335 0.127075
0.805587 0.276335 0.127075
0.044864 0.218355 0.044864
0.065985 0.218355 0.044864
0.087481 0.218355 0.044864
0.109126 0.218355 0.044864
0.130771 0.218355 0.044864
0.152416 0.218355 0.044864
0.174061 0.218355 0.044864
0.195707 0.218355 0.044864
0.217352 0.218355 0.044864
0.242507 0.221865 0.048375
0.267834 0.225546 0.052056
0.293160 0.229227 0.055737
0.318486 0.232908 0.059418
0.343812 0.236589 0.063099
0.369138 0.240270 0.066780
0.394464 0.243951 0.070461
0.419790 0.247632 0.074142
0.438270 0.250318 0.076828
0.485445 0.256150 0.082660
0.514733 0.260214 0.086723
0.544020 0.264277 0.090786
0.573308 0.268340 0.094850
0.602595 0.272403 0.098913
0.631883 0.276467 0.102976
0.661170 0.280530 0.107039
0.690458 0.284593 0.111102
0.719746 0.288656 0.115166
0.749033 0.292720 0.119229
0.778321 0.296783 0.123292
0.805587 0.300566 0.127075
0.805587 0.300566 0.127075
0.805587 0.300566 0.127075
0.805587 0.300566 0.127075
0.048985 0.246706 0.048985
0.070105 0.246706 0.048985
0.091602 0.246706 0.048985
0.113247 0.246706 0.048985
0.134892 0.246706 0.048985
0.156537 0.246706 0.048985
0.178182 0.246706 0.048985
0.199827 0.246706 0.048985
0.221472 0.246706 0.048985
0.243118 0.246706 0.048985
0.267834 0.249777 0.052056
0.293160 0.253458 0.055737
0.318486 0.257139 0.059418
0.343812 0.260820 0.063099
0.369138 0.264501 0.066780
0.394464 0.268182 0.070461
0.419790 0.271863 0.074142
0.438270 0.274549 0.076828
0.485445 0.280381 0.082660
0.514733 0.284444 0.086723
0.544020 0.288507 0.090786
0.573308 0.292571 0.094850
0.602595 0.296634 0.098913
0.631883 0.300697 0.102976
0.661170 0.304760 0.107039
0.690458 0.308824 0.111102
0.719746 0.312887 0.115166
0.749033 0.316950 0.119229
0.778321 0.321013 0.123292
0.805587 0.324796 0.127075
0.805587 0.324796 0.127075
0.805587 0.324796 0.127075
0.805587 0.324796 0.127075
0.053105 0.275057 0.053105
0.074226 0.275057 0.053105
0.095722 0.275057 0.053105
0.117367 0.275057 0.053105
0.139013 0.275057 0.053105
0.160658 0.275057 0.053105
0.182303 0.275057 0.053105
0.203948 0.275057 0.053105
0.225593 0.275057 0.053105
0.247238 0.275057 0.053105
0.268883 0.275057 0.053105
0.293160 0.277688 0.055737
0.318486 0.281369 0.059418
0.343812 0.285050 0.063099
0.369138 0.288731 0.066780
0.394464 0.292412 0.070461
0.419790 0.296093 0.074142
0.438270 0.298779 0.076828
0.485445 0.304612 0.082660
0.514733 0.308675 0.086723
0.544020 0.312738 0.090786
0.573308 0.316801 0.094850
0.602595 0.320864 0.098913
0.631883 0.324928 0.102976
0.661170 0.328991 0.107039
0.690458 0.333054 0.111102
0.719746 0.337117 0.115166
0.749033 0.341181 0.119229
0.778321 0.345244 0.123292
0.805587 0.349027 0.127075
0.805587 0.349027 0.127075
0.805587 0.349027 0.127075
0.805587 0.349027 0.127075
0.057226 0.303408 0.057226
0.078347 0.303408 0.057226
0.099843 0.303408 0.057226
0.121488 0.303408 0.057226
0.143133 0.303408 0.057226
0.164778 0.303408 0.057226
0.186424 0.303408 0.057226
0.208069 0.303408 0.057226
0.229714 0.303408 0.057226
0.251359 0.303408 0.057226
0.273004 0.303408 0.057226
0.294649 0.303408 0.057226
0.318486 0.305600 0.059418
0.343812 0.309281 0.063099
0.369138 0.312962 0.066780
0.394464 0.316643 0.070461
0.419790 0.320324 0.074142
0.438270 0.323010 0.076828
0.485445 0.328842 0.082660
0.514733 0.332905 0.086723
0.544020 0.336969 0.090786
0.573308 0.341032 0.094850
0.602595 0.345095 0.098913
0.631883 0.349158 0.102976
0.661170 0.353222 0.107039
0.690458 0.357285 0.111102
0.719746 0.361348 0.115166
0.749033 0.365411 0.119229
0.778321 0.369474 0.123292
0.805587 0.373257 0.127075
0.805587 0.373257 0.127075
0.805587 0.373257 0.127075
0.805587 0.373257 0.127075
0.061347 0.331760 0.061347
0.082467 0.331760 0.061347
0.103964 0.331760 0.061347
0.125609 0.331760 0.061347
0.147254 0.331760 0.061347
0.168899 0.331760 0.061347
0.190544 0.331760 0.061347
0.212189 0.331760 0.061347
0.233835 0.331760 0.061347
0.255480 0.331760 0.061347
0.277125 0.331760 0.061347
0.298770 0.331760 0.061347
0.320415 0.331760 0.061347
0.343812 0.333511 0.063099
0.369138 0.337192 0.066780
0.394464 0.340873 0.070461
0.419790 0.344554 0.074142
0.438270 0.347240 0.076828
0.485445 0.353073 0.082660
0.514733 0.357136 0.086723
0.544020 0.361199 0.090786
0.573308 0.365262 0.094850
0.602595 0.369326 0.098913
0.631883 0.373389 0.102976
0.661170 0.377452 0.107039
0.690458 0.381515 0.111102
0.719746 0.385579 0.115166
0.749033 0.389642 0.119229
0.778321 0.393705 0.123292
0.805587 0.397488 0.127075
0.805587 0.397488 0.127075
0.805587 0.397488 0.127075
0.805587 0.397488 0.127075
0.065468 0.360111 0.065468
0.086588 0.360111 0.065468
0.108084 0.360111 0.065468
0.129729 0.360111 0.065468
0.151375 0.360111 0.065468
0.173020 0.360111 0.065468
0.194665 0.360111 0.065468
0.216310 0.360111 0.065468
0.237955 0.360111 0.065468
0.259600 0.360111 0.065468
0.281246 0.360111 0.065468
0.302891 0.360111 0.065468
0.324536 0.360111 0.065468
0.346181 0.360111 0.065468
0.369138 0.361423 0.066780
0.394464 0.365104 0.070461
0.419790 0.368785 0.074142
0.438270 0.371471 0.076828
0.485445 0.377303 0.082660
0.514733 0.381366 0.086723
0.544020 0.385430 0.090786
0.573308 0.389493 0.094850
0.602595 0.393556 0.098913
0.631883 0.397619 0.102976
0.661170 0.401683 0.107039
0.690458 0.405746 0.111102
0.719746 0.409809 0.115166
0.749033 0.413872 0.119229
0.778321 0.417936 0.123292
0.805587 0.421718 0.127075
0.805587 0.421718 0.127075
0.805587 0.421718 0.127075
0.805587 0.421718 0.127075
0.069588 0.388462 0.069588
0.090709 0.388462 0.069588
0.112205 0.388462 0.069588
0.133850 0.388462 0.069588
0.155495 0.388462 0.069588
0.177140 0.388462 0.069588
0.198786 0.388462 0.069588
0.220431 0.388462 0.069588
0.242076 0.388462 0.069588
0.263721 0.388462 0.069588
0.285366 0.388462 0.069588
0.307011 0.388462 0.069588
0.328656 0.388462 0.069588
0.350302 0.388462 0.069588
0.371947 0.388462 0.069588
0.394464 0.389335 0.070461
0.419790 0.393016 0.074142
0.438270 0.395701 0.076828
0.485445 0.401534 0.082660
0.514733 0.405597 0.086723
0.544020 0.409660 0.090786
0.573308 0.413723 0.094850
0.602595 0.417787 0.098913
0.631883 0.421850 0.102976
0.661170 0.425913 0.107039
0.690458 0.429976 0.111102
0.719746 0.434040 0.115166
0.749033 0.438103 0.119229
0.778321 0.442166 0.123292
0.805587 0.445949 0.127075
0.805587 0.445949 0.127075
0.805587 0.445949 0.127075
0.805587 0.445949 0.127075
0.073709 0.416813 0.073709
0.094829 0.416813 0.073709
0.116326 0.416813 0.073709
0.137971 0.416813 0.073709
0.159616 0.416813 0.073709
0.181261 0.416813 0.073709
0.202906 0.416813 0.073709
0.224551 0.416813 0.073709
0.246197 0.416813 0.073709
0.267842 0.416813 0.073709
0.289487 0.416813 0.073709
0.311132 0.416813 0.073709
0.332777 0.416813 0.073709
0.354422 0.416813 0.073709
0.376067 0.416813 0.073709
0.397713 0.416813 0.073709
0.419790 0.417246 0.074142
0.438270 0.419932 0.076828
0.485445 0.425764 0.082660
0.514733 0.429828 0.086723
0.544020 0.433891 0.090786
0.573308 0.437954 0.094850
0.602595 0.442017 0.098913
0.631883 0.446080 0.102976
0.661170 0.450144 0.107039
0.690458 0.454207 0.111102
0.719746 0.458270 0.115166
0.749033 0.462333 0.119229
0.778321 0.466397 0.123292
0.805587 0.470179 0.127075
0.805587 0.470179 0.127075
0.805587 0.470179 0.127075
0.805587 0.470179 0.127075
0.076834 0.438318 0.076834
0.097955 0.438318 0.076834
0.119451 0.438318 0.076834
0.141096 0.438318 0.076834
0.162742 0.438318 0.076834
0.184387 0.438318 0.076834
0.206032 0.438318 0.076834
0.227677 0.438318 0.076834
0.249322 0.438318 0.076834
0.270967 0.438318 0.076834
0.292612 0.438318 0.076834
0.314258 0.438318 0.076834
0.335903 0.438318 0.076834
0.357548 0.438318 0.076834
0.379193 0.438318 0.076834
0.400838 0.438318 0.076834
0.422483 0.438318 0.076834
0.438277 0.438318 0.076834
0.485445 0.444143 0.082660
0.514733 0.464685 0.086723
0.544020 0.468926 0.090786
0.573308 0.473166 0.094850
0.602595 0.477406 0.098913
0.631883 0.481646 0.102976
0.661170 0.485886 0.107039
0.690458 0.490126 0.111102
0.719746 0.494367 0.115166
0.749033 0.498607 0.119229
0.778321 0.502847 0.123292
0.805587 0.506795 0.127075
0.805587 0.506795 0.127075
0.805587 0.506795 0.127075
0.805587 0.506795 0.127075
0.083153 0.488999 0.083153
0.104273 0.488999 0.083153
0.125770 0.488999 0.083153
0.147415 0.488999 0.083153
0.169060 0.488999 0.083153
0.190705 0.488999 0.083153
0.212350 0.488999 0.083153
0.233995 0.488999 0.083153
0.255641 0.488999 0.083153
0.277286 0.488999 0.083153
0.298931 0.488999 0.083153
0.320576 0.488999 0.083153
0.342221 0.488999 0.083153
0.363866 0.488999 0.083153
0.385511 0.488999 0.083153
0.407157 0.488999 0.083153
0.428802 0.488999 0.083153
0.444595 0.488999 0.083153
0.485960 0.488999 0.083153
0.514733 0.492725 0.086723
0.544020 0.496965 0.090786
0.573308 0.501205 0.094850
0.602595 0.505445 0.098913
0.631883 0.509685 0.102976
0.661170 0.513925 0.107039
0.690458 0.518166 0.111102
0.719746 0.522406 0.115166
0.749033 0.526646 0.119229
0.778321 0.530886 0.123292
0.805587 0.534834 0.127075
0.805587 0.534834 0.127075
0.805587 0.534834 0.127075
0.805587 0.534834 0.127075
0.087701 0.521785 0.087701
0.108822 0.521785 0.087701
0.130318 0.521785 0.087701
0.151963 0.521785 0.087701
0.173609 0.521785 0.087701
0.195254 0.521785 0.087701
0.216899 0.521785 0.087701
0.238544 0.521785 0.087701
0.260189 0.521785 0.087701
0.281834 0.521785 0.087701
0.303479 0.521785 0.087701
0.325125 0.521785 0.087701
0.346770 0.521785 0.087701
0.368415 0.521785 0.087701
0.390060 0.521785 0.087701
0.411705 0.521785 0.087701
0.433350 0.521785 0.087701
0.465659 0.521785 0.087701
0.490706 0.521785 0.087701
0.515754 0.521785 0.087701
0.544020 0.525004 0.090786
0.573308 0.529244 0.094850
0.602595 0.533484 0.098913
0.631883 0.537724 0.102976
0.661170 0.541965 0.107039
0.690458 0.546205 0.111102
0.719746 0.550445 0.115166
0.749033 0.554685 0.119229
0.778321 0.558925 0.123292
0.805587 0.562873 0.127075
0.805587 0.562873 0.127075
0.805587 0.562873 0.127075
0.805587 0.562873 0.127075
0.092250 0.554570 0.092250
0.113371 0.554570 0.092250
0.134867 0.554570 0.092250
0.156512 0.554570 0.092250
0.178157 0.554570 0.092250
0.199802 0.554570 0.092250
0.221447 0.554570 0.092250
0.243093 0.554570 0.092250
0.264738 0.554570 0.092250
0.286383 0.554570 0.092250
0.308028 0.554570 0.092250
0.329673 0.554570 0.092250
0.351318 0.554570 0.092250
0.372963 0.554570 0.092250
0.394609 0.554570 0.092250
0.416254 0.554570 0.092250
0.437899 0.554570 0.092250
0.470406 0.554570 0.092250
0.495453 0.554570 0.092250
0.520500 0.554570 0.092250
0.545548 0.554570 0.092250
0.573308 0.557283 0.094850
0.602595 0.561523 0.098913
0.631883 0.565764 0.102976
0.661170 0.570004 0.107039
0.690458 0.574244 0.111102
0.719746 0.578484 0.115166
0.749033 0.582724 0.119229
0.778321 0.586964 0.123292
0.805587 0.590912 0.127075
0.805587 0.590912 0.127075
0.805587 0.590912 0.127075
0.805587 0.590912 0.127075
0.096799 0.587356 0.096799
0.117919 0.587356 0.096799
0.139415 0.587356 0.096799
0.161060 0.587356 0.096799
0.182706 0.587356 0.096799
0.204351 0.587356 0.096799
0.225996 0.587356 0.096799
0.247641 0.587356 0.096799
0.269286 0.587356 0.096799
0.290931 0.587356 0.096799
0.312577 0.587356 0.096799
0.334222 0.587356 0.096799
0.355867 0.587356 0.096799
0.377512 0.587356 0.096799
0.399157 0.587356 0.096799
0.420802 0.587356 0.096799
0.442447 0.587356 0.096799
0.475152 0.587356 0.096799
0.500200 0.587356 0.096799
0.525247 0.587356 0.096799
0.550294 0.587356 0.096799
0.575342 0.587356 0.096799
0.602595 0.589563 0.098913
0.631883 0.593803 0.102976
0.661170 0.598043 0.107039
0.690458 0.602283 0.111102
0.719746 0.606523 0.115166
0.749033 0.610763 0.119229
0.778321 0.615004 0.123292
0.805587 0.618951 0.127075
0.805587 0.618951 0.127075
0.805587 0.618951 0.127075
0.805587 0.618951 0.127075
0.101347 0.620142 0.101347
0.122468 0.620142 0.101347
0.143964 0.620142 0.101347
0.165609 0.620142 0.101347
0.187254 0.620142 0.101347
0.208899 0.620142 0.101347
0.230545 0.620142 0.101347
0.252190 0.620142 0.101347
0.273835 0.620142 0.101347
0.295480 0.620142 0.101347
0.317125 0.620142 0.101347
0.338770 0.620142 0.101347
0.360415 0.620142 0.101347
0.382061 0.620142 0.101347
0.403706 0.620142 0.101347
0.425351 0.620142 0.101347
0.446996 0.620142 0.101347
0.479899 0.620142 0.101347
0.504946 0.620142 0.101347
0.529994 0.620142 0.101347
0.555041 0.620142 0.101347
0.580088 0.620142 0.101347
0.605136 0.620142 0.101347
0.631883 0.621842 0.102976
0.661170 0.626082 0.107039
0.690458 0.630322 0.111102
0.719746 0.634562 0.115166
0.749033 0.638803 0.119229
0.778321 0.643043 0.123292
0.805587 0.646990 0.127075
0.805587 0.646990 0.127075
0.805587 0.646990 0.127075
0.805587 0.646990 0.127075
0.105896 0.652928 0.105896
0.127016 0.652928 0.105896
0.148512 0.652928 0.105896
0.170158 0.652928 0.105896
0.191803 0.652928 0.105896
0.213448 0.652928 0.105896
0.235093 0.652928 0.105896
0.256738 0.652928 0.105896
0.278383 0.652928 0.105896
0.300029 0.652928 0.105896
0.321674 0.652928 0.105896
0.343319 0.652928 0.105896
0.364964 0.652928 0.105896
0.386609 0.652928 0.105896
0.408254 0.652928 0.105896
0.429899 0.652928 0.105896
0.451545 0.652928 0.105896
0.484646 0.652928 0.105896
0.509693 0.652928 0.105896
0.534740 0.652928 0.105896
0.559788 0.652928 0.105896
0.584835 0.652928 0.105896
0.609882 0.652928 0.105896
0.634930 0.652928 0.105896
0.661170 0.654121 0.107039
0.690458 0.658361 0.111102
0.719746 0.662601 0.115166
0.749033 0.666842 0.119229
0.778321 0.671082 0.123292
0.805587 0.675029 0.127075
0.805587 0.675029 0.127075
0.805587 0.675029 0.127075
0.805587 0.675029 0.127075
0.110444 0.685714 0.110444
0.131565 0.685714 0.110444
0.153061 0.685714 0.110444
0.174706 0.685714 0.110444
0.196351 0.685714 0.110444
0.217996 0.685714 0.110444
0.239642 0.685714 0.110444
0.261287 0.685714 0.110444
0.282932 0.685714 0.110444
0.304577 0.685714 0.110444
0.326222 0.685714 0.110444
0.347867 0.685714 0.110444
0.369513 0.685714 0.110444
0.391158 0.685714 0.110444
0.412803 0.685714 0.110444
0.434448 0.685714 0.110444
0.456093 0.685714 0.110444
0.489392 0.685714 0.110444
0.514440 0.685714 0.110444
0.539487 0.685714 0.110444
0.564534 0.685714 0.110444
0.589582 0.685714 0.110444
0.614629 0.685714 0.110444
0.639676 0.685714 0.110444
0.664724 0.685714 0.110444
0.690458 0.686400 0.111102
0.719746 0.690641 0.115166
0.749033 0.694881 0.119229
0.778321 0.699121 0.123292
0.805587 0.703069 0.127075
0.805587 0.703069 0.127075
0.805587 0.703069 0.127075
0.805587 0.703069 0.127075
0.114993 0.718499 0.114993
0.136113 0.718499 0.114993
0.157610 0.718499 0.114993
0.179255 0.718499 0.114993
0.200900 0.718499 0.114993
0.222545 0.718499 0.114993
0.244190 0.718499 0.114993
0.265835 0.718499 0.114993
0.287480 0.718499 0.114993
0.309126 0.718499 0.114993
0.330771 0.718499 0.114993
0.352416 0.718499 0.114993
0.374061 0.718499 0.114993
0.395706 0.718499 0.114993
0.417351 0.718499 0.114993
0.438997 0.718499 0.114993
0.460642 0.718499 0.114993
0.494139 0.718499 0.114993
0.519186 0.718499 0.114993
0.544234 0.718499 0.114993
0.569281 0.718499 0.114993
0.594328 0.718499 0.114993
0.619376 0.718499 0.114993
0.644423 0.718499 0.114993
0.669470 0.718499 0.114993
0.694518 0.718499 0.114993
0.719746 0.718680 0.115166
0.749033 0.722920 0.119229
0.778321 0.727160 0.123292
0.805587 0.731108 0.127075
0.805587 0.731108 0.127075
0.805587 0.731108 0.127075
0.805587 0.731108 0.127075
0.119541 0.751285 0.119541
0.140662 0.751285 0.119541
0.162158 0.751285 0.119541
0.183803 0.751285 0.119541
0.205448 0.751285 0.119541
0.227094 0.751285 0.119541
0.248739 0.751285 0.119541
0.270384 0.751285 0.119541
0.292029 0.751285 0.119541
0.313674 0.751285 0.119541
0.335319 0.751285 0.119541
0.356965 0.751285 0.119541
0.378610 0.751285 0.119541
0.400255 0.751285 0.119541
0.421900 0.751285 0.119541
0.443545 0.751285 0.119541
0.465190 0.751285 0.119541
0.498885 0.751285 0.119541
0.523933 0.751285 0.119541
0.548980 0.751285 0.119541
0.574028 0.751285 0.119541
0.599075 0.751285 0.119541
0.624122 0.751285 0.119541
0.649170 0.751285 0.119541
0.674217 0.751285 0.119541
0.699264 0.751285 0.119541
0.724312 0.751285 0.119541
0.749359 0.751285 0.119541
0.778321 0.755199 0.123292
0.805587 0.759147 0.127075
0.805587 0.759147 0.127075
0.805587 0.759147 0.127075
0.805587 0.759147 0.127075
0.124090 0.784071 0.124090
0.145210 0.784071 0.124090
0.166707 0.784071 0.124090
0.188352 0.784071 0.124090
0.209997 0.784071 0.124090
0.231642 0.784071 0.124090
0.253287 0.784071 0.124090
0.274932 0.784071 0.124090
0.296578 0.784071 0.124090
0.318223 0.784071 0.124090
0.339868 0.784071 0.124090
0.361513 0.784071 0.124090
0.383158 0.784071 0.124090
0.404803 0.784071 0.124090
0.426449 0.784071 0.124090
0.448094 0.784071 0.124090
0.469739 0.784071 0.124090
0.503632 0.784071 0.124090
0.528679 0.784071 0.124090
0.553727 0.784071 0.124090
0.578774 0.784071 0.124090
0.603822 0.784071 0.124090
0.628869 0.784071 0.124090
0.653916 0.784071 0.124090
0.678964 0.784071 0.124090
0.704011 0.784071 0.124090
0.729058 0.784071 0.124090
0.754106 0.784071 0.124090
0.779153 0.784071 0.124090
0.805587 0.787186 0.127075
0.805587 0.787186 0.127075
0.805587 0.787186 0.127075
0.805587 0.787186 0.127075
0.128639 0.816857 0.128639
0.149759 0.816857 0.128639
0.171255 0.816857 0.128639
0.192900 0.816857 0.128639
0.214546 0.816857 0.128639
0.236191 0.816857 0.128639
0.257836 0.816857 0.128639
0.279481 0.816857 0.128639
0.301126 0.816857 0.128639
0.322771 0.816857 0.128639
0.344416 0.816857 0.128639
0.366062 0.816857 0.128639
0.387707 0.816857 0.128639
0.409352 0.816857 0.128639
0.430997 0.816857 0.128639
0.452642 0.816857 0.128639
0.474287 0.816857 0.128639
0.508379 0.816857 0.128639
0.533426 0.816857 0.128639
0.558473 0.816857 0.128639
0.583521 0.816857 0.128639
0.608568 0.816857 0.128639
0.633616 0.816857 0.128639
0.658663 0.816857 0.128639
