docs/luts/fuji_recipes/NEGAhi_PS_Kodak_Gold_200.cube
TITLE "Fujifilm Recipe: PS Kodak Gold 200 (NEGAhi)"
# FilmSim=NEGAhi HL=-2 SH=-1 Col=1 WB=FLight1 WBR=4 WBB=-3
LUT_3D_SIZE 5
DOMAIN_MIN 0.0 0.0 0.0
DOMAIN_MAX 1.0 1.0 1.0
0.040000 0.040000 0.040000
0.412347 0.009256 0.009256
0.711379 0.000000 0.000000
0.974720 0.000000 0.000000
0.974720 0.000000 0.000000
0.009576 0.408465 0.009576
0.412347 0.408144 0.009256
0.711379 0.380873 0.000000
0.974720 0.368267 0.000000
0.974720 0.368267 0.000000
0.000000 0.701573 0.000000
0.385569 0.701573 0.000000
0.711379 0.700331 0.000000
0.974720 0.677150 0.000000
0.974720 0.677150 0.000000
0.000000 0.974720 0.000000
0.372147 0.974720 0.000000
0.687833 0.974720 0.000000
0.974720 0.974720 0.000000
0.974720 0.974720 0.000000
0.000000 0.974720 0.000000
0.372147 0.974720 0.000000
0.687833 0.974720 0.000000
0.974720 0.974720 0.000000
0.974720 0.974720 0.000000
0.009253 0.009253 0.412385
0.412344 0.009253 0.412385
0.711379 0.000000 0.384925
0.974720 0.000000 0.372184
0.974720 0.000000 0.372184
0.009253 0.408141 0.412385
0.381920 0.377717 0.381961
0.697780 0.351641 0.355884
0.984821 0.327940 0.332184
0.984821 0.327940 0.332184
0.000000 0.701573 0.385608
0.356406 0.686771 0.356446
0.697456 0.685885 0.355561
0.984497 0.662184 0.331860
0.984497 0.662184 0.331860
0.000000 0.974720 0.372184
0.331822 0.984501 0.331863
0.673755 0.984497 0.331860
0.984497 0.984497 0.331860
0.984497 0.984497 0.331860
0.000000 0.974720 0.372184
0.331822 0.984501 0.331863
0.673755 0.984497 0.331860
0.984497 0.984497 0.331860
0.984497 0.984497 0.331860
0.000000 0.000000 0.704560
0.385359 0.000000 0.704560
0.711379 0.000000 0.703696
0.974720 0.000000 0.680405
0.974720 0.000000 0.680405
0.000000 0.381341 0.704560
0.356457 0.352254 0.690347
0.697780 0.351641 0.689734
0.984821 0.327940 0.666033
0.984821 0.327940 0.666033
0.000000 0.701191 0.704560
0.356137 0.686502 0.690027
0.672262 0.660691 0.664216
0.959303 0.636990 0.640515
0.959303 0.636990 0.640515
0.000000 0.974720 0.680405
0.331822 0.984501 0.665712
0.648292 0.959034 0.640246
0.959034 0.959034 0.640246
0.959034 0.959034 0.640246
0.000000 0.974720 0.680405
0.331822 0.984501 0.665712
0.648292 0.959034 0.640246
0.959034 0.959034 0.640246
0.959034 0.959034 0.640246
0.000000 0.000000 0.909512
0.374548 0.000000 0.909512
0.692271 0.000000 0.909512
0.974720 0.000000 0.903682
0.974720 0.000000 0.903682
0.000000 0.370643 0.909512
0.338012 0.333809 0.913744
0.679948 0.333809 0.913744
0.984821 0.327940 0.907876
0.984821 0.327940 0.907876
0.000000 0.681519 0.909512
0.337691 0.668056 0.913424
0.654430 0.642859 0.888226
0.959303 0.636990 0.882358
0.959303 0.636990 0.882358
0.000000 0.974720 0.903682
0.331822 0.984501 0.907555
0.647679 0.958421 0.881475
0.940589 0.940589 0.863643
0.940589 0.940589 0.863643
0.000000 0.974720 0.903682
0.331822 0.984501 0.907555
0.647679 0.958421 0.881475
0.940589 0.940589 0.863643
0.940589 0.940589 0.863643
0.000000 0.000000 0.909512
0.374548 0.000000 0.909512
0.692271 0.000000 0.909512
0.974720 0.000000 0.903682
0.974720 0.000000 0.903682
0.000000 0.370643 0.909512
0.338012 0.333809 0.913744
0.679948 0.333809 0.913744
0.984821 0.327940 0.907876
0.984821 0.327940 0.907876
0.000000 0.681519 0.909512
0.337691 0.668056 0.913424
0.654430 0.642859 0.888226
0.959303 0.636990 0.882358
0.959303 0.636990 0.882358
0.000000 0.974720 0.903682
0.331822 0.984501 0.907555
0.647679 0.958421 0.881475
0.940589 0.940589 0.863643
0.940589 0.940589 0.863643
0.000000 0.974720 0.903682
0.331822 0.984501 0.907555
0.647679 0.958421 0.881475
0.940589 0.940589 0.863643
0.940589 0.940589 0.863643
