docs/luts/fuji_recipes/NEGA_RR_Warm_Contrast.cube
TITLE "Fujifilm Recipe: RR Warm Contrast (NEGA)"
# FilmSim=NEGA HL=1 SH=3 Col=4 WB=Auto WBR=-2 WBB=-4
LUT_3D_SIZE 9
DOMAIN_MIN 0.0 0.0 0.0
DOMAIN_MAX 1.0 1.0 1.0
0.014080 0.014080 0.014080
0.145795 0.000000 0.000000
0.258905 0.000000 0.000000
0.372016 0.000000 0.000000
0.538541 0.000000 0.000000
0.670212 0.000000 0.000000
0.801884 0.000000 0.000000
0.933555 0.000000 0.000000
0.964201 0.000000 0.000000
0.000000 0.151986 0.000000
0.144387 0.151986 0.000000
0.258905 0.138938 0.000000
0.372016 0.133967 0.000000
0.538541 0.129140 0.000000
0.670212 0.127681 0.000000
0.801884 0.126719 0.000000
0.933555 0.126038 0.000000
0.964201 0.125907 0.000000
0.000000 0.271050 0.000000
0.131273 0.271050 0.000000
0.257497 0.271050 0.000000
0.372016 0.262781 0.000000
0.538541 0.253314 0.000000
0.670212 0.250451 0.000000
0.801884 0.248565 0.000000
0.933555 0.247228 0.000000
0.964201 0.246971 0.000000
0.000000 0.390114 0.000000
0.126787 0.390114 0.000000
0.248697 0.390114 0.000000
0.370608 0.390114 0.000000
0.538541 0.377488 0.000000
0.670212 0.373222 0.000000
0.801884 0.370411 0.000000
0.933555 0.368418 0.000000
0.964201 0.368035 0.000000
0.000000 0.566538 0.000000
0.122332 0.566538 0.000000
0.239958 0.566538 0.000000
0.357585 0.566538 0.000000
0.537220 0.566538 0.000000
0.670212 0.562566 0.000000
0.801884 0.559361 0.000000
0.933555 0.557379 0.000000
0.964201 0.557038 0.000000
0.000000 0.705140 0.000000
0.121020 0.705140 0.000000
0.237385 0.705140 0.000000
0.353751 0.705140 0.000000
0.532552 0.705140 0.000000
0.668957 0.705140 0.000000
0.801884 0.702189 0.000000
0.933555 0.699439 0.000000
0.964201 0.698951 0.000000
0.000000 0.843741 0.000000
0.120155 0.843741 0.000000
0.235688 0.843741 0.000000
0.351222 0.843741 0.000000
0.529830 0.843741 0.000000
0.665259 0.843741 0.000000
0.800689 0.843741 0.000000
0.933555 0.841500 0.000000
0.964201 0.840863 0.000000
0.000000 0.982343 0.000000
0.119541 0.982343 0.000000
0.234485 0.982343 0.000000
0.349429 0.982343 0.000000
0.528204 0.982343 0.000000
0.662942 0.982343 0.000000
0.797680 0.982343 0.000000
0.932419 0.982343 0.000000
0.963778 0.982343 0.000000
0.014602 1.000000 0.014602
0.130588 1.000000 0.014602
0.242113 1.000000 0.014602
0.353638 1.000000 0.014602
0.527339 1.000000 0.014602
0.658070 1.000000 0.014602
0.788801 1.000000 0.014602
0.919532 1.000000 0.014602
0.949959 1.000000 0.014602
0.000000 0.000000 0.139604
0.145795 0.000000 0.138121
0.258905 0.000000 0.125044
0.372016 0.000000 0.120570
0.538541 0.000000 0.116226
0.670212 0.000000 0.114913
0.801884 0.000000 0.114047
0.933555 0.000000 0.113434
0.964201 0.000000 0.113316
0.000000 0.151986 0.136788
0.131715 0.141405 0.122024
0.278540 0.111190 0.091809
0.423616 0.079225 0.059844
0.643135 0.027143 0.007761
0.782568 0.017960 0.000000
0.914239 0.016818 0.000000
1.000000 0.060555 0.045910
1.000000 0.090204 0.076556
0.000000 0.271050 0.124364
0.098067 0.294117 0.088377
0.275108 0.294117 0.088377
0.423616 0.265584 0.059844
0.643135 0.213501 0.007761
0.782568 0.190656 0.000000
0.914239 0.178528 0.000000
1.000000 0.201367 0.045910
1.000000 0.221435 0.076556
0.000000 0.390114 0.120114
0.064420 0.446828 0.054729
0.241461 0.446828 0.054729
0.418501 0.446828 0.054729
0.643135 0.399860 0.007761
0.782568 0.363351 0.000000
0.914239 0.340239 0.000000
1.000000 0.342179 0.045910
1.000000 0.352666 0.076556
0.000000 0.566538 0.115893
0.009677 0.678894 0.000000
0.186472 0.678894 0.000000
0.363267 0.678894 0.000000
0.634828 0.678894 0.000000
0.782568 0.631146 0.000000
0.914239 0.592369 0.000000
1.000000 0.562918 0.045910
1.000000 0.558645 0.076556
0.000000 0.705140 0.114650
0.008803 0.817495 0.000000
0.169623 0.817495 0.000000
0.330443 0.817495 0.000000
0.578975 0.817495 0.000000
0.767489 0.817495 0.000000
0.914239 0.781927 0.000000
1.000000 0.727979 0.045910
1.000000 0.712475 0.076556
0.000000 0.843741 0.113831
0.008272 0.956097 0.000000
0.159396 0.956097 0.000000
0.310519 0.956097 0.000000
0.545485 0.956097 0.000000
0.722633 0.956097 0.000000
0.899782 0.956097 0.000000
1.000000 0.893040 0.045910
1.000000 0.866305 0.076556
0.000000 0.982343 0.113250
0.101244 1.000000 0.094698
0.220837 1.000000 0.094698
0.340429 1.000000 0.094698
0.527494 1.000000 0.094698
0.667681 1.000000 0.094698
0.807869 1.000000 0.094698
0.948057 1.000000 0.094698
0.980685 1.000000 0.094698
0.014602 1.000000 0.124483
0.133037 1.000000 0.126957
0.244122 1.000000 0.126957
0.355207 1.000000 0.126957
0.529206 1.000000 0.126957
0.659421 1.000000 0.126957
0.789635 1.000000 0.126957
0.919850 1.000000 0.126957
0.950157 1.000000 0.126957
0.000000 0.000000 0.246761
0.132788 0.000000 0.246761
0.258905 0.000000 0.245279
0.372016 0.000000 0.236503
0.538541 0.000000 0.227983
0.670212 0.000000 0.225406
0.801884 0.000000 0.223709
0.933555 0.000000 0.222505
0.964201 0.000000 0.222274
0.000000 0.139777 0.246761
0.103182 0.112872 0.261214
0.275041 0.107691 0.256032
0.420116 0.075726 0.224067
0.639773 0.023607 0.171948
0.795052 0.000000 0.142909
0.926723 0.000000 0.132902
1.000000 0.058394 0.170723
1.000000 0.089040 0.193620
0.000000 0.271050 0.243945
0.096318 0.292367 0.254350
0.244825 0.263834 0.225817
0.393333 0.235301 0.197284
0.614045 0.182903 0.144886
0.784434 0.144185 0.106168
0.954824 0.105467 0.067449
1.000000 0.183279 0.153944
1.000000 0.211661 0.184590
0.000000 0.390114 0.235608
0.062670 0.445078 0.220702
0.211178 0.416545 0.192169
0.388219 0.416545 0.192169
0.614045 0.369261 0.144886
0.784434 0.330543 0.106168
0.954824 0.291825 0.067449
1.000000 0.327075 0.153944
1.000000 0.344358 0.184590
0.000000 0.566538 0.227329
0.007451 0.677684 0.165483
0.155662 0.650275 0.136653
0.332702 0.650275 0.136653
0.606148 0.650275 0.136653
0.784434 0.621033 0.106168
0.954824 0.583893 0.067449
1.000000 0.553656 0.153944
1.000000 0.553712 0.184590
0.000000 0.705140 0.224891
0.000000 0.823737 0.146209
0.114906 0.829632 0.095897
0.291946 0.829632 0.095897
0.567054 0.829632 0.095897
0.774582 0.829632 0.095897
0.954824 0.802345 0.067449
1.000000 0.722215 0.153944
1.000000 0.709262 0.184590
0.000000 0.843741 0.223284
0.000000 0.962339 0.136953
0.082781 1.000000 0.064131
0.256485 1.000000 0.064131
0.528037 1.000000 0.064131
0.731654 1.000000 0.064131
0.935271 1.000000 0.064131
1.000000 0.890774 0.153944
1.000000 0.864811 0.184590
0.000000 0.982343 0.222144
0.100940 1.000000 0.207721
0.215641 1.000000 0.202732
0.335874 1.000000 0.202732
0.524964 1.000000 0.202732
0.665902 1.000000 0.202732
0.806841 1.000000 0.202732
0.947779 1.000000 0.202732
0.980582 1.000000 0.202732
0.014602 1.000000 0.230139
0.133199 1.000000 0.232332
0.246860 1.000000 0.234991
0.357404 1.000000 0.234991
0.531498 1.000000 0.234991
0.661079 1.000000 0.234991
0.790659 1.000000 0.234991
0.920240 1.000000 0.234991
0.950400 1.000000 0.234991
0.000000 0.000000 0.353918
0.127804 0.000000 0.353918
0.250692 0.000000 0.353918
0.372016 0.000000 0.352436
0.538541 0.000000 0.339739
0.670212 0.000000 0.335900
0.801884 0.000000 0.333370
0.933555 0.000000 0.331577
0.964201 0.000000 0.331232
0.000000 0.134530 0.353918
0.072899 0.082590 0.398654
0.248190 0.080840 0.396904
0.420116 0.075726 0.391790
0.639773 0.023607 0.339671
0.795052 0.000000 0.304489
0.926723 0.000000 0.283168
1.000000 0.058394 0.297727
1.000000 0.089040 0.311862
0.000000 0.263886 0.353918
0.072899 0.268948 0.398654
0.217975 0.236983 0.366689
0.386469 0.228437 0.358142
0.607451 0.175967 0.305673
0.777840 0.137249 0.266955
0.948230 0.098531 0.228236
1.000000 0.178432 0.279076
1.000000 0.209078 0.301709
0.000000 0.390114 0.351102
0.062670 0.445078 0.388425
0.207746 0.413113 0.356460
0.357936 0.386262 0.329609
0.584954 0.338663 0.282010
0.755344 0.299945 0.243292
0.925733 0.261227 0.204574
1.000000 0.306924 0.261978
1.000000 0.333562 0.292624
0.000000 0.566538 0.338765
0.007451 0.677684 0.333206
0.152194 0.646978 0.300908
0.302104 0.621185 0.273777
0.577057 0.621185 0.273777
0.755344 0.591942 0.243292
0.925733 0.554803 0.204574
1.000000 0.541083 0.261978
1.000000 0.547105 0.292624
0.000000 0.705140 0.335132
0.000000 0.823737 0.301384
0.111438 0.826335 0.260152
0.261348 0.800542 0.233021
0.537963 0.800542 0.233021
0.745492 0.800542 0.233021
0.925733 0.773254 0.204574
1.000000 0.714390 0.261978
1.000000 0.704957 0.292624
0.000000 0.843741 0.332737
0.000000 0.962339 0.282303
0.076375 1.000000 0.223278
0.220592 0.979899 0.192266
0.498869 0.979899 0.192266
0.706398 0.979899 0.192266
0.913927 0.979899 0.192266
1.000000 0.887697 0.261978
1.000000 0.862809 0.292624
0.000000 0.982343 0.331038
0.100940 1.000000 0.321050
0.214976 1.000000 0.316042
0.330140 1.000000 0.310766
0.521600 1.000000 0.310766
0.663536 1.000000 0.310766
0.805473 1.000000 0.310766
0.947409 1.000000 0.310766
0.980444 1.000000 0.310766
0.014602 1.000000 0.335794
0.133199 1.000000 0.337544
0.247235 1.000000 0.340032
0.360598 1.000000 0.343025
0.534509 1.000000 0.343025
0.663257 1.000000 0.343025
0.792005 1.000000 0.343025
0.920753 1.000000 0.343025
0.950718 1.000000 0.343025
0.000000 0.000000 0.460908
0.125290 0.000000 0.460908
0.245761 0.000000 0.460908
0.366231 0.000000 0.460908
0.538541 0.000000 0.451320
0.670212 0.000000 0.446220
0.801884 0.000000 0.442859
0.933555 0.000000 0.508253
0.964201 0.000000 0.507963
0.000000 0.131884 0.460908
0.042664 0.052355 0.535879
0.217955 0.050605 0.534129
0.394995 0.050605 0.534129
0.639773 0.023607 0.507131
0.795052 0.000000 0.465817
0.926723 0.000000 0.526719
1.000000 0.058394 0.504771
1.000000 0.089040 0.504882
0.000000 0.258695 0.460908
0.042664 0.238713 0.535879
0.187740 0.206748 0.503913
0.361348 0.203316 0.500481
0.607451 0.175967 0.473133
0.777840 0.137249 0.538896
0.948230 0.098531 0.501756
1.000000 0.178432 0.492535
1.000000 0.209078 0.498438
0.000000 0.385507 0.460908
0.042664 0.425072 0.535879
0.187740 0.393107 0.503913
0.311030 0.339356 0.554248
0.575128 0.328328 0.543712
0.745518 0.289609 0.506573
0.915907 0.250891 0.469434
1.000000 0.298470 0.475129
1.000000 0.329116 0.489415
0.000000 0.566538 0.450026
0.007451 0.677684 0.500666
0.152194 0.646978 0.468368
0.296936 0.616272 0.540728
0.525846 0.569973 0.494430
0.703872 0.540470 0.464927
0.873931 0.503000 0.427457
1.000000 0.499358 0.433977
1.000000 0.522402 0.464837
0.000000 0.705140 0.445201
0.000000 0.823737 0.456316
0.111438 0.826335 0.532341
0.256180 0.795629 0.501634
0.486404 0.748982 0.454988
0.693932 0.748982 0.454988
0.873931 0.721452 0.427457
1.000000 0.688422 0.433977
1.000000 0.688864 0.464837
0.000000 0.843741 0.442018
0.000000 0.962339 0.518247
0.076375 1.000000 0.493794
0.215424 0.974986 0.462541
0.446962 0.927992 0.415546
0.654491 0.927992 0.415546
0.862019 0.927992 0.415546
1.000000 0.877486 0.433977
1.000000 0.855326 0.464837
0.000000 0.982343 0.507807
0.100940 1.000000 0.506137
0.214976 1.000000 0.503281
0.329012 1.000000 0.499402
0.505323 1.000000 0.483105
0.652088 1.000000 0.483105
0.798854 1.000000 0.483105
0.945619 1.000000 0.483105
0.979779 1.000000 0.483105
0.014602 1.000000 0.507549
0.133199 1.000000 0.509616
0.247235 1.000000 0.512194
0.361271 1.000000 0.515649
0.535056 1.000000 0.515589
0.663653 1.000000 0.515589
0.792249 1.000000 0.515589
0.920846 1.000000 0.515589
0.950776 1.000000 0.515589
0.000000 0.000000 0.635285
0.121606 0.000000 0.635285
0.238535 0.000000 0.635285
0.355464 0.000000 0.635285
0.534578 0.000000 0.635285
0.670212 0.000000 0.633946
0.801884 0.000000 0.630204
0.933555 0.000000 0.627841
0.964201 0.000000 0.627427
0.000000 0.128006 0.635285
0.000000 0.009373 0.753882
0.165245 0.000000 0.760124
0.340059 0.000000 0.760124
0.609563 0.000000 0.760124
0.795052 0.000000 0.742018
0.926723 0.000000 0.691474
1.000000 0.058394 0.644021
1.000000 0.089040 0.634527
0.000000 0.251090 0.635285
0.000000 0.189628 0.753882
0.131979 0.150987 0.735939
0.305552 0.147520 0.732642
0.580163 0.147520 0.732642
0.777840 0.137249 0.722791
0.948230 0.098531 0.685651
1.000000 0.178432 0.635226
1.000000 0.209078 0.629770
0.000000 0.374173 0.635285
0.000000 0.369883 0.753882
0.131979 0.337346 0.735939
0.276721 0.305048 0.705233
0.547841 0.299880 0.700320
0.745518 0.289609 0.690468
0.915907 0.250891 0.653329
1.000000 0.298470 0.622714
1.000000 0.329116 0.623109
0.000000 0.563722 0.635285
0.000000 0.649079 0.753882
0.131979 0.627587 0.735939
0.276721 0.596881 0.705233
0.500610 0.544737 0.653089
0.690232 0.526831 0.635183
0.860291 0.489361 0.597713
1.000000 0.482242 0.579224
1.000000 0.513101 0.597274
0.000000 0.705140 0.632774
0.000000 0.823737 0.721875
0.111438 0.826335 0.716236
0.256180 0.795629 0.685529
0.480731 0.743310 0.633210
0.660730 0.715780 0.605680
0.840728 0.688249 0.578150
1.000000 0.656514 0.551467
1.000000 0.671032 0.582327
0.000000 0.843741 0.629335
0.000000 0.962339 0.677612
0.076375 1.000000 0.675450
0.215424 0.974986 0.646435
0.441290 0.922319 0.593769
0.621288 0.894789 0.566238
0.828817 0.894789 0.566238
1.000000 0.864940 0.551467
1.000000 0.847035 0.582327
0.000000 0.982343 0.627201
0.100940 1.000000 0.630394
0.214976 1.000000 0.628257
0.329012 1.000000 0.625354
0.503177 1.000000 0.611479
0.640791 1.000000 0.600595
0.792322 1.000000 0.600595
0.943854 1.000000 0.600595
0.979122 1.000000 0.600595
0.014602 1.000000 0.623392
0.133199 1.000000 0.624973
0.247235 1.000000 0.626944
0.361271 1.000000 0.629586
0.535661 1.000000 0.630022
0.666865 1.000000 0.633079
0.794233 1.000000 0.633079
0.921602 1.000000 0.633079
0.951246 1.000000 0.633079
0.000000 0.000000 0.760026
0.120638 0.000000 0.760026
0.236636 0.000000 0.760026
0.352635 0.000000 0.760026
0.531303 0.000000 0.760026
0.667277 0.000000 0.760026
0.801884 0.000000 0.758749
0.933555 0.000000 0.755695
0.964201 0.000000 0.755148
0.000000 0.126987 0.760026
0.000000 0.008710 0.878623
0.152992 0.000000 0.884865
0.314843 0.000000 0.884865
0.565730 0.000000 0.884865
0.755454 0.000000 0.884865
0.926723 0.000000 0.867617
1.000000 0.058394 0.792897
1.000000 0.089040 0.773132
0.000000 0.249091 0.760026
0.000000 0.176216 0.878623
0.095298 0.114307 0.897361
0.268871 0.110839 0.894064
0.544979 0.110839 0.894064
0.752507 0.110839 0.894064
0.948230 0.098531 0.882258
1.000000 0.178432 0.787780
1.000000 0.209078 0.770179
0.000000 0.371194 0.760026
0.000000 0.343722 0.878623
0.095298 0.300666 0.897361
0.240041 0.268367 0.866654
0.512656 0.263200 0.861741
0.720185 0.263200 0.861741
0.915907 0.250891 0.849935
1.000000 0.298470 0.780501
1.000000 0.329116 0.766045
0.000000 0.560215 0.760026
0.000000 0.604516 0.878623
0.095298 0.592403 0.897361
0.240041 0.561696 0.866654
0.465113 0.509240 0.814198
0.664674 0.501272 0.806230
0.860291 0.489361 0.794319
1.000000 0.482242 0.755199
1.000000 0.513101 0.750008
0.000000 0.703346 0.760026
0.000000 0.800868 0.878623
0.095298 0.810854 0.897361
0.240041 0.780148 0.866654
0.465113 0.727691 0.814198
0.635172 0.690221 0.776728
0.820849 0.668370 0.754877
0.990908 0.630901 0.717407
1.000000 0.652669 0.726256
0.000000 0.843741 0.757637
0.000000 0.962339 0.847994
0.076375 1.000000 0.869662
0.215424 0.974986 0.843042
0.441290 0.922319 0.790375
0.611349 0.884850 0.752905
0.793319 0.859291 0.727347
0.975290 0.833733 0.701789
1.000000 0.827688 0.707938
0.000000 0.982343 0.754848
0.100940 1.000000 0.763240
0.214976 1.000000 0.761870
0.329012 1.000000 0.760011
0.503177 1.000000 0.751123
0.635766 1.000000 0.740572
0.777756 1.000000 0.726206
0.939916 1.000000 0.726206
0.977658 1.000000 0.726206
0.014602 1.000000 0.747243
0.133199 1.000000 0.748304
0.247235 1.000000 0.749627
0.361271 1.000000 0.751400
0.535661 1.000000 0.751692
0.668250 1.000000 0.754767
0.798366 1.000000 0.758690
0.923177 1.000000 0.758690
0.952226 1.000000 0.758690
0.000000 0.000000 0.884767
0.119953 0.000000 0.884767
0.235292 0.000000 0.884767
0.350631 0.000000 0.884767
0.529258 0.000000 0.884767
0.664460 0.000000 0.884767
0.799661 0.000000 0.884767
0.933555 0.000000 0.883550
0.964201 0.000000 0.882870
0.000000 0.126266 0.884767
0.003365 0.011580 1.000000
0.151751 0.009607 1.000000
0.302127 0.009607 1.000000
0.536497 0.009607 1.000000
0.712769 0.009607 1.000000
0.889041 0.009607 1.000000
1.000000 0.058394 0.941773
1.000000 0.089040 0.911738
0.000000 0.247675 0.884767
0.003365 0.169567 1.000000
0.117401 0.134175 1.000000
0.269806 0.129644 1.000000
0.516017 0.129644 1.000000
0.700078 0.129644 1.000000
0.884139 0.129644 1.000000
1.000000 0.178432 0.940334
1.000000 0.209078 0.910589
0.000000 0.369085 0.884767
0.003365 0.327554 1.000000
0.117401 0.298628 1.000000
0.231437 0.257834 1.000000
0.486041 0.249682 1.000000
0.681502 0.249682 1.000000
0.876963 0.249682 1.000000
1.000000 0.298470 0.938288
1.000000 0.329116 0.908980
0.000000 0.558006 0.884767
0.003365 0.574795 1.000000
0.117401 0.557392 1.000000
0.231437 0.532586 1.000000
0.429615 0.473742 0.975306
0.629176 0.465775 0.967339
0.836705 0.465775 0.967339
1.000000 0.482242 0.931174
1.000000 0.513101 0.902741
0.000000 0.700324 0.884767
0.003365 0.759989 1.000000
0.117401 0.750166 1.000000
0.231437 0.736163 1.000000
0.429615 0.692193 0.975306
0.599674 0.654724 0.937837
0.797263 0.644784 0.927897
0.990908 0.630901 0.914014
1.000000 0.652669 0.893501
0.000000 0.842641 0.884767
0.003365 0.945183 1.000000
0.117401 0.942939 1.000000
0.231437 0.939741 1.000000
0.429615 0.910645 0.975306
0.599674 0.873175 0.937837
0.769733 0.835705 0.900367
0.951467 0.809910 0.874572
0.991047 0.801189 0.865851
0.000000 0.982343 0.882495
0.100940 1.000000 0.896085
0.214976 1.000000 0.895484
0.329012 1.000000 0.894668
0.503177 1.000000 0.890767
0.635766 1.000000 0.886136
0.768355 1.000000 0.874748
0.925908 1.000000 0.851817
0.972449 1.000000 0.851817
0.014602 1.000000 0.871093
0.133199 1.000000 0.871634
0.247235 1.000000 0.872309
0.361271 1.000000 0.873213
0.535661 1.000000 0.873362
0.668250 1.000000 0.874931
0.800839 1.000000 0.878440
0.927370 1.000000 0.882664
0.955452 1.000000 0.882664
0.000000 0.000000 0.913800
0.119821 0.000000 0.913800
0.235033 0.000000 0.913800
0.350246 0.000000 0.913800
0.528903 0.000000 0.913800
0.663956 0.000000 0.913800
0.799009 0.000000 0.913800
0.933555 0.000000 0.913307
0.964201 0.000000 0.912596
0.000000 0.126127 0.913800
0.032398 0.040073 1.000000
0.171369 0.038640 1.000000
0.311784 0.038640 1.000000
0.530906 0.038640 1.000000
0.695502 0.038640 1.000000
0.860098 0.038640 1.000000
1.000000 0.058394 0.976423
1.000000 0.089040 0.943998
0.000000 0.247403 0.913800
0.032398 0.187669 1.000000
0.146434 0.161941 1.000000
0.288083 0.158677 1.000000
0.515686 0.158677 1.000000
0.685622 0.158677 1.000000
0.855559 0.158677 1.000000
1.000000 0.178432 0.975841
1.000000 0.209078 0.943269
0.000000 0.368680 0.913800
0.032398 0.335264 1.000000
0.146434 0.313976 1.000000
0.260470 0.284525 1.000000
0.493796 0.278715 1.000000
0.671413 0.278715 1.000000
0.849030 0.278715 1.000000
1.000000 0.298470 0.975012
1.000000 0.329116 0.942248
0.000000 0.557620 0.913800
0.032398 0.566520 1.000000
0.146434 0.553484 1.000000
0.260470 0.535195 1.000000
0.434157 0.476373 1.000000
0.622863 0.462349 1.000000
0.826724 0.462349 1.000000
1.000000 0.482242 0.972132
1.000000 0.513101 0.938289
0.000000 0.699781 0.913800
0.032398 0.739533 1.000000
0.146434 0.731700 1.000000
0.260470 0.720711 1.000000
0.434157 0.685367 1.000000
0.591412 0.646462 0.975334
0.789001 0.636522 0.965395
0.990908 0.630901 0.959773
1.000000 0.652669 0.932426
0.000000 0.841942 0.913800
0.032398 0.912547 1.000000
0.146434 0.909917 1.000000
0.260470 0.906227 1.000000
0.434157 0.894360 1.000000
0.591412 0.864913 0.975334
0.761471 0.827443 0.937864
0.951467 0.809910 0.920331
0.991047 0.801189 0.911610
0.000000 0.982343 0.912204
0.100940 1.000000 0.927005
0.214976 1.000000 0.926582
0.329012 1.000000 0.926009
0.503177 1.000000 0.923269
0.635766 1.000000 0.920016
0.768355 1.000000 0.912016
0.917646 0.994541 0.886511
0.965948 0.994541 0.886511
0.014602 1.000000 0.899919
0.133199 1.000000 0.900339
0.247235 1.000000 0.900863
0.361271 1.000000 0.901565
0.535661 1.000000 0.901681
0.668250 1.000000 0.902898
0.800839 1.000000 0.905623
0.928686 1.000000 0.910584
0.956768 1.000000 0.910584
