docs/luts/fuji_recipes/NEGAhi_GB_Muted.cube
TITLE "Fujifilm Recipe: GB Muted (NEGAhi)"
# FilmSim=NEGAhi HL=-1 SH=2 Col=-2 WB=Auto WBR=0 WBB=0
LUT_3D_SIZE 9
DOMAIN_MIN 0.0 0.0 0.0
DOMAIN_MAX 1.0 1.0 1.0
0.000000 0.000000 0.000000
0.094864 0.020824 0.020824
0.189556 0.041610 0.041610
0.284248 0.062396 0.062396
0.411756 0.090385 0.090385
0.507345 0.111368 0.111368
0.602935 0.132351 0.132351
0.698524 0.153335 0.153335
0.790775 0.173585 0.173585
0.020700 0.094300 0.020700
0.094864 0.094424 0.020824
0.189556 0.115210 0.041610
0.284248 0.135996 0.062396
0.411756 0.163985 0.090385
0.507345 0.184968 0.111368
0.602935 0.205951 0.132351
0.698524 0.226935 0.153335
0.790775 0.247185 0.173585
0.041400 0.188600 0.041400
0.115440 0.188600 0.041400
0.189556 0.188810 0.041610
0.284248 0.209596 0.062396
0.411756 0.237585 0.090385
0.507345 0.258568 0.111368
0.602935 0.279551 0.132351
0.698524 0.300535 0.153335
0.790775 0.320785 0.173585
0.062100 0.282900 0.062100
0.136140 0.282900 0.062100
0.210046 0.282900 0.062100
0.284248 0.283196 0.062396
0.411756 0.311185 0.090385
0.507345 0.332168 0.111368
0.602935 0.353151 0.132351
0.698524 0.374135 0.153335
0.790775 0.394385 0.173585
0.082800 0.377200 0.082800
0.156840 0.377200 0.082800
0.230746 0.377200 0.082800
0.304652 0.377200 0.082800
0.411756 0.384785 0.090385
0.507345 0.405768 0.111368
0.602935 0.426751 0.132351
0.698524 0.447735 0.153335
0.790775 0.467985 0.173585
0.110896 0.505194 0.110896
0.184937 0.505194 0.110896
0.258842 0.505194 0.110896
0.332748 0.505194 0.110896
0.432267 0.505194 0.110896
0.507345 0.505666 0.111368
0.602935 0.526649 0.132351
0.698524 0.547632 0.153335
0.790775 0.567882 0.173585
0.131792 0.600388 0.131792
0.205833 0.600388 0.131792
0.279738 0.600388 0.131792
0.353644 0.600388 0.131792
0.453163 0.600388 0.131792
0.527769 0.600388 0.131792
0.602935 0.600947 0.132351
0.698524 0.621930 0.153335
0.790775 0.642180 0.173585
0.152689 0.695581 0.152689
0.226729 0.695581 0.152689
0.300635 0.695581 0.152689
0.374540 0.695581 0.152689
0.474059 0.695581 0.152689
0.548665 0.695581 0.152689
0.623272 0.695581 0.152689
0.698524 0.696227 0.153335
0.790775 0.716478 0.173585
0.173585 0.790775 0.173585
0.247625 0.790775 0.173585
0.321531 0.790775 0.173585
0.395437 0.790775 0.173585
0.494955 0.790775 0.173585
0.569562 0.790775 0.173585
0.644168 0.790775 0.173585
0.718774 0.790775 0.173585
0.790775 0.790775 0.173585
0.020700 0.020700 0.094300
0.094864 0.020824 0.094424
0.189556 0.041610 0.115210
0.284248 0.062396 0.135996
0.411756 0.090385 0.163985
0.507345 0.111368 0.184968
0.602935 0.132351 0.205951
0.698524 0.153335 0.226935
0.790775 0.173585 0.247185
0.020700 0.094300 0.094300
0.115564 0.115124 0.115124
0.210256 0.135910 0.135910
0.304948 0.156696 0.156696
0.432456 0.184685 0.184685
0.528045 0.205668 0.205668
0.623635 0.226651 0.226651
0.719224 0.247635 0.247635
0.811475 0.267885 0.267885
0.041400 0.188600 0.115000
0.136140 0.209300 0.135700
0.210256 0.209510 0.135910
0.304948 0.230296 0.156696
0.432456 0.258285 0.184685
0.528045 0.279268 0.205668
0.623635 0.300251 0.226651
0.719224 0.321235 0.247635
0.811475 0.341485 0.267885
0.062100 0.282900 0.135700
0.156840 0.303600 0.156400
0.230746 0.303600 0.156400
0.304948 0.303896 0.156696
0.432456 0.331885 0.184685
0.528045 0.352868 0.205668
0.623635 0.373851 0.226651
0.719224 0.394835 0.247635
0.811475 0.415085 0.267885
0.082800 0.377200 0.156400
0.177540 0.397900 0.177100
0.251446 0.397900 0.177100
0.325352 0.397900 0.177100
0.432456 0.405485 0.184685
0.528045 0.426468 0.205668
0.623635 0.447451 0.226651
0.719224 0.468435 0.247635
0.811475 0.488685 0.267885
0.110896 0.505194 0.184496
0.205637 0.525894 0.205196
0.279542 0.525894 0.205196
0.353448 0.525894 0.205196
0.452967 0.525894 0.205196
0.528045 0.526366 0.205668
0.623635 0.547349 0.226651
0.719224 0.568332 0.247635
0.811475 0.588582 0.267885
0.131792 0.600388 0.205392
0.226533 0.621088 0.226092
0.300438 0.621088 0.226092
0.374344 0.621088 0.226092
0.473863 0.621088 0.226092
0.548469 0.621088 0.226092
0.623635 0.621647 0.226651
0.719224 0.642630 0.247635
0.811475 0.662880 0.267885
0.152689 0.695581 0.226289
0.247429 0.716281 0.246989
0.321335 0.716281 0.246989
0.395240 0.716281 0.246989
0.494759 0.716281 0.246989
0.569365 0.716281 0.246989
0.643972 0.716281 0.246989
0.719224 0.716927 0.247635
0.811475 0.737178 0.267885
0.173585 0.790775 0.247185
0.268325 0.811475 0.267885
0.342231 0.811475 0.267885
0.416137 0.811475 0.267885
0.515655 0.811475 0.267885
0.590262 0.811475 0.267885
0.664868 0.811475 0.267885
0.739474 0.811475 0.267885
0.811475 0.811475 0.267885
0.041400 0.041400 0.188600
0.115440 0.041400 0.188600
0.189556 0.041610 0.188810
0.284248 0.062396 0.209596
0.411756 0.090385 0.237585
0.507345 0.111368 0.258568
0.602935 0.132351 0.279551
0.698524 0.153335 0.300535
0.790775 0.173585 0.320785
0.041400 0.115000 0.188600
0.136140 0.135700 0.209300
0.210256 0.135910 0.209510
0.304948 0.156696 0.230296
0.432456 0.184685 0.258285
0.528045 0.205668 0.279268
0.623635 0.226651 0.300251
0.719224 0.247635 0.321235
0.811475 0.267885 0.341485
0.041400 0.188600 0.188600
0.136264 0.209424 0.209424
0.230956 0.230210 0.230210
0.325648 0.250996 0.250996
0.453156 0.278985 0.278985
0.548745 0.299968 0.299968
0.644335 0.320951 0.320951
0.739924 0.341935 0.341935
0.832175 0.362185 0.362185
0.062100 0.282900 0.209300
0.156964 0.303724 0.230124
0.251446 0.324300 0.250700
0.325648 0.324596 0.250996
0.453156 0.352585 0.278985
0.548745 0.373568 0.299968
0.644335 0.394551 0.320951
0.739924 0.415535 0.341935
0.832175 0.435785 0.362185
0.082800 0.377200 0.230000
0.177664 0.398024 0.250824
0.272146 0.418600 0.271400
0.346052 0.418600 0.271400
0.453156 0.426185 0.278985
0.548745 0.447168 0.299968
0.644335 0.468151 0.320951
0.739924 0.489135 0.341935
0.832175 0.509385 0.362185
0.110896 0.505194 0.258096
0.205760 0.526018 0.278920
0.300242 0.546594 0.299496
0.374148 0.546594 0.299496
0.473667 0.546594 0.299496
0.548745 0.547066 0.299968
0.644335 0.568049 0.320951
0.739924 0.589032 0.341935
0.832175 0.609282 0.362185
0.131792 0.600388 0.278992
0.226657 0.621211 0.299816
0.321138 0.641788 0.320392
0.395044 0.641788 0.320392
0.494563 0.641788 0.320392
0.569169 0.641788 0.320392
0.644335 0.642347 0.320951
0.739924 0.663330 0.341935
0.832175 0.683580 0.362185
0.152689 0.695581 0.299889
0.247553 0.716405 0.320712
0.342035 0.736981 0.341289
0.415940 0.736981 0.341289
0.515459 0.736981 0.341289
0.590065 0.736981 0.341289
0.664672 0.736981 0.341289
0.739924 0.737627 0.341935
0.832175 0.757878 0.362185
0.173585 0.790775 0.320785
0.268449 0.811599 0.341609
0.362931 0.832175 0.362185
0.436837 0.832175 0.362185
0.536355 0.832175 0.362185
0.610962 0.832175 0.362185
0.685568 0.832175 0.362185
0.760174 0.832175 0.362185
0.832175 0.832175 0.362185
0.062100 0.062100 0.282900
0.136140 0.062100 0.282900
0.210046 0.062100 0.282900
0.284248 0.062396 0.283196
0.411756 0.090385 0.311185
0.507345 0.111368 0.332168
0.602935 0.132351 0.353151
0.698524 0.153335 0.374135
0.790775 0.173585 0.394385
0.062100 0.135700 0.282900
0.156840 0.156400 0.303600
0.230746 0.156400 0.303600
0.304948 0.156696 0.303896
0.432456 0.184685 0.331885
0.528045 0.205668 0.352868
0.623635 0.226651 0.373851
0.719224 0.247635 0.394835
0.811475 0.267885 0.415085
0.062100 0.209300 0.282900
0.156964 0.230124 0.303724
0.251446 0.250700 0.324300
0.325648 0.250996 0.324596
0.453156 0.278985 0.352585
0.548745 0.299968 0.373568
0.644335 0.320951 0.394551
0.739924 0.341935 0.415535
0.832175 0.362185 0.435785
0.062100 0.282900 0.282900
0.156964 0.303724 0.303724
0.251656 0.324510 0.324510
0.346348 0.345296 0.345296
0.473856 0.373285 0.373285
0.569445 0.394268 0.394268
0.665035 0.415251 0.415251
0.760624 0.436235 0.436235
0.852875 0.456485 0.456485
0.082800 0.377200 0.303600
0.177664 0.398024 0.324424
0.272356 0.418810 0.345210
0.366752 0.439300 0.365700
0.473856 0.446885 0.373285
0.569445 0.467868 0.394268
0.665035 0.488851 0.415251
0.760624 0.509835 0.436235
0.852875 0.530085 0.456485
0.110896 0.505194 0.331696
0.205760 0.526018 0.352520
0.300452 0.546804 0.373306
0.394848 0.567294 0.393796
0.494367 0.567294 0.393796
0.569445 0.567766 0.394268
0.665035 0.588749 0.415251
0.760624 0.609732 0.436235
0.852875 0.629982 0.456485
0.131792 0.600388 0.352592
0.226657 0.621211 0.373416
0.321348 0.641997 0.394202
0.415744 0.662488 0.414692
0.515263 0.662488 0.414692
0.589869 0.662488 0.414692
0.665035 0.663047 0.415251
0.760624 0.684030 0.436235
0.852875 0.704280 0.456485
0.152689 0.695581 0.373489
0.247553 0.716405 0.394312
0.342245 0.737191 0.415098
0.436640 0.757681 0.435589
0.536159 0.757681 0.435589
0.610765 0.757681 0.435589
0.685372 0.757681 0.435589
0.760624 0.758327 0.436235
0.852875 0.778578 0.456485
0.173585 0.790775 0.394385
0.268449 0.811599 0.415209
0.363141 0.832385 0.435995
0.457537 0.852875 0.456485
0.557055 0.852875 0.456485
0.631662 0.852875 0.456485
0.706268 0.852875 0.456485
0.780874 0.852875 0.456485
0.852875 0.852875 0.456485
0.082800 0.082800 0.377200
0.156840 0.082800 0.377200
0.230746 0.082800 0.377200
0.304652 0.082800 0.377200
0.411756 0.090385 0.384785
0.507345 0.111368 0.405768
0.602935 0.132351 0.426751
0.698524 0.153335 0.447735
0.790775 0.173585 0.467985
0.082800 0.156400 0.377200
0.177540 0.177100 0.397900
0.251446 0.177100 0.397900
0.325352 0.177100 0.397900
0.432456 0.184685 0.405485
0.528045 0.205668 0.426468
0.623635 0.226651 0.447451
0.719224 0.247635 0.468435
0.811475 0.267885 0.488685
0.082800 0.230000 0.377200
0.177664 0.250824 0.398024
0.272146 0.271400 0.418600
0.346052 0.271400 0.418600
0.453156 0.278985 0.426185
0.548745 0.299968 0.447168
0.644335 0.320951 0.468151
0.739924 0.341935 0.489135
0.832175 0.362185 0.509385
0.082800 0.303600 0.377200
0.177664 0.324424 0.398024
0.272356 0.345210 0.418810
0.366752 0.365700 0.439300
0.473856 0.373285 0.446885
0.569445 0.394268 0.467868
0.665035 0.415251 0.488851
0.760624 0.436235 0.509835
0.852875 0.456485 0.530085
0.082800 0.377200 0.377200
0.177664 0.398024 0.398024
0.272356 0.418810 0.418810
0.367048 0.439596 0.439596
0.494556 0.467585 0.467585
0.590145 0.488568 0.488568
0.685735 0.509551 0.509551
0.781324 0.530535 0.530535
0.873575 0.550785 0.550785
0.110896 0.505194 0.405296
0.205760 0.526018 0.426120
0.300452 0.546804 0.446906
0.395144 0.567590 0.467692
0.515067 0.587994 0.488096
0.590145 0.588466 0.488568
0.685735 0.609449 0.509551
0.781324 0.630432 0.530535
0.873575 0.650682 0.550785
0.131792 0.600388 0.426192
0.226657 0.621211 0.447016
0.321348 0.641997 0.467802
0.416040 0.662783 0.488588
0.535963 0.683188 0.508992
0.610569 0.683188 0.508992
0.685735 0.683747 0.509551
0.781324 0.704730 0.530535
0.873575 0.724980 0.550785
0.152689 0.695581 0.447089
0.247553 0.716405 0.467912
0.342245 0.737191 0.488698
0.436936 0.757977 0.509484
0.556859 0.778381 0.529889
0.631465 0.778381 0.529889
0.706072 0.778381 0.529889
0.781324 0.779027 0.530535
0.873575 0.799278 0.550785
0.173585 0.790775 0.467985
0.268449 0.811599 0.488809
0.363141 0.832385 0.509595
0.457833 0.853171 0.530381
0.577755 0.873575 0.550785
0.652362 0.873575 0.550785
0.726968 0.873575 0.550785
0.801574 0.873575 0.550785
0.873575 0.873575 0.550785
0.110896 0.110896 0.505194
0.184937 0.110896 0.505194
0.258842 0.110896 0.505194
0.332748 0.110896 0.505194
0.432267 0.110896 0.505194
0.507345 0.111368 0.505666
0.602935 0.132351 0.526649
0.698524 0.153335 0.547632
0.790775 0.173585 0.567882
0.110896 0.184496 0.505194
0.205637 0.205196 0.525894
0.279542 0.205196 0.525894
0.353448 0.205196 0.525894
0.452967 0.205196 0.525894
0.528045 0.205668 0.526366
0.623635 0.226651 0.547349
0.719224 0.247635 0.568332
0.811475 0.267885 0.588582
0.110896 0.258096 0.505194
0.205760 0.278920 0.526018
0.300242 0.299496 0.546594
0.374148 0.299496 0.546594
0.473667 0.299496 0.546594
0.548745 0.299968 0.547066
0.644335 0.320951 0.568049
0.739924 0.341935 0.589032
0.832175 0.362185 0.609282
0.110896 0.331696 0.505194
0.205760 0.352520 0.526018
0.300452 0.373306 0.546804
0.394848 0.393796 0.567294
0.494367 0.393796 0.567294
0.569445 0.394268 0.567766
0.665035 0.415251 0.588749
0.760624 0.436235 0.609732
0.852875 0.456485 0.629982
0.110896 0.405296 0.505194
0.205760 0.426120 0.526018
0.300452 0.446906 0.546804
0.395144 0.467692 0.567590
0.515067 0.488096 0.587994
0.590145 0.488568 0.588466
0.685735 0.509551 0.609449
0.781324 0.530535 0.630432
0.873575 0.550785 0.650682
0.110896 0.505194 0.505194
0.205760 0.526018 0.526018
0.300452 0.546804 0.546804
0.395144 0.567590 0.567590
0.522652 0.595579 0.595579
0.618241 0.616562 0.616562
0.713831 0.637545 0.637545
0.809420 0.658528 0.658528
0.901671 0.678779 0.678779
0.131792 0.600388 0.526090
0.226657 0.621211 0.546914
0.321348 0.641997 0.567700
0.416040 0.662783 0.588486
0.543548 0.690773 0.616475
0.638665 0.711284 0.636986
0.713831 0.711843 0.637545
0.809420 0.732826 0.658528
0.901671 0.753076 0.678779
0.152689 0.695581 0.546986
0.247553 0.716405 0.567810
0.342245 0.737191 0.588596
0.436936 0.757977 0.609382
0.564445 0.785967 0.637372
0.659562 0.806478 0.657882
0.734168 0.806478 0.657882
0.809420 0.807124 0.658528
0.901671 0.827374 0.678779
0.173585 0.790775 0.567882
0.268449 0.811599 0.588706
0.363141 0.832385 0.609492
0.457833 0.853171 0.630278
0.585341 0.881161 0.658268
0.680458 0.901671 0.678779
0.755064 0.901671 0.678779
0.829670 0.901671 0.678779
0.901671 0.901671 0.678779
0.131792 0.131792 0.600388
0.205833 0.131792 0.600388
0.279738 0.131792 0.600388
0.353644 0.131792 0.600388
0.453163 0.131792 0.600388
0.527769 0.131792 0.600388
0.602935 0.132351 0.600947
0.698524 0.153335 0.621930
0.790775 0.173585 0.642180
0.131792 0.205392 0.600388
0.226533 0.226092 0.621088
0.300438 0.226092 0.621088
0.374344 0.226092 0.621088
0.473863 0.226092 0.621088
0.548469 0.226092 0.621088
0.623635 0.226651 0.621647
0.719224 0.247635 0.642630
0.811475 0.267885 0.662880
0.131792 0.278992 0.600388
0.226657 0.299816 0.621211
0.321138 0.320392 0.641788
0.395044 0.320392 0.641788
0.494563 0.320392 0.641788
0.569169 0.320392 0.641788
0.644335 0.320951 0.642347
0.739924 0.341935 0.663330
0.832175 0.362185 0.683580
0.131792 0.352592 0.600388
0.226657 0.373416 0.621211
0.321348 0.394202 0.641997
0.415744 0.414692 0.662488
0.515263 0.414692 0.662488
0.589869 0.414692 0.662488
0.665035 0.415251 0.663047
0.760624 0.436235 0.684030
0.852875 0.456485 0.704280
0.131792 0.426192 0.600388
0.226657 0.447016 0.621211
0.321348 0.467802 0.641997
0.416040 0.488588 0.662783
0.535963 0.508992 0.683188
0.610569 0.508992 0.683188
0.685735 0.509551 0.683747
0.781324 0.530535 0.704730
0.873575 0.550785 0.724980
0.131792 0.526090 0.600388
0.226657 0.546914 0.621211
0.321348 0.567700 0.641997
0.416040 0.588486 0.662783
0.543548 0.616475 0.690773
0.638665 0.636986 0.711284
0.713831 0.637545 0.711843
0.809420 0.658528 0.732826
0.901671 0.678779 0.753076
0.131792 0.600388 0.600388
0.226657 0.621211 0.621211
0.321348 0.641997 0.641997
0.416040 0.662783 0.662783
0.543548 0.690773 0.690773
0.639138 0.711756 0.711756
0.734727 0.732739 0.732739
0.830316 0.753722 0.753722
0.922568 0.773972 0.773972
0.152689 0.695581 0.621284
0.247553 0.716405 0.642108
0.342245 0.737191 0.662894
0.436936 0.757977 0.683680
0.564445 0.785967 0.711669
0.660034 0.806950 0.732652
0.755064 0.827374 0.753076
0.830316 0.828020 0.753722
0.922568 0.848270 0.773972
0.173585 0.790775 0.642180
0.268449 0.811599 0.663004
0.363141 0.832385 0.683790
0.457833 0.853171 0.704576
0.585341 0.881161 0.732565
0.680930 0.902144 0.753548
0.775960 0.922568 0.773972
0.850567 0.922568 0.773972
0.922568 0.922568 0.773972
0.152689 0.152689 0.695581
0.226729 0.152689 0.695581
0.300635 0.152689 0.695581
0.374540 0.152689 0.695581
0.474059 0.152689 0.695581
0.548665 0.152689 0.695581
0.623272 0.152689 0.695581
0.698524 0.153335 0.696227
0.790775 0.173585 0.716478
0.152689 0.226289 0.695581
0.247429 0.246989 0.716281
0.321335 0.246989 0.716281
0.395240 0.246989 0.716281
0.494759 0.246989 0.716281
0.569365 0.246989 0.716281
0.643972 0.246989 0.716281
0.719224 0.247635 0.716927
0.811475 0.267885 0.737178
0.152689 0.299889 0.695581
0.247553 0.320712 0.716405
0.342035 0.341289 0.736981
0.415940 0.341289 0.736981
0.515459 0.341289 0.736981
0.590065 0.341289 0.736981
0.664672 0.341289 0.736981
0.739924 0.341935 0.737627
0.832175 0.362185 0.757878
0.152689 0.373489 0.695581
0.247553 0.394312 0.716405
0.342245 0.415098 0.737191
0.436640 0.435589 0.757681
0.536159 0.435589 0.757681
0.610765 0.435589 0.757681
0.685372 0.435589 0.757681
0.760624 0.436235 0.758327
0.852875 0.456485 0.778578
0.152689 0.447089 0.695581
0.247553 0.467912 0.716405
0.342245 0.488698 0.737191
0.436936 0.509484 0.757977
0.556859 0.529889 0.778381
0.631465 0.529889 0.778381
0.706072 0.529889 0.778381
0.781324 0.530535 0.779027
0.873575 0.550785 0.799278
0.152689 0.546986 0.695581
0.247553 0.567810 0.716405
0.342245 0.588596 0.737191
0.436936 0.609382 0.757977
0.564445 0.637372 0.785967
0.659562 0.657882 0.806478
0.734168 0.657882 0.806478
0.809420 0.658528 0.807124
0.901671 0.678779 0.827374
0.152689 0.621284 0.695581
0.247553 0.642108 0.716405
0.342245 0.662894 0.737191
0.436936 0.683680 0.757977
0.564445 0.711669 0.785967
0.660034 0.732652 0.806950
0.755064 0.753076 0.827374
0.830316 0.753722 0.828020
0.922568 0.773972 0.848270
0.152689 0.695581 0.695581
0.247553 0.716405 0.716405
0.342245 0.737191 0.737191
0.436936 0.757977 0.757977
0.564445 0.785967 0.785967
0.660034 0.806950 0.806950
0.755623 0.827933 0.827933
0.851212 0.848916 0.848916
0.943464 0.869166 0.869166
0.173585 0.790775 0.716478
0.268449 0.811599 0.737301
0.363141 0.832385 0.758087
0.457833 0.853171 0.778873
0.585341 0.881161 0.806863
0.680930 0.902144 0.827846
0.776519 0.923127 0.848829
0.871463 0.943464 0.869166
0.943464 0.943464 0.869166
0.173585 0.173585 0.790775
0.247625 0.173585 0.790775
0.321531 0.173585 0.790775
0.395437 0.173585 0.790775
0.494955 0.173585 0.790775
0.569562 0.173585 0.790775
0.644168 0.173585 0.790775
0.718774 0.173585 0.790775
0.790775 0.173585 0.790775
0.173585 0.247185 0.790775
0.268325 0.267885 0.811475
0.342231 0.267885 0.811475
0.416137 0.267885 0.811475
0.515655 0.267885 0.811475
0.590262 0.267885 0.811475
0.664868 0.267885 0.811475
0.739474 0.267885 0.811475
0.811475 0.267885 0.811475
0.173585 0.320785 0.790775
0.268449 0.341609 0.811599
0.362931 0.362185 0.832175
0.436837 0.362185 0.832175
0.536355 0.362185 0.832175
0.610962 0.362185 0.832175
0.685568 0.362185 0.832175
0.760174 0.362185 0.832175
0.832175 0.362185 0.832175
0.173585 0.394385 0.790775
0.268449 0.415209 0.811599
0.363141 0.435995 0.832385
0.457537 0.456485 0.852875
0.557055 0.456485 0.852875
0.631662 0.456485 0.852875
0.706268 0.456485 0.852875
0.780874 0.456485 0.852875
0.852875 0.456485 0.852875
0.173585 0.467985 0.790775
0.268449 0.488809 0.811599
0.363141 0.509595 0.832385
0.457833 0.530381 0.853171
0.577755 0.550785 0.873575
0.652362 0.550785 0.873575
0.726968 0.550785 0.873575
0.801574 0.550785 0.873575
0.873575 0.550785 0.873575
0.173585 0.567882 0.790775
0.268449 0.588706 0.811599
0.363141 0.609492 0.832385
0.457833 0.630278 0.853171
0.585341 0.658268 0.881161
0.680458 0.678779 0.901671
0.755064 0.678779 0.901671
0.829670 0.678779 0.901671
0.901671 0.678779 0.901671
0.173585 0.642180 0.790775
0.268449 0.663004 0.811599
0.363141 0.683790 0.832385
0.457833 0.704576 0.853171
0.585341 0.732565 0.881161
0.680930 0.753548 0.902144
0.775960 0.773972 0.922568
0.850567 0.773972 0.922568
0.922568 0.773972 0.922568
0.173585 0.716478 0.790775
0.268449 0.737301 0.811599
0.363141 0.758087 0.832385
0.457833 0.778873 0.853171
0.585341 0.806863 0.881161
0.680930 0.827846 0.902144
0.776519 0.848829 0.923127
0.871463 0.869166 0.943464
0.943464 0.869166 0.943464
0.173585 0.790775 0.790775
0.268449 0.811599 0.811599
0.363141 0.832385 0.832385
0.457833 0.853171 0.853171
0.585341 0.881161 0.881161
0.680930 0.902144 0.902144
0.776519 0.923127 0.923127
0.872109 0.944110 0.944110
0.964360 0.964360 0.964360
