docs/luts/fuji_recipes/NEGAhi_PS_Kodak_Gold_200.cube
TITLE "Fujifilm Recipe: PS Kodak Gold 200 (NEGAhi)"
# FilmSim=NEGAhi HL=-2 SH=-1 Col=1 WB=FLight1 WBR=4 WBB=-3
LUT_3D_SIZE 9
DOMAIN_MIN 0.0 0.0 0.0
DOMAIN_MAX 1.0 1.0 1.0
0.040000 0.040000 0.040000
0.233791 0.023999 0.023999
0.412347 0.009256 0.009256
0.563019 0.000000 0.000000
0.711379 0.000000 0.000000
0.859740 0.000000 0.000000
0.974720 0.000000 0.000000
0.974720 0.000000 0.000000
0.974720 0.000000 0.000000
0.023993 0.233868 0.023993
0.233784 0.233868 0.023993
0.412347 0.219131 0.009256
0.563019 0.207318 0.000000
0.711379 0.200396 0.000000
0.859740 0.196109 0.000000
0.974720 0.193763 0.000000
0.974720 0.193763 0.000000
0.974720 0.193763 0.000000
0.009576 0.408465 0.009576
0.219368 0.408465 0.009576
0.412347 0.408144 0.009256
0.563019 0.394029 0.000000
0.711379 0.380873 0.000000
0.859740 0.372724 0.000000
0.974720 0.368267 0.000000
0.974720 0.368267 0.000000
0.974720 0.368267 0.000000
0.000000 0.556503 0.000000
0.207639 0.556503 0.000000
0.398955 0.556503 0.000000
0.563019 0.555424 0.000000
0.711379 0.536879 0.000000
0.859740 0.525391 0.000000
0.974720 0.519109 0.000000
0.974720 0.519109 0.000000
0.974720 0.519109 0.000000
0.000000 0.701573 0.000000
0.200672 0.701573 0.000000
0.385569 0.701573 0.000000
0.545186 0.701573 0.000000
0.711379 0.700331 0.000000
0.859740 0.685346 0.000000
0.974720 0.677150 0.000000
0.974720 0.677150 0.000000
0.974720 0.677150 0.000000
0.000000 0.846644 0.000000
0.196342 0.846644 0.000000
0.377250 0.846644 0.000000
0.533422 0.846644 0.000000
0.697264 0.846644 0.000000
0.859740 0.845300 0.000000
0.974720 0.835192 0.000000
0.974720 0.835192 0.000000
0.974720 0.835192 0.000000
0.000000 0.974720 0.000000
0.193686 0.974720 0.000000
0.372147 0.974720 0.000000
0.526207 0.974720 0.000000
0.687833 0.974720 0.000000
0.849459 0.974720 0.000000
0.974720 0.974720 0.000000
0.974720 0.974720 0.000000
0.974720 0.974720 0.000000
0.000000 0.974720 0.000000
0.193686 0.974720 0.000000
0.372147 0.974720 0.000000
0.526207 0.974720 0.000000
0.687833 0.974720 0.000000
0.849459 0.974720 0.000000
0.974720 0.974720 0.000000
0.974720 0.974720 0.000000
0.974720 0.974720 0.000000
0.000000 0.974720 0.000000
0.193686 0.974720 0.000000
0.372147 0.974720 0.000000
0.526207 0.974720 0.000000
0.687833 0.974720 0.000000
0.849459 0.974720 0.000000
0.974720 0.974720 0.000000
0.974720 0.974720 0.000000
0.974720 0.974720 0.000000
0.023655 0.023655 0.237950
0.233447 0.023655 0.237950
0.412347 0.009256 0.223550
0.563019 0.000000 0.211684
0.711379 0.000000 0.204616
0.859740 0.000000 0.200238
0.974720 0.000000 0.197844
0.974720 0.000000 0.197844
0.974720 0.000000 0.197844
0.023655 0.233531 0.237950
0.217446 0.217530 0.221949
0.396340 0.203123 0.207543
0.550483 0.190396 0.194816
0.712196 0.177044 0.181463
0.873909 0.163691 0.168111
0.999237 0.153343 0.157762
0.999237 0.153343 0.157762
0.999237 0.153343 0.157762
0.009576 0.408465 0.223871
0.203367 0.392464 0.207870
0.396003 0.391800 0.207206
0.550146 0.379072 0.194479
0.711859 0.365720 0.181126
0.873572 0.352367 0.167774
0.998900 0.342019 0.157425
0.998900 0.342019 0.157425
0.998900 0.342019 0.157425
0.000000 0.556503 0.212095
0.190905 0.543387 0.195408
0.383862 0.543044 0.195065
0.550146 0.542457 0.194479
0.711859 0.529105 0.181126
0.873572 0.515752 0.167774
0.998900 0.505404 0.157425
0.998900 0.505404 0.157425
0.998900 0.505404 0.157425
0.000000 0.701573 0.204979
0.177849 0.701514 0.182352
0.370805 0.701170 0.182009
0.537676 0.701170 0.182009
0.711859 0.700288 0.181126
0.873572 0.686935 0.167774
0.998900 0.676587 0.157425
0.998900 0.676587 0.157425
0.998900 0.676587 0.157425
0.000000 0.846644 0.200556
0.164793 0.859641 0.169296
0.357749 0.859297 0.168952
0.524620 0.859297 0.168952
0.699685 0.859297 0.168952
0.873572 0.858119 0.167774
0.998900 0.847770 0.157425
0.998900 0.847770 0.157425
0.998900 0.847770 0.157425
0.000000 0.974720 0.197844
0.153266 0.999244 0.157769
0.346222 0.998900 0.157425
0.513093 0.998900 0.157425
0.688158 0.998900 0.157425
0.863224 0.998900 0.157425
0.998900 0.998900 0.157425
0.998900 0.998900 0.157425
0.998900 0.998900 0.157425
0.000000 0.974720 0.197844
0.153266 0.999244 0.157769
0.346222 0.998900 0.157425
0.513093 0.998900 0.157425
0.688158 0.998900 0.157425
0.863224 0.998900 0.157425
0.998900 0.998900 0.157425
0.998900 0.998900 0.157425
0.998900 0.998900 0.157425
0.000000 0.974720 0.197844
0.153266 0.999244 0.157769
0.346222 0.998900 0.157425
0.513093 0.998900 0.157425
0.688158 0.998900 0.157425
0.863224 0.998900 0.157425
0.998900 0.998900 0.157425
0.998900 0.998900 0.157425
0.998900 0.998900 0.157425
0.009253 0.009253 0.412385
0.219044 0.009253 0.412385
0.412344 0.009253 0.412385
0.563019 0.000000 0.398221
0.711379 0.000000 0.384925
0.859740 0.000000 0.376689
0.974720 0.000000 0.372184
0.974720 0.000000 0.372184
0.974720 0.000000 0.372184
0.009253 0.219128 0.412385
0.203043 0.203127 0.396384
0.396337 0.203120 0.396377
0.550483 0.190396 0.383653
0.712196 0.177044 0.370301
0.873909 0.163691 0.356948
0.999237 0.153343 0.346600
0.999237 0.153343 0.346600
0.999237 0.153343 0.346600
0.009253 0.408141 0.412385
0.203043 0.392140 0.396384
0.381920 0.377717 0.381961
0.536067 0.364993 0.369237
0.697780 0.351641 0.355884
0.859493 0.338288 0.342532
0.984821 0.327940 0.332184
0.984821 0.327940 0.332184
0.984821 0.327940 0.332184
0.000000 0.556503 0.398995
0.190905 0.543387 0.384246
0.369462 0.528644 0.369503
0.535743 0.528054 0.368913
0.697456 0.514702 0.355561
0.859169 0.501350 0.342208
0.984497 0.491001 0.331860
0.984497 0.491001 0.331860
0.984497 0.491001 0.331860
0.000000 0.701573 0.385608
0.177849 0.701514 0.371190
0.356406 0.686771 0.356446
0.523273 0.686768 0.356443
0.697456 0.685885 0.355561
0.859169 0.672533 0.342208
0.984497 0.662184 0.331860
0.984497 0.662184 0.331860
0.984497 0.662184 0.331860
0.000000 0.846644 0.377288
0.164793 0.859641 0.358133
0.343349 0.844897 0.343390
0.510217 0.844894 0.343387
0.685282 0.844894 0.343387
0.859169 0.843716 0.342208
0.984497 0.833367 0.331860
0.984497 0.833367 0.331860
0.984497 0.833367 0.331860
0.000000 0.974720 0.372184
0.153266 0.999244 0.346606
0.331822 0.984501 0.331863
0.498690 0.984497 0.331860
0.673755 0.984497 0.331860
0.848821 0.984497 0.331860
0.984497 0.984497 0.331860
0.984497 0.984497 0.331860
0.984497 0.984497 0.331860
0.000000 0.974720 0.372184
0.153266 0.999244 0.346606
0.331822 0.984501 0.331863
0.498690 0.984497 0.331860
0.673755 0.984497 0.331860
0.848821 0.984497 0.331860
0.984497 0.984497 0.331860
0.984497 0.984497 0.331860
0.984497 0.984497 0.331860
0.000000 0.974720 0.372184
0.153266 0.999244 0.346606
0.331822 0.984501 0.331863
0.498690 0.984497 0.331860
0.673755 0.984497 0.331860
0.848821 0.984497 0.331860
0.984497 0.984497 0.331860
0.984497 0.984497 0.331860
0.984497 0.984497 0.331860
0.000000 0.000000 0.559625
0.207444 0.000000 0.559625
0.398581 0.000000 0.559625
0.563019 0.000000 0.559063
0.711379 0.000000 0.540397
0.859740 0.000000 0.528834
0.974720 0.000000 0.522510
0.974720 0.000000 0.522510
0.974720 0.000000 0.522510
0.000000 0.207527 0.559625
0.190624 0.190708 0.546790
0.383918 0.190702 0.546784
0.550483 0.190396 0.546478
0.712196 0.177044 0.533126
0.873909 0.163691 0.519774
0.999237 0.153343 0.509425
0.999237 0.153343 0.509425
0.999237 0.153343 0.509425
0.000000 0.394425 0.559625
0.190624 0.379721 0.546790
0.369502 0.365299 0.532368
0.536067 0.364993 0.532062
0.697780 0.351641 0.518710
0.859493 0.338288 0.505357
0.984821 0.327940 0.495009
0.984821 0.327940 0.495009
0.984821 0.327940 0.495009
0.000000 0.555982 0.559625
0.190624 0.543106 0.546790
0.369181 0.528363 0.532047
0.523605 0.515917 0.519601
0.685318 0.502564 0.506248
0.847031 0.489212 0.492896
0.972360 0.478863 0.482547
0.972360 0.478863 0.482547
0.972360 0.478863 0.482547
0.000000 0.701573 0.541356
0.177849 0.701514 0.534015
0.356406 0.686771 0.519272
0.510854 0.674349 0.506850
0.685037 0.673466 0.505967
0.846750 0.660114 0.492615
0.972079 0.649766 0.482267
0.972079 0.649766 0.482267
0.972079 0.649766 0.482267
0.000000 0.846644 0.529674
0.164793 0.859641 0.520959
0.343349 0.844897 0.506215
0.497798 0.832475 0.493793
0.672863 0.832475 0.493793
0.846750 0.831297 0.492615
0.972079 0.820949 0.482267
0.972079 0.820949 0.482267
0.972079 0.820949 0.482267
0.000000 0.974720 0.522510
0.153266 0.999244 0.509432
0.331822 0.984501 0.494688
0.486271 0.972079 0.482267
0.661337 0.972079 0.482267
0.836402 0.972079 0.482267
0.972079 0.972079 0.482267
0.972079 0.972079 0.482267
0.972079 0.972079 0.482267
0.000000 0.974720 0.522510
0.153266 0.999244 0.509432
0.331822 0.984501 0.494688
0.486271 0.972079 0.482267
0.661337 0.972079 0.482267
0.836402 0.972079 0.482267
0.972079 0.972079 0.482267
0.972079 0.972079 0.482267
0.972079 0.972079 0.482267
0.000000 0.974720 0.522510
0.153266 0.999244 0.509432
0.331822 0.984501 0.494688
0.486271 0.972079 0.482267
0.661337 0.972079 0.482267
0.836402 0.972079 0.482267
0.972079 0.972079 0.482267
0.972079 0.972079 0.482267
0.972079 0.972079 0.482267
0.000000 0.000000 0.704560
0.200563 0.000000 0.704560
0.385359 0.000000 0.704560
0.544889 0.000000 0.704560
0.711379 0.000000 0.703696
0.859740 0.000000 0.688639
0.974720 0.000000 0.680405
0.974720 0.000000 0.680405
0.974720 0.000000 0.680405
0.000000 0.200642 0.704560
0.177580 0.177664 0.704770
0.370874 0.177657 0.704763
0.537744 0.177657 0.704763
0.712196 0.177044 0.704150
0.873909 0.163691 0.690797
0.999237 0.153343 0.680449
0.999237 0.153343 0.680449
0.999237 0.153343 0.680449
0.000000 0.381341 0.704560
0.177580 0.366677 0.704770
0.356457 0.352254 0.690347
0.523328 0.352254 0.690347
0.697780 0.351641 0.689734
0.859493 0.338288 0.676381
0.984821 0.327940 0.666033
0.984821 0.327940 0.666033
0.984821 0.327940 0.666033
0.000000 0.537538 0.704560
0.177580 0.530062 0.704770
0.356137 0.515319 0.690027
0.510867 0.503178 0.677886
0.685318 0.502564 0.677272
0.847031 0.489212 0.663920
0.972360 0.478863 0.653571
0.972360 0.478863 0.653571
0.972360 0.478863 0.653571
0.000000 0.701191 0.704560
0.177580 0.701245 0.704770
0.356137 0.686502 0.690027
0.510280 0.673774 0.677299
0.672262 0.660691 0.664216
0.833975 0.647338 0.650863
0.959303 0.636990 0.640515
0.959303 0.636990 0.640515
0.959303 0.636990 0.640515
0.000000 0.846644 0.689734
0.164793 0.859641 0.691982
0.343349 0.844897 0.677239
0.497493 0.832170 0.664512
0.659819 0.819431 0.651773
0.833706 0.818253 0.650594
0.959034 0.807904 0.640246
0.959034 0.807904 0.640246
0.959034 0.807904 0.640246
0.000000 0.974720 0.680405
0.153266 0.999244 0.680455
0.331822 0.984501 0.665712
0.485966 0.971773 0.652985
0.648292 0.959034 0.640246
0.823358 0.959034 0.640246
0.959034 0.959034 0.640246
0.959034 0.959034 0.640246
0.959034 0.959034 0.640246
0.000000 0.974720 0.680405
0.153266 0.999244 0.680455
0.331822 0.984501 0.665712
0.485966 0.971773 0.652985
0.648292 0.959034 0.640246
0.823358 0.959034 0.640246
0.959034 0.959034 0.640246
0.959034 0.959034 0.640246
0.959034 0.959034 0.640246
0.000000 0.974720 0.680405
0.153266 0.999244 0.680455
0.331822 0.984501 0.665712
0.485966 0.971773 0.652985
0.648292 0.959034 0.640246
0.823358 0.959034 0.640246
0.959034 0.959034 0.640246
0.959034 0.959034 0.640246
0.959034 0.959034 0.640246
0.000000 0.000000 0.849496
0.196273 0.000000 0.849496
0.377117 0.000000 0.849496
0.533236 0.000000 0.849496
0.697020 0.000000 0.849496
0.859740 0.000000 0.848445
0.974720 0.000000 0.838299
0.974720 0.000000 0.838299
0.974720 0.000000 0.838299
0.000000 0.196351 0.849496
0.164536 0.164620 0.862749
0.357829 0.164613 0.862743
0.524700 0.164613 0.862743
0.699766 0.164613 0.862743
0.873909 0.163691 0.861821
0.999237 0.153343 0.851473
0.999237 0.153343 0.851473
0.999237 0.153343 0.851473
0.000000 0.373185 0.849496
0.164536 0.353633 0.862749
0.343413 0.339210 0.848327
0.510284 0.339210 0.848327
0.685349 0.339210 0.848327
0.859493 0.338288 0.847405
0.984821 0.327940 0.837057
0.984821 0.327940 0.837057
0.984821 0.327940 0.837057
0.000000 0.526042 0.849496
0.164536 0.517018 0.862749
0.343093 0.502275 0.848006
0.497822 0.490134 0.835865
0.672888 0.490134 0.835865
0.847031 0.489212 0.834943
0.972360 0.478863 0.824595
0.972360 0.478863 0.824595
0.972360 0.478863 0.824595
0.000000 0.686195 0.849496
0.164536 0.688201 0.862749
0.343093 0.673458 0.848006
0.497236 0.660730 0.835279
0.659831 0.648260 0.822809
0.833975 0.647338 0.821887
0.959303 0.636990 0.811539
0.959303 0.636990 0.811539
0.959303 0.636990 0.811539
0.000000 0.846347 0.849496
0.164536 0.859384 0.862749
0.343093 0.844641 0.848006
0.497236 0.831913 0.835279
0.658949 0.818561 0.821926
0.820918 0.805465 0.808831
0.946247 0.795117 0.798482
0.946247 0.795117 0.798482
0.946247 0.795117 0.798482
0.000000 0.974720 0.838299
0.153266 0.999244 0.851479
0.331822 0.984501 0.836736
0.485966 0.971773 0.824009
0.647679 0.958421 0.810656
0.810313 0.945990 0.798226
0.945990 0.945990 0.798226
0.945990 0.945990 0.798226
0.945990 0.945990 0.798226
0.000000 0.974720 0.838299
0.153266 0.999244 0.851479
0.331822 0.984501 0.836736
0.485966 0.971773 0.824009
0.647679 0.958421 0.810656
0.810313 0.945990 0.798226
0.945990 0.945990 0.798226
0.945990 0.945990 0.798226
0.945990 0.945990 0.798226
0.000000 0.974720 0.838299
0.153266 0.999244 0.851479
0.331822 0.984501 0.836736
0.485966 0.971773 0.824009
0.647679 0.958421 0.810656
0.810313 0.945990 0.798226
0.945990 0.945990 0.798226
0.945990 0.945990 0.798226
0.945990 0.945990 0.798226
0.000000 0.000000 0.909512
0.194936 0.000000 0.909512
0.374548 0.000000 0.909512
0.529602 0.000000 0.909512
0.692271 0.000000 0.909512
0.854940 0.000000 0.909512
0.974720 0.000000 0.903682
0.974720 0.000000 0.903682
0.974720 0.000000 0.903682
0.000000 0.195014 0.909512
0.159134 0.159218 0.928167
0.352428 0.159212 0.928161
0.519299 0.159212 0.928161
0.694364 0.159212 0.928161
0.869429 0.159212 0.928161
0.999237 0.153343 0.922292
0.999237 0.153343 0.922292
0.999237 0.153343 0.922292
0.000000 0.370643 0.909512
0.159134 0.348231 0.928167
0.338012 0.333809 0.913744
0.504883 0.333809 0.913744
0.679948 0.333809 0.913744
0.855013 0.333809 0.913744
0.984821 0.327940 0.907876
0.984821 0.327940 0.907876
0.984821 0.327940 0.907876
0.000000 0.522458 0.909512
0.159134 0.511616 0.928167
0.337691 0.496873 0.913424
0.492421 0.484732 0.901283
0.667486 0.484732 0.901283
0.842552 0.484732 0.901283
0.972360 0.478863 0.895414
0.972360 0.478863 0.895414
0.972360 0.478863 0.895414
0.000000 0.681519 0.909512
0.159134 0.682799 0.928167
0.337691 0.668056 0.913424
0.491835 0.655329 0.900696
0.654430 0.642859 0.888226
0.829495 0.642859 0.888226
0.959303 0.636990 0.882358
0.959303 0.636990 0.882358
0.959303 0.636990 0.882358
0.000000 0.840581 0.909512
0.159134 0.853982 0.928167
0.337691 0.839239 0.913424
0.491835 0.826512 0.900696
0.653547 0.813159 0.887344
0.816439 0.800986 0.875170
0.946247 0.795117 0.869301
0.946247 0.795117 0.869301
0.946247 0.795117 0.869301
0.000000 0.974720 0.903682
0.153266 0.999244 0.922298
0.331822 0.984501 0.907555
0.485966 0.971773 0.894828
0.647679 0.958421 0.881475
0.809392 0.945068 0.868123
0.940589 0.940589 0.863643
0.940589 0.940589 0.863643
0.940589 0.940589 0.863643
0.000000 0.974720 0.903682
0.153266 0.999244 0.922298
0.331822 0.984501 0.907555
0.485966 0.971773 0.894828
0.647679 0.958421 0.881475
0.809392 0.945068 0.868123
0.940589 0.940589 0.863643
0.940589 0.940589 0.863643
0.940589 0.940589 0.863643
0.000000 0.974720 0.903682
0.153266 0.999244 0.922298
0.331822 0.984501 0.907555
0.485966 0.971773 0.894828
0.647679 0.958421 0.881475
0.809392 0.945068 0.868123
0.940589 0.940589 0.863643
0.940589 0.940589 0.863643
0.940589 0.940589 0.863643
0.000000 0.000000 0.909512
0.194936 0.000000 0.909512
0.374548 0.000000 0.909512
0.529602 0.000000 0.909512
0.692271 0.000000 0.909512
0.854940 0.000000 0.909512
0.974720 0.000000 0.903682
0.974720 0.000000 0.903682
0.974720 0.000000 0.903682
0.000000 0.195014 0.909512
0.159134 0.159218 0.928167
0.352428 0.159212 0.928161
0.519299 0.159212 0.928161
0.694364 0.159212 0.928161
0.869429 0.159212 0.928161
0.999237 0.153343 0.922292
0.999237 0.153343 0.922292
0.999237 0.153343 0.922292
0.000000 0.370643 0.909512
0.159134 0.348231 0.928167
0.338012 0.333809 0.913744
0.504883 0.333809 0.913744
0.679948 0.333809 0.913744
0.855013 0.333809 0.913744
0.984821 0.327940 0.907876
0.984821 0.327940 0.907876
0.984821 0.327940 0.907876
0.000000 0.522458 0.909512
0.159134 0.511616 0.928167
0.337691 0.496873 0.913424
0.492421 0.484732 0.901283
0.667486 0.484732 0.901283
0.842552 0.484732 0.901283
0.972360 0.478863 0.895414
0.972360 0.478863 0.895414
0.972360 0.478863 0.895414
0.000000 0.681519 0.909512
0.159134 0.682799 0.928167
0.337691 0.668056 0.913424
0.491835 0.655329 0.900696
0.654430 0.642859 0.888226
0.829495 0.642859 0.888226
0.959303 0.636990 0.882358
0.959303 0.636990 0.882358
0.959303 0.636990 0.882358
0.000000 0.840581 0.909512
0.159134 0.853982 0.928167
0.337691 0.839239 0.913424
0.491835 0.826512 0.900696
0.653547 0.813159 0.887344
0.816439 0.800986 0.875170
0.946247 0.795117 0.869301
0.946247 0.795117 0.869301
0.946247 0.795117 0.869301
0.000000 0.974720 0.903682
0.153266 0.999244 0.922298
0.331822 0.984501 0.907555
0.485966 0.971773 0.894828
0.647679 0.958421 0.881475
0.809392 0.945068 0.868123
0.940589 0.940589 0.863643
0.940589 0.940589 0.863643
0.940589 0.940589 0.863643
0.000000 0.974720 0.903682
0.153266 0.999244 0.922298
0.331822 0.984501 0.907555
0.485966 0.971773 0.894828
0.647679 0.958421 0.881475
0.809392 0.945068 0.868123
0.940589 0.940589 0.863643
0.940589 0.940589 0.863643
0.940589 0.940589 0.863643
0.000000 0.974720 0.903682
0.153266 0.999244 0.922298
0.331822 0.984501 0.907555
0.485966 0.971773 0.894828
0.647679 0.958421 0.881475
0.809392 0.945068 0.868123
0.940589 0.940589 0.863643
0.940589 0.940589 0.863643
0.940589 0.940589 0.863643
0.000000 0.000000 0.909512
0.194936 0.000000 0.909512
0.374548 0.000000 0.909512
0.529602 0.000000 0.909512
0.692271 0.000000 0.909512
0.854940 0.000000 0.909512
0.974720 0.000000 0.903682
0.974720 0.000000 0.903682
0.974720 0.000000 0.903682
0.000000 0.195014 0.909512
0.159134 0.159218 0.928167
0.352428 0.159212 0.928161
0.519299 0.159212 0.928161
0.694364 0.159212 0.928161
0.869429 0.159212 0.928161
0.999237 0.153343 0.922292
0.999237 0.153343 0.922292
0.999237 0.153343 0.922292
0.000000 0.370643 0.909512
0.159134 0.348231 0.928167
0.338012 0.333809 0.913744
0.504883 0.333809 0.913744
0.679948 0.333809 0.913744
0.855013 0.333809 0.913744
0.984821 0.327940 0.907876
0.984821 0.327940 0.907876
0.984821 0.327940 0.907876
0.000000 0.522458 0.909512
0.159134 0.511616 0.928167
0.337691 0.496873 0.913424
0.492421 0.484732 0.901283
0.667486 0.484732 0.901283
0.842552 0.484732 0.901283
0.972360 0.478863 0.895414
0.972360 0.478863 0.895414
0.972360 0.478863 0.895414
0.000000 0.681519 0.909512
0.159134 0.682799 0.928167
0.337691 0.668056 0.913424
0.491835 0.655329 0.900696
0.654430 0.642859 0.888226
0.829495 0.642859 0.888226
0.959303 0.636990 0.882358
0.959303 0.636990 0.882358
0.959303 0.636990 0.882358
0.000000 0.840581 0.909512
0.159134 0.853982 0.928167
0.337691 0.839239 0.913424
0.491835 0.826512 0.900696
0.653547 0.813159 0.887344
0.816439 0.800986 0.875170
0.946247 0.795117 0.869301
0.946247 0.795117 0.869301
0.946247 0.795117 0.869301
0.000000 0.974720 0.903682
0.153266 0.999244 0.922298
0.331822 0.984501 0.907555
0.485966 0.971773 0.894828
0.647679 0.958421 0.881475
0.809392 0.945068 0.868123
0.940589 0.940589 0.863643
0.940589 0.940589 0.863643
0.940589 0.940589 0.863643
0.000000 0.974720 0.903682
0.153266 0.999244 0.922298
0.331822 0.984501 0.907555
0.485966 0.971773 0.894828
0.647679 0.958421 0.881475
0.809392 0.945068 0.868123
0.940589 0.940589 0.863643
0.940589 0.940589 0.863643
0.940589 0.940589 0.863643
0.000000 0.974720 0.903682
0.153266 0.999244 0.922298
0.331822 0.984501 0.907555
0.485966 0.971773 0.894828
0.647679 0.958421 0.881475
0.809392 0.945068 0.868123
0.940589 0.940589 0.863643
0.940589 0.940589 0.863643
0.940589 0.940589 0.863643
