docs/luts/fuji_recipes/NEGA_RR_Superia_800.cube
TITLE "Fujifilm Recipe: RR Superia 800 (NEGA)"
# FilmSim=NEGA HL=1 SH=2 Col=4 WB=Auto WBR=-2 WBB=-3
LUT_3D_SIZE 33
DOMAIN_MIN 0.0 0.0 0.0
DOMAIN_MAX 1.0 1.0 1.0
0.014720 0.014720 0.014720
0.068792 0.002806 0.002806
0.104765 0.000000 0.000000
0.137378 0.000000 0.000000
0.169991 0.000000 0.000000
0.202605 0.000000 0.000000
0.235218 0.000000 0.000000
0.267831 0.000000 0.000000
0.300444 0.000000 0.000000
0.333058 0.000000 0.000000
0.365671 0.000000 0.000000
0.398284 0.000000 0.000000
0.430897 0.000000 0.000000
0.463511 0.000000 0.000000
0.488650 0.000000 0.000000
0.564149 0.000000 0.000000
0.600526 0.000000 0.000000
0.636904 0.000000 0.000000
0.673282 0.000000 0.000000
0.709659 0.000000 0.000000
0.746037 0.000000 0.000000
0.782414 0.000000 0.000000
0.818792 0.000000 0.000000
0.855169 0.000000 0.000000
0.891547 0.000000 0.000000
0.927924 0.000000 0.000000
0.964302 0.000000 0.000000
0.966503 0.000000 0.000000
0.966503 0.000000 0.000000
0.966503 0.000000 0.000000
0.966503 0.000000 0.000000
0.966503 0.000000 0.000000
0.966503 0.000000 0.000000
0.002179 0.071638 0.002179
0.068165 0.071638 0.002179
0.104765 0.061721 0.000000
0.137378 0.056481 0.000000
0.169991 0.053672 0.000000
0.202605 0.051922 0.000000
0.235218 0.050726 0.000000
0.267831 0.049857 0.000000
0.300444 0.049198 0.000000
0.333058 0.048680 0.000000
0.365671 0.048263 0.000000
0.398284 0.047919 0.000000
0.430897 0.047631 0.000000
0.463511 0.047387 0.000000
0.488650 0.047222 0.000000
0.564149 0.046450 0.000000
0.600526 0.046287 0.000000
0.636904 0.046143 0.000000
0.673282 0.046016 0.000000
0.709659 0.045902 0.000000
0.746037 0.045800 0.000000
0.782414 0.045708 0.000000
0.818792 0.045624 0.000000
0.855169 0.045548 0.000000
0.891547 0.045478 0.000000
0.927924 0.045414 0.000000
0.964302 0.045355 0.000000
0.966503 0.045351 0.000000
0.966503 0.045351 0.000000
0.966503 0.045351 0.000000
0.966503 0.045351 0.000000
0.966503 0.045351 0.000000
0.966503 0.045351 0.000000
0.000000 0.108729 0.000000
0.057812 0.108729 0.000000
0.103293 0.108729 0.000000
0.137378 0.100915 0.000000
0.169991 0.095897 0.000000
0.202605 0.092770 0.000000
0.235218 0.090633 0.000000
0.267831 0.089081 0.000000
0.300444 0.087903 0.000000
0.333058 0.086978 0.000000
0.365671 0.086232 0.000000
0.398284 0.085618 0.000000
0.430897 0.085104 0.000000
0.463511 0.084667 0.000000
0.488650 0.084373 0.000000
0.564149 0.082993 0.000000
0.600526 0.082701 0.000000
0.636904 0.082445 0.000000
0.673282 0.082217 0.000000
0.709659 0.082014 0.000000
0.746037 0.081832 0.000000
0.782414 0.081667 0.000000
0.818792 0.081518 0.000000
0.855169 0.081382 0.000000
0.891547 0.081257 0.000000
0.927924 0.081142 0.000000
0.964302 0.081036 0.000000
0.966503 0.081030 0.000000
0.966503 0.081030 0.000000
0.966503 0.081030 0.000000
0.966503 0.081030 0.000000
0.966503 0.081030 0.000000
0.966503 0.081030 0.000000
0.000000 0.143059 0.000000
0.053082 0.143059 0.000000
0.094842 0.143059 0.000000
0.135906 0.143059 0.000000
0.169991 0.137418 0.000000
0.202605 0.132936 0.000000
0.235218 0.129874 0.000000
0.267831 0.127650 0.000000
0.300444 0.125962 0.000000
0.333058 0.124636 0.000000
0.365671 0.123568 0.000000
0.398284 0.122688 0.000000
0.430897 0.121951 0.000000
0.463511 0.121325 0.000000
0.488650 0.120903 0.000000
0.564149 0.118926 0.000000
0.600526 0.118508 0.000000
0.636904 0.118141 0.000000
0.673282 0.117815 0.000000
0.709659 0.117524 0.000000
0.746037 0.117263 0.000000
0.782414 0.117027 0.000000
0.818792 0.116812 0.000000
0.855169 0.116617 0.000000
0.891547 0.116438 0.000000
0.927924 0.116274 0.000000
0.964302 0.116123 0.000000
0.966503 0.116114 0.000000
0.966503 0.116114 0.000000
0.966503 0.116114 0.000000
0.966503 0.116114 0.000000
0.966503 0.116114 0.000000
0.966503 0.116114 0.000000
0.000000 0.177389 0.000000
0.050547 0.177389 0.000000
0.090314 0.177389 0.000000
0.129417 0.177389 0.000000
0.168519 0.177389 0.000000
0.202605 0.173102 0.000000
0.235218 0.169115 0.000000
0.267831 0.166220 0.000000
0.300444 0.164021 0.000000
0.333058 0.162295 0.000000
0.365671 0.160903 0.000000
0.398284 0.159758 0.000000
0.430897 0.158798 0.000000
0.463511 0.157983 0.000000
0.488650 0.157434 0.000000
0.564149 0.154859 0.000000
0.600526 0.154315 0.000000
0.636904 0.153836 0.000000
0.673282 0.153412 0.000000
0.709659 0.153033 0.000000
0.746037 0.152693 0.000000
0.782414 0.152386 0.000000
0.818792 0.152107 0.000000
0.855169 0.151853 0.000000
0.891547 0.151620 0.000000
0.927924 0.151406 0.000000
0.964302 0.151209 0.000000
0.966503 0.151197 0.000000
0.966503 0.151197 0.000000
0.966503 0.151197 0.000000
0.966503 0.151197 0.000000
0.966503 0.151197 0.000000
0.966503 0.151197 0.000000
0.000000 0.211719 0.000000
0.048967 0.211719 0.000000
0.087491 0.211719 0.000000
0.125371 0.211719 0.000000
0.163252 0.211719 0.000000
0.201133 0.211719 0.000000
0.235218 0.208357 0.000000
0.267831 0.204789 0.000000
0.300444 0.202080 0.000000
0.333058 0.199953 0.000000
0.365671 0.198239 0.000000
0.398284 0.196828 0.000000
0.430897 0.195646 0.000000
0.463511 0.194641 0.000000
0.488650 0.193965 0.000000
0.564149 0.190792 0.000000
0.600526 0.190122 0.000000
0.636904 0.189532 0.000000
0.673282 0.189010 0.000000
0.709659 0.188543 0.000000
0.746037 0.188124 0.000000
0.782414 0.187745 0.000000
0.818792 0.187401 0.000000
0.855169 0.187088 0.000000
0.891547 0.186801 0.000000
0.927924 0.186538 0.000000
0.964302 0.186295 0.000000
0.966503 0.186281 0.000000
0.966503 0.186281 0.000000
0.966503 0.186281 0.000000
0.966503 0.186281 0.000000
0.966503 0.186281 0.000000
0.966503 0.186281 0.000000
0.000000 0.246048 0.000000
0.047888 0.246048 0.000000
0.085563 0.246048 0.000000
0.122608 0.246048 0.000000
0.159654 0.246048 0.000000
0.196700 0.246048 0.000000
0.233746 0.246048 0.000000
0.267831 0.243358 0.000000
0.300444 0.240139 0.000000
0.333058 0.237612 0.000000
0.365671 0.235574 0.000000
0.398284 0.233897 0.000000
0.430897 0.232493 0.000000
0.463511 0.231299 0.000000
0.488650 0.230495 0.000000
0.564149 0.226725 0.000000
0.600526 0.225929 0.000000
0.636904 0.225228 0.000000
0.673282 0.224607 0.000000
0.709659 0.224052 0.000000
0.746037 0.223554 0.000000
0.782414 0.223104 0.000000
0.818792 0.222696 0.000000
0.855169 0.222324 0.000000
0.891547 0.221983 0.000000
0.927924 0.221670 0.000000
0.964302 0.221381 0.000000
0.966503 0.221364 0.000000
0.966503 0.221364 0.000000
0.966503 0.221364 0.000000
0.966503 0.221364 0.000000
0.966503 0.221364 0.000000
0.966503 0.221364 0.000000
0.000000 0.280378 0.000000
0.047104 0.280378 0.000000
0.084162 0.280378 0.000000
0.120601 0.280378 0.000000
0.157041 0.280378 0.000000
0.193480 0.280378 0.000000
0.229920 0.280378 0.000000
0.266359 0.280378 0.000000
0.300444 0.278198 0.000000
0.333058 0.275270 0.000000
0.365671 0.272910 0.000000
0.398284 0.270967 0.000000
0.430897 0.269340 0.000000
0.463511 0.267957 0.000000
0.488650 0.267026 0.000000
0.564149 0.262658 0.000000
0.600526 0.261736 0.000000
0.636904 0.260924 0.000000
0.673282 0.260204 0.000000
0.709659 0.259562 0.000000
0.746037 0.258985 0.000000
0.782414 0.258464 0.000000
0.818792 0.257991 0.000000
0.855169 0.257559 0.000000
0.891547 0.257164 0.000000
0.927924 0.256802 0.000000
0.964302 0.256467 0.000000
0.966503 0.256448 0.000000
0.966503 0.256448 0.000000
0.966503 0.256448 0.000000
0.966503 0.256448 0.000000
0.966503 0.256448 0.000000
0.966503 0.256448 0.000000
0.000000 0.314708 0.000000
0.046509 0.314708 0.000000
0.083099 0.314708 0.000000
0.119078 0.314708 0.000000
0.155057 0.314708 0.000000
0.191036 0.314708 0.000000
0.227014 0.314708 0.000000
0.262993 0.314708 0.000000
0.298972 0.314708 0.000000
0.333058 0.312929 0.000000
0.365671 0.310246 0.000000
0.398284 0.308037 0.000000
0.430897 0.306187 0.000000
0.463511 0.304616 0.000000
0.488650 0.303556 0.000000
0.564149 0.298591 0.000000
0.600526 0.297543 0.000000
0.636904 0.296620 0.000000
0.673282 0.295802 0.000000
0.709659 0.295072 0.000000
0.746037 0.294415 0.000000
0.782414 0.293823 0.000000
0.818792 0.293285 0.000000
0.855169 0.292795 0.000000
0.891547 0.292346 0.000000
0.927924 0.291934 0.000000
0.964302 0.291553 0.000000
0.966503 0.291531 0.000000
0.966503 0.291531 0.000000
0.966503 0.291531 0.000000
0.966503 0.291531 0.000000
0.966503 0.291531 0.000000
0.966503 0.291531 0.000000
0.000000 0.349038 0.000000
0.046042 0.349038 0.000000
0.082264 0.349038 0.000000
0.117881 0.349038 0.000000
0.153498 0.349038 0.000000
0.189116 0.349038 0.000000
0.224733 0.349038 0.000000
0.260351 0.349038 0.000000
0.295968 0.349038 0.000000
0.331586 0.349038 0.000000
0.365671 0.347581 0.000000
0.398284 0.345107 0.000000
0.430897 0.343035 0.000000
0.463511 0.341274 0.000000
0.488650 0.340087 0.000000
0.564149 0.334524 0.000000
0.600526 0.333349 0.000000
0.636904 0.332316 0.000000
0.673282 0.331399 0.000000
0.709659 0.330581 0.000000
0.746037 0.329846 0.000000
0.782414 0.329182 0.000000
0.818792 0.328580 0.000000
0.855169 0.328030 0.000000
0.891547 0.327528 0.000000
0.927924 0.327065 0.000000
0.964302 0.326639 0.000000
0.966503 0.326615 0.000000
0.966503 0.326615 0.000000
0.966503 0.326615 0.000000
0.966503 0.326615 0.000000
0.966503 0.326615 0.000000
0.966503 0.326615 0.000000
0.000000 0.383367 0.000000
0.045665 0.383367 0.000000
0.081591 0.383367 0.000000
0.116917 0.383367 0.000000
0.152243 0.383367 0.000000
0.187569 0.383367 0.000000
0.222895 0.383367 0.000000
0.258221 0.383367 0.000000
0.293547 0.383367 0.000000
0.328873 0.383367 0.000000
0.364199 0.383367 0.000000
0.398284 0.382177 0.000000
0.430897 0.379882 0.000000
0.463511 0.377932 0.000000
0.488650 0.376618 0.000000
0.564149 0.370457 0.000000
0.600526 0.369156 0.000000
0.636904 0.368012 0.000000
0.673282 0.366997 0.000000
0.709659 0.366091 0.000000
0.746037 0.365277 0.000000
0.782414 0.364542 0.000000
0.818792 0.363874 0.000000
0.855169 0.363266 0.000000
0.891547 0.362709 0.000000
0.927924 0.362197 0.000000
0.964302 0.361725 0.000000
0.966503 0.361698 0.000000
0.966503 0.361698 0.000000
0.966503 0.361698 0.000000
0.966503 0.361698 0.000000
0.966503 0.361698 0.000000
0.966503 0.361698 0.000000
0.000000 0.417697 0.000000
0.045355 0.417697 0.000000
0.081037 0.417697 0.000000
0.116123 0.417697 0.000000
0.151209 0.417697 0.000000
0.186295 0.417697 0.000000
0.221381 0.417697 0.000000
0.256467 0.417697 0.000000
0.291554 0.417697 0.000000
0.326640 0.417697 0.000000
0.361726 0.417697 0.000000
0.396812 0.417697 0.000000
0.430897 0.416729 0.000000
0.463511 0.414590 0.000000
0.488650 0.413148 0.000000
0.564149 0.406390 0.000000
0.600526 0.404963 0.000000
0.636904 0.403708 0.000000
0.673282 0.402594 0.000000
0.709659 0.401600 0.000000
0.746037 0.400707 0.000000
0.782414 0.399901 0.000000
0.818792 0.399169 0.000000
0.855169 0.398501 0.000000
0.891547 0.397891 0.000000
0.927924 0.397329 0.000000
0.964302 0.396812 0.000000
0.966503 0.396782 0.000000
0.966503 0.396782 0.000000
0.966503 0.396782 0.000000
0.966503 0.396782 0.000000
0.966503 0.396782 0.000000
0.966503 0.396782 0.000000
0.000000 0.452027 0.000000
0.045095 0.452027 0.000000
0.080573 0.452027 0.000000
0.115458 0.452027 0.000000
0.150343 0.452027 0.000000
0.185228 0.452027 0.000000
0.220114 0.452027 0.000000
0.254999 0.452027 0.000000
0.289884 0.452027 0.000000
0.324770 0.452027 0.000000
0.359655 0.452027 0.000000
0.394540 0.452027 0.000000
0.429425 0.452027 0.000000
0.463511 0.451248 0.000000
0.488650 0.449679 0.000000
0.564149 0.442323 0.000000
0.600526 0.440770 0.000000
0.636904 0.439403 0.000000
0.673282 0.438192 0.000000
0.709659 0.437110 0.000000
0.746037 0.436138 0.000000
0.782414 0.435260 0.000000
0.818792 0.434463 0.000000
0.855169 0.433737 0.000000
0.891547 0.433072 0.000000
0.927924 0.432461 0.000000
0.964302 0.431898 0.000000
0.966503 0.431865 0.000000
0.966503 0.431865 0.000000
0.966503 0.431865 0.000000
0.966503 0.431865 0.000000
0.966503 0.431865 0.000000
0.966503 0.431865 0.000000
0.000000 0.478962 0.000000
0.044919 0.478962 0.000000
0.080258 0.478962 0.000000
0.115007 0.478962 0.000000
0.149756 0.478962 0.000000
0.184506 0.478962 0.000000
0.219255 0.478962 0.000000
0.254004 0.478962 0.000000
0.288753 0.478962 0.000000
0.323502 0.478962 0.000000
0.358251 0.478962 0.000000
0.393000 0.478962 0.000000
0.427750 0.478962 0.000000
0.462499 0.478962 0.000000
0.488650 0.478341 0.000000
0.564149 0.470516 0.000000
0.600526 0.468864 0.000000
0.636904 0.467410 0.000000
0.673282 0.466121 0.000000
0.709659 0.464970 0.000000
0.746037 0.463937 0.000000
0.782414 0.463003 0.000000
0.818792 0.462155 0.000000
0.855169 0.461383 0.000000
0.891547 0.460675 0.000000
0.927924 0.505076 0.000000
0.964302 0.504632 0.000000
0.966503 0.504606 0.000000
0.966503 0.504606 0.000000
0.966503 0.504606 0.000000
0.966503 0.504606 0.000000
0.966503 0.504606 0.000000
0.966503 0.504606 0.000000
0.000000 0.555169 0.000000
0.044169 0.555169 0.000000
0.078917 0.555169 0.000000
0.113086 0.555169 0.000000
0.147254 0.555169 0.000000
0.181423 0.555169 0.000000
0.215591 0.555169 0.000000
0.249760 0.555169 0.000000
0.283929 0.555169 0.000000
0.318097 0.555169 0.000000
0.352266 0.555169 0.000000
0.386434 0.555169 0.000000
0.420603 0.555169 0.000000
0.454771 0.555169 0.000000
0.481109 0.555169 0.000000
0.564149 0.554700 0.000000
0.600526 0.552970 0.000000
0.636904 0.551472 0.000000
0.673282 0.550168 0.000000
0.709659 0.549025 0.000000
0.746037 0.548020 0.000000
0.782414 0.547132 0.000000
0.818792 0.546345 0.000000
0.855169 0.545646 0.000000
0.891547 0.545023 0.000000
0.927924 0.544468 0.000000
0.964302 0.543972 0.000000
0.966503 0.543943 0.000000
0.966503 0.543943 0.000000
0.966503 0.543943 0.000000
0.966503 0.543943 0.000000
0.966503 0.543943 0.000000
0.966503 0.543943 0.000000
0.000000 0.593461 0.000000
0.044001 0.593461 0.000000
0.078617 0.593461 0.000000
0.112656 0.593461 0.000000
0.146694 0.593461 0.000000
0.180733 0.593461 0.000000
0.214772 0.593461 0.000000
0.248810 0.593461 0.000000
0.282849 0.593461 0.000000
0.316887 0.593461 0.000000
0.350926 0.593461 0.000000
0.384965 0.593461 0.000000
0.419003 0.593461 0.000000
0.453042 0.593461 0.000000
0.479280 0.593461 0.000000
0.562708 0.593461 0.000000
0.600526 0.593118 0.000000
0.636904 0.591496 0.000000
0.673282 0.590081 0.000000
0.709659 0.588840 0.000000
0.746037 0.587746 0.000000
0.782414 0.586778 0.000000
0.818792 0.585919 0.000000
0.855169 0.585153 0.000000
0.891547 0.584470 0.000000
0.927924 0.583859 0.000000
0.964302 0.583312 0.000000
0.966503 0.583281 0.000000
0.966503 0.583281 0.000000
0.966503 0.583281 0.000000
0.966503 0.583281 0.000000
0.966503 0.583281 0.000000
0.966503 0.583281 0.000000
0.000000 0.631753 0.000000
0.043854 0.631753 0.000000
0.078355 0.631753 0.000000
0.112280 0.631753 0.000000
0.146206 0.631753 0.000000
0.180131 0.631753 0.000000
0.214056 0.631753 0.000000
0.247981 0.631753 0.000000
0.281907 0.631753 0.000000
0.315832 0.631753 0.000000
0.349757 0.631753 0.000000
0.383682 0.631753 0.000000
0.417608 0.631753 0.000000
0.451533 0.631753 0.000000
0.477683 0.631753 0.000000
0.561062 0.631753 0.000000
0.599101 0.631753 0.000000
0.636904 0.631520 0.000000
0.673282 0.629995 0.000000
0.709659 0.628655 0.000000
0.746037 0.627473 0.000000
0.782414 0.626425 0.000000
0.818792 0.625493 0.000000
0.855169 0.624661 0.000000
0.891547 0.623917 0.000000
0.927924 0.623251 0.000000
0.964302 0.622652 0.000000
0.966503 0.622618 0.000000
0.966503 0.622618 0.000000
0.966503 0.622618 0.000000
0.966503 0.622618 0.000000
0.966503 0.622618 0.000000
0.966503 0.622618 0.000000
0.000000 0.670045 0.000000
0.043725 0.670045 0.000000
0.078125 0.670045 0.000000
0.111950 0.670045 0.000000
0.145776 0.670045 0.000000
0.179601 0.670045 0.000000
0.213426 0.670045 0.000000
0.247252 0.670045 0.000000
0.281077 0.670045 0.000000
0.314903 0.670045 0.000000
0.348728 0.670045 0.000000
0.382554 0.670045 0.000000
0.416379 0.670045 0.000000
0.450205 0.670045 0.000000
0.476278 0.670045 0.000000
0.559640 0.670045 0.000000
0.597566 0.670045 0.000000
0.635493 0.670045 0.000000
0.673282 0.669908 0.000000
0.709659 0.668470 0.000000
0.746037 0.667199 0.000000
0.782414 0.666071 0.000000
0.818792 0.665067 0.000000
0.855169 0.664169 0.000000
0.891547 0.663364 0.000000
0.927924 0.662642 0.000000
0.964302 0.661992 0.000000
0.966503 0.661955 0.000000
0.966503 0.661955 0.000000
0.966503 0.661955 0.000000
0.966503 0.661955 0.000000
0.966503 0.661955 0.000000
0.966503 0.661955 0.000000
0.000000 0.708337 0.000000
0.043611 0.708337 0.000000
0.077920 0.708337 0.000000
0.111657 0.708337 0.000000
0.145394 0.708337 0.000000
0.179131 0.708337 0.000000
0.212868 0.708337 0.000000
0.246605 0.708337 0.000000
0.280342 0.708337 0.000000
0.314079 0.708337 0.000000
0.347816 0.708337 0.000000
0.381553 0.708337 0.000000
0.415290 0.708337 0.000000
0.449027 0.708337 0.000000
0.520575 0.708337 0.000000
0.558402 0.708337 0.000000
0.596230 0.708337 0.000000
0.634057 0.708337 0.000000
0.671884 0.708337 0.000000
0.709659 0.708285 0.000000
0.746037 0.706925 0.000000
0.782414 0.705718 0.000000
0.818792 0.704640 0.000000
0.855169 0.703676 0.000000
0.891547 0.702812 0.000000
0.927924 0.702033 0.000000
0.964302 0.701332 0.000000
0.966503 0.701292 0.000000
0.966503 0.701292 0.000000
0.966503 0.701292 0.000000
0.966503 0.701292 0.000000
0.966503 0.701292 0.000000
0.966503 0.701292 0.000000
0.000000 0.746629 0.000000
0.043509 0.746629 0.000000
0.077738 0.746629 0.000000
0.111396 0.746629 0.000000
0.145053 0.746629 0.000000
0.178711 0.746629 0.000000
0.212369 0.746629 0.000000
0.246027 0.746629 0.000000
0.279685 0.746629 0.000000
0.313343 0.746629 0.000000
0.347001 0.746629 0.000000
0.380659 0.746629 0.000000
0.414317 0.746629 0.000000
0.447975 0.746629 0.000000
0.519582 0.746629 0.000000
0.557321 0.746629 0.000000
0.595060 0.746629 0.000000
0.632798 0.746629 0.000000
0.670537 0.746629 0.000000
0.708276 0.746629 0.000000
0.746014 0.746629 0.000000
0.782414 0.745364 0.000000
0.818792 0.744214 0.000000
0.855169 0.743184 0.000000
0.891547 0.742259 0.000000
0.927924 0.741425 0.000000
0.964302 0.740672 0.000000
0.966503 0.740629 0.000000
0.966503 0.740629 0.000000
0.966503 0.740629 0.000000
0.966503 0.740629 0.000000
0.966503 0.740629 0.000000
0.966503 0.740629 0.000000
0.000000 0.784922 0.000000
0.043417 0.784922 0.000000
0.077574 0.784922 0.000000
0.111161 0.784922 0.000000
0.144747 0.784922 0.000000
0.178334 0.784922 0.000000
0.211921 0.784922 0.000000
0.245508 0.784922 0.000000
0.279095 0.784922 0.000000
0.312682 0.784922 0.000000
0.346269 0.784922 0.000000
0.379856 0.784922 0.000000
0.413443 0.784922 0.000000
0.447029 0.784922 0.000000
0.518712 0.784922 0.000000
0.556371 0.784922 0.000000
0.594030 0.784922 0.000000
0.631689 0.784922 0.000000
0.669349 0.784922 0.000000
0.707008 0.784922 0.000000
0.744667 0.784922 0.000000
0.782326 0.784922 0.000000
0.818792 0.783788 0.000000
0.855169 0.782692 0.000000
0.891547 0.781706 0.000000
0.927924 0.780816 0.000000
0.964302 0.780012 0.000000
0.966503 0.779966 0.000000
0.966503 0.779966 0.000000
0.966503 0.779966 0.000000
0.966503 0.779966 0.000000
0.966503 0.779966 0.000000
0.966503 0.779966 0.000000
0.000000 0.823214 0.000000
0.043334 0.823214 0.000000
0.077426 0.823214 0.000000
0.110948 0.823214 0.000000
0.144471 0.823214 0.000000
0.177994 0.823214 0.000000
0.211517 0.823214 0.000000
0.245039 0.823214 0.000000
0.278562 0.823214 0.000000
0.312085 0.823214 0.000000
0.345607 0.823214 0.000000
0.379130 0.823214 0.000000
0.412653 0.823214 0.000000
0.446176 0.823214 0.000000
0.517947 0.823214 0.000000
0.555534 0.823214 0.000000
0.593122 0.823214 0.000000
0.630709 0.823214 0.000000
0.668296 0.823214 0.000000
0.705883 0.823214 0.000000
0.743470 0.823214 0.000000
0.781058 0.823214 0.000000
0.818645 0.823214 0.000000
0.855169 0.822199 0.000000
0.891547 0.821153 0.000000
0.927924 0.820208 0.000000
0.964302 0.819353 0.000000
0.966503 0.819303 0.000000
0.966503 0.819303 0.000000
0.966503 0.819303 0.000000
0.966503 0.819303 0.000000
0.966503 0.819303 0.000000
0.966503 0.819303 0.000000
0.000000 0.861506 0.000000
0.043259 0.861506 0.000000
0.077291 0.861506 0.000000
0.110756 0.861506 0.000000
0.144220 0.861506 0.000000
0.177685 0.861506 0.000000
0.211149 0.861506 0.000000
0.244614 0.861506 0.000000
0.278078 0.861506 0.000000
0.311543 0.861506 0.000000
0.345007 0.861506 0.000000
0.378472 0.861506 0.000000
0.411936 0.861506 0.000000
0.445401 0.861506 0.000000
0.517273 0.861506 0.000000
0.554795 0.861506 0.000000
0.592317 0.861506 0.000000
0.629839 0.861506 0.000000
0.667361 0.861506 0.000000
0.704882 0.861506 0.000000
0.742404 0.861506 0.000000
0.779926 0.861506 0.000000
0.817448 0.861506 0.000000
0.854970 0.861506 0.000000
0.891547 0.860600 0.000000
0.927924 0.859599 0.000000
0.964302 0.858693 0.000000
0.966503 0.858641 0.000000
0.966503 0.858641 0.000000
0.966503 0.858641 0.000000
0.966503 0.858641 0.000000
0.966503 0.858641 0.000000
0.966503 0.858641 0.000000
0.000000 0.899798 0.000000
0.043190 0.899798 0.000000
0.077168 0.899798 0.000000
0.110580 0.899798 0.000000
0.143991 0.899798 0.000000
0.177403 0.899798 0.000000
0.210814 0.899798 0.000000
0.244226 0.899798 0.000000
0.277637 0.899798 0.000000
0.311048 0.899798 0.000000
0.344460 0.899798 0.000000
0.377871 0.899798 0.000000
0.411283 0.899798 0.000000
0.444694 0.899798 0.000000
0.516677 0.899798 0.000000
0.554140 0.899798 0.000000
0.591602 0.899798 0.000000
0.629064 0.899798 0.000000
0.666527 0.899798 0.000000
0.703989 0.899798 0.000000
0.741451 0.899798 0.000000
0.778914 0.899798 0.000000
0.816376 0.899798 0.000000
0.853838 0.899798 0.000000
0.891301 0.899798 0.000000
0.927924 0.898991 0.000000
0.964302 0.898033 0.000000
0.966503 0.897978 0.000000
0.966503 0.897978 0.000000
0.966503 0.897978 0.000000
0.966503 0.897978 0.000000
0.966503 0.897978 0.000000
0.966503 0.897978 0.000000
0.000000 0.938090 0.000000
0.043127 0.938090 0.000000
0.077056 0.938090 0.000000
0.110419 0.938090 0.000000
0.143782 0.938090 0.000000
0.177145 0.938090 0.000000
0.210507 0.938090 0.000000
0.243870 0.938090 0.000000
0.277233 0.938090 0.000000
0.310596 0.938090 0.000000
0.343959 0.938090 0.000000
0.377321 0.938090 0.000000
0.410684 0.938090 0.000000
0.444047 0.938090 0.000000
0.516150 0.938090 0.000000
0.553558 0.938090 0.000000
0.590966 0.938090 0.000000
0.628374 0.938090 0.000000
0.665782 0.938090 0.000000
0.703189 0.938090 0.000000
0.740597 0.938090 0.000000
0.778005 0.938090 0.000000
0.815413 0.938090 0.000000
0.852821 0.938090 0.000000
0.890229 0.938090 0.000000
0.927636 0.938090 0.000000
0.964302 0.937373 0.000000
0.966503 0.937315 0.000000
0.966503 0.937315 0.000000
0.966503 0.937315 0.000000
0.966503 0.937315 0.000000
0.966503 0.937315 0.000000
0.966503 0.937315 0.000000
0.000000 0.976382 0.000000
0.043069 0.976382 0.000000
0.076953 0.976382 0.000000
0.110271 0.976382 0.000000
0.143589 0.976382 0.000000
0.176907 0.976382 0.000000
0.210225 0.976382 0.000000
0.243544 0.976382 0.000000
0.276862 0.976382 0.000000
0.310180 0.976382 0.000000
0.343498 0.976382 0.000000
0.376816 0.976382 0.000000
0.410134 0.976382 0.000000
0.443452 0.976382 0.000000
0.515683 0.976382 0.000000
0.553041 0.976382 0.000000
0.590399 0.976382 0.000000
0.627757 0.976382 0.000000
0.665114 0.976382 0.000000
0.702472 0.976382 0.000000
0.739830 0.976382 0.000000
0.777188 0.976382 0.000000
0.814545 0.976382 0.000000
0.851903 0.976382 0.000000
0.889261 0.976382 0.000000
0.926619 0.976382 0.000000
0.963976 0.976382 0.000000
0.966237 0.976382 0.000000
0.966237 0.976382 0.000000
0.966237 0.976382 0.000000
0.966237 0.976382 0.000000
0.966237 0.976382 0.000000
0.966237 0.976382 0.000000
0.014675 1.000000 0.014675
0.056447 1.000000 0.014675
0.089309 1.000000 0.014675
0.121624 1.000000 0.014675
0.153938 1.000000 0.014675
0.186253 1.000000 0.014675
0.218567 1.000000 0.014675
0.250881 1.000000 0.014675
0.283196 1.000000 0.014675
0.315510 1.000000 0.014675
0.347825 1.000000 0.014675
0.380139 1.000000 0.014675
0.412453 1.000000 0.014675
0.444768 1.000000 0.014675
0.515040 1.000000 0.014675
0.551273 1.000000 0.014675
0.587505 1.000000 0.014675
0.623737 1.000000 0.014675
0.659970 1.000000 0.014675
0.696202 1.000000 0.014675
0.732434 1.000000 0.014675
0.768667 1.000000 0.014675
0.804899 1.000000 0.014675
0.841131 1.000000 0.014675
