docs/luts/fuji_recipes/NEGAhi_MT_Pro_Neg_Hich_II.cube
TITLE "Fujifilm Recipe: MT Pro Neg Hich II (NEGAhi)"
# FilmSim=NEGAhi HL=0 SH=0 Col=0 WB=Auto WBR=2 WBB=-1
LUT_3D_SIZE 33
DOMAIN_MIN 0.0 0.0 0.0
DOMAIN_MAX 1.0 1.0 1.0
0.000000 0.000000 0.000000
0.027838 0.000000 0.000000
0.055546 0.000000 0.000000
0.083223 0.000000 0.000000
0.110900 0.000000 0.000000
0.138577 0.000000 0.000000
0.166254 0.000000 0.000000
0.193931 0.000000 0.000000
0.221608 0.000000 0.000000
0.249285 0.000000 0.000000
0.276962 0.000000 0.000000
0.304639 0.000000 0.000000
0.332316 0.000000 0.000000
0.359993 0.000000 0.000000
0.387670 0.000000 0.000000
0.415347 0.000000 0.000000
0.442748 0.000000 0.000000
0.470093 0.000000 0.000000
0.497438 0.000000 0.000000
0.524782 0.000000 0.000000
0.552127 0.000000 0.000000
0.579472 0.000000 0.000000
0.606817 0.000000 0.000000
0.634162 0.000000 0.000000
0.661507 0.000000 0.000000
0.688852 0.000000 0.000000
0.716197 0.000000 0.000000
0.743542 0.000000 0.000000
0.770886 0.000000 0.000000
0.798231 0.000000 0.000000
0.825576 0.000000 0.000000
0.834960 0.000000 0.000000
0.834960 0.000000 0.000000
0.000000 0.026250 0.000000
0.027838 0.026250 0.000000
0.055546 0.026250 0.000000
0.083223 0.026250 0.000000
0.110900 0.026250 0.000000
0.138577 0.026250 0.000000
0.166254 0.026250 0.000000
0.193931 0.026250 0.000000
0.221608 0.026250 0.000000
0.249285 0.026250 0.000000
0.276962 0.026250 0.000000
0.304639 0.026250 0.000000
0.332316 0.026250 0.000000
0.359993 0.026250 0.000000
0.387670 0.026250 0.000000
0.415347 0.026250 0.000000
0.442748 0.026250 0.000000
0.470093 0.026250 0.000000
0.497438 0.026250 0.000000
0.524782 0.026250 0.000000
0.552127 0.026250 0.000000
0.579472 0.026250 0.000000
0.606817 0.026250 0.000000
0.634162 0.026250 0.000000
0.661507 0.026250 0.000000
0.688852 0.026250 0.000000
0.716197 0.026250 0.000000
0.743542 0.026250 0.000000
0.770886 0.026250 0.000000
0.798231 0.026250 0.000000
0.825576 0.026250 0.000000
0.834960 0.026250 0.000000
0.834960 0.026250 0.000000
0.000000 0.052500 0.000000
0.027838 0.052500 0.000000
0.055546 0.052500 0.000000
0.083223 0.052500 0.000000
0.110900 0.052500 0.000000
0.138577 0.052500 0.000000
0.166254 0.052500 0.000000
0.193931 0.052500 0.000000
0.221608 0.052500 0.000000
0.249285 0.052500 0.000000
0.276962 0.052500 0.000000
0.304639 0.052500 0.000000
0.332316 0.052500 0.000000
0.359993 0.052500 0.000000
0.387670 0.052500 0.000000
0.415347 0.052500 0.000000
0.442748 0.052500 0.000000
0.470093 0.052500 0.000000
0.497438 0.052500 0.000000
0.524782 0.052500 0.000000
0.552127 0.052500 0.000000
0.579472 0.052500 0.000000
0.606817 0.052500 0.000000
0.634162 0.052500 0.000000
0.661507 0.052500 0.000000
0.688852 0.052500 0.000000
0.716197 0.052500 0.000000
0.743542 0.052500 0.000000
0.770886 0.052500 0.000000
0.798231 0.052500 0.000000
0.825576 0.052500 0.000000
0.834960 0.052500 0.000000
0.834960 0.052500 0.000000
0.000000 0.078750 0.000000
0.027838 0.078750 0.000000
0.055546 0.078750 0.000000
0.083223 0.078750 0.000000
0.110900 0.078750 0.000000
0.138577 0.078750 0.000000
0.166254 0.078750 0.000000
0.193931 0.078750 0.000000
0.221608 0.078750 0.000000
0.249285 0.078750 0.000000
0.276962 0.078750 0.000000
0.304639 0.078750 0.000000
0.332316 0.078750 0.000000
0.359993 0.078750 0.000000
0.387670 0.078750 0.000000
0.415347 0.078750 0.000000
0.442748 0.078750 0.000000
0.470093 0.078750 0.000000
0.497438 0.078750 0.000000
0.524782 0.078750 0.000000
0.552127 0.078750 0.000000
0.579472 0.078750 0.000000
0.606817 0.078750 0.000000
0.634162 0.078750 0.000000
0.661507 0.078750 0.000000
0.688852 0.078750 0.000000
0.716197 0.078750 0.000000
0.743542 0.078750 0.000000
0.770886 0.078750 0.000000
0.798231 0.078750 0.000000
0.825576 0.078750 0.000000
0.834960 0.078750 0.000000
0.834960 0.078750 0.000000
0.000000 0.105000 0.000000
0.027838 0.105000 0.000000
0.055546 0.105000 0.000000
0.083223 0.105000 0.000000
0.110900 0.105000 0.000000
0.138577 0.105000 0.000000
0.166254 0.105000 0.000000
0.193931 0.105000 0.000000
0.221608 0.105000 0.000000
0.249285 0.105000 0.000000
0.276962 0.105000 0.000000
0.304639 0.105000 0.000000
0.332316 0.105000 0.000000
0.359993 0.105000 0.000000
0.387670 0.105000 0.000000
0.415347 0.105000 0.000000
0.442748 0.105000 0.000000
0.470093 0.105000 0.000000
0.497438 0.105000 0.000000
0.524782 0.105000 0.000000
0.552127 0.105000 0.000000
0.579472 0.105000 0.000000
0.606817 0.105000 0.000000
0.634162 0.105000 0.000000
0.661507 0.105000 0.000000
0.688852 0.105000 0.000000
0.716197 0.105000 0.000000
0.743542 0.105000 0.000000
0.770886 0.105000 0.000000
0.798231 0.105000 0.000000
0.825576 0.105000 0.000000
0.834960 0.105000 0.000000
0.834960 0.105000 0.000000
0.000000 0.131250 0.000000
0.027838 0.131250 0.000000
0.055546 0.131250 0.000000
0.083223 0.131250 0.000000
0.110900 0.131250 0.000000
0.138577 0.131250 0.000000
0.166254 0.131250 0.000000
0.193931 0.131250 0.000000
0.221608 0.131250 0.000000
0.249285 0.131250 0.000000
0.276962 0.131250 0.000000
0.304639 0.131250 0.000000
0.332316 0.131250 0.000000
0.359993 0.131250 0.000000
0.387670 0.131250 0.000000
0.415347 0.131250 0.000000
0.442748 0.131250 0.000000
0.470093 0.131250 0.000000
0.497438 0.131250 0.000000
0.524782 0.131250 0.000000
0.552127 0.131250 0.000000
0.579472 0.131250 0.000000
0.606817 0.131250 0.000000
0.634162 0.131250 0.000000
0.661507 0.131250 0.000000
0.688852 0.131250 0.000000
0.716197 0.131250 0.000000
0.743542 0.131250 0.000000
0.770886 0.131250 0.000000
0.798231 0.131250 0.000000
0.825576 0.131250 0.000000
0.834960 0.131250 0.000000
0.834960 0.131250 0.000000
0.000000 0.157500 0.000000
0.027838 0.157500 0.000000
0.055546 0.157500 0.000000
0.083223 0.157500 0.000000
0.110900 0.157500 0.000000
0.138577 0.157500 0.000000
0.166254 0.157500 0.000000
0.193931 0.157500 0.000000
0.221608 0.157500 0.000000
0.249285 0.157500 0.000000
0.276962 0.157500 0.000000
0.304639 0.157500 0.000000
0.332316 0.157500 0.000000
0.359993 0.157500 0.000000
0.387670 0.157500 0.000000
0.415347 0.157500 0.000000
0.442748 0.157500 0.000000
0.470093 0.157500 0.000000
0.497438 0.157500 0.000000
0.524782 0.157500 0.000000
0.552127 0.157500 0.000000
0.579472 0.157500 0.000000
0.606817 0.157500 0.000000
0.634162 0.157500 0.000000
0.661507 0.157500 0.000000
0.688852 0.157500 0.000000
0.716197 0.157500 0.000000
0.743542 0.157500 0.000000
0.770886 0.157500 0.000000
0.798231 0.157500 0.000000
0.825576 0.157500 0.000000
0.834960 0.157500 0.000000
0.834960 0.157500 0.000000
0.000000 0.183750 0.000000
0.027838 0.183750 0.000000
0.055546 0.183750 0.000000
0.083223 0.183750 0.000000
0.110900 0.183750 0.000000
0.138577 0.183750 0.000000
0.166254 0.183750 0.000000
0.193931 0.183750 0.000000
0.221608 0.183750 0.000000
0.249285 0.183750 0.000000
0.276962 0.183750 0.000000
0.304639 0.183750 0.000000
0.332316 0.183750 0.000000
0.359993 0.183750 0.000000
0.387670 0.183750 0.000000
0.415347 0.183750 0.000000
0.442748 0.183750 0.000000
0.470093 0.183750 0.000000
0.497438 0.183750 0.000000
0.524782 0.183750 0.000000
0.552127 0.183750 0.000000
0.579472 0.183750 0.000000
0.606817 0.183750 0.000000
0.634162 0.183750 0.000000
0.661507 0.183750 0.000000
0.688852 0.183750 0.000000
0.716197 0.183750 0.000000
0.743542 0.183750 0.000000
0.770886 0.183750 0.000000
0.798231 0.183750 0.000000
0.825576 0.183750 0.000000
0.834960 0.183750 0.000000
0.834960 0.183750 0.000000
0.000000 0.210000 0.000000
0.027838 0.210000 0.000000
0.055546 0.210000 0.000000
0.083223 0.210000 0.000000
0.110900 0.210000 0.000000
0.138577 0.210000 0.000000
0.166254 0.210000 0.000000
0.193931 0.210000 0.000000
0.221608 0.210000 0.000000
0.249285 0.210000 0.000000
0.276962 0.210000 0.000000
0.304639 0.210000 0.000000
0.332316 0.210000 0.000000
0.359993 0.210000 0.000000
0.387670 0.210000 0.000000
0.415347 0.210000 0.000000
0.442748 0.210000 0.000000
0.470093 0.210000 0.000000
0.497438 0.210000 0.000000
0.524782 0.210000 0.000000
0.552127 0.210000 0.000000
0.579472 0.210000 0.000000
0.606817 0.210000 0.000000
0.634162 0.210000 0.000000
0.661507 0.210000 0.000000
0.688852 0.210000 0.000000
0.716197 0.210000 0.000000
0.743542 0.210000 0.000000
0.770886 0.210000 0.000000
0.798231 0.210000 0.000000
0.825576 0.210000 0.000000
0.834960 0.210000 0.000000
0.834960 0.210000 0.000000
0.000000 0.236250 0.000000
0.027838 0.236250 0.000000
0.055546 0.236250 0.000000
0.083223 0.236250 0.000000
0.110900 0.236250 0.000000
0.138577 0.236250 0.000000
0.166254 0.236250 0.000000
0.193931 0.236250 0.000000
0.221608 0.236250 0.000000
0.249285 0.236250 0.000000
0.276962 0.236250 0.000000
0.304639 0.236250 0.000000
0.332316 0.236250 0.000000
0.359993 0.236250 0.000000
0.387670 0.236250 0.000000
0.415347 0.236250 0.000000
0.442748 0.236250 0.000000
0.470093 0.236250 0.000000
0.497438 0.236250 0.000000
0.524782 0.236250 0.000000
0.552127 0.236250 0.000000
0.579472 0.236250 0.000000
0.606817 0.236250 0.000000
0.634162 0.236250 0.000000
0.661507 0.236250 0.000000
0.688852 0.236250 0.000000
0.716197 0.236250 0.000000
0.743542 0.236250 0.000000
0.770886 0.236250 0.000000
0.798231 0.236250 0.000000
0.825576 0.236250 0.000000
0.834960 0.236250 0.000000
0.834960 0.236250 0.000000
0.000000 0.262500 0.000000
0.027838 0.262500 0.000000
0.055546 0.262500 0.000000
0.083223 0.262500 0.000000
0.110900 0.262500 0.000000
0.138577 0.262500 0.000000
0.166254 0.262500 0.000000
0.193931 0.262500 0.000000
0.221608 0.262500 0.000000
0.249285 0.262500 0.000000
0.276962 0.262500 0.000000
0.304639 0.262500 0.000000
0.332316 0.262500 0.000000
0.359993 0.262500 0.000000
0.387670 0.262500 0.000000
0.415347 0.262500 0.000000
0.442748 0.262500 0.000000
0.470093 0.262500 0.000000
0.497438 0.262500 0.000000
0.524782 0.262500 0.000000
0.552127 0.262500 0.000000
0.579472 0.262500 0.000000
0.606817 0.262500 0.000000
0.634162 0.262500 0.000000
0.661507 0.262500 0.000000
0.688852 0.262500 0.000000
0.716197 0.262500 0.000000
0.743542 0.262500 0.000000
0.770886 0.262500 0.000000
0.798231 0.262500 0.000000
0.825576 0.262500 0.000000
0.834960 0.262500 0.000000
0.834960 0.262500 0.000000
0.000000 0.288750 0.000000
0.027838 0.288750 0.000000
0.055546 0.288750 0.000000
0.083223 0.288750 0.000000
0.110900 0.288750 0.000000
0.138577 0.288750 0.000000
0.166254 0.288750 0.000000
0.193931 0.288750 0.000000
0.221608 0.288750 0.000000
0.249285 0.288750 0.000000
0.276962 0.288750 0.000000
0.304639 0.288750 0.000000
0.332316 0.288750 0.000000
0.359993 0.288750 0.000000
0.387670 0.288750 0.000000
0.415347 0.288750 0.000000
0.442748 0.288750 0.000000
0.470093 0.288750 0.000000
0.497438 0.288750 0.000000
0.524782 0.288750 0.000000
0.552127 0.288750 0.000000
0.579472 0.288750 0.000000
0.606817 0.288750 0.000000
0.634162 0.288750 0.000000
0.661507 0.288750 0.000000
0.688852 0.288750 0.000000
0.716197 0.288750 0.000000
0.743542 0.288750 0.000000
0.770886 0.288750 0.000000
0.798231 0.288750 0.000000
0.825576 0.288750 0.000000
0.834960 0.288750 0.000000
0.834960 0.288750 0.000000
0.000000 0.315000 0.000000
0.027838 0.315000 0.000000
0.055546 0.315000 0.000000
0.083223 0.315000 0.000000
0.110900 0.315000 0.000000
0.138577 0.315000 0.000000
0.166254 0.315000 0.000000
0.193931 0.315000 0.000000
0.221608 0.315000 0.000000
0.249285 0.315000 0.000000
0.276962 0.315000 0.000000
0.304639 0.315000 0.000000
0.332316 0.315000 0.000000
0.359993 0.315000 0.000000
0.387670 0.315000 0.000000
0.415347 0.315000 0.000000
0.442748 0.315000 0.000000
0.470093 0.315000 0.000000
0.497438 0.315000 0.000000
0.524782 0.315000 0.000000
0.552127 0.315000 0.000000
0.579472 0.315000 0.000000
0.606817 0.315000 0.000000
0.634162 0.315000 0.000000
0.661507 0.315000 0.000000
0.688852 0.315000 0.000000
0.716197 0.315000 0.000000
0.743542 0.315000 0.000000
0.770886 0.315000 0.000000
0.798231 0.315000 0.000000
0.825576 0.315000 0.000000
0.834960 0.315000 0.000000
0.834960 0.315000 0.000000
0.000000 0.341250 0.000000
0.027838 0.341250 0.000000
0.055546 0.341250 0.000000
0.083223 0.341250 0.000000
0.110900 0.341250 0.000000
0.138577 0.341250 0.000000
0.166254 0.341250 0.000000
0.193931 0.341250 0.000000
0.221608 0.341250 0.000000
0.249285 0.341250 0.000000
0.276962 0.341250 0.000000
0.304639 0.341250 0.000000
0.332316 0.341250 0.000000
0.359993 0.341250 0.000000
0.387670 0.341250 0.000000
0.415347 0.341250 0.000000
0.442748 0.341250 0.000000
0.470093 0.341250 0.000000
0.497438 0.341250 0.000000
0.524782 0.341250 0.000000
0.552127 0.341250 0.000000
0.579472 0.341250 0.000000
0.606817 0.341250 0.000000
0.634162 0.341250 0.000000
0.661507 0.341250 0.000000
0.688852 0.341250 0.000000
0.716197 0.341250 0.000000
0.743542 0.341250 0.000000
0.770886 0.341250 0.000000
0.798231 0.341250 0.000000
0.825576 0.341250 0.000000
0.834960 0.341250 0.000000
0.834960 0.341250 0.000000
0.000000 0.367500 0.000000
0.027838 0.367500 0.000000
0.055546 0.367500 0.000000
0.083223 0.367500 0.000000
0.110900 0.367500 0.000000
0.138577 0.367500 0.000000
0.166254 0.367500 0.000000
0.193931 0.367500 0.000000
0.221608 0.367500 0.000000
0.249285 0.367500 0.000000
0.276962 0.367500 0.000000
0.304639 0.367500 0.000000
0.332316 0.367500 0.000000
0.359993 0.367500 0.000000
0.387670 0.367500 0.000000
0.415347 0.367500 0.000000
0.442748 0.367500 0.000000
0.470093 0.367500 0.000000
0.497438 0.367500 0.000000
0.524782 0.367500 0.000000
0.552127 0.367500 0.000000
0.579472 0.367500 0.000000
0.606817 0.367500 0.000000
0.634162 0.367500 0.000000
0.661507 0.367500 0.000000
0.688852 0.367500 0.000000
0.716197 0.367500 0.000000
0.743542 0.367500 0.000000
0.770886 0.367500 0.000000
0.798231 0.367500 0.000000
0.825576 0.367500 0.000000
0.834960 0.367500 0.000000
0.834960 0.367500 0.000000
0.000000 0.393750 0.000000
0.027838 0.393750 0.000000
0.055546 0.393750 0.000000
0.083223 0.393750 0.000000
0.110900 0.393750 0.000000
0.138577 0.393750 0.000000
0.166254 0.393750 0.000000
0.193931 0.393750 0.000000
0.221608 0.393750 0.000000
0.249285 0.393750 0.000000
0.276962 0.393750 0.000000
0.304639 0.393750 0.000000
0.332316 0.393750 0.000000
0.359993 0.393750 0.000000
0.387670 0.393750 0.000000
0.415347 0.393750 0.000000
0.442748 0.393750 0.000000
0.470093 0.393750 0.000000
0.497438 0.393750 0.000000
0.524782 0.393750 0.000000
0.552127 0.393750 0.000000
0.579472 0.393750 0.000000
0.606817 0.393750 0.000000
0.634162 0.393750 0.000000
0.661507 0.393750 0.000000
0.688852 0.393750 0.000000
0.716197 0.393750 0.000000
0.743542 0.393750 0.000000
0.770886 0.393750 0.000000
0.798231 0.393750 0.000000
0.825576 0.393750 0.000000
0.834960 0.393750 0.000000
0.834960 0.393750 0.000000
0.000000 0.420000 0.000000
0.027838 0.420000 0.000000
0.055546 0.420000 0.000000
0.083223 0.420000 0.000000
0.110900 0.420000 0.000000
0.138577 0.420000 0.000000
0.166254 0.420000 0.000000
0.193931 0.420000 0.000000
0.221608 0.420000 0.000000
0.249285 0.420000 0.000000
0.276962 0.420000 0.000000
0.304639 0.420000 0.000000
0.332316 0.420000 0.000000
0.359993 0.420000 0.000000
0.387670 0.420000 0.000000
0.415347 0.420000 0.000000
0.442748 0.420000 0.000000
0.470093 0.420000 0.000000
0.497438 0.420000 0.000000
0.524782 0.420000 0.000000
0.552127 0.420000 0.000000
0.579472 0.420000 0.000000
0.606817 0.420000 0.000000
0.634162 0.420000 0.000000
0.661507 0.420000 0.000000
0.688852 0.420000 0.000000
0.716197 0.420000 0.000000
0.743542 0.420000 0.000000
0.770886 0.420000 0.000000
0.798231 0.420000 0.000000
0.825576 0.420000 0.000000
0.834960 0.420000 0.000000
0.834960 0.420000 0.000000
0.000000 0.445935 0.000000
0.027838 0.445935 0.000000
0.055546 0.445935 0.000000
0.083223 0.445935 0.000000
0.110900 0.445935 0.000000
0.138577 0.445935 0.000000
0.166254 0.445935 0.000000
0.193931 0.445935 0.000000
0.221608 0.445935 0.000000
0.249285 0.445935 0.000000
0.276962 0.445935 0.000000
0.304639 0.445935 0.000000
0.332316 0.445935 0.000000
0.359993 0.445935 0.000000
0.387670 0.445935 0.000000
0.415347 0.445935 0.000000
0.442748 0.445935 0.000000
0.470093 0.445935 0.000000
0.497438 0.445935 0.000000
0.524782 0.445935 0.000000
0.552127 0.445935 0.000000
0.579472 0.445935 0.000000
0.606817 0.445935 0.000000
0.634162 0.445935 0.000000
0.661507 0.445935 0.000000
0.688852 0.445935 0.000000
0.716197 0.445935 0.000000
0.743542 0.445935 0.000000
0.770886 0.445935 0.000000
0.798231 0.445935 0.000000
0.825576 0.445935 0.000000
0.834960 0.445935 0.000000
0.834960 0.445935 0.000000
0.000000 0.471870 0.000000
0.027838 0.471870 0.000000
0.055546 0.471870 0.000000
0.083223 0.471870 0.000000
0.110900 0.471870 0.000000
0.138577 0.471870 0.000000
0.166254 0.471870 0.000000
0.193931 0.471870 0.000000
0.221608 0.471870 0.000000
0.249285 0.471870 0.000000
0.276962 0.471870 0.000000
0.304639 0.471870 0.000000
0.332316 0.471870 0.000000
0.359993 0.471870 0.000000
0.387670 0.471870 0.000000
0.415347 0.471870 0.000000
0.442748 0.471870 0.000000
0.470093 0.471870 0.000000
0.497438 0.471870 0.000000
0.524782 0.471870 0.000000
0.552127 0.471870 0.000000
0.579472 0.471870 0.000000
0.606817 0.471870 0.000000
0.634162 0.471870 0.000000
0.661507 0.471870 0.000000
0.688852 0.471870 0.000000
0.716197 0.471870 0.000000
0.743542 0.471870 0.000000
0.770886 0.471870 0.000000
0.798231 0.471870 0.000000
0.825576 0.471870 0.000000
0.834960 0.471870 0.000000
0.834960 0.471870 0.000000
0.000000 0.497805 0.000000
0.027838 0.497805 0.000000
0.055546 0.497805 0.000000
0.083223 0.497805 0.000000
0.110900 0.497805 0.000000
0.138577 0.497805 0.000000
0.166254 0.497805 0.000000
0.193931 0.497805 0.000000
0.221608 0.497805 0.000000
0.249285 0.497805 0.000000
0.276962 0.497805 0.000000
0.304639 0.497805 0.000000
0.332316 0.497805 0.000000
0.359993 0.497805 0.000000
0.387670 0.497805 0.000000
0.415347 0.497805 0.000000
0.442748 0.497805 0.000000
0.470093 0.497805 0.000000
0.497438 0.497805 0.000000
0.524782 0.497805 0.000000
0.552127 0.497805 0.000000
0.579472 0.497805 0.000000
0.606817 0.497805 0.000000
0.634162 0.497805 0.000000
0.661507 0.497805 0.000000
0.688852 0.497805 0.000000
0.716197 0.497805 0.000000
0.743542 0.497805 0.000000
0.770886 0.497805 0.000000
0.798231 0.497805 0.000000
0.825576 0.497805 0.000000
0.834960 0.497805 0.000000
0.834960 0.497805 0.000000
0.000000 0.523740 0.000000
0.027838 0.523740 0.000000
0.055546 0.523740 0.000000
0.083223 0.523740 0.000000
0.110900 0.523740 0.000000
0.138577 0.523740 0.000000
0.166254 0.523740 0.000000
0.193931 0.523740 0.000000
0.221608 0.523740 0.000000
0.249285 0.523740 0.000000
0.276962 0.523740 0.000000
0.304639 0.523740 0.000000
0.332316 0.523740 0.000000
0.359993 0.523740 0.000000
0.387670 0.523740 0.000000
0.415347 0.523740 0.000000
0.442748 0.523740 0.000000
0.470093 0.523740 0.000000
0.497438 0.523740 0.000000
0.524782 0.523740 0.000000
0.552127 0.523740 0.000000
0.579472 0.523740 0.000000
0.606817 0.523740 0.000000
0.634162 0.523740 0.000000
0.661507 0.523740 0.000000
0.688852 0.523740 0.000000
0.716197 0.523740 0.000000
0.743542 0.523740 0.000000
0.770886 0.523740 0.000000
0.798231 0.523740 0.000000
0.825576 0.523740 0.000000
0.834960 0.523740 0.000000
0.834960 0.523740 0.000000
0.000000 0.549675 0.000000
0.027838 0.549675 0.000000
0.055546 0.549675 0.000000
0.083223 0.549675 0.000000
0.110900 0.549675 0.000000
0.138577 0.549675 0.000000
0.166254 0.549675 0.000000
0.193931 0.549675 0.000000
0.221608 0.549675 0.000000
0.249285 0.549675 0.000000
0.276962 0.549675 0.000000
0.304639 0.549675 0.000000
0.332316 0.549675 0.000000
0.359993 0.549675 0.000000
0.387670 0.549675 0.000000
0.415347 0.549675 0.000000
0.442748 0.549675 0.000000
0.470093 0.549675 0.000000
0.497438 0.549675 0.000000
0.524782 0.549675 0.000000
0.552127 0.549675 0.000000
0.579472 0.549675 0.000000
0.606817 0.549675 0.000000
0.634162 0.549675 0.000000
0.661507 0.549675 0.000000
0.688852 0.549675 0.000000
0.716197 0.549675 0.000000
0.743542 0.549675 0.000000
0.770886 0.549675 0.000000
0.798231 0.549675 0.000000
0.825576 0.549675 0.000000
0.834960 0.549675 0.000000
0.834960 0.549675 0.000000
0.000000 0.575610 0.000000
0.027838 0.575610 0.000000
0.055546 0.575610 0.000000
0.083223 0.575610 0.000000
0.110900 0.575610 0.000000
0.138577 0.575610 0.000000
0.166254 0.575610 0.000000
0.193931 0.575610 0.000000
0.221608 0.575610 0.000000
0.249285 0.575610 0.000000
0.276962 0.575610 0.000000
0.304639 0.575610 0.000000
0.332316 0.575610 0.000000
0.359993 0.575610 0.000000
0.387670 0.575610 0.000000
0.415347 0.575610 0.000000
0.442748 0.575610 0.000000
0.470093 0.575610 0.000000
0.497438 0.575610 0.000000
0.524782 0.575610 0.000000
0.552127 0.575610 0.000000
0.579472 0.575610 0.000000
0.606817 0.575610 0.000000
0.634162 0.575610 0.000000
0.661507 0.575610 0.000000
0.688852 0.575610 0.000000
0.716197 0.575610 0.000000
0.743542 0.575610 0.000000
0.770886 0.575610 0.000000
0.798231 0.575610 0.000000
0.825576 0.575610 0.000000
0.834960 0.575610 0.000000
0.834960 0.575610 0.000000
0.000000 0.601545 0.000000
0.027838 0.601545 0.000000
0.055546 0.601545 0.000000
0.083223 0.601545 0.000000
0.110900 0.601545 0.000000
0.138577 0.601545 0.000000
0.166254 0.601545 0.000000
0.193931 0.601545 0.000000
0.221608 0.601545 0.000000
0.249285 0.601545 0.000000
0.276962 0.601545 0.000000
0.304639 0.601545 0.000000
0.332316 0.601545 0.000000
0.359993 0.601545 0.000000
0.387670 0.601545 0.000000
0.415347 0.601545 0.000000
0.442748 0.601545 0.000000
0.470093 0.601545 0.000000
0.497438 0.601545 0.000000
0.524782 0.601545 0.000000
0.552127 0.601545 0.000000
0.579472 0.601545 0.000000
0.606817 0.601545 0.000000
0.634162 0.601545 0.000000
0.661507 0.601545 0.000000
0.688852 0.601545 0.000000
0.716197 0.601545 0.000000
0.743542 0.601545 0.000000
0.770886 0.601545 0.000000
0.798231 0.601545 0.000000
0.825576 0.601545 0.000000
0.834960 0.601545 0.000000
0.834960 0.601545 0.000000
0.000000 0.627480 0.000000
0.027838 0.627480 0.000000
0.055546 0.627480 0.000000
0.083223 0.627480 0.000000
0.110900 0.627480 0.000000
0.138577 0.627480 0.000000
0.166254 0.627480 0.000000
0.193931 0.627480 0.000000
0.221608 0.627480 0.000000
0.249285 0.627480 0.000000
0.276962 0.627480 0.000000
0.304639 0.627480 0.000000
0.332316 0.627480 0.000000
0.359993 0.627480 0.000000
0.387670 0.627480 0.000000
0.415347 0.627480 0.000000
0.442748 0.627480 0.000000
0.470093 0.627480 0.000000
0.497438 0.627480 0.000000
0.524782 0.627480 0.000000
0.552127 0.627480 0.000000
0.579472 0.627480 0.000000
0.606817 0.627480 0.000000
0.634162 0.627480 0.000000
0.661507 0.627480 0.000000
0.688852 0.627480 0.000000
0.716197 0.627480 0.000000
0.743542 0.627480 0.000000
0.770886 0.627480 0.000000
0.798231 0.627480 0.000000
0.825576 0.627480 0.000000
0.834960 0.627480 0.000000
0.834960 0.627480 0.000000
0.000000 0.653415 0.000000
0.027838 0.653415 0.000000
0.055546 0.653415 0.000000
0.083223 0.653415 0.000000
0.110900 0.653415 0.000000
0.138577 0.653415 0.000000
0.166254 0.653415 0.000000
0.193931 0.653415 0.000000
0.221608 0.653415 0.000000
0.249285 0.653415 0.000000
0.276962 0.653415 0.000000
0.304639 0.653415 0.000000
0.332316 0.653415 0.000000
0.359993 0.653415 0.000000
0.387670 0.653415 0.000000
0.415347 0.653415 0.000000
0.442748 0.653415 0.000000
0.470093 0.653415 0.000000
0.497438 0.653415 0.000000
0.524782 0.653415 0.000000
0.552127 0.653415 0.000000
0.579472 0.653415 0.000000
0.606817 0.653415 0.000000
0.634162 0.653415 0.000000
0.661507 0.653415 0.000000
0.688852 0.653415 0.000000
0.716197 0.653415 0.000000
0.743542 0.653415 0.000000
0.770886 0.653415 0.000000
0.798231 0.653415 0.000000
0.825576 0.653415 0.000000
0.834960 0.653415 0.000000
0.834960 0.653415 0.000000
0.000000 0.679350 0.000000
0.027838 0.679350 0.000000
0.055546 0.679350 0.000000
0.083223 0.679350 0.000000
0.110900 0.679350 0.000000
0.138577 0.679350 0.000000
0.166254 0.679350 0.000000
0.193931 0.679350 0.000000
0.221608 0.679350 0.000000
0.249285 0.679350 0.000000
0.276962 0.679350 0.000000
0.304639 0.679350 0.000000
0.332316 0.679350 0.000000
0.359993 0.679350 0.000000
0.387670 0.679350 0.000000
0.415347 0.679350 0.000000
0.442748 0.679350 0.000000
0.470093 0.679350 0.000000
0.497438 0.679350 0.000000
0.524782 0.679350 0.000000
0.552127 0.679350 0.000000
0.579472 0.679350 0.000000
0.606817 0.679350 0.000000
0.634162 0.679350 0.000000
