docs/luts/fuji_recipes/NEGA_RR_Analog_Color.cube
TITLE "Fujifilm Recipe: RR Analog Color (NEGA)"
# FilmSim=NEGA HL=3 SH=0 Col=-1 WB=Daylight WBR=-3 WBB=1
LUT_3D_SIZE 33
DOMAIN_MIN 0.0 0.0 0.0
DOMAIN_MAX 1.0 1.0 1.0
0.016000 0.016000 0.016000
0.052994 0.018297 0.018297
0.081576 0.020626 0.020626
0.109583 0.023015 0.023015
0.137549 0.025444 0.025444
0.165493 0.027895 0.027895
0.193425 0.030359 0.030359
0.221349 0.032830 0.032830
0.249267 0.035307 0.035307
0.277182 0.037788 0.037788
0.305094 0.040271 0.040271
0.333004 0.042757 0.042757
0.360912 0.045244 0.045244
0.388819 0.047732 0.047732
0.410244 0.049644 0.049644
0.439197 0.052166 0.052166
0.470149 0.054771 0.054771
0.501100 0.057377 0.057377
0.532050 0.059984 0.059984
0.562999 0.062592 0.062592
0.593947 0.065200 0.065200
0.624896 0.067809 0.067809
0.655843 0.070418 0.070418
0.686790 0.073028 0.073028
0.717737 0.075638 0.075638
0.748684 0.078248 0.078248
0.779631 0.080858 0.080858
0.781503 0.081016 0.081016
0.781503 0.081016 0.081016
0.781503 0.081016 0.081016
0.781503 0.081016 0.081016
0.781503 0.081016 0.081016
0.781503 0.081016 0.081016
0.018529 0.055948 0.018529
0.053142 0.055948 0.018529
0.081576 0.057505 0.020626
0.109583 0.059568 0.023015
0.137549 0.061796 0.025444
0.165493 0.064111 0.027895
0.193425 0.066475 0.030359
0.221349 0.068872 0.032830
0.249267 0.071290 0.035307
0.277182 0.073724 0.037788
0.305094 0.076168 0.040271
0.333004 0.078621 0.042757
0.360912 0.081081 0.045244
0.388819 0.083546 0.047732
0.410244 0.085441 0.049644
0.439197 0.087943 0.052166
0.470149 0.090527 0.054771
0.501100 0.093115 0.057377
0.532050 0.095705 0.059984
0.562999 0.098298 0.062592
0.593947 0.100894 0.065200
0.624896 0.103491 0.067809
0.655843 0.106089 0.070418
0.686790 0.108689 0.073028
0.717737 0.111290 0.075638
0.748684 0.113892 0.078248
0.779631 0.116495 0.080858
0.781503 0.116652 0.081016
0.781503 0.116652 0.081016
0.781503 0.116652 0.081016
0.781503 0.116652 0.081016
0.781503 0.116652 0.081016
0.781503 0.116652 0.081016
0.021069 0.086826 0.021069
0.055112 0.086826 0.021069
0.081894 0.086826 0.021069
0.109583 0.088325 0.023015
0.137549 0.090395 0.025444
0.165493 0.092602 0.027895
0.193425 0.094889 0.030359
0.221349 0.097227 0.032830
0.249267 0.099599 0.035307
0.277182 0.101995 0.037788
0.305094 0.104409 0.040271
0.333004 0.106837 0.042757
0.360912 0.109275 0.045244
0.388819 0.111721 0.047732
0.410244 0.113603 0.049644
0.439197 0.116089 0.052166
0.470149 0.118657 0.054771
0.501100 0.121230 0.057377
0.532050 0.123808 0.059984
0.562999 0.126389 0.062592
0.593947 0.128974 0.065200
0.624896 0.131562 0.067809
0.655843 0.134152 0.070418
0.686790 0.136744 0.073028
0.717737 0.139338 0.075638
0.748684 0.141933 0.078248
0.779631 0.144530 0.080858
0.781503 0.144688 0.081016
0.781503 0.144688 0.081016
0.781503 0.144688 0.081016
0.781503 0.144688 0.081016
0.781503 0.144688 0.081016
0.781503 0.144688 0.081016
0.023664 0.117090 0.023664
0.057417 0.117090 0.023664
0.083972 0.117090 0.023664
0.110083 0.117090 0.023664
0.137549 0.118517 0.025444
0.165493 0.120618 0.027895
0.193425 0.122828 0.030359
0.221349 0.125108 0.032830
0.249267 0.127435 0.035307
0.277182 0.129795 0.037788
0.305094 0.132179 0.040271
0.333004 0.134581 0.042757
0.360912 0.136998 0.045244
0.388819 0.139426 0.047732
0.410244 0.141296 0.049644
0.439197 0.143765 0.052166
0.470149 0.146317 0.054771
0.501100 0.148876 0.057377
0.532050 0.151441 0.059984
0.562999 0.154011 0.062592
0.593947 0.156586 0.065200
0.624896 0.159165 0.067809
0.655843 0.161746 0.070418
0.686790 0.164331 0.073028
0.717737 0.166918 0.075638
0.748684 0.169507 0.078248
0.779631 0.172098 0.080858
0.781503 0.172255 0.081016
0.781503 0.172255 0.081016
0.781503 0.172255 0.081016
0.781503 0.172255 0.081016
0.781503 0.172255 0.081016
0.781503 0.172255 0.081016
0.026299 0.147315 0.026299
0.059875 0.147315 0.026299
0.086290 0.147315 0.026299
0.112265 0.147315 0.026299
0.138239 0.147315 0.026299
0.165493 0.148634 0.027895
0.193425 0.150768 0.030359
0.221349 0.152990 0.032830
0.249267 0.155271 0.035307
0.277182 0.157594 0.037788
0.305094 0.159948 0.040271
0.333004 0.162326 0.042757
0.360912 0.164721 0.045244
0.388819 0.167131 0.047732
0.410244 0.168988 0.049644
0.439197 0.171442 0.052166
0.470149 0.173977 0.054771
0.501100 0.176522 0.057377
0.532050 0.179074 0.059984
0.562999 0.181633 0.062592
0.593947 0.184198 0.065200
0.624896 0.186767 0.067809
0.655843 0.189341 0.070418
0.686790 0.191918 0.073028
0.717737 0.194498 0.075638
0.748684 0.197081 0.078248
0.779631 0.199666 0.080858
0.781503 0.199823 0.081016
0.781503 0.199823 0.081016
0.781503 0.199823 0.081016
0.781503 0.199823 0.081016
0.781503 0.199823 0.081016
0.781503 0.199823 0.081016
0.028955 0.177519 0.028955
0.062411 0.177519 0.028955
0.088732 0.177519 0.028955
0.114614 0.177519 0.028955
0.140495 0.177519 0.028955
0.166377 0.177519 0.028955
0.193425 0.178707 0.030359
0.221349 0.180871 0.032830
0.249267 0.183107 0.035307
0.277182 0.185394 0.037788
0.305094 0.187718 0.040271
0.333004 0.190070 0.042757
0.360912 0.192444 0.045244
0.388819 0.194835 0.047732
0.410244 0.196681 0.049644
0.439197 0.199119 0.052166
0.470149 0.201638 0.054771
0.501100 0.204168 0.057377
0.532050 0.206708 0.059984
0.562999 0.209256 0.062592
0.593947 0.211810 0.065200
0.624896 0.214370 0.067809
0.655843 0.216936 0.070418
0.686790 0.219505 0.073028
0.717737 0.222078 0.075638
0.748684 0.224655 0.078248
0.779631 0.227234 0.080858
0.781503 0.227390 0.081016
0.781503 0.227390 0.081016
0.781503 0.227390 0.081016
0.781503 0.227390 0.081016
0.781503 0.227390 0.081016
0.781503 0.227390 0.081016
0.031622 0.207711 0.031622
0.064993 0.207711 0.031622
0.091245 0.207711 0.031622
0.117060 0.207711 0.031622
0.142875 0.207711 0.031622
0.168690 0.207711 0.031622
0.194505 0.207711 0.031622
0.221349 0.208753 0.032830
0.249267 0.210943 0.035307
0.277182 0.213193 0.037788
0.305094 0.215488 0.040271
0.333004 0.217815 0.042757
0.360912 0.220167 0.045244
0.388819 0.222540 0.047732
0.410244 0.224373 0.049644
0.439197 0.226795 0.052166
0.470149 0.229298 0.054771
0.501100 0.231814 0.057377
0.532050 0.234341 0.059984
0.562999 0.236878 0.062592
0.593947 0.239422 0.065200
0.624896 0.241973 0.067809
0.655843 0.244530 0.070418
0.686790 0.247092 0.073028
0.717737 0.249658 0.075638
0.748684 0.252228 0.078248
0.779631 0.254802 0.080858
0.781503 0.254958 0.081016
0.781503 0.254958 0.081016
0.781503 0.254958 0.081016
0.781503 0.254958 0.081016
0.781503 0.254958 0.081016
0.781503 0.254958 0.081016
0.034298 0.237896 0.034298
0.067603 0.237896 0.034298
0.093804 0.237896 0.034298
0.119569 0.237896 0.034298
0.145333 0.237896 0.034298
0.171097 0.237896 0.034298
0.196862 0.237896 0.034298
0.222626 0.237896 0.034298
0.249267 0.238779 0.035307
0.277182 0.240993 0.037788
0.305094 0.243257 0.040271
0.333004 0.245559 0.042757
0.360912 0.247891 0.045244
0.388819 0.250245 0.047732
0.410244 0.252066 0.049644
0.439197 0.254472 0.052166
0.470149 0.256958 0.054771
0.501100 0.259460 0.057377
0.532050 0.261975 0.059984
0.562999 0.264500 0.062592
0.593947 0.267034 0.065200
0.624896 0.269576 0.067809
0.655843 0.272125 0.070418
0.686790 0.274679 0.073028
0.717737 0.277238 0.075638
0.748684 0.279802 0.078248
0.779631 0.282370 0.080858
0.781503 0.282525 0.081016
0.781503 0.282525 0.081016
0.781503 0.282525 0.081016
0.781503 0.282525 0.081016
0.781503 0.282525 0.081016
0.781503 0.282525 0.081016
0.036978 0.268075 0.036978
0.070232 0.268075 0.036978
0.096394 0.268075 0.036978
0.122118 0.268075 0.036978
0.147843 0.268075 0.036978
0.173568 0.268075 0.036978
0.199293 0.268075 0.036978
0.225018 0.268075 0.036978
0.250743 0.268075 0.036978
0.277182 0.268793 0.037788
0.305094 0.271027 0.040271
0.333004 0.273304 0.042757
0.360912 0.275614 0.045244
0.388819 0.277950 0.047732
0.410244 0.279758 0.049644
0.439197 0.282148 0.052166
0.470149 0.284619 0.054771
0.501100 0.287106 0.057377
0.532050 0.289608 0.059984
0.562999 0.292122 0.062592
0.593947 0.294646 0.065200
0.624896 0.297179 0.067809
0.655843 0.299719 0.070418
0.686790 0.302266 0.073028
0.717737 0.304818 0.075638
0.748684 0.307376 0.078248
0.779631 0.309938 0.080858
0.781503 0.310093 0.081016
0.781503 0.310093 0.081016
0.781503 0.310093 0.081016
0.781503 0.310093 0.081016
0.781503 0.310093 0.081016
0.781503 0.310093 0.081016
0.039662 0.298251 0.039662
0.072875 0.298251 0.039662
0.099004 0.298251 0.039662
0.124698 0.298251 0.039662
0.150391 0.298251 0.039662
0.176084 0.298251 0.039662
0.201777 0.298251 0.039662
0.227470 0.298251 0.039662
0.253164 0.298251 0.039662
0.278857 0.298251 0.039662
0.305094 0.298796 0.040271
0.333004 0.301048 0.042757
0.360912 0.303337 0.045244
0.388819 0.305655 0.047732
0.410244 0.307451 0.049644
0.439197 0.309825 0.052166
0.470149 0.312279 0.054771
0.501100 0.314752 0.057377
0.532050 0.317241 0.059984
0.562999 0.319744 0.062592
0.593947 0.322258 0.065200
0.624896 0.324782 0.067809
0.655843 0.327314 0.070418
0.686790 0.329853 0.073028
0.717737 0.332399 0.075638
0.748684 0.334950 0.078248
0.779631 0.337506 0.080858
0.781503 0.337660 0.081016
0.781503 0.337660 0.081016
0.781503 0.337660 0.081016
0.781503 0.337660 0.081016
0.781503 0.337660 0.081016
0.781503 0.337660 0.081016
0.042349 0.328424 0.042349
0.075528 0.328424 0.042349
0.101631 0.328424 0.042349
0.127298 0.328424 0.042349
0.152965 0.328424 0.042349
0.178633 0.328424 0.042349
0.204300 0.328424 0.042349
0.229967 0.328424 0.042349
0.255634 0.328424 0.042349
0.281301 0.328424 0.042349
0.306969 0.328424 0.042349
0.333004 0.328793 0.042757
0.360912 0.331060 0.045244
0.388819 0.333360 0.047732
0.410244 0.335143 0.049644
0.439197 0.337502 0.052166
0.470149 0.339939 0.054771
0.501100 0.342398 0.057377
0.532050 0.344875 0.059984
0.562999 0.347366 0.062592
0.593947 0.349870 0.065200
0.624896 0.352385 0.067809
0.655843 0.354908 0.070418
0.686790 0.357440 0.073028
0.717737 0.359979 0.075638
0.748684 0.362523 0.078248
0.779631 0.365074 0.080858
0.781503 0.365228 0.081016
0.781503 0.365228 0.081016
0.781503 0.365228 0.081016
0.781503 0.365228 0.081016
0.781503 0.365228 0.081016
0.781503 0.365228 0.081016
0.045037 0.358595 0.045037
0.078189 0.358595 0.045037
0.104269 0.358595 0.045037
0.129915 0.358595 0.045037
0.155560 0.358595 0.045037
0.181206 0.358595 0.045037
0.206851 0.358595 0.045037
0.232497 0.358595 0.045037
0.258142 0.358595 0.045037
0.283788 0.358595 0.045037
0.309433 0.358595 0.045037
0.335079 0.358595 0.045037
0.360912 0.358783 0.045244
0.388819 0.361065 0.047732
0.410244 0.362836 0.049644
0.439197 0.365178 0.052166
0.470149 0.367600 0.054771
0.501100 0.370044 0.057377
0.532050 0.372508 0.059984
0.562999 0.374988 0.062592
0.593947 0.377482 0.065200
0.624896 0.379987 0.067809
0.655843 0.382503 0.070418
0.686790 0.385027 0.073028
0.717737 0.387559 0.075638
0.748684 0.390097 0.078248
0.779631 0.392641 0.080858
0.781503 0.392796 0.081016
0.781503 0.392796 0.081016
0.781503 0.392796 0.081016
0.781503 0.392796 0.081016
0.781503 0.392796 0.081016
0.781503 0.392796 0.081016
0.047728 0.388765 0.047728
0.080855 0.388765 0.047728
0.106917 0.388765 0.047728
0.132544 0.388765 0.047728
0.158171 0.388765 0.047728
0.183798 0.388765 0.047728
0.209425 0.388765 0.047728
0.235052 0.388765 0.047728
0.260679 0.388765 0.047728
0.286306 0.388765 0.047728
0.311933 0.388765 0.047728
0.337560 0.388765 0.047728
0.363187 0.388765 0.047728
0.388819 0.388769 0.047732
0.410244 0.390528 0.049644
0.439197 0.392855 0.052166
0.470149 0.395260 0.054771
0.501100 0.397690 0.057377
0.532050 0.400142 0.059984
0.562999 0.402610 0.062592
0.593947 0.405094 0.065200
0.624896 0.407590 0.067809
0.655843 0.410097 0.070418
0.686790 0.412614 0.073028
0.717737 0.415139 0.075638
0.748684 0.417671 0.078248
0.779631 0.420209 0.080858
0.781503 0.420363 0.081016
0.781503 0.420363 0.081016
0.781503 0.420363 0.081016
0.781503 0.420363 0.081016
0.781503 0.420363 0.081016
0.781503 0.420363 0.081016
0.049839 0.412435 0.049839
0.082950 0.412435 0.049839
0.108999 0.412435 0.049839
0.134614 0.412435 0.049839
0.160228 0.412435 0.049839
0.185843 0.412435 0.049839
0.211457 0.412435 0.049839
0.237071 0.412435 0.049839
0.262686 0.412435 0.049839
0.288300 0.412435 0.049839
0.313915 0.412435 0.049839
0.339529 0.412435 0.049839
0.365144 0.412435 0.049839
0.390758 0.412435 0.049839
0.410424 0.412435 0.049839
0.439197 0.414570 0.052166
0.470149 0.416962 0.054771
0.501100 0.419381 0.057377
0.532050 0.421823 0.059984
0.562999 0.424283 0.062592
0.593947 0.426758 0.065200
0.624896 0.429247 0.067809
0.655843 0.431748 0.070418
0.686790 0.434259 0.073028
0.717737 0.436778 0.075638
0.748684 0.439305 0.078248
0.779631 0.441935 0.080858
0.781503 0.442098 0.081016
0.781503 0.442098 0.081016
0.781503 0.442098 0.081016
0.781503 0.442098 0.081016
0.781503 0.442098 0.081016
0.781503 0.442098 0.081016
0.052583 0.444157 0.052583
0.085673 0.444157 0.052583
0.111706 0.444157 0.052583
0.137304 0.444157 0.052583
0.162903 0.444157 0.052583
0.188501 0.444157 0.052583
0.214099 0.444157 0.052583
0.239698 0.444157 0.052583
0.265296 0.444157 0.052583
0.290894 0.444157 0.052583
0.316493 0.444157 0.052583
0.342091 0.444157 0.052583
0.367689 0.444157 0.052583
0.393287 0.444157 0.052583
0.412941 0.444157 0.052583
0.439600 0.444157 0.052583
0.470149 0.446280 0.054771
0.501100 0.448835 0.057377
0.532050 0.451413 0.059984
0.562999 0.454012 0.062592
0.593947 0.456627 0.065200
0.624896 0.459256 0.067809
0.655843 0.461898 0.070418
0.686790 0.464551 0.073028
0.717737 0.467213 0.075638
0.748684 0.469883 0.078248
0.779631 0.472560 0.080858
0.781503 0.472723 0.081016
0.781503 0.472723 0.081016
0.781503 0.472723 0.081016
0.781503 0.472723 0.081016
0.781503 0.472723 0.081016
0.781503 0.472723 0.081016
0.055400 0.477618 0.055400
0.088470 0.477618 0.055400
0.114486 0.477618 0.055400
0.140069 0.477618 0.055400
0.165651 0.477618 0.055400
0.191234 0.477618 0.055400
0.216816 0.477618 0.055400
0.242399 0.477618 0.055400
0.267981 0.477618 0.055400
0.293564 0.477618 0.055400
0.319146 0.477618 0.055400
0.344729 0.477618 0.055400
0.370311 0.477618 0.055400
0.395893 0.477618 0.055400
0.415535 0.477618 0.055400
0.442341 0.477618 0.055400
0.470760 0.477618 0.055400
0.501100 0.479547 0.057377
0.532050 0.482111 0.059984
0.562999 0.484697 0.062592
0.593947 0.487301 0.065200
0.624896 0.489920 0.067809
0.655843 0.492553 0.070418
0.686790 0.495197 0.073028
0.717737 0.497851 0.075638
0.748684 0.500514 0.078248
0.779631 0.503185 0.080858
0.781503 0.503347 0.081016
0.781503 0.503347 0.081016
0.781503 0.503347 0.081016
0.781503 0.503347 0.081016
0.781503 0.503347 0.081016
0.781503 0.503347 0.081016
0.058218 0.511078 0.058218
0.091270 0.511078 0.058218
0.117272 0.511078 0.058218
0.142841 0.511078 0.058218
0.168410 0.511078 0.058218
0.193978 0.511078 0.058218
0.219547 0.511078 0.058218
0.245116 0.511078 0.058218
0.270684 0.511078 0.058218
0.296253 0.511078 0.058218
0.321822 0.511078 0.058218
0.347390 0.511078 0.058218
0.372959 0.511078 0.058218
0.398528 0.511078 0.058218
0.418159 0.511078 0.058218
0.445112 0.511078 0.058218
0.473517 0.511078 0.058218
0.501921 0.511078 0.058218
0.532050 0.512809 0.059984
0.562999 0.515382 0.062592
0.593947 0.517975 0.065200
0.624896 0.520584 0.067809
0.655843 0.523207 0.070418
0.686790 0.525843 0.073028
0.717737 0.528490 0.075638
0.748684 0.531146 0.078248
0.779631 0.533810 0.080858
0.781503 0.533972 0.081016
0.781503 0.533972 0.081016
0.781503 0.533972 0.081016
0.781503 0.533972 0.081016
0.781503 0.533972 0.081016
0.781503 0.533972 0.081016
0.061036 0.544537 0.061036
0.094073 0.544537 0.061036
0.120063 0.544537 0.061036
0.145619 0.544537 0.061036
0.171176 0.544537 0.061036
0.196733 0.544537 0.061036
0.222289 0.544537 0.061036
0.247846 0.544537 0.061036
0.273402 0.544537 0.061036
0.298959 0.544537 0.061036
0.324515 0.544537 0.061036
0.350072 0.544537 0.061036
0.375628 0.544537 0.061036
0.401185 0.544537 0.061036
0.420807 0.544537 0.061036
0.447910 0.544537 0.061036
0.476301 0.544537 0.061036
0.504691 0.544537 0.061036
0.533082 0.544537 0.061036
0.562999 0.546067 0.062592
0.593947 0.548649 0.065200
0.624896 0.551248 0.067809
0.655843 0.553862 0.070418
0.686790 0.556489 0.073028
0.717737 0.559128 0.075638
0.748684 0.561777 0.078248
0.779631 0.564435 0.080858
0.781503 0.564596 0.081016
0.781503 0.564596 0.081016
0.781503 0.564596 0.081016
0.781503 0.564596 0.081016
0.781503 0.564596 0.081016
0.781503 0.564596 0.081016
0.063856 0.577995 0.063856
0.096878 0.577995 0.063856
0.122857 0.577995 0.063856
0.148403 0.577995 0.063856
0.173949 0.577995 0.063856
0.199495 0.577995 0.063856
0.225041 0.577995 0.063856
0.250586 0.577995 0.063856
0.276132 0.577995 0.063856
0.301678 0.577995 0.063856
0.327224 0.577995 0.063856
0.352770 0.577995 0.063856
0.378315 0.577995 0.063856
0.403861 0.577995 0.063856
0.423475 0.577995 0.063856
0.450729 0.577995 0.063856
0.479108 0.577995 0.063856
0.507487 0.577995 0.063856
0.535865 0.577995 0.063856
0.564244 0.577995 0.063856
0.593947 0.579323 0.065200
0.624896 0.581912 0.067809
0.655843 0.584517 0.070418
0.686790 0.587136 0.073028
0.717737 0.589767 0.075638
0.748684 0.592409 0.078248
0.779631 0.595060 0.080858
0.781503 0.595221 0.081016
0.781503 0.595221 0.081016
0.781503 0.595221 0.081016
0.781503 0.595221 0.081016
0.781503 0.595221 0.081016
0.781503 0.595221 0.081016
0.066676 0.611453 0.066676
0.099686 0.611453 0.066676
0.125655 0.611453 0.066676
0.151192 0.611453 0.066676
0.176728 0.611453 0.066676
0.202264 0.611453 0.066676
0.227800 0.611453 0.066676
0.253336 0.611453 0.066676
0.278873 0.611453 0.066676
0.304409 0.611453 0.066676
0.329945 0.611453 0.066676
0.355481 0.611453 0.066676
0.381017 0.611453 0.066676
0.406554 0.611453 0.066676
0.426160 0.611453 0.066676
0.453567 0.611453 0.066676
0.481935 0.611453 0.066676
0.510303 0.611453 0.066676
0.538671 0.611453 0.066676
0.567039 0.611453 0.066676
0.595407 0.611453 0.066676
0.624896 0.612575 0.067809
0.655843 0.615171 0.070418
0.686790 0.617782 0.073028
0.717737 0.620406 0.075638
0.748684 0.623041 0.078248
0.779631 0.625685 0.080858
0.781503 0.625846 0.081016
0.781503 0.625846 0.081016
0.781503 0.625846 0.081016
0.781503 0.625846 0.081016
0.781503 0.625846 0.081016
0.781503 0.625846 0.081016
0.069496 0.644910 0.069496
0.102495 0.644910 0.069496
0.128456 0.644910 0.069496
0.153984 0.644910 0.069496
0.179511 0.644910 0.069496
0.205039 0.644910 0.069496
0.230566 0.644910 0.069496
0.256094 0.644910 0.069496
0.281622 0.644910 0.069496
0.307149 0.644910 0.069496
0.332677 0.644910 0.069496
0.358204 0.644910 0.069496
0.383732 0.644910 0.069496
0.409260 0.644910 0.069496
0.428859 0.644910 0.069496
0.456419 0.644910 0.069496
0.484778 0.644910 0.069496
0.513136 0.644910 0.069496
0.541495 0.644910 0.069496
0.569853 0.644910 0.069496
0.598212 0.644910 0.069496
0.626570 0.644910 0.069496
0.655843 0.645826 0.070418
0.686790 0.648428 0.073028
0.717737 0.651044 0.075638
0.748684 0.653672 0.078248
0.779631 0.656310 0.080858
0.781503 0.656470 0.081016
0.781503 0.656470 0.081016
0.781503 0.656470 0.081016
0.781503 0.656470 0.081016
0.781503 0.656470 0.081016
0.781503 0.656470 0.081016
0.072318 0.678367 0.072318
0.105306 0.678367 0.072318
0.131259 0.678367 0.072318
0.156779 0.678367 0.072318
0.182299 0.678367 0.072318
0.207819 0.678367 0.072318
0.233338 0.678367 0.072318
0.258858 0.678367 0.072318
0.284378 0.678367 0.072318
0.309898 0.678367 0.072318
0.335418 0.678367 0.072318
0.360938 0.678367 0.072318
0.386457 0.678367 0.072318
0.411977 0.678367 0.072318
0.431571 0.678367 0.072318
0.459285 0.678367 0.072318
0.487635 0.678367 0.072318
0.515985 0.678367 0.072318
0.544334 0.678367 0.072318
0.572684 0.678367 0.072318
0.601034 0.678367 0.072318
0.629384 0.678367 0.072318
0.657734 0.678367 0.072318
0.686790 0.679074 0.073028
0.717737 0.681683 0.075638
0.748684 0.684304 0.078248
0.779631 0.686936 0.080858
0.781503 0.687095 0.081016
0.781503 0.687095 0.081016
0.781503 0.687095 0.081016
0.781503 0.687095 0.081016
0.781503 0.687095 0.081016
0.781503 0.687095 0.081016
0.075139 0.711823 0.075139
0.108119 0.711823 0.075139
0.134064 0.711823 0.075139
0.159577 0.711823 0.075139
0.185090 0.711823 0.075139
0.210603 0.711823 0.075139
0.236115 0.711823 0.075139
0.261628 0.711823 0.075139
0.287141 0.711823 0.075139
0.312654 0.711823 0.075139
0.338166 0.711823 0.075139
0.363679 0.711823 0.075139
0.389192 0.711823 0.075139
0.414705 0.711823 0.075139
0.434293 0.711823 0.075139
0.462162 0.711823 0.075139
0.490504 0.711823 0.075139
0.518846 0.711823 0.075139
0.547188 0.711823 0.075139
0.575530 0.711823 0.075139
0.603872 0.711823 0.075139
0.632214 0.711823 0.075139
0.660556 0.711823 0.075139
0.688898 0.711823 0.075139
0.717737 0.712321 0.075638
0.748684 0.714935 0.078248
0.779631 0.717561 0.080858
0.781503 0.717720 0.081016
0.781503 0.717720 0.081016
0.781503 0.717720 0.081016
0.781503 0.717720 0.081016
0.781503 0.717720 0.081016
0.781503 0.717720 0.081016
0.077961 0.745279 0.077961
0.110932 0.745279 0.077961
0.136871 0.745279 0.077961
0.162378 0.745279 0.077961
0.187884 0.745279 0.077961
0.213390 0.745279 0.077961
0.238897 0.745279 0.077961
0.264403 0.745279 0.077961
0.289909 0.745279 0.077961
0.315416 0.745279 0.077961
0.340922 0.745279 0.077961
0.366428 0.745279 0.077961
0.391935 0.745279 0.077961
0.417441 0.745279 0.077961
0.437024 0.745279 0.077961
0.465048 0.745279 0.077961
0.493383 0.745279 0.077961
0.521718 0.745279 0.077961
0.550053 0.745279 0.077961
0.578388 0.745279 0.077961
0.606723 0.745279 0.077961
0.635057 0.745279 0.077961
0.663392 0.745279 0.077961
0.691727 0.745279 0.077961
0.720062 0.745279 0.077961
0.748684 0.745567 0.078248
0.779631 0.748186 0.080858
0.781503 0.748344 0.081016
0.781503 0.748344 0.081016
0.781503 0.748344 0.081016
0.781503 0.748344 0.081016
0.781503 0.748344 0.081016
0.781503 0.748344 0.081016
0.080783 0.778735 0.080783
0.113747 0.778735 0.080783
0.139680 0.778735 0.080783
0.165180 0.778735 0.080783
0.190681 0.778735 0.080783
0.216181 0.778735 0.080783
0.241682 0.778735 0.080783
0.267182 0.778735 0.080783
0.292682 0.778735 0.080783
0.318183 0.778735 0.080783
0.343683 0.778735 0.080783
0.369184 0.778735 0.080783
0.394684 0.778735 0.080783
0.420185 0.778735 0.080783
0.439763 0.778735 0.080783
0.467943 0.778735 0.080783
0.496272 0.778735 0.080783
0.524600 0.778735 0.080783
0.552928 0.778735 0.080783
0.581257 0.778735 0.080783
0.609585 0.778735 0.080783
0.637913 0.778735 0.080783
0.666242 0.778735 0.080783
0.694570 0.778735 0.080783
0.722898 0.778735 0.080783
0.751227 0.778735 0.080783
0.779631 0.778811 0.080858
0.781503 0.778969 0.081016
0.781503 0.778969 0.081016
0.781503 0.778969 0.081016
0.781503 0.778969 0.081016
0.781503 0.778969 0.081016
0.781503 0.778969 0.081016
0.073588 0.822207 0.073588
0.107451 0.822207 0.073588
0.134092 0.822207 0.073588
0.160288 0.822207 0.073588
0.186484 0.822207 0.073588
0.212680 0.822207 0.073588
0.238876 0.822207 0.073588
0.265072 0.822207 0.073588
0.291268 0.822207 0.073588
0.317464 0.822207 0.073588
0.343660 0.822207 0.073588
0.369857 0.822207 0.073588
0.396053 0.822207 0.073588
0.422249 0.822207 0.073588
0.442376 0.822207 0.073588
0.471477 0.822207 0.073588
0.500578 0.822207 0.073588
0.529679 0.822207 0.073588
0.558780 0.822207 0.073588
0.587881 0.822207 0.073588
0.616982 0.822207 0.073588
0.646084 0.822207 0.073588
0.675185 0.822207 0.073588
0.704286 0.822207 0.073588
0.733387 0.822207 0.073588
0.762488 0.822207 0.073588
0.791589 0.822207 0.073588
0.793350 0.822207 0.073588
0.793350 0.822207 0.073588
0.793350 0.822207 0.073588
0.793350 0.822207 0.073588
0.793350 0.822207 0.073588
0.793350 0.822207 0.073588
0.042397 0.889676 0.042397
0.079169 0.889676 0.042397
0.108099 0.889676 0.042397
0.136545 0.889676 0.042397
0.164992 0.889676 0.042397
0.193439 0.889676 0.042397
0.221885 0.889676 0.042397
0.250332 0.889676 0.042397
0.278779 0.889676 0.042397
0.307225 0.889676 0.042397
0.335672 0.889676 0.042397
0.364119 0.889676 0.042397
0.392565 0.889676 0.042397
0.421012 0.889676 0.042397
0.443049 0.889676 0.042397
0.474650 0.889676 0.042397
0.506251 0.889676 0.042397
0.537853 0.889676 0.042397
0.569454 0.889676 0.042397
0.601055 0.889676 0.042397
0.632656 0.889676 0.042397
0.664258 0.889676 0.042397
0.695859 0.889676 0.042397
0.727460 0.889676 0.042397
