docs/luts/fuji_recipes/NEGAhi_RR_Jeff_Davenport_Night.cube
TITLE "Fujifilm Recipe: RR Jeff Davenport Night (NEGAhi)"
# FilmSim=NEGAhi HL=1 SH=0 Col=2 WB=2650K WBR=-1 WBB=4
LUT_3D_SIZE 9
DOMAIN_MIN 0.0 0.0 0.0
DOMAIN_MAX 1.0 1.0 1.0
0.000000 0.000000 0.000000
0.082549 0.000000 0.000000
0.171153 0.000000 0.000000
0.259757 0.000000 0.000000
0.348360 0.000000 0.000000
0.437431 0.000000 0.000000
0.528473 0.000000 0.000000
0.619515 0.000000 0.000000
0.710557 0.000000 0.000000
0.000000 0.105000 0.000000
0.082549 0.105000 0.000000
0.171153 0.105000 0.000000
0.259757 0.105000 0.000000
0.348360 0.105000 0.000000
0.437431 0.105000 0.000000
0.528473 0.105000 0.000000
0.619515 0.105000 0.000000
0.710557 0.105000 0.000000
0.000000 0.210000 0.000000
0.082549 0.210000 0.000000
0.171153 0.210000 0.000000
0.259757 0.210000 0.000000
0.348360 0.210000 0.000000
0.437431 0.210000 0.000000
0.528473 0.210000 0.000000
0.619515 0.210000 0.000000
0.710557 0.210000 0.000000
0.000000 0.315000 0.000000
0.082549 0.315000 0.000000
0.171153 0.315000 0.000000
0.259757 0.315000 0.000000
0.348360 0.315000 0.000000
0.437431 0.315000 0.000000
0.528473 0.315000 0.000000
0.619515 0.315000 0.000000
0.710557 0.315000 0.000000
0.000000 0.420000 0.000000
0.082549 0.420000 0.000000
0.171153 0.420000 0.000000
0.259757 0.420000 0.000000
0.348360 0.420000 0.000000
0.437431 0.420000 0.000000
0.528473 0.420000 0.000000
0.619515 0.420000 0.000000
0.710557 0.420000 0.000000
0.000000 0.527890 0.000000
0.082549 0.527890 0.000000
0.171153 0.527890 0.000000
0.259757 0.527890 0.000000
0.348360 0.527890 0.000000
0.437431 0.527890 0.000000
0.528473 0.527890 0.000000
0.619515 0.527890 0.000000
0.710557 0.527890 0.000000
0.000000 0.635779 0.000000
0.082549 0.635779 0.000000
0.171153 0.635779 0.000000
0.259757 0.635779 0.000000
0.348360 0.635779 0.000000
0.437431 0.635779 0.000000
0.528473 0.635779 0.000000
0.619515 0.635779 0.000000
0.710557 0.635779 0.000000
0.000000 0.743669 0.000000
0.082549 0.743669 0.000000
0.171153 0.743669 0.000000
0.259757 0.743669 0.000000
0.348360 0.743669 0.000000
0.437431 0.743669 0.000000
0.528473 0.743669 0.000000
0.619515 0.743669 0.000000
0.710557 0.743669 0.000000
0.000000 0.840000 0.000000
0.082549 0.840000 0.000000
0.171153 0.840000 0.000000
0.259757 0.840000 0.000000
0.348360 0.840000 0.000000
0.437431 0.840000 0.000000
0.528473 0.840000 0.000000
0.619515 0.840000 0.000000
0.710557 0.840000 0.000000
0.000000 0.000000 0.134713
0.082549 0.000000 0.134713
0.171153 0.000000 0.134713
0.259757 0.000000 0.134713
0.348360 0.000000 0.134713
0.437431 0.000000 0.134713
0.528473 0.000000 0.134713
0.619515 0.000000 0.134713
0.710557 0.000000 0.134713
0.000000 0.105000 0.134713
0.077742 0.116326 0.167390
0.212661 0.098956 0.150027
0.324431 0.069714 0.118619
0.433210 0.043463 0.091048
0.541028 0.018608 0.065302
0.644435 0.000000 0.045217
0.729234 0.000000 0.042113
0.815557 0.000000 0.040017
0.000000 0.210000 0.134713
0.053028 0.262229 0.138651
0.193356 0.260451 0.130419
0.324160 0.240158 0.113054
0.434936 0.208188 0.084806
0.544218 0.179290 0.058488
0.654637 0.151750 0.032868
0.764226 0.125503 0.008078
0.857103 0.112059 0.000000
0.000000 0.315000 0.134713
0.022588 0.390469 0.105143
0.155447 0.393536 0.095134
0.302100 0.393536 0.095134
0.434936 0.380265 0.084806
0.544218 0.347770 0.058488
0.654637 0.317551 0.032868
0.764226 0.289272 0.008078
0.857103 0.268344 0.000000
0.000000 0.420000 0.134713
0.000000 0.510857 0.078969
0.122204 0.522948 0.063521
0.264892 0.522948 0.063521
0.407580 0.522948 0.063521
0.544218 0.516249 0.058488
0.654637 0.483352 0.032868
0.764226 0.453041 0.008078
0.857103 0.424629 0.000000
0.000000 0.527890 0.134713
0.000000 0.611348 0.071609
0.090575 0.653932 0.033029
0.230498 0.653932 0.033029
0.370420 0.653932 0.033029
0.511080 0.653932 0.033029
0.654637 0.653715 0.032868
0.764226 0.621317 0.008078
0.857103 0.585215 0.000000
0.000000 0.635779 0.134713
0.000000 0.718328 0.067731
0.060441 0.783739 0.003714
0.198373 0.783739 0.003714
0.336305 0.783739 0.003714
0.474964 0.783739 0.003714
0.616692 0.783739 0.003714
0.758420 0.783739 0.003714
0.857103 0.745801 0.000000
0.000000 0.743669 0.134713
0.000000 0.826218 0.065190
0.053437 0.893003 0.000000
0.183370 0.893003 0.000000
0.313303 0.893003 0.000000
0.443921 0.893003 0.000000
0.577430 0.893003 0.000000
0.710938 0.893003 0.000000
0.844447 0.893003 0.000000
0.000000 0.840000 0.134713
0.000000 0.953996 0.065699
0.076354 1.000000 0.026032
0.198712 1.000000 0.026032
0.321069 1.000000 0.026032
0.444071 1.000000 0.026032
0.569796 1.000000 0.026032
0.695521 1.000000 0.026032
0.821246 1.000000 0.026032
0.000000 0.000000 0.263555
0.082549 0.000000 0.263555
0.171153 0.000000 0.263555
0.259757 0.000000 0.263555
0.348360 0.000000 0.263555
0.437431 0.000000 0.263555
0.528473 0.000000 0.263555
0.619515 0.000000 0.263555
0.710557 0.000000 0.263555
0.000000 0.105000 0.263555
0.037134 0.073212 0.328006
0.177270 0.068542 0.329141
0.322897 0.068542 0.329141
0.433210 0.043463 0.297393
0.541028 0.018608 0.267780
0.644435 0.000000 0.241287
0.729234 0.000000 0.224724
0.815557 0.000000 0.213540
0.000000 0.210000 0.263555
0.037134 0.241944 0.328006
0.166883 0.234068 0.326690
0.315585 0.227580 0.322303
0.433119 0.195754 0.287631
0.546360 0.165476 0.255166
0.659970 0.136665 0.224665
0.772125 0.109309 0.195990
0.966233 0.000000 0.103378
0.000000 0.315000 0.263555
0.022588 0.390469 0.309051
0.148721 0.392769 0.305489
0.285922 0.384001 0.292666
0.427822 0.369153 0.278680
0.543871 0.333846 0.245594
0.659843 0.300919 0.214422
0.805786 0.247581 0.153278
0.983059 0.166945 0.060804
0.000000 0.420000 0.263555
0.000000 0.510857 0.274020
0.114690 0.524600 0.266899
0.246027 0.521696 0.252562
0.397957 0.521394 0.251835
0.543871 0.513969 0.245594
0.659843 0.477461 0.214422
0.805786 0.440056 0.153278
0.983059 0.383581 0.060804
0.000000 0.527890 0.263555
0.000000 0.611348 0.248479
0.082366 0.657415 0.231316
0.209009 0.659206 0.215386
0.357219 0.659106 0.214615
0.506995 0.659106 0.214615
0.659843 0.658862 0.214422
0.805786 0.637827 0.153278
0.983059 0.606179 0.060804
0.000000 0.635779 0.263555
0.000000 0.718328 0.235023
0.051656 0.788617 0.198219
0.130714 0.837992 0.137859
0.294538 0.840875 0.133337
0.463847 0.840875 0.133337
0.636904 0.840875 0.133337
0.809960 0.840875 0.133337
0.983059 0.828777 0.060804
0.000000 0.743669 0.263555
0.000000 0.826218 0.226208
0.000000 0.943325 0.152250
0.069198 1.000000 0.076504
0.238144 1.000000 0.074704
0.409805 1.000000 0.074704
0.585265 1.000000 0.074704
0.760726 1.000000 0.074704
0.936186 1.000000 0.074704
0.000000 0.840000 0.263555
0.000000 0.953996 0.227974
0.076354 1.000000 0.203957
0.198712 1.000000 0.203957
0.321069 1.000000 0.203957
0.444071 1.000000 0.203957
0.569796 1.000000 0.203957
0.695521 1.000000 0.203957
0.821246 1.000000 0.203957
0.000000 0.000000 0.392397
0.082549 0.000000 0.392397
0.171153 0.000000 0.392397
0.259757 0.000000 0.392397
0.348360 0.000000 0.392397
0.437431 0.000000 0.392397
0.528473 0.000000 0.392397
0.619515 0.000000 0.392397
0.710557 0.000000 0.392397
0.000000 0.105000 0.392397
0.001525 0.036456 0.483622
0.135908 0.031033 0.486657
0.276376 0.031033 0.486657
0.416843 0.031033 0.486657
0.541028 0.018608 0.470257
0.644435 0.000000 0.437357
0.729234 0.000000 0.407335
0.815557 0.000000 0.387063
0.000000 0.210000 0.392397
0.001525 0.199827 0.483622
0.123332 0.187757 0.490249
0.264748 0.180467 0.489423
0.414830 0.180467 0.489423
0.546360 0.165476 0.470941
0.659970 0.136665 0.436375
0.772125 0.109309 0.404526
0.966233 0.000000 0.352085
0.000000 0.315000 0.392397
0.001525 0.363198 0.483622
0.123332 0.361891 0.490249
0.256068 0.351809 0.485945
0.401595 0.342542 0.479548
0.539092 0.324944 0.460322
0.658826 0.290009 0.423728
0.817451 0.216183 0.369005
0.965024 0.153409 0.312215
0.000000 0.420000 0.392397
0.000000 0.510857 0.469070
0.114690 0.524600 0.479132
0.246027 0.521696 0.474211
0.384443 0.511714 0.462677
0.530401 0.502180 0.457490
0.658700 0.454330 0.402325
0.794064 0.405514 0.351759
0.938385 0.348295 0.292238
0.000000 0.527890 0.392397
0.000000 0.611348 0.425349
0.082366 0.657415 0.439006
0.209009 0.659206 0.431714
0.328780 0.667868 0.411955
0.487457 0.657854 0.402627
0.658700 0.657600 0.402325
0.794064 0.615626 0.351759
0.938385 0.567407 0.292238
0.000000 0.635779 0.392397
0.000000 0.718328 0.402315
0.051656 0.788617 0.402580
0.130714 0.837992 0.380204
0.264555 0.832584 0.351586
0.430187 0.819081 0.341891
0.608690 0.819081 0.341891
0.787193 0.819081 0.341891
0.938385 0.786519 0.292238
0.000000 0.743669 0.392397
0.000000 0.826218 0.387225
0.000000 0.943325 0.364541
0.069198 1.000000 0.324332
0.197631 1.000000 0.287014
0.360627 0.993973 0.267490
0.548916 0.993973 0.267490
0.737205 0.993973 0.267490
0.925494 0.993973 0.267490
0.000000 0.840000 0.392397
0.000000 0.953996 0.390249
0.076354 1.000000 0.381882
0.198712 1.000000 0.381882
0.321069 1.000000 0.381882
0.444071 1.000000 0.381882
0.569796 1.000000 0.381882
0.695521 1.000000 0.381882
0.821246 1.000000 0.381882
0.000000 0.000000 0.524026
0.082549 0.000000 0.524026
0.171153 0.000000 0.524026
0.259757 0.000000 0.524026
0.348360 0.000000 0.524026
0.437431 0.000000 0.524026
0.528473 0.000000 0.524026
0.619515 0.000000 0.524026
0.710557 0.000000 0.524026
0.000000 0.105000 0.524026
0.000000 0.030906 0.607750
0.101085 0.000000 0.640293
0.236476 0.000000 0.640293
0.371867 0.000000 0.640293
0.507971 0.000000 0.640293
0.644435 0.000000 0.637667
0.729234 0.000000 0.593895
0.815557 0.000000 0.564339
0.000000 0.210000 0.524026
0.000000 0.175453 0.607750
0.083492 0.146154 0.652691
0.219861 0.138034 0.654458
0.365572 0.138034 0.654458
0.512051 0.138034 0.654458
0.659970 0.136665 0.652662
0.772125 0.109309 0.617572
0.966233 0.000000 0.606169
0.000000 0.315000 0.524026
0.000000 0.319999 0.607750
0.083492 0.315523 0.652691
0.210283 0.303108 0.654333
0.350317 0.293103 0.651589
0.503076 0.293103 0.651589
0.658826 0.290009 0.651142
0.817451 0.216183 0.628907
0.965024 0.153409 0.582294
0.000000 0.420000 0.524026
0.000000 0.464545 0.607750
0.083492 0.484893 0.652691
0.210283 0.479539 0.654333
0.332019 0.466196 0.661030
0.483809 0.451229 0.645664
0.652040 0.448995 0.643715
0.786072 0.399762 0.601181
0.929070 0.341564 0.551904
0.000000 0.527890 0.524026
0.000000 0.611348 0.606044
0.082366 0.657415 0.651187
0.209009 0.659206 0.652719
0.328780 0.667868 0.660570
0.478604 0.647154 0.639954
0.630088 0.629143 0.622887
0.758241 0.585658 0.578381
0.895244 0.533822 0.526177
0.000000 0.635779 0.524026
0.000000 0.718328 0.573225
0.051656 0.788617 0.611361
0.130714 0.837992 0.627790
0.264555 0.832584 0.611725
0.420497 0.805752 0.588692
0.578267 0.781945 0.569826
0.751074 0.781945 0.569826
0.895244 0.747290 0.526177
0.000000 0.743669 0.524026
0.000000 0.826218 0.551725
0.000000 0.943325 0.581423
0.069198 1.000000 0.577518
0.197631 1.000000 0.554184
0.348629 0.978112 0.526628
0.512903 0.948359 0.503904
0.697130 0.948359 0.503904
0.881356 0.948359 0.503904
0.000000 0.840000 0.524026
0.000000 0.953996 0.556032
0.076354 1.000000 0.563655
0.198712 1.000000 0.563655
0.321069 1.000000 0.563655
0.444071 1.000000 0.563655
0.569796 1.000000 0.563655
0.695521 1.000000 0.563655
0.821246 1.000000 0.563655
0.000000 0.000000 0.656414
0.082549 0.000000 0.656414
0.171153 0.000000 0.656414
0.259757 0.000000 0.656414
0.348360 0.000000 0.656414
0.437431 0.000000 0.656414
0.528473 0.000000 0.656414
0.619515 0.000000 0.656414
0.710557 0.000000 0.656414
0.000000 0.105000 0.656414
0.000000 0.028910 0.738963
0.091609 0.000000 0.763603
0.214308 0.000000 0.763603
0.337008 0.000000 0.763603
0.460353 0.000000 0.763603
0.586429 0.000000 0.763603
0.712505 0.000000 0.763603
0.815557 0.000000 0.742638
0.000000 0.210000 0.656414
0.000000 0.164118 0.738963
0.045914 0.107369 0.813579
0.160509 0.075197 0.840605
0.312426 0.075197 0.840605
0.465144 0.075197 0.840605
0.621242 0.075197 0.840605
0.777340 0.075197 0.840605
0.966233 0.000000 0.861719
0.000000 0.315000 0.656414
0.000000 0.299326 0.738963
0.045914 0.273475 0.813579
0.103239 0.212073 0.884687
0.258834 0.191998 0.876004
0.437283 0.191998 0.876004
0.619681 0.191998 0.876004
0.802080 0.191998 0.876004
0.965024 0.153409 0.853931
0.000000 0.420000 0.656414
0.000000 0.434534 0.738963
0.045914 0.439581 0.813579
0.103239 0.418932 0.884687
0.251150 0.393953 0.865209
0.411786 0.377484 0.842719
0.590946 0.377484 0.842719
0.770106 0.377484 0.842719
0.929070 0.341564 0.819592
0.000000 0.527890 0.656414
0.000000 0.573463 0.738963
0.045914 0.610258 0.813579
0.103239 0.631484 0.884687
0.251150 0.609015 0.865209
0.408050 0.585416 0.837419
0.566310 0.565192 0.811399
0.740714 0.565192 0.811399
0.894039 0.532983 0.787020
0.000000 0.635779 0.656414
0.000000 0.712392 0.738963
0.045914 0.780935 0.813579
0.103239 0.844035 0.884687
0.251150 0.824077 0.865209
0.408050 0.796960 0.837419
0.566196 0.771719 0.811241
0.720583 0.750661 0.788822
0.862810 0.720600 0.759842
0.000000 0.743669 0.656414
0.000000 0.826218 0.717173
0.000000 0.943325 0.799557
0.069198 1.000000 0.832166
0.197631 1.000000 0.822896
0.348629 0.978112 0.798756
0.511843 0.946866 0.770478
0.673173 0.917503 0.745789
0.842443 0.906558 0.737604
0.000000 0.840000 0.656414
0.000000 0.953996 0.722773
0.076354 1.000000 0.746476
0.198712 1.000000 0.746476
0.321069 1.000000 0.746476
0.444071 1.000000 0.746476
0.569796 1.000000 0.746476
0.695521 1.000000 0.746476
0.821246 1.000000 0.746476
0.000000 0.000000 0.788802
0.082549 0.000000 0.788802
0.171153 0.000000 0.788802
0.259757 0.000000 0.788802
0.348360 0.000000 0.788802
0.437431 0.000000 0.788802
0.528473 0.000000 0.788802
0.619515 0.000000 0.788802
0.710557 0.000000 0.788802
0.000000 0.105000 0.788802
0.000000 0.028079 0.883294
0.088452 0.000000 0.914298
0.206922 0.000000 0.914298
0.325392 0.000000 0.914298
0.444487 0.000000 0.914298
0.566217 0.000000 0.914298
0.687948 0.000000 0.914298
0.809679 0.000000 0.914298
0.000000 0.210000 0.788802
0.000000 0.159400 0.883294
0.005652 0.068191 1.000000
0.140165 0.059298 1.000000
0.284169 0.059298 1.000000
0.428932 0.059298 1.000000
0.576899 0.059298 1.000000
0.724865 0.059298 1.000000
0.872832 0.059298 1.000000
0.000000 0.315000 0.788802
0.000000 0.290721 0.883294
0.005652 0.237230 1.000000
0.128009 0.219063 1.000000
0.260323 0.204298 1.000000
0.409908 0.204298 1.000000
0.562804 0.204298 1.000000
0.715700 0.204298 1.000000
0.868596 0.204298 1.000000
0.000000 0.420000 0.788802
0.000000 0.422042 0.883294
0.005652 0.406269 1.000000
0.128009 0.392128 1.000000
0.250367 0.372298 1.000000
0.380052 0.349298 1.000000
0.540684 0.349298 1.000000
0.701316 0.349298 1.000000
0.861948 0.349298 1.000000
0.000000 0.527890 0.788802
0.000000 0.556977 0.883294
0.005652 0.579959 1.000000
0.128009 0.569955 1.000000
0.250367 0.555926 1.000000
0.373369 0.534692 1.000000
0.501019 0.499901 1.000000
0.675523 0.499901 1.000000
0.850026 0.499901 1.000000
0.000000 0.635779 0.788802
0.000000 0.691912 0.883294
0.005652 0.753650 1.000000
0.128009 0.747783 1.000000
0.250367 0.739555 1.000000
0.373369 0.727101 1.000000
0.500747 0.706536 1.000000
0.642060 0.675551 0.990655
0.824592 0.671317 0.984972
0.000000 0.743669 0.788802
0.000000 0.826847 0.883294
0.005652 0.927341 1.000000
0.128009 0.925610 1.000000
0.250367 0.923183 1.000000
0.373369 0.919510 1.000000
0.500747 0.913445 1.000000
0.642060 0.897717 0.990655
0.804713 0.870414 0.959969
0.000000 0.840000 0.788802
0.000000 0.953996 0.889513
0.076354 1.000000 0.929298
0.198712 1.000000 0.929298
0.321069 1.000000 0.929298
0.444071 1.000000 0.929298
0.569796 1.000000 0.929298
0.695521 1.000000 0.929298
0.821246 1.000000 0.929298
0.000000 0.000000 0.840000
0.082549 0.000000 0.840000
0.171153 0.000000 0.840000
0.259757 0.000000 0.840000
0.348360 0.000000 0.840000
0.437431 0.000000 0.840000
0.528473 0.000000 0.840000
0.619515 0.000000 0.840000
0.710557 0.000000 0.840000
0.000000 0.105000 0.840000
0.000000 0.028276 0.953996
0.088654 0.000000 0.985000
0.207395 0.000000 0.985000
0.326136 0.000000 0.985000
0.445503 0.000000 0.985000
0.567511 0.000000 0.985000
0.689520 0.000000 0.985000
0.811529 0.000000 0.985000
0.000000 0.210000 0.840000
0.000000 0.160522 0.953996
0.076354 0.130000 1.000000
0.198712 0.130000 1.000000
0.321069 0.130000 1.000000
0.444071 0.130000 1.000000
0.569796 0.130000 1.000000
0.695521 0.130000 1.000000
0.821246 0.130000 1.000000
0.000000 0.315000 0.840000
0.000000 0.292768 0.953996
0.076354 0.275000 1.000000
0.198712 0.275000 1.000000
0.321069 0.275000 1.000000
0.444071 0.275000 1.000000
0.569796 0.275000 1.000000
0.695521 0.275000 1.000000
0.821246 0.275000 1.000000
0.000000 0.420000 0.840000
0.000000 0.425014 0.953996
0.076354 0.420000 1.000000
0.198712 0.420000 1.000000
0.321069 0.420000 1.000000
0.444071 0.420000 1.000000
0.569796 0.420000 1.000000
0.695521 0.420000 1.000000
0.821246 0.420000 1.000000
0.000000 0.527890 0.840000
0.000000 0.560899 0.953996
0.076354 0.568990 1.000000
0.198712 0.568990 1.000000
0.321069 0.568990 1.000000
0.444071 0.568990 1.000000
0.569796 0.568990 1.000000
0.695521 0.568990 1.000000
0.821246 0.568990 1.000000
0.000000 0.635779 0.840000
0.000000 0.696784 0.953996
0.076354 0.717981 1.000000
0.198712 0.717981 1.000000
0.321069 0.717981 1.000000
0.444071 0.717981 1.000000
0.569796 0.717981 1.000000
0.695521 0.717981 1.000000
0.821246 0.717981 1.000000
0.000000 0.743669 0.840000
0.000000 0.832669 0.953996
0.076354 0.866971 1.000000
0.198712 0.866971 1.000000
0.321069 0.866971 1.000000
0.444071 0.866971 1.000000
0.569796 0.866971 1.000000
0.695521 0.866971 1.000000
0.821246 0.866971 1.000000
0.000000 0.840000 0.840000
0.000000 0.953996 0.953996
0.076354 1.000000 1.000000
0.198712 1.000000 1.000000
0.321069 1.000000 1.000000
0.444071 1.000000 1.000000
0.569796 1.000000 1.000000
0.695521 1.000000 1.000000
0.821246 1.000000 1.000000
0.000000 0.000000 0.840000
0.082549 0.000000 0.840000
0.171153 0.000000 0.840000
0.259757 0.000000 0.840000
0.348360 0.000000 0.840000
0.437431 0.000000 0.840000
0.528473 0.000000 0.840000
0.619515 0.000000 0.840000
0.710557 0.000000 0.840000
0.000000 0.105000 0.840000
0.000000 0.028276 0.953996
0.088654 0.000000 0.985000
0.207395 0.000000 0.985000
0.326136 0.000000 0.985000
0.445503 0.000000 0.985000
0.567511 0.000000 0.985000
0.689520 0.000000 0.985000
0.811529 0.000000 0.985000
0.000000 0.210000 0.840000
0.000000 0.160522 0.953996
0.076354 0.130000 1.000000
0.198712 0.130000 1.000000
0.321069 0.130000 1.000000
0.444071 0.130000 1.000000
0.569796 0.130000 1.000000
0.695521 0.130000 1.000000
0.821246 0.130000 1.000000
0.000000 0.315000 0.840000
0.000000 0.292768 0.953996
0.076354 0.275000 1.000000
0.198712 0.275000 1.000000
0.321069 0.275000 1.000000
0.444071 0.275000 1.000000
0.569796 0.275000 1.000000
0.695521 0.275000 1.000000
0.821246 0.275000 1.000000
0.000000 0.420000 0.840000
0.000000 0.425014 0.953996
0.076354 0.420000 1.000000
0.198712 0.420000 1.000000
0.321069 0.420000 1.000000
0.444071 0.420000 1.000000
0.569796 0.420000 1.000000
0.695521 0.420000 1.000000
0.821246 0.420000 1.000000
0.000000 0.527890 0.840000
0.000000 0.560899 0.953996
0.076354 0.568990 1.000000
0.198712 0.568990 1.000000
0.321069 0.568990 1.000000
0.444071 0.568990 1.000000
0.569796 0.568990 1.000000
0.695521 0.568990 1.000000
0.821246 0.568990 1.000000
0.000000 0.635779 0.840000
0.000000 0.696784 0.953996
0.076354 0.717981 1.000000
0.198712 0.717981 1.000000
0.321069 0.717981 1.000000
0.444071 0.717981 1.000000
0.569796 0.717981 1.000000
0.695521 0.717981 1.000000
0.821246 0.717981 1.000000
0.000000 0.743669 0.840000
0.000000 0.832669 0.953996
0.076354 0.866971 1.000000
0.198712 0.866971 1.000000
0.321069 0.866971 1.000000
0.444071 0.866971 1.000000
0.569796 0.866971 1.000000
0.695521 0.866971 1.000000
0.821246 0.866971 1.000000
0.000000 0.840000 0.840000
0.000000 0.953996 0.953996
0.076354 1.000000 1.000000
0.198712 1.000000 1.000000
0.321069 1.000000 1.000000
0.444071 1.000000 1.000000
0.569796 1.000000 1.000000
0.695521 1.000000 1.000000
0.821246 1.000000 1.000000
