docs/luts/fuji_recipes/NEGAhi_GB_Muted.cube
TITLE "Fujifilm Recipe: GB Muted (NEGAhi)"
# FilmSim=NEGAhi HL=-1 SH=2 Col=-2 WB=Auto WBR=0 WBB=0
LUT_3D_SIZE 33
DOMAIN_MIN 0.0 0.0 0.0
DOMAIN_MAX 1.0 1.0 1.0
0.000000 0.000000 0.000000
0.023811 0.005227 0.005227
0.047518 0.010431 0.010431
0.071191 0.015627 0.015627
0.094864 0.020824 0.020824
0.118537 0.026020 0.026020
0.142210 0.031217 0.031217
0.165883 0.036413 0.036413
0.189556 0.041610 0.041610
0.213229 0.046806 0.046806
0.236902 0.052003 0.052003
0.260575 0.057199 0.057199
0.284248 0.062396 0.062396
0.307921 0.067592 0.067592
0.331594 0.072789 0.072789
0.355267 0.077985 0.077985
0.411756 0.090385 0.090385
0.435653 0.095631 0.095631
0.459551 0.100877 0.100877
0.483448 0.106123 0.106123
0.507345 0.111368 0.111368
0.531243 0.116614 0.116614
0.555140 0.121860 0.121860
0.579037 0.127106 0.127106
0.602935 0.132351 0.132351
0.626832 0.137597 0.137597
0.650729 0.142843 0.142843
0.674627 0.148089 0.148089
0.698524 0.153335 0.153335
0.722421 0.158580 0.158580
0.746318 0.163826 0.163826
0.770216 0.169072 0.169072
0.790775 0.173585 0.173585
0.005175 0.023575 0.005175
0.023811 0.023627 0.005227
0.047518 0.028831 0.010431
0.071191 0.034027 0.015627
0.094864 0.039224 0.020824
0.118537 0.044420 0.026020
0.142210 0.049617 0.031217
0.165883 0.054813 0.036413
0.189556 0.060010 0.041610
0.213229 0.065206 0.046806
0.236902 0.070403 0.052003
0.260575 0.075599 0.057199
0.284248 0.080796 0.062396
0.307921 0.085992 0.067592
0.331594 0.091189 0.072789
0.355267 0.096385 0.077985
0.411756 0.108785 0.090385
0.435653 0.114031 0.095631
0.459551 0.119277 0.100877
0.483448 0.124523 0.106123
0.507345 0.129768 0.111368
0.531243 0.135014 0.116614
0.555140 0.140260 0.121860
0.579037 0.145506 0.127106
0.602935 0.150751 0.132351
0.626832 0.155997 0.137597
0.650729 0.161243 0.142843
0.674627 0.166489 0.148089
0.698524 0.171735 0.153335
0.722421 0.176980 0.158580
0.746318 0.182226 0.163826
0.770216 0.187472 0.169072
0.790775 0.191985 0.173585
0.010350 0.047150 0.010350
0.028934 0.047150 0.010350
0.047518 0.047231 0.010431
0.071191 0.052427 0.015627
0.094864 0.057624 0.020824
0.118537 0.062820 0.026020
0.142210 0.068017 0.031217
0.165883 0.073213 0.036413
0.189556 0.078410 0.041610
0.213229 0.083606 0.046806
0.236902 0.088803 0.052003
0.260575 0.093999 0.057199
0.284248 0.099196 0.062396
0.307921 0.104392 0.067592
0.331594 0.109589 0.072789
0.355267 0.114785 0.077985
0.411756 0.127185 0.090385
0.435653 0.132431 0.095631
0.459551 0.137677 0.100877
0.483448 0.142923 0.106123
0.507345 0.148168 0.111368
0.531243 0.153414 0.116614
0.555140 0.158660 0.121860
0.579037 0.163906 0.127106
0.602935 0.169151 0.132351
0.626832 0.174397 0.137597
0.650729 0.179643 0.142843
0.674627 0.184889 0.148089
0.698524 0.190135 0.153335
0.722421 0.195380 0.158580
0.746318 0.200626 0.163826
0.770216 0.205872 0.169072
0.790775 0.210385 0.173585
0.015525 0.070725 0.015525
0.034109 0.070725 0.015525
0.052612 0.070725 0.015525
0.071191 0.070827 0.015627
0.094864 0.076024 0.020824
0.118537 0.081220 0.026020
0.142210 0.086417 0.031217
0.165883 0.091613 0.036413
0.189556 0.096810 0.041610
0.213229 0.102006 0.046806
0.236902 0.107203 0.052003
0.260575 0.112399 0.057199
0.284248 0.117596 0.062396
0.307921 0.122792 0.067592
0.331594 0.127989 0.072789
0.355267 0.133185 0.077985
0.411756 0.145585 0.090385
0.435653 0.150831 0.095631
0.459551 0.156077 0.100877
0.483448 0.161323 0.106123
0.507345 0.166568 0.111368
0.531243 0.171814 0.116614
0.555140 0.177060 0.121860
0.579037 0.182306 0.127106
0.602935 0.187551 0.132351
0.626832 0.192797 0.137597
0.650729 0.198043 0.142843
0.674627 0.203289 0.148089
0.698524 0.208535 0.153335
0.722421 0.213780 0.158580
0.746318 0.219026 0.163826
0.770216 0.224272 0.169072
0.790775 0.228785 0.173585
0.020700 0.094300 0.020700
0.039284 0.094300 0.020700
0.057787 0.094300 0.020700
0.076264 0.094300 0.020700
0.094864 0.094424 0.020824
0.118537 0.099620 0.026020
0.142210 0.104817 0.031217
0.165883 0.110013 0.036413
0.189556 0.115210 0.041610
0.213229 0.120406 0.046806
0.236902 0.125603 0.052003
0.260575 0.130799 0.057199
0.284248 0.135996 0.062396
0.307921 0.141192 0.067592
0.331594 0.146389 0.072789
0.355267 0.151585 0.077985
0.411756 0.163985 0.090385
0.435653 0.169231 0.095631
0.459551 0.174477 0.100877
0.483448 0.179723 0.106123
0.507345 0.184968 0.111368
0.531243 0.190214 0.116614
0.555140 0.195460 0.121860
0.579037 0.200706 0.127106
0.602935 0.205951 0.132351
0.626832 0.211197 0.137597
0.650729 0.216443 0.142843
0.674627 0.221689 0.148089
0.698524 0.226935 0.153335
0.722421 0.232180 0.158580
0.746318 0.237426 0.163826
0.770216 0.242672 0.169072
0.790775 0.247185 0.173585
0.025875 0.117875 0.025875
0.044459 0.117875 0.025875
0.062962 0.117875 0.025875
0.081439 0.117875 0.025875
0.099915 0.117875 0.025875
0.118537 0.118020 0.026020
0.142210 0.123217 0.031217
0.165883 0.128413 0.036413
0.189556 0.133610 0.041610
0.213229 0.138806 0.046806
0.236902 0.144003 0.052003
0.260575 0.149199 0.057199
0.284248 0.154396 0.062396
0.307921 0.159592 0.067592
0.331594 0.164789 0.072789
0.355267 0.169985 0.077985
0.411756 0.182385 0.090385
0.435653 0.187631 0.095631
0.459551 0.192877 0.100877
0.483448 0.198123 0.106123
0.507345 0.203368 0.111368
0.531243 0.208614 0.116614
0.555140 0.213860 0.121860
0.579037 0.219106 0.127106
0.602935 0.224351 0.132351
0.626832 0.229597 0.137597
0.650729 0.234843 0.142843
0.674627 0.240089 0.148089
0.698524 0.245335 0.153335
0.722421 0.250580 0.158580
0.746318 0.255826 0.163826
0.770216 0.261072 0.169072
0.790775 0.265585 0.173585
0.031050 0.141450 0.031050
0.049634 0.141450 0.031050
0.068137 0.141450 0.031050
0.086614 0.141450 0.031050
0.105090 0.141450 0.031050
0.123567 0.141450 0.031050
0.142210 0.141617 0.031217
0.165883 0.146813 0.036413
0.189556 0.152010 0.041610
0.213229 0.157206 0.046806
0.236902 0.162403 0.052003
0.260575 0.167599 0.057199
0.284248 0.172796 0.062396
0.307921 0.177992 0.067592
0.331594 0.183189 0.072789
0.355267 0.188385 0.077985
0.411756 0.200785 0.090385
0.435653 0.206031 0.095631
0.459551 0.211277 0.100877
0.483448 0.216523 0.106123
0.507345 0.221768 0.111368
0.531243 0.227014 0.116614
0.555140 0.232260 0.121860
0.579037 0.237506 0.127106
0.602935 0.242751 0.132351
0.626832 0.247997 0.137597
0.650729 0.253243 0.142843
0.674627 0.258489 0.148089
0.698524 0.263735 0.153335
0.722421 0.268980 0.158580
0.746318 0.274226 0.163826
0.770216 0.279472 0.169072
0.790775 0.283985 0.173585
0.036225 0.165025 0.036225
0.054809 0.165025 0.036225
0.073312 0.165025 0.036225
0.091789 0.165025 0.036225
0.110265 0.165025 0.036225
0.128742 0.165025 0.036225
0.147218 0.165025 0.036225
0.165883 0.165213 0.036413
0.189556 0.170410 0.041610
0.213229 0.175606 0.046806
0.236902 0.180803 0.052003
0.260575 0.185999 0.057199
0.284248 0.191196 0.062396
0.307921 0.196392 0.067592
0.331594 0.201589 0.072789
0.355267 0.206785 0.077985
0.411756 0.219185 0.090385
0.435653 0.224431 0.095631
0.459551 0.229677 0.100877
0.483448 0.234923 0.106123
0.507345 0.240168 0.111368
0.531243 0.245414 0.116614
0.555140 0.250660 0.121860
0.579037 0.255906 0.127106
0.602935 0.261151 0.132351
0.626832 0.266397 0.137597
0.650729 0.271643 0.142843
0.674627 0.276889 0.148089
0.698524 0.282135 0.153335
0.722421 0.287380 0.158580
0.746318 0.292626 0.163826
0.770216 0.297872 0.169072
0.790775 0.302385 0.173585
0.041400 0.188600 0.041400
0.059984 0.188600 0.041400
0.078487 0.188600 0.041400
0.096964 0.188600 0.041400
0.115440 0.188600 0.041400
0.133917 0.188600 0.041400
0.152393 0.188600 0.041400
0.170870 0.188600 0.041400
0.189556 0.188810 0.041610
0.213229 0.194006 0.046806
0.236902 0.199203 0.052003
0.260575 0.204399 0.057199
0.284248 0.209596 0.062396
0.307921 0.214792 0.067592
0.331594 0.219989 0.072789
0.355267 0.225185 0.077985
0.411756 0.237585 0.090385
0.435653 0.242831 0.095631
0.459551 0.248077 0.100877
0.483448 0.253323 0.106123
0.507345 0.258568 0.111368
0.531243 0.263814 0.116614
0.555140 0.269060 0.121860
0.579037 0.274306 0.127106
0.602935 0.279551 0.132351
0.626832 0.284797 0.137597
0.650729 0.290043 0.142843
0.674627 0.295289 0.148089
0.698524 0.300535 0.153335
0.722421 0.305780 0.158580
0.746318 0.311026 0.163826
0.770216 0.316272 0.169072
0.790775 0.320785 0.173585
0.046575 0.212175 0.046575
0.065159 0.212175 0.046575
0.083662 0.212175 0.046575
0.102139 0.212175 0.046575
0.120615 0.212175 0.046575
0.139092 0.212175 0.046575
0.157568 0.212175 0.046575
0.176045 0.212175 0.046575
0.194521 0.212175 0.046575
0.213229 0.212406 0.046806
0.236902 0.217603 0.052003
0.260575 0.222799 0.057199
0.284248 0.227996 0.062396
0.307921 0.233192 0.067592
0.331594 0.238389 0.072789
0.355267 0.243585 0.077985
0.411756 0.255985 0.090385
0.435653 0.261231 0.095631
0.459551 0.266477 0.100877
0.483448 0.271723 0.106123
0.507345 0.276968 0.111368
0.531243 0.282214 0.116614
0.555140 0.287460 0.121860
0.579037 0.292706 0.127106
0.602935 0.297951 0.132351
0.626832 0.303197 0.137597
0.650729 0.308443 0.142843
0.674627 0.313689 0.148089
0.698524 0.318935 0.153335
0.722421 0.324180 0.158580
0.746318 0.329426 0.163826
0.770216 0.334672 0.169072
0.790775 0.339185 0.173585
0.051750 0.235750 0.051750
0.070334 0.235750 0.051750
0.088837 0.235750 0.051750
0.107314 0.235750 0.051750
0.125790 0.235750 0.051750
0.144267 0.235750 0.051750
0.162743 0.235750 0.051750
0.181220 0.235750 0.051750
0.199696 0.235750 0.051750
0.218173 0.235750 0.051750
0.236902 0.236003 0.052003
0.260575 0.241199 0.057199
0.284248 0.246396 0.062396
0.307921 0.251592 0.067592
0.331594 0.256789 0.072789
0.355267 0.261985 0.077985
0.411756 0.274385 0.090385
0.435653 0.279631 0.095631
0.459551 0.284877 0.100877
0.483448 0.290123 0.106123
0.507345 0.295368 0.111368
0.531243 0.300614 0.116614
0.555140 0.305860 0.121860
0.579037 0.311106 0.127106
0.602935 0.316351 0.132351
0.626832 0.321597 0.137597
0.650729 0.326843 0.142843
0.674627 0.332089 0.148089
0.698524 0.337335 0.153335
0.722421 0.342580 0.158580
0.746318 0.347826 0.163826
0.770216 0.353072 0.169072
0.790775 0.357585 0.173585
0.056925 0.259325 0.056925
0.075509 0.259325 0.056925
0.094012 0.259325 0.056925
0.112489 0.259325 0.056925
0.130965 0.259325 0.056925
0.149442 0.259325 0.056925
0.167918 0.259325 0.056925
0.186395 0.259325 0.056925
0.204871 0.259325 0.056925
0.223348 0.259325 0.056925
0.241824 0.259325 0.056925
0.260575 0.259599 0.057199
0.284248 0.264796 0.062396
0.307921 0.269992 0.067592
0.331594 0.275189 0.072789
0.355267 0.280385 0.077985
0.411756 0.292785 0.090385
0.435653 0.298031 0.095631
0.459551 0.303277 0.100877
0.483448 0.308523 0.106123
0.507345 0.313768 0.111368
0.531243 0.319014 0.116614
0.555140 0.324260 0.121860
0.579037 0.329506 0.127106
0.602935 0.334751 0.132351
0.626832 0.339997 0.137597
0.650729 0.345243 0.142843
0.674627 0.350489 0.148089
0.698524 0.355735 0.153335
0.722421 0.360980 0.158580
0.746318 0.366226 0.163826
0.770216 0.371472 0.169072
0.790775 0.375985 0.173585
0.062100 0.282900 0.062100
0.080684 0.282900 0.062100
0.099187 0.282900 0.062100
0.117664 0.282900 0.062100
0.136140 0.282900 0.062100
0.154617 0.282900 0.062100
0.173093 0.282900 0.062100
0.191570 0.282900 0.062100
0.210046 0.282900 0.062100
0.228523 0.282900 0.062100
0.246999 0.282900 0.062100
0.265475 0.282900 0.062100
0.284248 0.283196 0.062396
0.307921 0.288392 0.067592
0.331594 0.293589 0.072789
0.355267 0.298785 0.077985
0.411756 0.311185 0.090385
0.435653 0.316431 0.095631
0.459551 0.321677 0.100877
0.483448 0.326923 0.106123
0.507345 0.332168 0.111368
0.531243 0.337414 0.116614
0.555140 0.342660 0.121860
0.579037 0.347906 0.127106
0.602935 0.353151 0.132351
0.626832 0.358397 0.137597
0.650729 0.363643 0.142843
0.674627 0.368889 0.148089
0.698524 0.374135 0.153335
0.722421 0.379380 0.158580
0.746318 0.384626 0.163826
0.770216 0.389872 0.169072
0.790775 0.394385 0.173585
0.067275 0.306475 0.067275
0.085859 0.306475 0.067275
0.104362 0.306475 0.067275
0.122839 0.306475 0.067275
0.141315 0.306475 0.067275
0.159792 0.306475 0.067275
0.178268 0.306475 0.067275
0.196745 0.306475 0.067275
0.215221 0.306475 0.067275
0.233698 0.306475 0.067275
0.252174 0.306475 0.067275
0.270650 0.306475 0.067275
0.289127 0.306475 0.067275
0.307921 0.306792 0.067592
0.331594 0.311989 0.072789
0.355267 0.317185 0.077985
0.411756 0.329585 0.090385
0.435653 0.334831 0.095631
0.459551 0.340077 0.100877
0.483448 0.345323 0.106123
0.507345 0.350568 0.111368
0.531243 0.355814 0.116614
0.555140 0.361060 0.121860
0.579037 0.366306 0.127106
0.602935 0.371551 0.132351
0.626832 0.376797 0.137597
0.650729 0.382043 0.142843
0.674627 0.387289 0.148089
0.698524 0.392535 0.153335
0.722421 0.397780 0.158580
0.746318 0.403026 0.163826
0.770216 0.408272 0.169072
0.790775 0.412785 0.173585
0.072450 0.330050 0.072450
0.091034 0.330050 0.072450
0.109537 0.330050 0.072450
0.128014 0.330050 0.072450
0.146490 0.330050 0.072450
0.164967 0.330050 0.072450
0.183443 0.330050 0.072450
0.201920 0.330050 0.072450
0.220396 0.330050 0.072450
0.238873 0.330050 0.072450
0.257349 0.330050 0.072450
0.275825 0.330050 0.072450
0.294302 0.330050 0.072450
0.312778 0.330050 0.072450
0.331594 0.330389 0.072789
0.355267 0.335585 0.077985
0.411756 0.347985 0.090385
0.435653 0.353231 0.095631
0.459551 0.358477 0.100877
0.483448 0.363723 0.106123
0.507345 0.368968 0.111368
0.531243 0.374214 0.116614
0.555140 0.379460 0.121860
0.579037 0.384706 0.127106
0.602935 0.389951 0.132351
0.626832 0.395197 0.137597
0.650729 0.400443 0.142843
0.674627 0.405689 0.148089
0.698524 0.410935 0.153335
0.722421 0.416180 0.158580
0.746318 0.421426 0.163826
0.770216 0.426672 0.169072
0.790775 0.431185 0.173585
0.077625 0.353625 0.077625
0.096209 0.353625 0.077625
0.114712 0.353625 0.077625
0.133189 0.353625 0.077625
0.151665 0.353625 0.077625
0.170142 0.353625 0.077625
0.188618 0.353625 0.077625
0.207095 0.353625 0.077625
0.225571 0.353625 0.077625
0.244048 0.353625 0.077625
0.262524 0.353625 0.077625
0.281000 0.353625 0.077625
0.299477 0.353625 0.077625
0.317953 0.353625 0.077625
0.336430 0.353625 0.077625
0.355267 0.353985 0.077985
0.411756 0.366385 0.090385
0.435653 0.371631 0.095631
0.459551 0.376877 0.100877
0.483448 0.382123 0.106123
0.507345 0.387368 0.111368
0.531243 0.392614 0.116614
0.555140 0.397860 0.121860
0.579037 0.403106 0.127106
0.602935 0.408351 0.132351
0.626832 0.413597 0.137597
0.650729 0.418843 0.142843
0.674627 0.424089 0.148089
0.698524 0.429335 0.153335
0.722421 0.434580 0.158580
0.746318 0.439826 0.163826
0.770216 0.445072 0.169072
0.790775 0.449585 0.173585
0.082800 0.377200 0.082800
0.101384 0.377200 0.082800
0.119887 0.377200 0.082800
0.138364 0.377200 0.082800
0.156840 0.377200 0.082800
0.175317 0.377200 0.082800
0.193793 0.377200 0.082800
0.212270 0.377200 0.082800
0.230746 0.377200 0.082800
0.249223 0.377200 0.082800
0.267699 0.377200 0.082800
0.286175 0.377200 0.082800
0.304652 0.377200 0.082800
0.323128 0.377200 0.082800
0.341605 0.377200 0.082800
0.360081 0.377200 0.082800
0.411756 0.384785 0.090385
0.435653 0.390031 0.095631
0.459551 0.395277 0.100877
0.483448 0.400523 0.106123
0.507345 0.405768 0.111368
0.531243 0.411014 0.116614
0.555140 0.416260 0.121860
0.579037 0.421506 0.127106
0.602935 0.426751 0.132351
0.626832 0.431997 0.137597
0.650729 0.437243 0.142843
0.674627 0.442489 0.148089
0.698524 0.447735 0.153335
0.722421 0.452980 0.158580
0.746318 0.458226 0.163826
0.770216 0.463472 0.169072
0.790775 0.467985 0.173585
0.095224 0.433798 0.095224
0.113808 0.433798 0.095224
0.132311 0.433798 0.095224
0.150788 0.433798 0.095224
0.169264 0.433798 0.095224
0.187741 0.433798 0.095224
0.206217 0.433798 0.095224
0.224694 0.433798 0.095224
0.243170 0.433798 0.095224
0.261647 0.433798 0.095224
0.280123 0.433798 0.095224
0.298599 0.433798 0.095224
0.317076 0.433798 0.095224
0.335552 0.433798 0.095224
0.354029 0.433798 0.095224
0.372505 0.433798 0.095224
0.416595 0.433798 0.095224
0.435653 0.434206 0.095631
0.459551 0.439451 0.100877
0.483448 0.444697 0.106123
0.507345 0.449943 0.111368
0.531243 0.455189 0.116614
0.555140 0.460434 0.121860
0.579037 0.465680 0.127106
0.602935 0.470926 0.132351
0.626832 0.476172 0.137597
0.650729 0.481417 0.142843
0.674627 0.486663 0.148089
0.698524 0.491909 0.153335
0.722421 0.497155 0.158580
0.746318 0.502400 0.163826
0.770216 0.507646 0.169072
0.790775 0.512159 0.173585
0.100448 0.457597 0.100448
0.119032 0.457597 0.100448
0.137536 0.457597 0.100448
0.156012 0.457597 0.100448
0.174488 0.457597 0.100448
0.192965 0.457597 0.100448
0.211441 0.457597 0.100448
0.229918 0.457597 0.100448
0.248394 0.457597 0.100448
0.266871 0.457597 0.100448
0.285347 0.457597 0.100448
0.303824 0.457597 0.100448
0.322300 0.457597 0.100448
0.340776 0.457597 0.100448
0.359253 0.457597 0.100448
0.377729 0.457597 0.100448
0.421819 0.457597 0.100448
0.440470 0.457597 0.100448
0.459551 0.458026 0.100877
0.483448 0.463272 0.106123
0.507345 0.468517 0.111368
0.531243 0.473763 0.116614
0.555140 0.479009 0.121860
0.579037 0.484255 0.127106
0.602935 0.489500 0.132351
0.626832 0.494746 0.137597
0.650729 0.499992 0.142843
0.674627 0.505238 0.148089
0.698524 0.510483 0.153335
0.722421 0.515729 0.158580
0.746318 0.520975 0.163826
0.770216 0.526221 0.169072
0.790775 0.530734 0.173585
0.105672 0.481395 0.105672
0.124256 0.481395 0.105672
0.142760 0.481395 0.105672
0.161236 0.481395 0.105672
0.179712 0.481395 0.105672
0.198189 0.481395 0.105672
0.216665 0.481395 0.105672
0.235142 0.481395 0.105672
0.253618 0.481395 0.105672
0.272095 0.481395 0.105672
0.290571 0.481395 0.105672
0.309048 0.481395 0.105672
0.327524 0.481395 0.105672
0.346000 0.481395 0.105672
0.364477 0.481395 0.105672
0.382953 0.481395 0.105672
0.427043 0.481395 0.105672
0.445694 0.481395 0.105672
0.464346 0.481395 0.105672
0.483448 0.481846 0.106123
0.507345 0.487092 0.111368
0.531243 0.492337 0.116614
0.555140 0.497583 0.121860
0.579037 0.502829 0.127106
0.602935 0.508075 0.132351
0.626832 0.513320 0.137597
0.650729 0.518566 0.142843
0.674627 0.523812 0.148089
0.698524 0.529058 0.153335
0.722421 0.534303 0.158580
0.746318 0.539549 0.163826
0.770216 0.544795 0.169072
0.790775 0.549308 0.173585
0.110896 0.505194 0.110896
0.129480 0.505194 0.110896
0.147984 0.505194 0.110896
0.166460 0.505194 0.110896
0.184937 0.505194 0.110896
0.203413 0.505194 0.110896
0.221889 0.505194 0.110896
0.240366 0.505194 0.110896
0.258842 0.505194 0.110896
0.277319 0.505194 0.110896
0.295795 0.505194 0.110896
0.314272 0.505194 0.110896
0.332748 0.505194 0.110896
0.351225 0.505194 0.110896
0.369701 0.505194 0.110896
0.388177 0.505194 0.110896
0.432267 0.505194 0.110896
0.450918 0.505194 0.110896
0.469570 0.505194 0.110896
0.488221 0.505194 0.110896
0.507345 0.505666 0.111368
0.531243 0.510912 0.116614
0.555140 0.516158 0.121860
0.579037 0.521403 0.127106
0.602935 0.526649 0.132351
0.626832 0.531895 0.137597
0.650729 0.537141 0.142843
0.674627 0.542386 0.148089
0.698524 0.547632 0.153335
0.722421 0.552878 0.158580
0.746318 0.558124 0.163826
0.770216 0.563369 0.169072
0.790775 0.567882 0.173585
0.116120 0.528992 0.116120
0.134704 0.528992 0.116120
0.153208 0.528992 0.116120
0.171684 0.528992 0.116120
0.190161 0.528992 0.116120
0.208637 0.528992 0.116120
0.227113 0.528992 0.116120
0.245590 0.528992 0.116120
0.264066 0.528992 0.116120
0.282543 0.528992 0.116120
0.301019 0.528992 0.116120
0.319496 0.528992 0.116120
0.337972 0.528992 0.116120
0.356449 0.528992 0.116120
0.374925 0.528992 0.116120
0.393401 0.528992 0.116120
0.437491 0.528992 0.116120
0.456142 0.528992 0.116120
0.474794 0.528992 0.116120
0.493445 0.528992 0.116120
0.512097 0.528992 0.116120
0.531243 0.529486 0.116614
0.555140 0.534732 0.121860
0.579037 0.539978 0.127106
0.602935 0.545223 0.132351
0.626832 0.550469 0.137597
0.650729 0.555715 0.142843
0.674627 0.560961 0.148089
0.698524 0.566207 0.153335
0.722421 0.571452 0.158580
0.746318 0.576698 0.163826
0.770216 0.581944 0.169072
0.790775 0.586457 0.173585
0.121344 0.552791 0.121344
0.139928 0.552791 0.121344
0.158432 0.552791 0.121344
0.176908 0.552791 0.121344
0.195385 0.552791 0.121344
0.213861 0.552791 0.121344
0.232338 0.552791 0.121344
0.250814 0.552791 0.121344
0.269290 0.552791 0.121344
0.287767 0.552791 0.121344
0.306243 0.552791 0.121344
0.324720 0.552791 0.121344
0.343196 0.552791 0.121344
0.361673 0.552791 0.121344
0.380149 0.552791 0.121344
0.398626 0.552791 0.121344
0.442715 0.552791 0.121344
0.461366 0.552791 0.121344
0.480018 0.552791 0.121344
0.498670 0.552791 0.121344
0.517321 0.552791 0.121344
0.535973 0.552791 0.121344
0.555140 0.553306 0.121860
0.579037 0.558552 0.127106
0.602935 0.563798 0.132351
0.626832 0.569044 0.137597
0.650729 0.574289 0.142843
0.674627 0.579535 0.148089
0.698524 0.584781 0.153335
0.722421 0.590027 0.158580
0.746318 0.595272 0.163826
0.770216 0.600518 0.169072
0.790775 0.605031 0.173585
0.126568 0.576589 0.126568
0.145152 0.576589 0.126568
0.163656 0.576589 0.126568
0.182132 0.576589 0.126568
0.200609 0.576589 0.126568
0.219085 0.576589 0.126568
0.237562 0.576589 0.126568
0.256038 0.576589 0.126568
0.274514 0.576589 0.126568
0.292991 0.576589 0.126568
0.311467 0.576589 0.126568
0.329944 0.576589 0.126568
0.348420 0.576589 0.126568
0.366897 0.576589 0.126568
0.385373 0.576589 0.126568
0.403850 0.576589 0.126568
0.447939 0.576589 0.126568
0.466590 0.576589 0.126568
0.485242 0.576589 0.126568
0.503894 0.576589 0.126568
0.522545 0.576589 0.126568
0.541197 0.576589 0.126568
0.559848 0.576589 0.126568
0.579037 0.577127 0.127106
0.602935 0.582372 0.132351
0.626832 0.587618 0.137597
0.650729 0.592864 0.142843
0.674627 0.598110 0.148089
0.698524 0.603355 0.153335
0.722421 0.608601 0.158580
0.746318 0.613847 0.163826
0.770216 0.619093 0.169072
0.790775 0.623606 0.173585
0.131792 0.600388 0.131792
0.150376 0.600388 0.131792
0.168880 0.600388 0.131792
0.187356 0.600388 0.131792
0.205833 0.600388 0.131792
0.224309 0.600388 0.131792
0.242786 0.600388 0.131792
0.261262 0.600388 0.131792
0.279738 0.600388 0.131792
0.298215 0.600388 0.131792
0.316691 0.600388 0.131792
0.335168 0.600388 0.131792
0.353644 0.600388 0.131792
0.372121 0.600388 0.131792
0.390597 0.600388 0.131792
0.409074 0.600388 0.131792
0.453163 0.600388 0.131792
0.471814 0.600388 0.131792
0.490466 0.600388 0.131792
0.509118 0.600388 0.131792
0.527769 0.600388 0.131792
0.546421 0.600388 0.131792
0.565072 0.600388 0.131792
0.583724 0.600388 0.131792
0.602935 0.600947 0.132351
0.626832 0.606192 0.137597
0.650729 0.611438 0.142843
0.674627 0.616684 0.148089
0.698524 0.621930 0.153335
0.722421 0.627175 0.158580
0.746318 0.632421 0.163826
0.770216 0.637667 0.169072
0.790775 0.642180 0.173585
0.137016 0.624186 0.137016
0.155600 0.624186 0.137016
0.174104 0.624186 0.137016
0.192580 0.624186 0.137016
0.211057 0.624186 0.137016
0.229533 0.624186 0.137016
0.248010 0.624186 0.137016
0.266486 0.624186 0.137016
0.284963 0.624186 0.137016
0.303439 0.624186 0.137016
0.321915 0.624186 0.137016
0.340392 0.624186 0.137016
0.358868 0.624186 0.137016
0.377345 0.624186 0.137016
0.395821 0.624186 0.137016
0.414298 0.624186 0.137016
0.458387 0.624186 0.137016
0.477039 0.624186 0.137016
0.495690 0.624186 0.137016
0.514342 0.624186 0.137016
0.532993 0.624186 0.137016
0.551645 0.624186 0.137016
0.570296 0.624186 0.137016
0.588948 0.624186 0.137016
0.607600 0.624186 0.137016
0.626832 0.624767 0.137597
0.650729 0.630013 0.142843
0.674627 0.635258 0.148089
0.698524 0.640504 0.153335
0.722421 0.645750 0.158580
0.746318 0.650996 0.163826
0.770216 0.656241 0.169072
0.790775 0.660754 0.173585
0.142240 0.647984 0.142240
0.160824 0.647984 0.142240
0.179328 0.647984 0.142240
0.197804 0.647984 0.142240
0.216281 0.647984 0.142240
0.234757 0.647984 0.142240
0.253234 0.647984 0.142240
0.271710 0.647984 0.142240
0.290187 0.647984 0.142240
0.308663 0.647984 0.142240
0.327139 0.647984 0.142240
0.345616 0.647984 0.142240
0.364092 0.647984 0.142240
0.382569 0.647984 0.142240
0.401045 0.647984 0.142240
0.419522 0.647984 0.142240
0.463611 0.647984 0.142240
0.482263 0.647984 0.142240
0.500914 0.647984 0.142240
0.519566 0.647984 0.142240
0.538217 0.647984 0.142240
0.556869 0.647984 0.142240
0.575520 0.647984 0.142240
0.594172 0.647984 0.142240
0.612824 0.647984 0.142240
