docs/luts/fuji_recipes/NEGAhi_RR_Faded_Color_Vintage_1_2.cube
TITLE "Fujifilm Recipe: RR Faded Color Vintage 1/2 (NEGAhi)"
# FilmSim=NEGAhi HL=4 SH=4 Col=4 WB=Auto WBR=-5 WBB=5
LUT_3D_SIZE 9
DOMAIN_MIN 0.0 0.0 0.0
DOMAIN_MAX 1.0 1.0 1.0
0.000000 0.000000 0.000000
0.101481 0.000000 0.000000
0.195522 0.000000 0.000000
0.289562 0.000000 0.000000
0.462027 0.000000 0.000000
0.590334 0.000000 0.000000
0.718641 0.000000 0.000000
0.784735 0.000000 0.000000
0.784735 0.000000 0.000000
0.000000 0.115315 0.000000
0.101481 0.115315 0.000000
0.195522 0.115315 0.000000
0.289562 0.115315 0.000000
0.462027 0.115315 0.000000
0.590334 0.115315 0.000000
0.718641 0.115315 0.000000
0.784735 0.115315 0.000000
0.784735 0.115315 0.000000
0.000000 0.222346 0.000000
0.101481 0.222346 0.000000
0.195522 0.222346 0.000000
0.289562 0.222346 0.000000
0.462027 0.222346 0.000000
0.590334 0.222346 0.000000
0.718641 0.222346 0.000000
0.784735 0.222346 0.000000
0.784735 0.222346 0.000000
0.000000 0.329376 0.000000
0.101481 0.329376 0.000000
0.195522 0.329376 0.000000
0.289562 0.329376 0.000000
0.462027 0.329376 0.000000
0.590334 0.329376 0.000000
0.718641 0.329376 0.000000
0.784735 0.329376 0.000000
0.784735 0.329376 0.000000
0.000000 0.534070 0.000000
0.101481 0.534070 0.000000
0.195522 0.534070 0.000000
0.289562 0.534070 0.000000
0.462027 0.534070 0.000000
0.590334 0.534070 0.000000
0.718641 0.534070 0.000000
0.784735 0.534070 0.000000
0.784735 0.534070 0.000000
0.000000 0.680100 0.000000
0.101481 0.680100 0.000000
0.195522 0.680100 0.000000
0.289562 0.680100 0.000000
0.462027 0.680100 0.000000
0.590334 0.680100 0.000000
0.718641 0.680100 0.000000
0.784735 0.680100 0.000000
0.784735 0.680100 0.000000
0.000000 0.826130 0.000000
0.101481 0.826130 0.000000
0.195522 0.826130 0.000000
0.289562 0.826130 0.000000
0.462027 0.826130 0.000000
0.590334 0.826130 0.000000
0.718641 0.826130 0.000000
0.784735 0.826130 0.000000
0.784735 0.826130 0.000000
0.000000 0.840000 0.000000
0.101481 0.840000 0.000000
0.195522 0.840000 0.000000
0.289562 0.840000 0.000000
0.462027 0.840000 0.000000
0.590334 0.840000 0.000000
0.718641 0.840000 0.000000
0.784735 0.840000 0.000000
0.784735 0.840000 0.000000
0.000000 0.840000 0.000000
0.101481 0.840000 0.000000
0.195522 0.840000 0.000000
0.289562 0.840000 0.000000
0.462027 0.840000 0.000000
0.590334 0.840000 0.000000
0.718641 0.840000 0.000000
0.784735 0.840000 0.000000
0.784735 0.840000 0.000000
0.000000 0.000000 0.129730
0.101481 0.000000 0.129730
0.195522 0.000000 0.129730
0.289562 0.000000 0.129730
0.462027 0.000000 0.129730
0.590334 0.000000 0.129730
0.718641 0.000000 0.129730
0.784735 0.000000 0.129730
0.784735 0.000000 0.129730
0.000000 0.115315 0.129730
0.101696 0.132355 0.164301
0.257323 0.086444 0.117154
0.388594 0.036316 0.065458
0.577342 0.000000 0.024003
0.705649 0.000000 0.021413
0.833956 0.000000 0.019925
0.922927 0.000000 0.019873
0.922927 0.000000 0.019873
0.000000 0.222346 0.129730
0.048600 0.297311 0.106729
0.235846 0.292909 0.095886
0.387445 0.249465 0.059348
0.595605 0.166003 0.000000
0.720064 0.144786 0.000000
0.851559 0.133921 0.000000
0.942832 0.133314 0.000000
0.942832 0.133314 0.000000
0.000000 0.329376 0.129730
0.000000 0.438263 0.054324
0.171869 0.442104 0.039042
0.361726 0.442104 0.039042
0.595605 0.357843 0.000000
0.720064 0.312107 0.000000
0.851559 0.288686 0.000000
0.942832 0.287376 0.000000
0.942832 0.287376 0.000000
0.000000 0.534070 0.129730
0.000000 0.635552 0.041502
0.108010 0.663800 0.000000
0.262395 0.663800 0.000000
0.545527 0.663800 0.000000
0.720064 0.632107 0.000000
0.851559 0.584672 0.000000
0.942832 0.582019 0.000000
0.942832 0.582019 0.000000
0.000000 0.680100 0.129730
0.000000 0.781582 0.038157
0.096808 0.809830 0.000000
0.235182 0.809830 0.000000
0.488951 0.809830 0.000000
0.677745 0.809830 0.000000
0.851559 0.795830 0.000000
0.942832 0.792218 0.000000
0.942832 0.792218 0.000000
0.000000 0.826130 0.129730
0.000000 0.960987 0.037461
0.094474 0.999997 0.000000
0.229512 0.999997 0.000000
0.477162 0.999997 0.000000
0.661405 0.999997 0.000000
0.845648 0.999997 0.000000
0.940556 0.999997 0.000000
0.940556 0.999997 0.000000
0.000000 0.840000 0.129730
0.000000 0.980141 0.037491
0.110006 1.000000 0.019151
0.239872 1.000000 0.019151
0.478037 1.000000 0.019151
0.655223 1.000000 0.019151
0.832409 1.000000 0.019151
0.923681 1.000000 0.019151
0.923681 1.000000 0.019151
0.000000 0.840000 0.129730
0.000000 0.980141 0.037491
0.110006 1.000000 0.019151
0.239872 1.000000 0.019151
0.478037 1.000000 0.019151
0.655223 1.000000 0.019151
0.832409 1.000000 0.019151
0.923681 1.000000 0.019151
0.923681 1.000000 0.019151
0.000000 0.000000 0.250139
0.101481 0.000000 0.250139
0.195522 0.000000 0.250139
0.289562 0.000000 0.250139
0.462027 0.000000 0.250139
0.590334 0.000000 0.250139
0.718641 0.000000 0.250139
0.784735 0.000000 0.250139
0.784735 0.000000 0.250139
0.000000 0.115315 0.250139
0.034319 0.062353 0.335574
0.221811 0.056545 0.334349
0.388594 0.036316 0.308891
0.577342 0.000000 0.224507
0.705649 0.000000 0.200283
0.833956 0.000000 0.186362
0.922927 0.000000 0.185881
0.922927 0.000000 0.185881
0.000000 0.222346 0.250139
0.034319 0.279251 0.335574
0.195812 0.255253 0.316843
0.367986 0.219406 0.280842
0.616448 0.119757 0.177353
0.792836 0.054080 0.109876
0.979457 0.000000 0.054851
1.000000 0.070730 0.116654
1.000000 0.070730 0.116654
0.000000 0.329376 0.250139
0.000000 0.438263 0.285882
0.147798 0.433227 0.264263
0.331539 0.419409 0.244530
0.612270 0.332966 0.166128
0.791582 0.259183 0.097526
1.000000 0.183950 0.017838
1.000000 0.241157 0.109111
1.000000 0.241157 0.109111
0.000000 0.534070 0.250139
0.000000 0.635552 0.218405
0.040195 0.717453 0.149454
0.208549 0.713415 0.127146
0.564658 0.713415 0.127146
0.791582 0.676795 0.097526
1.000000 0.613069 0.017838
1.000000 0.582275 0.109111
1.000000 0.582275 0.109111
0.000000 0.680100 0.250139
0.000000 0.781582 0.200802
0.000000 0.889192 0.100221
0.088625 0.966564 0.000000
0.476329 0.966564 0.000000
0.764767 0.966564 0.000000
1.000000 0.919204 0.017838
1.000000 0.825629 0.109111
1.000000 0.825629 0.109111
0.000000 0.826130 0.250139
0.000000 0.960987 0.197141
0.090853 1.000000 0.169594
0.223340 1.000000 0.166276
0.472975 1.000000 0.166276
0.658694 1.000000 0.166276
0.844414 1.000000 0.166276
0.940082 1.000000 0.166276
0.940082 1.000000 0.166276
0.000000 0.840000 0.250139
0.000000 0.980141 0.197294
0.110006 1.000000 0.185430
0.239872 1.000000 0.185430
0.478037 1.000000 0.185430
0.655223 1.000000 0.185430
0.832409 1.000000 0.185430
0.923681 1.000000 0.185430
0.923681 1.000000 0.185430
0.000000 0.840000 0.250139
0.000000 0.980141 0.197294
0.110006 1.000000 0.185430
0.239872 1.000000 0.185430
0.478037 1.000000 0.185430
0.655223 1.000000 0.185430
0.832409 1.000000 0.185430
0.923681 1.000000 0.185430
0.923681 1.000000 0.185430
0.000000 0.000000 0.444215
0.101481 0.000000 0.444215
0.195522 0.000000 0.444215
0.289562 0.000000 0.444215
0.462027 0.000000 0.444215
0.590334 0.000000 0.444215
0.718641 0.000000 0.444215
0.784735 0.000000 0.444215
0.784735 0.000000 0.444215
0.000000 0.115315 0.444215
0.000000 0.022026 0.545696
0.136449 0.000000 0.559530
0.296432 0.000000 0.559530
0.577342 0.000000 0.547681
0.705649 0.000000 0.488586
0.833956 0.000000 0.454626
0.922927 0.000000 0.453452
0.922927 0.000000 0.453452
0.000000 0.222346 0.444215
0.000000 0.192439 0.545696
0.085397 0.140332 0.594717
0.269342 0.129312 0.591523
0.616448 0.119757 0.579536
0.792836 0.054080 0.499494
0.979457 0.000000 0.437867
1.000000 0.070730 0.437338
1.000000 0.070730 0.437338
0.000000 0.329376 0.444215
0.000000 0.362851 0.545696
0.085397 0.359528 0.594717
0.244390 0.330399 0.578487
0.594434 0.304253 0.555469
0.832196 0.177202 0.465443
1.000000 0.127261 0.384732
1.000000 0.218534 0.415615
1.000000 0.218534 0.415615
0.000000 0.534070 0.444215
0.000000 0.635552 0.503537
0.040195 0.717453 0.537698
0.192741 0.707668 0.518435
0.503217 0.674259 0.460928
0.769855 0.632786 0.413878
1.000000 0.525465 0.294444
1.000000 0.541485 0.377121
1.000000 0.541485 0.377121
0.000000 0.680100 0.444215
0.000000 0.781582 0.462954
0.000000 0.889192 0.456347
0.026412 1.000000 0.411951
0.374136 0.932675 0.328515
0.702761 0.932675 0.328515
1.000000 0.900911 0.294444
1.000000 0.808602 0.377121
1.000000 0.808602 0.377121
0.000000 0.826130 0.444215
0.000000 0.960987 0.454513
0.090853 1.000000 0.449393
0.220718 1.000000 0.445327
0.460670 1.000000 0.434285
0.650725 1.000000 0.434285
0.840781 1.000000 0.434285
0.938683 1.000000 0.434285
0.938683 1.000000 0.434285
0.000000 0.840000 0.444215
0.000000 0.980141 0.454866
0.110006 1.000000 0.453439
0.239872 1.000000 0.453439
0.478037 1.000000 0.453439
0.655223 1.000000 0.453439
0.832409 1.000000 0.453439
0.923681 1.000000 0.453439
0.923681 1.000000 0.453439
0.000000 0.840000 0.444215
0.000000 0.980141 0.454866
0.110006 1.000000 0.453439
0.239872 1.000000 0.453439
0.478037 1.000000 0.453439
0.655223 1.000000 0.453439
0.832409 1.000000 0.453439
0.923681 1.000000 0.453439
0.923681 1.000000 0.453439
0.000000 0.000000 0.608498
0.101481 0.000000 0.608498
0.195522 0.000000 0.608498
0.289562 0.000000 0.608498
0.462027 0.000000 0.608498
0.590334 0.000000 0.608498
0.718641 0.000000 0.608498
0.784735 0.000000 0.608498
0.784735 0.000000 0.608498
0.000000 0.115315 0.608498
0.000000 0.019372 0.709980
0.117714 0.000000 0.723814
0.255731 0.000000 0.723814
0.508847 0.000000 0.723814
0.697155 0.000000 0.723814
0.833956 0.000000 0.681710
0.922927 0.000000 0.679950
0.922927 0.000000 0.679950
0.000000 0.222346 0.608498
0.000000 0.169247 0.709980
0.004325 0.057145 0.817543
0.179575 0.045141 0.817448
0.524504 0.045141 0.817448
0.781119 0.045141 0.817448
0.979457 0.000000 0.762087
1.000000 0.070730 0.708794
1.000000 0.070730 0.708794
0.000000 0.329376 0.608498
0.000000 0.319122 0.709980
0.004325 0.267905 0.817543
0.103343 0.197958 0.861288
0.495048 0.159347 0.865724
0.819755 0.159347 0.865724
1.000000 0.127261 0.753058
1.000000 0.218534 0.697551
1.000000 0.218534 0.697551
0.000000 0.534070 0.608498
0.000000 0.605758 0.709980
0.004325 0.670982 0.817543
0.103343 0.684411 0.861288
0.434162 0.610309 0.792286
0.713260 0.579312 0.756505
0.952227 0.478627 0.669606
1.000000 0.501207 0.649310
1.000000 0.501207 0.649310
0.000000 0.680100 0.608498
0.000000 0.781582 0.684864
0.000000 0.889192 0.757804
0.026412 1.000000 0.821501
0.366157 0.922073 0.739544
0.632365 0.850647 0.676535
0.909067 0.813088 0.634775
1.000000 0.764881 0.603989
1.000000 0.764881 0.603989
0.000000 0.826130 0.608498
0.000000 0.960987 0.672376
0.090853 1.000000 0.686240
0.220718 1.000000 0.683923
0.458883 1.000000 0.676564
0.636069 1.000000 0.664104
0.832642 1.000000 0.661153
0.935549 1.000000 0.661153
0.935549 1.000000 0.661153
0.000000 0.840000 0.608498
0.000000 0.980141 0.672898
0.110006 1.000000 0.680307
0.239872 1.000000 0.680307
0.478037 1.000000 0.680307
0.655223 1.000000 0.680307
0.832409 1.000000 0.680307
0.923681 1.000000 0.680307
0.923681 1.000000 0.680307
0.000000 0.840000 0.608498
0.000000 0.980141 0.672898
0.110006 1.000000 0.680307
0.239872 1.000000 0.680307
0.478037 1.000000 0.680307
0.655223 1.000000 0.680307
0.832409 1.000000 0.680307
0.923681 1.000000 0.680307
0.923681 1.000000 0.680307
0.000000 0.000000 0.772782
0.101481 0.000000 0.772782
0.195522 0.000000 0.772782
0.289562 0.000000 0.772782
0.462027 0.000000 0.772782
0.590334 0.000000 0.772782
0.718641 0.000000 0.772782
0.784735 0.000000 0.772782
0.784735 0.000000 0.772782
0.000000 0.115315 0.772782
0.000000 0.018286 0.887316
0.110577 0.000000 0.906420
0.240227 0.000000 0.906420
0.477996 0.000000 0.906420
0.654887 0.000000 0.906420
0.831778 0.000000 0.906420
0.922927 0.000000 0.906447
0.922927 0.000000 0.906447
0.000000 0.222346 0.772782
0.000000 0.159757 0.887316
0.017181 0.062850 1.000000
0.169717 0.054224 1.000000
0.466051 0.054224 1.000000
0.686512 0.054224 1.000000
0.906973 0.054224 1.000000
1.000000 0.070730 0.980249
1.000000 0.070730 0.980249
0.000000 0.329376 0.772782
0.000000 0.301228 0.887316
0.017181 0.245075 1.000000
0.147047 0.217323 1.000000
0.440752 0.202027 1.000000
0.671659 0.202027 1.000000
0.902565 0.202027 1.000000
1.000000 0.218534 0.979487
1.000000 0.218534 0.979487
0.000000 0.534070 0.772782
0.000000 0.571790 0.887316
0.017181 0.593580 1.000000
0.147047 0.578639 1.000000
0.385212 0.527740 1.000000
0.606155 0.484701 1.000000
0.883127 0.484701 1.000000
1.000000 0.501207 0.976215
1.000000 0.501207 0.976215
0.000000 0.680100 0.772782
0.000000 0.764810 0.887316
0.017181 0.842204 1.000000
0.147047 0.836403 1.000000
0.385212 0.816641 1.000000
0.562983 0.778000 1.000000
0.829731 0.731419 0.967839
0.990824 0.718747 0.959743
0.990824 0.718747 0.959743
0.000000 0.826130 0.772782
0.000000 0.960987 0.890240
0.090853 1.000000 0.923088
0.220718 1.000000 0.922520
0.458883 1.000000 0.920716
0.636069 1.000000 0.917662
0.813255 1.000000 0.907316
0.913111 1.000000 0.888021
0.913111 1.000000 0.888021
0.000000 0.840000 0.772782
0.000000 0.980141 0.890931
0.110006 1.000000 0.907175
0.239872 1.000000 0.907175
0.478037 1.000000 0.907175
0.655223 1.000000 0.907175
0.832409 1.000000 0.907175
0.923681 1.000000 0.907175
0.923681 1.000000 0.907175
0.000000 0.840000 0.772782
0.000000 0.980141 0.890931
0.110006 1.000000 0.907175
0.239872 1.000000 0.907175
0.478037 1.000000 0.907175
0.655223 1.000000 0.907175
0.832409 1.000000 0.907175
0.923681 1.000000 0.907175
0.923681 1.000000 0.907175
0.000000 0.000000 0.840000
0.101481 0.000000 0.840000
0.195522 0.000000 0.840000
0.289562 0.000000 0.840000
0.462027 0.000000 0.840000
0.590334 0.000000 0.840000
0.718641 0.000000 0.840000
0.784735 0.000000 0.840000
0.784735 0.000000 0.840000
0.000000 0.115315 0.840000
0.000000 0.018360 0.980141
0.110594 0.000000 0.999245
0.240264 0.000000 0.999245
0.478070 0.000000 0.999245
0.654988 0.000000 0.999245
0.831907 0.000000 0.999245
0.923042 0.000000 0.999245
0.923042 0.000000 0.999245
0.000000 0.222346 0.840000
0.000000 0.160407 0.980141
0.110006 0.147049 1.000000
0.239872 0.147049 1.000000
0.478037 0.147049 1.000000
0.655223 0.147049 1.000000
0.832409 0.147049 1.000000
0.923681 0.147049 1.000000
0.923681 0.147049 1.000000
0.000000 0.329376 0.840000
0.000000 0.302455 0.980141
0.110006 0.294852 1.000000
0.239872 0.294852 1.000000
0.478037 0.294852 1.000000
0.655223 0.294852 1.000000
0.832409 0.294852 1.000000
0.923681 0.294852 1.000000
0.923681 0.294852 1.000000
0.000000 0.534070 0.840000
0.000000 0.574120 0.980141
0.110006 0.577526 1.000000
0.239872 0.577526 1.000000
0.478037 0.577526 1.000000
0.655223 0.577526 1.000000
0.832409 0.577526 1.000000
0.923681 0.577526 1.000000
0.923681 0.577526 1.000000
0.000000 0.680100 0.840000
0.000000 0.767926 0.980141
0.110006 0.779186 1.000000
0.239872 0.779186 1.000000
0.478037 0.779186 1.000000
0.655223 0.779186 1.000000
0.832409 0.779186 1.000000
0.923681 0.779186 1.000000
0.923681 0.779186 1.000000
0.000000 0.826130 0.840000
0.000000 0.961733 0.980141
0.110006 0.980846 1.000000
0.239872 0.980846 1.000000
0.478037 0.980846 1.000000
0.655223 0.980846 1.000000
0.832409 0.980846 1.000000
0.923681 0.980846 1.000000
0.923681 0.980846 1.000000
0.000000 0.840000 0.840000
0.000000 0.980141 0.980141
0.110006 1.000000 1.000000
0.239872 1.000000 1.000000
0.478037 1.000000 1.000000
0.655223 1.000000 1.000000
0.832409 1.000000 1.000000
0.923681 1.000000 1.000000
0.923681 1.000000 1.000000
0.000000 0.840000 0.840000
0.000000 0.980141 0.980141
0.110006 1.000000 1.000000
0.239872 1.000000 1.000000
0.478037 1.000000 1.000000
0.655223 1.000000 1.000000
0.832409 1.000000 1.000000
0.923681 1.000000 1.000000
0.923681 1.000000 1.000000
0.000000 0.000000 0.840000
0.101481 0.000000 0.840000
0.195522 0.000000 0.840000
0.289562 0.000000 0.840000
0.462027 0.000000 0.840000
0.590334 0.000000 0.840000
0.718641 0.000000 0.840000
0.784735 0.000000 0.840000
0.784735 0.000000 0.840000
0.000000 0.115315 0.840000
0.000000 0.018360 0.980141
0.110594 0.000000 0.999245
0.240264 0.000000 0.999245
0.478070 0.000000 0.999245
0.654988 0.000000 0.999245
0.831907 0.000000 0.999245
0.923042 0.000000 0.999245
0.923042 0.000000 0.999245
0.000000 0.222346 0.840000
0.000000 0.160407 0.980141
0.110006 0.147049 1.000000
0.239872 0.147049 1.000000
0.478037 0.147049 1.000000
0.655223 0.147049 1.000000
0.832409 0.147049 1.000000
0.923681 0.147049 1.000000
0.923681 0.147049 1.000000
0.000000 0.329376 0.840000
0.000000 0.302455 0.980141
0.110006 0.294852 1.000000
0.239872 0.294852 1.000000
0.478037 0.294852 1.000000
0.655223 0.294852 1.000000
0.832409 0.294852 1.000000
0.923681 0.294852 1.000000
0.923681 0.294852 1.000000
0.000000 0.534070 0.840000
0.000000 0.574120 0.980141
0.110006 0.577526 1.000000
0.239872 0.577526 1.000000
0.478037 0.577526 1.000000
0.655223 0.577526 1.000000
0.832409 0.577526 1.000000
0.923681 0.577526 1.000000
0.923681 0.577526 1.000000
0.000000 0.680100 0.840000
0.000000 0.767926 0.980141
0.110006 0.779186 1.000000
0.239872 0.779186 1.000000
0.478037 0.779186 1.000000
0.655223 0.779186 1.000000
0.832409 0.779186 1.000000
0.923681 0.779186 1.000000
0.923681 0.779186 1.000000
0.000000 0.826130 0.840000
0.000000 0.961733 0.980141
0.110006 0.980846 1.000000
0.239872 0.980846 1.000000
0.478037 0.980846 1.000000
0.655223 0.980846 1.000000
0.832409 0.980846 1.000000
0.923681 0.980846 1.000000
0.923681 0.980846 1.000000
0.000000 0.840000 0.840000
0.000000 0.980141 0.980141
0.110006 1.000000 1.000000
0.239872 1.000000 1.000000
0.478037 1.000000 1.000000
0.655223 1.000000 1.000000
0.832409 1.000000 1.000000
0.923681 1.000000 1.000000
0.923681 1.000000 1.000000
0.000000 0.840000 0.840000
0.000000 0.980141 0.980141
0.110006 1.000000 1.000000
0.239872 1.000000 1.000000
0.478037 1.000000 1.000000
0.655223 1.000000 1.000000
0.832409 1.000000 1.000000
0.923681 1.000000 1.000000
0.923681 1.000000 1.000000
0.000000 0.000000 0.840000
0.101481 0.000000 0.840000
0.195522 0.000000 0.840000
0.289562 0.000000 0.840000
0.462027 0.000000 0.840000
0.590334 0.000000 0.840000
0.718641 0.000000 0.840000
0.784735 0.000000 0.840000
0.784735 0.000000 0.840000
0.000000 0.115315 0.840000
0.000000 0.018360 0.980141
0.110594 0.000000 0.999245
0.240264 0.000000 0.999245
0.478070 0.000000 0.999245
0.654988 0.000000 0.999245
0.831907 0.000000 0.999245
0.923042 0.000000 0.999245
0.923042 0.000000 0.999245
0.000000 0.222346 0.840000
0.000000 0.160407 0.980141
0.110006 0.147049 1.000000
0.239872 0.147049 1.000000
0.478037 0.147049 1.000000
0.655223 0.147049 1.000000
0.832409 0.147049 1.000000
0.923681 0.147049 1.000000
0.923681 0.147049 1.000000
0.000000 0.329376 0.840000
0.000000 0.302455 0.980141
0.110006 0.294852 1.000000
0.239872 0.294852 1.000000
0.478037 0.294852 1.000000
0.655223 0.294852 1.000000
0.832409 0.294852 1.000000
0.923681 0.294852 1.000000
0.923681 0.294852 1.000000
0.000000 0.534070 0.840000
0.000000 0.574120 0.980141
0.110006 0.577526 1.000000
0.239872 0.577526 1.000000
0.478037 0.577526 1.000000
0.655223 0.577526 1.000000
0.832409 0.577526 1.000000
0.923681 0.577526 1.000000
0.923681 0.577526 1.000000
0.000000 0.680100 0.840000
0.000000 0.767926 0.980141
0.110006 0.779186 1.000000
0.239872 0.779186 1.000000
0.478037 0.779186 1.000000
0.655223 0.779186 1.000000
0.832409 0.779186 1.000000
0.923681 0.779186 1.000000
0.923681 0.779186 1.000000
0.000000 0.826130 0.840000
0.000000 0.961733 0.980141
0.110006 0.980846 1.000000
0.239872 0.980846 1.000000
0.478037 0.980846 1.000000
0.655223 0.980846 1.000000
0.832409 0.980846 1.000000
0.923681 0.980846 1.000000
0.923681 0.980846 1.000000
0.000000 0.840000 0.840000
0.000000 0.980141 0.980141
0.110006 1.000000 1.000000
0.239872 1.000000 1.000000
0.478037 1.000000 1.000000
0.655223 1.000000 1.000000
0.832409 1.000000 1.000000
0.923681 1.000000 1.000000
0.923681 1.000000 1.000000
0.000000 0.840000 0.840000
0.000000 0.980141 0.980141
0.110006 1.000000 1.000000
0.239872 1.000000 1.000000
0.478037 1.000000 1.000000
0.655223 1.000000 1.000000
0.832409 1.000000 1.000000
0.923681 1.000000 1.000000
0.923681 1.000000 1.000000
