docs/luts/fuji_recipes/NEGA_RR_Fujicolor_Pro_400H.cube
TITLE "Fujifilm Recipe: RR Fujicolor Pro 400H (NEGA)"
# FilmSim=NEGA HL=0 SH=3 Col=4 WB=Auto WBR=2 WBB=1
LUT_3D_SIZE 5
DOMAIN_MIN 0.0 0.0 0.0
DOMAIN_MAX 1.0 1.0 1.0
0.014080 0.014080 0.014080
0.314668 0.000000 0.000000
0.656506 0.000000 0.000000
0.965725 0.000000 0.000000
0.996831 0.000000 0.000000
0.000000 0.301025 0.000000
0.314668 0.299684 0.000000
0.656506 0.281807 0.000000
0.965725 0.277844 0.000000
0.996831 0.277586 0.000000
0.000000 0.626487 0.000000
0.296530 0.626487 0.000000
0.656506 0.625335 0.000000
0.965725 0.618421 0.000000
0.996831 0.618034 0.000000
0.000000 0.920981 0.000000
0.292160 0.920981 0.000000
0.649825 0.920981 0.000000
0.965725 0.919917 0.000000
0.996831 0.919250 0.000000
0.000000 0.996831 0.000000
0.291465 0.996831 0.000000
0.648739 0.996831 0.000000
0.965015 0.996831 0.000000
0.996831 0.996831 0.000000
0.000000 0.000000 0.307847
0.314668 0.000000 0.307176
0.656506 0.000000 0.288852
0.965725 0.000000 0.284791
0.996831 0.000000 0.284526
0.000000 0.300338 0.307847
0.304444 0.283089 0.293767
0.750898 0.180148 0.190825
1.000000 0.240264 0.247915
1.000000 0.271370 0.278382
0.000000 0.626487 0.289470
0.208311 0.710257 0.197633
0.749027 0.701786 0.188882
1.000000 0.617085 0.247128
1.000000 0.617203 0.278234
0.000000 0.920981 0.285204
0.211084 1.000000 0.202384
0.660846 1.000000 0.202384
1.000000 0.949495 0.247128
1.000000 0.921599 0.278234
0.000000 0.996831 0.284526
0.285247 1.000000 0.278234
0.648232 1.000000 0.278234
0.967848 1.000000 0.278234
1.000000 1.000000 0.278234
0.000000 0.000000 0.641497
0.296206 0.000000 0.641497
0.656506 0.000000 0.640921
0.965725 0.000000 0.633787
0.996831 0.000000 0.633386
0.000000 0.282101 0.641497
0.205878 0.184523 0.731513
0.750898 0.180148 0.727277
1.000000 0.240264 0.634385
1.000000 0.271370 0.632769
0.000000 0.625895 0.641497
0.201992 0.704150 0.727771
0.654357 0.607116 0.630736
1.000000 0.572370 0.591291
1.000000 0.603645 0.619709
0.000000 0.920981 0.634436
0.209247 1.000000 0.640790
0.574946 0.991149 0.551325
1.000000 0.943069 0.587461
1.000000 0.918615 0.618736
0.000000 0.996831 0.633386
0.285097 1.000000 0.632665
0.634841 1.000000 0.618736
0.966624 1.000000 0.618736
1.000000 1.000000 0.618736
0.000000 0.000000 0.943353
0.291943 0.000000 0.943353
0.649478 0.000000 0.943353
0.965725 0.000000 0.942821
0.996831 0.000000 0.942132
0.000000 0.278041 0.943353
0.234189 0.217892 1.000000
0.655506 0.217892 1.000000
1.000000 0.240264 0.974772
1.000000 0.271370 0.944731
0.000000 0.618723 0.943353
0.231619 0.618231 1.000000
0.592520 0.549876 1.000000
1.000000 0.572370 0.971799
1.000000 0.603645 0.942766
0.000000 0.920433 0.943353
0.231619 0.973046 1.000000
0.580059 0.967248 1.000000
0.969438 0.899024 0.934231
1.000000 0.899738 0.929310
0.000000 0.996831 0.942132
0.285097 1.000000 0.944715
0.633828 1.000000 0.942460
0.954765 1.000000 0.922231
1.000000 1.000000 0.922231
0.000000 0.000000 0.996831
0.291465 0.000000 0.996831
0.648739 0.000000 0.996831
0.965015 0.000000 0.996831
0.996831 0.000000 0.996831
0.000000 0.277586 0.996831
0.285394 0.271370 1.000000
0.648281 0.271370 1.000000
0.967852 0.271370 1.000000
1.000000 0.271370 1.000000
0.000000 0.618034 0.996831
0.285097 0.617148 1.000000
0.635773 0.603645 1.000000
0.966709 0.603645 1.000000
1.000000 0.603645 1.000000
0.000000 0.919250 0.996831
0.285097 0.921588 1.000000
0.633828 0.918389 1.000000
0.958882 0.899738 1.000000
1.000000 0.899738 1.000000
0.000000 0.996831 0.996831
0.285097 1.000000 1.000000
0.633828 1.000000 1.000000
0.947886 0.996838 0.996838
0.988000 0.988000 0.988000
