docs/luts/fuji_recipes/NEGAhi_MT_Pro_Neg_Hich_II.cube
TITLE "Fujifilm Recipe: MT Pro Neg Hich II (NEGAhi)"
# FilmSim=NEGAhi HL=0 SH=0 Col=0 WB=Auto WBR=2 WBB=-1
LUT_3D_SIZE 9
DOMAIN_MIN 0.0 0.0 0.0
DOMAIN_MAX 1.0 1.0 1.0
0.000000 0.000000 0.000000
0.110900 0.000000 0.000000
0.221608 0.000000 0.000000
0.332316 0.000000 0.000000
0.442748 0.000000 0.000000
0.552127 0.000000 0.000000
0.661507 0.000000 0.000000
0.770886 0.000000 0.000000
0.834960 0.000000 0.000000
0.000000 0.105000 0.000000
0.110900 0.105000 0.000000
0.221608 0.105000 0.000000
0.332316 0.105000 0.000000
0.442748 0.105000 0.000000
0.552127 0.105000 0.000000
0.661507 0.105000 0.000000
0.770886 0.105000 0.000000
0.834960 0.105000 0.000000
0.000000 0.210000 0.000000
0.110900 0.210000 0.000000
0.221608 0.210000 0.000000
0.332316 0.210000 0.000000
0.442748 0.210000 0.000000
0.552127 0.210000 0.000000
0.661507 0.210000 0.000000
0.770886 0.210000 0.000000
0.834960 0.210000 0.000000
0.000000 0.315000 0.000000
0.110900 0.315000 0.000000
0.221608 0.315000 0.000000
0.332316 0.315000 0.000000
0.442748 0.315000 0.000000
0.552127 0.315000 0.000000
0.661507 0.315000 0.000000
0.770886 0.315000 0.000000
0.834960 0.315000 0.000000
0.000000 0.420000 0.000000
0.110900 0.420000 0.000000
0.221608 0.420000 0.000000
0.332316 0.420000 0.000000
0.442748 0.420000 0.000000
0.552127 0.420000 0.000000
0.661507 0.420000 0.000000
0.770886 0.420000 0.000000
0.834960 0.420000 0.000000
0.000000 0.523740 0.000000
0.110900 0.523740 0.000000
0.221608 0.523740 0.000000
0.332316 0.523740 0.000000
0.442748 0.523740 0.000000
0.552127 0.523740 0.000000
0.661507 0.523740 0.000000
0.770886 0.523740 0.000000
0.834960 0.523740 0.000000
0.000000 0.627480 0.000000
0.110900 0.627480 0.000000
0.221608 0.627480 0.000000
0.332316 0.627480 0.000000
0.442748 0.627480 0.000000
0.552127 0.627480 0.000000
0.661507 0.627480 0.000000
0.770886 0.627480 0.000000
0.834960 0.627480 0.000000
0.000000 0.731220 0.000000
0.110900 0.731220 0.000000
0.221608 0.731220 0.000000
0.332316 0.731220 0.000000
0.442748 0.731220 0.000000
0.552127 0.731220 0.000000
0.661507 0.731220 0.000000
0.770886 0.731220 0.000000
0.834960 0.731220 0.000000
0.000000 0.834960 0.000000
0.110900 0.834960 0.000000
0.221608 0.834960 0.000000
0.332316 0.834960 0.000000
0.442748 0.834960 0.000000
0.552127 0.834960 0.000000
0.661507 0.834960 0.000000
0.770886 0.834960 0.000000
0.834960 0.834960 0.000000
0.000000 0.000000 0.102375
0.110900 0.000000 0.102375
0.221608 0.000000 0.102375
0.332316 0.000000 0.102375
0.442748 0.000000 0.102375
0.552127 0.000000 0.102375
0.661507 0.000000 0.102375
0.770886 0.000000 0.102375
0.834960 0.000000 0.102375
0.000000 0.105000 0.102375
0.132024 0.125000 0.121875
0.256300 0.109977 0.106683
0.377165 0.099729 0.096526
0.496307 0.090966 0.087816
0.613620 0.082997 0.079882
0.730541 0.075431 0.072341
0.879465 0.036121 0.032796
0.976335 0.003498 0.000000
0.000000 0.210000 0.102375
0.118633 0.243482 0.107893
0.256300 0.241734 0.106683
0.377165 0.227880 0.096526
0.496307 0.216980 0.087816
0.613620 0.207605 0.079882
0.730541 0.199035 0.072341
0.879465 0.169103 0.032796
0.976335 0.143435 0.000000
0.000000 0.315000 0.102375
0.108432 0.358384 0.097991
0.244011 0.358384 0.097991
0.377165 0.356031 0.096526
0.496307 0.342993 0.087816
0.613620 0.332212 0.079882
0.730541 0.322639 0.072341
0.879465 0.302086 0.032796
0.976335 0.283371 0.000000
0.000000 0.420000 0.102375
0.099799 0.471837 0.089538
0.233049 0.471837 0.089538
0.366299 0.471837 0.089538
0.496307 0.469007 0.087816
0.613620 0.456820 0.079882
0.730541 0.446243 0.072341
0.879465 0.435068 0.032796
0.976335 0.423307 0.000000
0.000000 0.523740 0.102375
0.092038 0.583220 0.081895
0.223754 0.583220 0.081895
0.355471 0.583220 0.081895
0.486858 0.583220 0.081895
0.613620 0.579932 0.079882
0.730541 0.568364 0.072341
0.879465 0.566454 0.032796
0.976335 0.561564 0.000000
0.000000 0.627480 0.102375
0.084714 0.694199 0.074656
0.215332 0.694199 0.074656
0.345951 0.694199 0.074656
0.476244 0.694199 0.074656
0.605295 0.694199 0.074656
0.730541 0.690485 0.072341
0.879465 0.697841 0.032796
0.976335 0.699821 0.000000
0.000000 0.731220 0.102375
0.077663 0.804926 0.067669
0.207457 0.804926 0.067669
0.337252 0.804926 0.067669
0.466722 0.804926 0.067669
0.594958 0.804926 0.067669
0.723195 0.804926 0.067669
0.879465 0.829227 0.032796
0.976335 0.838078 0.000000
0.000000 0.834960 0.102375
0.011361 0.976335 0.000000
0.158905 0.976335 0.000000
0.306448 0.976335 0.000000
0.453624 0.976335 0.000000
0.599397 0.976335 0.000000
0.745170 0.976335 0.000000
0.890943 0.976335 0.000000
0.976335 0.976335 0.000000
0.000000 0.000000 0.204750
0.110900 0.000000 0.204750
0.221608 0.000000 0.204750
0.332316 0.000000 0.204750
0.442748 0.000000 0.204750
0.552127 0.000000 0.204750
0.661507 0.000000 0.204750
0.770886 0.000000 0.204750
0.834960 0.000000 0.204750
0.000000 0.105000 0.204750
0.119263 0.111801 0.237949
0.256602 0.110006 0.235409
0.377599 0.099718 0.221656
0.496825 0.090923 0.210802
0.614197 0.082931 0.201451
0.731160 0.075347 0.192897
0.882673 0.033214 0.160463
0.979960 0.000000 0.133913
0.000000 0.210000 0.204750
0.118772 0.244376 0.237722
0.263819 0.250000 0.243750
0.389345 0.232455 0.225721
0.512083 0.220003 0.213415
0.632017 0.209346 0.202860
0.768937 0.182143 0.175320
0.952780 0.108757 0.100857
1.000000 0.125060 0.117710
0.000000 0.315000 0.204750
0.108440 0.359708 0.223979
0.249584 0.369880 0.227870
0.389345 0.367134 0.225721
0.512083 0.351770 0.213415
0.632017 0.339065 0.202860
0.768937 0.318605 0.175320
0.952780 0.266761 0.100857
1.000000 0.272059 0.117710
0.000000 0.420000 0.204750
0.099703 0.473444 0.213180
0.237024 0.486964 0.215786
0.376497 0.486964 0.215786
0.512083 0.483536 0.213415
0.632017 0.468784 0.202860
0.768937 0.455066 0.175320
0.952780 0.424765 0.100857
1.000000 0.419059 0.117710
0.000000 0.523740 0.204750
0.091863 0.585024 0.203972
0.226387 0.601006 0.205484
0.363656 0.601006 0.205484
0.500582 0.601006 0.205484
0.632017 0.596947 0.202860
0.768937 0.589890 0.175320
0.952780 0.580873 0.100857
1.000000 0.564294 0.117710
0.000000 0.627480 0.204750
0.084477 0.696151 0.195603
0.216850 0.714031 0.196199
0.352464 0.714031 0.196199
0.487739 0.714031 0.196199
0.621726 0.714031 0.196199
0.768937 0.724714 0.175320
0.952780 0.736981 0.100857
1.000000 0.709529 0.117710
0.000000 0.731220 0.204750
0.075531 0.808836 0.186475
0.141291 0.897701 0.116269
0.305613 0.897701 0.116269
0.469526 0.897701 0.116269
0.631876 0.897701 0.116269
0.794227 0.897701 0.116269
0.952780 0.893090 0.100857
1.000000 0.854765 0.117710
0.000000 0.834960 0.204750
0.000000 0.988108 0.128075
0.141311 1.000000 0.117710
0.296302 1.000000 0.117710
0.450905 1.000000 0.117710
0.604036 1.000000 0.117710
0.757167 1.000000 0.117710
0.910297 1.000000 0.117710
1.000000 1.000000 0.117710
0.000000 0.000000 0.307125
0.110900 0.000000 0.307125
0.221608 0.000000 0.307125
0.332316 0.000000 0.307125
0.442748 0.000000 0.307125
0.552127 0.000000 0.307125
0.661507 0.000000 0.307125
0.770886 0.000000 0.307125
0.834960 0.000000 0.307125
0.000000 0.105000 0.307125
0.109136 0.101887 0.350238
0.245163 0.101887 0.350238
0.377599 0.099718 0.346804
0.496825 0.090923 0.333835
0.614197 0.082931 0.323091
0.731160 0.075347 0.313540
0.882673 0.033214 0.291061
0.979960 0.000000 0.271350
0.000000 0.210000 0.307125
0.109145 0.231354 0.351128
0.250771 0.235758 0.361367
0.389759 0.232557 0.357383
0.512687 0.220061 0.342173
0.632766 0.209361 0.329560
0.773323 0.178184 0.306206
0.952366 0.108520 0.254643
1.000000 0.124960 0.260950
0.000000 0.315000 0.307125
0.108440 0.359708 0.350013
0.249988 0.371043 0.360835
0.395614 0.375000 0.365625
0.521235 0.355834 0.345638
0.651323 0.335421 0.324930
0.797902 0.299067 0.287730
0.944789 0.262016 0.250222
1.000000 0.270139 0.259085
0.000000 0.420000 0.307125
0.099703 0.473444 0.336964
0.237297 0.488733 0.345679
0.381435 0.495443 0.348682
0.521235 0.491782 0.345638
0.651323 0.475302 0.324930
0.797902 0.450226 0.287730
0.944789 0.419273 0.250222
1.000000 0.417526 0.259085
0.000000 0.523740 0.307125
0.091863 0.585024 0.326265
0.226527 0.603243 0.333155
0.367733 0.612319 0.335546
0.508834 0.612319 0.335546
0.651323 0.613505 0.324930
0.797902 0.599571 0.287730
0.944789 0.574643 0.250222
1.000000 0.563145 0.259085
0.000000 0.627480 0.307125
0.084477 0.696151 0.316824
0.211402 0.722108 0.319007
0.333444 0.754059 0.297546
0.490812 0.754059 0.297546
0.646680 0.754059 0.297546
0.797902 0.748916 0.287730
0.944789 0.730012 0.250222
1.000000 0.708763 0.259085
0.000000 0.731220 0.307125
0.075531 0.808836 0.307497
0.140788 0.896462 0.267597
0.302184 0.890301 0.265044
0.464997 0.890301 0.265044
0.626259 0.890301 0.265044
0.787521 0.890301 0.265044
0.944789 0.885382 0.250222
1.000000 0.854382 0.259085
0.000000 0.834960 0.307125
0.000000 0.988108 0.267784
0.140990 1.000000 0.260758
0.294445 1.000000 0.259085
0.449457 1.000000 0.259085
0.602992 1.000000 0.259085
0.756526 1.000000 0.259085
0.910061 1.000000 0.259085
1.000000 1.000000 0.259085
0.000000 0.000000 0.409500
0.110900 0.000000 0.409500
0.221608 0.000000 0.409500
0.332316 0.000000 0.409500
0.442748 0.000000 0.409500
0.552127 0.000000 0.409500
0.661507 0.000000 0.409500
0.770886 0.000000 0.409500
0.834960 0.000000 0.409500
0.000000 0.105000 0.409500
0.100595 0.093473 0.461027
0.234227 0.093473 0.461027
0.367860 0.093473 0.461027
0.496825 0.090923 0.456868
0.614197 0.082931 0.444730
0.731160 0.075347 0.434184
0.882673 0.033214 0.421659
0.979960 0.000000 0.408787
0.000000 0.210000 0.409500
0.100533 0.220535 0.462115
0.238283 0.223603 0.475897
0.378288 0.223603 0.475897
0.512687 0.220061 0.470886
0.632766 0.209361 0.456255
0.773323 0.178184 0.441148
0.952366 0.108520 0.408665
1.000000 0.124960 0.404291
0.000000 0.315000 0.409500
0.100533 0.347682 0.462115
0.238471 0.357062 0.477060
0.383171 0.360565 0.483935
0.521742 0.356006 0.478607
0.654821 0.332306 0.460835
0.797463 0.299044 0.434974
0.944182 0.261705 0.403174
1.000000 0.269960 0.402641
0.000000 0.420000 0.409500
0.099703 0.473444 0.460748
0.237297 0.488733 0.475426
0.382090 0.496822 0.483083
0.527081 0.500000 0.487500
0.656919 0.475153 0.460708
0.792632 0.449302 0.434375
0.937000 0.415006 0.399386
1.000000 0.415256 0.400460
0.000000 0.523740 0.409500
0.091863 0.585024 0.448558
0.226527 0.603243 0.460802
0.363480 0.619172 0.466578
0.512011 0.622644 0.466596
0.656919 0.617867 0.460708
0.792632 0.596780 0.434375
0.937000 0.569334 0.399386
1.000000 0.561442 0.400460
0.000000 0.627480 0.409500
0.084477 0.696151 0.438044
0.211402 0.722108 0.447825
0.333517 0.752876 0.443177
0.490023 0.749692 0.443288
0.643772 0.749692 0.443288
0.792632 0.744258 0.434375
0.937000 0.723663 0.399386
1.000000 0.707628 0.400460
0.000000 0.731220 0.409500
0.075531 0.808836 0.428518
0.140788 0.896462 0.419402
0.301597 0.888536 0.415164
0.461969 0.883312 0.413408
0.621729 0.883312 0.413408
0.781489 0.883312 0.413408
0.937000 0.877991 0.399386
1.000000 0.853814 0.400460
0.000000 0.834960 0.409500
0.000000 0.988108 0.407492
0.140990 1.000000 0.404136
0.293873 1.000000 0.402303
0.447311 1.000000 0.400460
0.601444 1.000000 0.400460
0.755577 1.000000 0.400460
0.909710 1.000000 0.400460
1.000000 1.000000 0.400460
0.000000 0.000000 0.510772
0.110900 0.000000 0.510772
0.221608 0.000000 0.510772
0.332316 0.000000 0.510772
0.442748 0.000000 0.510772
0.552127 0.000000 0.510773
0.661507 0.000000 0.510772
0.770886 0.000000 0.510772
0.834960 0.000000 0.510772
0.000000 0.105000 0.510772
0.092930 0.085893 0.569880
0.224978 0.085893 0.569880
0.357025 0.085893 0.569880
0.488743 0.085893 0.569880
0.614197 0.082931 0.565060
0.731160 0.075347 0.553528
0.882673 0.033214 0.550850
0.979960 0.000000 0.544743
0.000000 0.210000 0.510772
0.092814 0.211349 0.571106
0.227703 0.213259 0.587514
0.365458 0.213259 0.587514
0.502870 0.213259 0.587514
0.632766 0.209361 0.581587
0.773323 0.178184 0.574637
0.952366 0.108520 0.561028
1.000000 0.124960 0.546088
0.000000 0.315000 0.510772
0.092814 0.336940 0.571106
0.227803 0.344459 0.588999
0.369534 0.347322 0.598450
0.511191 0.347322 0.598450
0.654821 0.332306 0.598575
0.797463 0.299044 0.580645
0.944182 0.261705 0.554783
1.000000 0.269960 0.544831
0.000000 0.420000 0.510772
0.092814 0.462532 0.571106
0.227803 0.475615 0.588999
0.369052 0.482839 0.600633
0.514617 0.483698 0.607074
0.656779 0.475348 0.599993
0.792153 0.449354 0.578198
0.936218 0.414668 0.549591
1.000000 0.414960 0.542937
0.000000 0.523740 0.510773
0.091863 0.585024 0.569534
0.226527 0.603243 0.587074
0.363480 0.619172 0.601851
0.512601 0.622552 0.604948
0.657294 0.623500 0.608062
0.788693 0.596278 0.578167
0.929646 0.565689 0.546593
1.000000 0.558700 0.540312
0.000000 0.627480 0.510772
0.084477 0.696151 0.557959
0.211402 0.722108 0.575256
0.333517 0.752876 0.587062
0.490322 0.748571 0.585418
0.642970 0.746903 0.585929
0.788693 0.741168 0.578167
0.929646 0.718461 0.546593
1.000000 0.705800 0.540312
0.000000 0.731220 0.510773
0.075531 0.808836 0.548237
0.140788 0.896462 0.569573
0.301597 0.888536 0.564174
0.461461 0.881173 0.560433
0.619067 0.877086 0.559487
0.776650 0.877086 0.559487
0.929646 0.871232 0.546593
1.000000 0.852900 0.540312
0.000000 0.834960 0.510773
0.000000 0.988108 0.545697
0.140990 1.000000 0.545970
0.293873 1.000000 0.544573
0.446374 1.000000 0.542394
0.598952 1.000000 0.540312
0.754049 1.000000 0.540312
0.909146 1.000000 0.540312
1.000000 1.000000 0.540312
0.000000 0.000000 0.611919
0.110900 0.000000 0.611919
0.221608 0.000000 0.611919
0.332316 0.000000 0.611919
0.442748 0.000000 0.611919
0.552127 0.000000 0.611919
0.661507 0.000000 0.611919
0.770886 0.000000 0.611919
0.834960 0.000000 0.611919
0.000000 0.105000 0.611919
0.085723 0.078746 0.678173
0.216634 0.078746 0.678173
0.347545 0.078746 0.678173
0.478130 0.078746 0.678173
0.607470 0.078746 0.678173
0.731160 0.075347 0.672724
0.882673 0.033214 0.679881
0.979960 0.000000 0.680531
0.000000 0.210000 0.611919
0.085564 0.203043 0.679503
0.218244 0.203978 0.697941
0.354306 0.203978 0.697941
0.490028 0.203978 0.697941
0.624457 0.203978 0.697941
0.773323 0.178184 0.707960
0.952366 0.108520 0.713202
1.000000 0.124960 0.687708
0.000000 0.315000 0.611919
0.085564 0.327517 0.679503
0.218263 0.333456 0.699687
0.337571 0.313026 0.733893
0.494102 0.313026 0.733893
0.649141 0.313026 0.733893
0.797463 0.299044 0.726135
0.944182 0.261705 0.706202
1.000000 0.269960 0.686844
0.000000 0.420000 0.611919
0.085564 0.451990 0.679503
0.218263 0.462967 0.699687
0.337680 0.461701 0.733152
0.493719 0.461951 0.729968
0.646468 0.461951 0.729968
0.792153 0.449354 0.721767
0.936218 0.414668 0.699932
1.000000 0.414960 0.685541
0.000000 0.523740 0.611919
0.085564 0.574970 0.679503
0.218263 0.590923 0.699687
0.337680 0.608431 0.733152
0.494004 0.606668 0.729329
0.646111 0.607280 0.727899
0.788320 0.596447 0.719257
0.928744 0.565402 0.695038
1.000000 0.558220 0.683391
0.000000 0.627480 0.611919
0.084477 0.696151 0.677725
0.211402 0.722108 0.702528
0.333517 0.752876 0.730767
0.490322 0.748571 0.726818
0.643525 0.746416 0.725168
0.786973 0.740718 0.719565
0.923007 0.715434 0.692910
1.000000 0.702317 0.679991
0.000000 0.731220 0.611919
0.075531 0.808836 0.667806
0.140788 0.896462 0.719557
0.301597 0.888536 0.712999
0.461461 0.881173 0.707596
0.618820 0.874861 0.704302
0.773948 0.872166 0.704085
0.923007 0.865592 0.692910
1.000000 0.851159 0.679991
0.000000 0.834960 0.611919
0.000000 0.988108 0.683729
0.140990 1.000000 0.687627
0.293873 1.000000 0.686666
0.446374 1.000000 0.685167
0.597422 1.000000 0.682528
0.751137 1.000000 0.679991
0.908070 1.000000 0.679991
1.000000 1.000000 0.679991
0.000000 0.000000 0.713066
0.110900 0.000000 0.713066
0.221608 0.000000 0.713066
0.332316 0.000000 0.713066
0.442748 0.000000 0.713066
0.552127 0.000000 0.713066
0.661507 0.000000 0.713066
0.770886 0.000000 0.713065
0.834960 0.000000 0.713066
0.000000 0.105000 0.713066
0.078797 0.071866 0.786199
0.208853 0.071866 0.786199
0.338909 0.071866 0.786199
0.468640 0.071866 0.786199
0.597135 0.071866 0.786199
0.725630 0.071866 0.786199
0.882673 0.033214 0.808912
0.979960 0.000000 0.816319
0.000000 0.210000 0.713066
0.078604 0.195287 0.787609
0.147616 0.130493 0.872573
0.310923 0.130493 0.872573
0.473823 0.130493 0.872573
0.635170 0.130493 0.872573
0.796518 0.130493 0.872573
0.952366 0.108520 0.865376
1.000000 0.124960 0.829329
0.000000 0.315000 0.713066
0.078604 0.318917 0.787609
0.147343 0.285003 0.871753
0.308074 0.282730 0.865336
0.469701 0.282730 0.865336
0.629788 0.282730 0.865336
0.789875 0.282730 0.865336
0.944182 0.261705 0.857622
1.000000 0.269960 0.828856
0.000000 0.420000 0.713066
0.078604 0.442546 0.787609
0.147343 0.439773 0.871753
0.307790 0.435924 0.864189
0.467336 0.434405 0.858660
0.625679 0.434405 0.858660
0.784022 0.434405 0.858660
0.936218 0.414668 0.850274
1.000000 0.414960 0.828144
0.000000 0.523740 0.713066
0.078604 0.564692 0.787609
0.147343 0.592686 0.871753
0.307790 0.587522 0.864189
0.467158 0.584058 0.857321
0.623756 0.583319 0.853007
0.779563 0.583319 0.853007
0.928744 0.565402 0.843739
1.000000 0.558220 0.826969
0.000000 0.627480 0.713066
0.078604 0.686839 0.787609
0.147343 0.745599 0.871753
0.307790 0.739120 0.864189
0.467158 0.733791 0.857321
0.623811 0.730518 0.851716
0.777633 0.730434 0.849151
0.922097 0.715310 0.838721
1.000000 0.701480 0.824619
0.000000 0.731220 0.713066
0.075531 0.808836 0.787375
0.140788 0.896462 0.869541
0.301597 0.888536 0.861823
0.461461 0.881173 0.854759
0.618820 0.874861 0.848907
0.774085 0.870645 0.845499
0.918164 0.862780 0.837432
1.000000 0.846527 0.819669
0.000000 0.834960 0.713066
0.000000 0.988108 0.821761
0.140990 1.000000 0.829285
0.293873 1.000000 0.828759
0.446374 1.000000 0.827940
0.597422 1.000000 0.826498
0.748470 1.000000 0.823236
0.905210 1.000000 0.819669
1.000000 1.000000 0.819669
0.000000 0.000000 0.814212
0.110900 0.000000 0.814212
0.221608 0.000000 0.814212
0.332316 0.000000 0.814212
0.442748 0.000000 0.814212
0.552127 0.000000 0.814212
0.661507 0.000000 0.814212
0.770886 0.000000 0.814212
0.834960 0.000000 0.814212
0.000000 0.105000 0.814212
0.007980 0.000000 0.959212
0.157713 0.000000 0.959212
0.307446 0.000000 0.959212
0.456805 0.000000 0.959212
0.604742 0.000000 0.959212
0.752678 0.000000 0.959212
0.900614 0.000000 0.959212
0.979960 0.000000 0.952106
0.000000 0.210000 0.814212
0.000000 0.136306 0.967360
0.121422 0.104212 1.000000
0.285554 0.104212 1.000000
0.449277 0.104212 1.000000
0.611441 0.104212 1.000000
0.773604 0.104212 1.000000
0.935767 0.104212 1.000000
1.000000 0.124960 0.970950
0.000000 0.315000 0.814212
0.000000 0.280726 0.967360
0.120242 0.258888 1.000000
0.275254 0.249212 1.000000
0.441338 0.249212 1.000000
0.605839 0.249212 1.000000
0.770340 0.249212 1.000000
0.934841 0.249212 1.000000
1.000000 0.269960 0.970869
0.000000 0.420000 0.814212
0.000000 0.425147 0.967360
0.120242 0.414767 1.000000
0.273125 0.405384 1.000000
0.431736 0.397114 0.997098
0.598210 0.397114 0.997098
0.764684 0.397114 0.997098
0.931158 0.397114 0.997098
1.000000 0.414960 0.970748
0.000000 0.523740 0.814212
0.000000 0.567834 0.967360
0.120242 0.568776 1.000000
0.273125 0.561862 1.000000
0.430378 0.553539 0.995248
0.591769 0.548776 0.988696
0.757424 0.548776 0.988696
0.923079 0.548776 0.988696
1.000000 0.558220 0.970548
0.000000 0.627480 0.814212
0.000000 0.710522 0.967360
0.120242 0.722785 1.000000
0.273125 0.718340 1.000000
0.430378 0.711292 0.995248
0.590255 0.704157 0.986419
0.751328 0.700271 0.980461
0.915451 0.700271 0.980461
1.000000 0.701480 0.970148
0.000000 0.731220 0.814212
0.000000 0.853210 0.967360
0.120242 0.876793 1.000000
0.273125 0.874818 1.000000
0.430378 0.869045 0.995248
0.590255 0.860969 0.986419
0.749881 0.853949 0.977840
0.909316 0.851208 0.972784
1.000000 0.844740 0.968948
0.000000 0.834960 0.814212
0.000000 0.988108 0.959793
0.140990 1.000000 0.970942
0.293873 1.000000 0.970853
0.446374 1.000000 0.970713
0.597422 1.000000 0.970468
0.748470 1.000000 0.969913
0.901138 0.998380 0.966891
0.994995 0.994995 0.964353
