docs/luts/fuji_recipes/NEGAhi_GB_Muted.cube
TITLE "Fujifilm Recipe: GB Muted (NEGAhi)"
# FilmSim=NEGAhi HL=-1 SH=2 Col=-2 WB=Auto WBR=0 WBB=0
LUT_3D_SIZE 5
DOMAIN_MIN 0.0 0.0 0.0
DOMAIN_MAX 1.0 1.0 1.0
0.000000 0.000000 0.000000
0.189556 0.041610 0.041610
0.411756 0.090385 0.090385
0.602935 0.132351 0.132351
0.790775 0.173585 0.173585
0.041400 0.188600 0.041400
0.189556 0.188810 0.041610
0.411756 0.237585 0.090385
0.602935 0.279551 0.132351
0.790775 0.320785 0.173585
0.082800 0.377200 0.082800
0.230746 0.377200 0.082800
0.411756 0.384785 0.090385
0.602935 0.426751 0.132351
0.790775 0.467985 0.173585
0.131792 0.600388 0.131792
0.279738 0.600388 0.131792
0.453163 0.600388 0.131792
0.602935 0.600947 0.132351
0.790775 0.642180 0.173585
0.173585 0.790775 0.173585
0.321531 0.790775 0.173585
0.494955 0.790775 0.173585
0.644168 0.790775 0.173585
0.790775 0.790775 0.173585
0.041400 0.041400 0.188600
0.189556 0.041610 0.188810
0.411756 0.090385 0.237585
0.602935 0.132351 0.279551
0.790775 0.173585 0.320785
0.041400 0.188600 0.188600
0.230956 0.230210 0.230210
0.453156 0.278985 0.278985
0.644335 0.320951 0.320951
0.832175 0.362185 0.362185
0.082800 0.377200 0.230000
0.272146 0.418600 0.271400
0.453156 0.426185 0.278985
0.644335 0.468151 0.320951
0.832175 0.509385 0.362185
0.131792 0.600388 0.278992
0.321138 0.641788 0.320392
0.494563 0.641788 0.320392
0.644335 0.642347 0.320951
0.832175 0.683580 0.362185
0.173585 0.790775 0.320785
0.362931 0.832175 0.362185
0.536355 0.832175 0.362185
0.685568 0.832175 0.362185
0.832175 0.832175 0.362185
0.082800 0.082800 0.377200
0.230746 0.082800 0.377200
0.411756 0.090385 0.384785
0.602935 0.132351 0.426751
0.790775 0.173585 0.467985
0.082800 0.230000 0.377200
0.272146 0.271400 0.418600
0.453156 0.278985 0.426185
0.644335 0.320951 0.468151
0.832175 0.362185 0.509385
0.082800 0.377200 0.377200
0.272356 0.418810 0.418810
0.494556 0.467585 0.467585
0.685735 0.509551 0.509551
0.873575 0.550785 0.550785
0.131792 0.600388 0.426192
0.321348 0.641997 0.467802
0.535963 0.683188 0.508992
0.685735 0.683747 0.509551
0.873575 0.724980 0.550785
0.173585 0.790775 0.467985
0.363141 0.832385 0.509595
0.577755 0.873575 0.550785
0.726968 0.873575 0.550785
0.873575 0.873575 0.550785
0.131792 0.131792 0.600388
0.279738 0.131792 0.600388
0.453163 0.131792 0.600388
0.602935 0.132351 0.600947
0.790775 0.173585 0.642180
0.131792 0.278992 0.600388
0.321138 0.320392 0.641788
0.494563 0.320392 0.641788
0.644335 0.320951 0.642347
0.832175 0.362185 0.683580
0.131792 0.426192 0.600388
0.321348 0.467802 0.641997
0.535963 0.508992 0.683188
0.685735 0.509551 0.683747
0.873575 0.550785 0.724980
0.131792 0.600388 0.600388
0.321348 0.641997 0.641997
0.543548 0.690773 0.690773
0.734727 0.732739 0.732739
0.922568 0.773972 0.773972
0.173585 0.790775 0.642180
0.363141 0.832385 0.683790
0.585341 0.881161 0.732565
0.775960 0.922568 0.773972
0.922568 0.922568 0.773972
0.173585 0.173585 0.790775
0.321531 0.173585 0.790775
0.494955 0.173585 0.790775
0.644168 0.173585 0.790775
0.790775 0.173585 0.790775
0.173585 0.320785 0.790775
0.362931 0.362185 0.832175
0.536355 0.362185 0.832175
0.685568 0.362185 0.832175
0.832175 0.362185 0.832175
0.173585 0.467985 0.790775
0.363141 0.509595 0.832385
0.577755 0.550785 0.873575
0.726968 0.550785 0.873575
0.873575 0.550785 0.873575
0.173585 0.642180 0.790775
0.363141 0.683790 0.832385
0.585341 0.732565 0.881161
0.775960 0.773972 0.922568
0.922568 0.773972 0.922568
0.173585 0.790775 0.790775
0.363141 0.832385 0.832385
0.585341 0.881161 0.881161
0.776519 0.923127 0.923127
0.964360 0.964360 0.964360
