docs/luts/fuji_recipes/NEGAhi_RR_Faded_Color_Vintage_1_2.cube
TITLE "Fujifilm Recipe: RR Faded Color Vintage 1/2 (NEGAhi)"
# FilmSim=NEGAhi HL=4 SH=4 Col=4 WB=Auto WBR=-5 WBB=5
LUT_3D_SIZE 33
DOMAIN_MIN 0.0 0.0 0.0
DOMAIN_MAX 1.0 1.0 1.0
0.000000 0.000000 0.000000
0.030552 0.000000 0.000000
0.054461 0.000000 0.000000
0.077971 0.000000 0.000000
0.101481 0.000000 0.000000
0.124992 0.000000 0.000000
0.148502 0.000000 0.000000
0.172012 0.000000 0.000000
0.195522 0.000000 0.000000
0.219032 0.000000 0.000000
0.242542 0.000000 0.000000
0.266052 0.000000 0.000000
0.289562 0.000000 0.000000
0.313072 0.000000 0.000000
0.336583 0.000000 0.000000
0.429950 0.000000 0.000000
0.462027 0.000000 0.000000
0.494104 0.000000 0.000000
0.526180 0.000000 0.000000
0.558257 0.000000 0.000000
0.590334 0.000000 0.000000
0.622411 0.000000 0.000000
0.654487 0.000000 0.000000
0.686564 0.000000 0.000000
0.718641 0.000000 0.000000
0.750718 0.000000 0.000000
0.782794 0.000000 0.000000
0.784735 0.000000 0.000000
0.784735 0.000000 0.000000
0.784735 0.000000 0.000000
0.784735 0.000000 0.000000
0.784735 0.000000 0.000000
0.784735 0.000000 0.000000
0.000000 0.034589 0.000000
0.030552 0.034589 0.000000
0.054461 0.034589 0.000000
0.077971 0.034589 0.000000
0.101481 0.034589 0.000000
0.124992 0.034589 0.000000
0.148502 0.034589 0.000000
0.172012 0.034589 0.000000
0.195522 0.034589 0.000000
0.219032 0.034589 0.000000
0.242542 0.034589 0.000000
0.266052 0.034589 0.000000
0.289562 0.034589 0.000000
0.313072 0.034589 0.000000
0.336583 0.034589 0.000000
0.429950 0.034589 0.000000
0.462027 0.034589 0.000000
0.494104 0.034589 0.000000
0.526180 0.034589 0.000000
0.558257 0.034589 0.000000
0.590334 0.034589 0.000000
0.622411 0.034589 0.000000
0.654487 0.034589 0.000000
0.686564 0.034589 0.000000
0.718641 0.034589 0.000000
0.750718 0.034589 0.000000
0.782794 0.034589 0.000000
0.784735 0.034589 0.000000
0.784735 0.034589 0.000000
0.784735 0.034589 0.000000
0.784735 0.034589 0.000000
0.784735 0.034589 0.000000
0.784735 0.034589 0.000000
0.000000 0.061800 0.000000
0.030552 0.061800 0.000000
0.054461 0.061800 0.000000
0.077971 0.061800 0.000000
0.101481 0.061800 0.000000
0.124992 0.061800 0.000000
0.148502 0.061800 0.000000
0.172012 0.061800 0.000000
0.195522 0.061800 0.000000
0.219032 0.061800 0.000000
0.242542 0.061800 0.000000
0.266052 0.061800 0.000000
0.289562 0.061800 0.000000
0.313072 0.061800 0.000000
0.336583 0.061800 0.000000
0.429950 0.061800 0.000000
0.462027 0.061800 0.000000
0.494104 0.061800 0.000000
0.526180 0.061800 0.000000
0.558257 0.061800 0.000000
0.590334 0.061800 0.000000
0.622411 0.061800 0.000000
0.654487 0.061800 0.000000
0.686564 0.061800 0.000000
0.718641 0.061800 0.000000
0.750718 0.061800 0.000000
0.782794 0.061800 0.000000
0.784735 0.061800 0.000000
0.784735 0.061800 0.000000
0.784735 0.061800 0.000000
0.784735 0.061800 0.000000
0.784735 0.061800 0.000000
0.784735 0.061800 0.000000
0.000000 0.088558 0.000000
0.030552 0.088558 0.000000
0.054461 0.088558 0.000000
0.077971 0.088558 0.000000
0.101481 0.088558 0.000000
0.124992 0.088558 0.000000
0.148502 0.088558 0.000000
0.172012 0.088558 0.000000
0.195522 0.088558 0.000000
0.219032 0.088558 0.000000
0.242542 0.088558 0.000000
0.266052 0.088558 0.000000
0.289562 0.088558 0.000000
0.313072 0.088558 0.000000
0.336583 0.088558 0.000000
0.429950 0.088558 0.000000
0.462027 0.088558 0.000000
0.494104 0.088558 0.000000
0.526180 0.088558 0.000000
0.558257 0.088558 0.000000
0.590334 0.088558 0.000000
0.622411 0.088558 0.000000
0.654487 0.088558 0.000000
0.686564 0.088558 0.000000
0.718641 0.088558 0.000000
0.750718 0.088558 0.000000
0.782794 0.088558 0.000000
0.784735 0.088558 0.000000
0.784735 0.088558 0.000000
0.784735 0.088558 0.000000
0.784735 0.088558 0.000000
0.784735 0.088558 0.000000
0.784735 0.088558 0.000000
0.000000 0.115315 0.000000
0.030552 0.115315 0.000000
0.054461 0.115315 0.000000
0.077971 0.115315 0.000000
0.101481 0.115315 0.000000
0.124992 0.115315 0.000000
0.148502 0.115315 0.000000
0.172012 0.115315 0.000000
0.195522 0.115315 0.000000
0.219032 0.115315 0.000000
0.242542 0.115315 0.000000
0.266052 0.115315 0.000000
0.289562 0.115315 0.000000
0.313072 0.115315 0.000000
0.336583 0.115315 0.000000
0.429950 0.115315 0.000000
0.462027 0.115315 0.000000
0.494104 0.115315 0.000000
0.526180 0.115315 0.000000
0.558257 0.115315 0.000000
0.590334 0.115315 0.000000
0.622411 0.115315 0.000000
0.654487 0.115315 0.000000
0.686564 0.115315 0.000000
0.718641 0.115315 0.000000
0.750718 0.115315 0.000000
0.782794 0.115315 0.000000
0.784735 0.115315 0.000000
0.784735 0.115315 0.000000
0.784735 0.115315 0.000000
0.784735 0.115315 0.000000
0.784735 0.115315 0.000000
0.784735 0.115315 0.000000
0.000000 0.142073 0.000000
0.030552 0.142073 0.000000
0.054461 0.142073 0.000000
0.077971 0.142073 0.000000
0.101481 0.142073 0.000000
0.124992 0.142073 0.000000
0.148502 0.142073 0.000000
0.172012 0.142073 0.000000
0.195522 0.142073 0.000000
0.219032 0.142073 0.000000
0.242542 0.142073 0.000000
0.266052 0.142073 0.000000
0.289562 0.142073 0.000000
0.313072 0.142073 0.000000
0.336583 0.142073 0.000000
0.429950 0.142073 0.000000
0.462027 0.142073 0.000000
0.494104 0.142073 0.000000
0.526180 0.142073 0.000000
0.558257 0.142073 0.000000
0.590334 0.142073 0.000000
0.622411 0.142073 0.000000
0.654487 0.142073 0.000000
0.686564 0.142073 0.000000
0.718641 0.142073 0.000000
0.750718 0.142073 0.000000
0.782794 0.142073 0.000000
0.784735 0.142073 0.000000
0.784735 0.142073 0.000000
0.784735 0.142073 0.000000
0.784735 0.142073 0.000000
0.784735 0.142073 0.000000
0.784735 0.142073 0.000000
0.000000 0.168830 0.000000
0.030552 0.168830 0.000000
0.054461 0.168830 0.000000
0.077971 0.168830 0.000000
0.101481 0.168830 0.000000
0.124992 0.168830 0.000000
0.148502 0.168830 0.000000
0.172012 0.168830 0.000000
0.195522 0.168830 0.000000
0.219032 0.168830 0.000000
0.242542 0.168830 0.000000
0.266052 0.168830 0.000000
0.289562 0.168830 0.000000
0.313072 0.168830 0.000000
0.336583 0.168830 0.000000
0.429950 0.168830 0.000000
0.462027 0.168830 0.000000
0.494104 0.168830 0.000000
0.526180 0.168830 0.000000
0.558257 0.168830 0.000000
0.590334 0.168830 0.000000
0.622411 0.168830 0.000000
0.654487 0.168830 0.000000
0.686564 0.168830 0.000000
0.718641 0.168830 0.000000
0.750718 0.168830 0.000000
0.782794 0.168830 0.000000
0.784735 0.168830 0.000000
0.784735 0.168830 0.000000
0.784735 0.168830 0.000000
0.784735 0.168830 0.000000
0.784735 0.168830 0.000000
0.784735 0.168830 0.000000
0.000000 0.195588 0.000000
0.030552 0.195588 0.000000
0.054461 0.195588 0.000000
0.077971 0.195588 0.000000
0.101481 0.195588 0.000000
0.124992 0.195588 0.000000
0.148502 0.195588 0.000000
0.172012 0.195588 0.000000
0.195522 0.195588 0.000000
0.219032 0.195588 0.000000
0.242542 0.195588 0.000000
0.266052 0.195588 0.000000
0.289562 0.195588 0.000000
0.313072 0.195588 0.000000
0.336583 0.195588 0.000000
0.429950 0.195588 0.000000
0.462027 0.195588 0.000000
0.494104 0.195588 0.000000
0.526180 0.195588 0.000000
0.558257 0.195588 0.000000
0.590334 0.195588 0.000000
0.622411 0.195588 0.000000
0.654487 0.195588 0.000000
0.686564 0.195588 0.000000
0.718641 0.195588 0.000000
0.750718 0.195588 0.000000
0.782794 0.195588 0.000000
0.784735 0.195588 0.000000
0.784735 0.195588 0.000000
0.784735 0.195588 0.000000
0.784735 0.195588 0.000000
0.784735 0.195588 0.000000
0.784735 0.195588 0.000000
0.000000 0.222346 0.000000
0.030552 0.222346 0.000000
0.054461 0.222346 0.000000
0.077971 0.222346 0.000000
0.101481 0.222346 0.000000
0.124992 0.222346 0.000000
0.148502 0.222346 0.000000
0.172012 0.222346 0.000000
0.195522 0.222346 0.000000
0.219032 0.222346 0.000000
0.242542 0.222346 0.000000
0.266052 0.222346 0.000000
0.289562 0.222346 0.000000
0.313072 0.222346 0.000000
0.336583 0.222346 0.000000
0.429950 0.222346 0.000000
0.462027 0.222346 0.000000
0.494104 0.222346 0.000000
0.526180 0.222346 0.000000
0.558257 0.222346 0.000000
0.590334 0.222346 0.000000
0.622411 0.222346 0.000000
0.654487 0.222346 0.000000
0.686564 0.222346 0.000000
0.718641 0.222346 0.000000
0.750718 0.222346 0.000000
0.782794 0.222346 0.000000
0.784735 0.222346 0.000000
0.784735 0.222346 0.000000
0.784735 0.222346 0.000000
0.784735 0.222346 0.000000
0.784735 0.222346 0.000000
0.784735 0.222346 0.000000
0.000000 0.249103 0.000000
0.030552 0.249103 0.000000
0.054461 0.249103 0.000000
0.077971 0.249103 0.000000
0.101481 0.249103 0.000000
0.124992 0.249103 0.000000
0.148502 0.249103 0.000000
0.172012 0.249103 0.000000
0.195522 0.249103 0.000000
0.219032 0.249103 0.000000
0.242542 0.249103 0.000000
0.266052 0.249103 0.000000
0.289562 0.249103 0.000000
0.313072 0.249103 0.000000
0.336583 0.249103 0.000000
0.429950 0.249103 0.000000
0.462027 0.249103 0.000000
0.494104 0.249103 0.000000
0.526180 0.249103 0.000000
0.558257 0.249103 0.000000
0.590334 0.249103 0.000000
0.622411 0.249103 0.000000
0.654487 0.249103 0.000000
0.686564 0.249103 0.000000
0.718641 0.249103 0.000000
0.750718 0.249103 0.000000
0.782794 0.249103 0.000000
0.784735 0.249103 0.000000
0.784735 0.249103 0.000000
0.784735 0.249103 0.000000
0.784735 0.249103 0.000000
0.784735 0.249103 0.000000
0.784735 0.249103 0.000000
0.000000 0.275861 0.000000
0.030552 0.275861 0.000000
0.054461 0.275861 0.000000
0.077971 0.275861 0.000000
0.101481 0.275861 0.000000
0.124992 0.275861 0.000000
0.148502 0.275861 0.000000
0.172012 0.275861 0.000000
0.195522 0.275861 0.000000
0.219032 0.275861 0.000000
0.242542 0.275861 0.000000
0.266052 0.275861 0.000000
0.289562 0.275861 0.000000
0.313072 0.275861 0.000000
0.336583 0.275861 0.000000
0.429950 0.275861 0.000000
0.462027 0.275861 0.000000
0.494104 0.275861 0.000000
0.526180 0.275861 0.000000
0.558257 0.275861 0.000000
0.590334 0.275861 0.000000
0.622411 0.275861 0.000000
0.654487 0.275861 0.000000
0.686564 0.275861 0.000000
0.718641 0.275861 0.000000
0.750718 0.275861 0.000000
0.782794 0.275861 0.000000
0.784735 0.275861 0.000000
0.784735 0.275861 0.000000
0.784735 0.275861 0.000000
0.784735 0.275861 0.000000
0.784735 0.275861 0.000000
0.784735 0.275861 0.000000
0.000000 0.302618 0.000000
0.030552 0.302618 0.000000
0.054461 0.302618 0.000000
0.077971 0.302618 0.000000
0.101481 0.302618 0.000000
0.124992 0.302618 0.000000
0.148502 0.302618 0.000000
0.172012 0.302618 0.000000
0.195522 0.302618 0.000000
0.219032 0.302618 0.000000
0.242542 0.302618 0.000000
0.266052 0.302618 0.000000
0.289562 0.302618 0.000000
0.313072 0.302618 0.000000
0.336583 0.302618 0.000000
0.429950 0.302618 0.000000
0.462027 0.302618 0.000000
0.494104 0.302618 0.000000
0.526180 0.302618 0.000000
0.558257 0.302618 0.000000
0.590334 0.302618 0.000000
0.622411 0.302618 0.000000
0.654487 0.302618 0.000000
0.686564 0.302618 0.000000
0.718641 0.302618 0.000000
0.750718 0.302618 0.000000
0.782794 0.302618 0.000000
0.784735 0.302618 0.000000
0.784735 0.302618 0.000000
0.784735 0.302618 0.000000
0.784735 0.302618 0.000000
0.784735 0.302618 0.000000
0.784735 0.302618 0.000000
0.000000 0.329376 0.000000
0.030552 0.329376 0.000000
0.054461 0.329376 0.000000
0.077971 0.329376 0.000000
0.101481 0.329376 0.000000
0.124992 0.329376 0.000000
0.148502 0.329376 0.000000
0.172012 0.329376 0.000000
0.195522 0.329376 0.000000
0.219032 0.329376 0.000000
0.242542 0.329376 0.000000
0.266052 0.329376 0.000000
0.289562 0.329376 0.000000
0.313072 0.329376 0.000000
0.336583 0.329376 0.000000
0.429950 0.329376 0.000000
0.462027 0.329376 0.000000
0.494104 0.329376 0.000000
0.526180 0.329376 0.000000
0.558257 0.329376 0.000000
0.590334 0.329376 0.000000
0.622411 0.329376 0.000000
0.654487 0.329376 0.000000
0.686564 0.329376 0.000000
0.718641 0.329376 0.000000
0.750718 0.329376 0.000000
0.782794 0.329376 0.000000
0.784735 0.329376 0.000000
0.784735 0.329376 0.000000
0.784735 0.329376 0.000000
0.784735 0.329376 0.000000
0.784735 0.329376 0.000000
0.784735 0.329376 0.000000
0.000000 0.424548 0.000000
0.030552 0.424548 0.000000
0.054461 0.424548 0.000000
0.077971 0.424548 0.000000
0.101481 0.424548 0.000000
0.124992 0.424548 0.000000
0.148502 0.424548 0.000000
0.172012 0.424548 0.000000
0.195522 0.424548 0.000000
0.219032 0.424548 0.000000
0.242542 0.424548 0.000000
0.266052 0.424548 0.000000
0.289562 0.424548 0.000000
0.313072 0.424548 0.000000
0.336583 0.424548 0.000000
0.429950 0.424548 0.000000
0.462027 0.424548 0.000000
0.494104 0.424548 0.000000
0.526180 0.424548 0.000000
0.558257 0.424548 0.000000
0.590334 0.424548 0.000000
0.622411 0.424548 0.000000
0.654487 0.424548 0.000000
0.686564 0.424548 0.000000
0.718641 0.424548 0.000000
0.750718 0.424548 0.000000
0.782794 0.424548 0.000000
0.784735 0.424548 0.000000
0.784735 0.424548 0.000000
0.784735 0.424548 0.000000
0.784735 0.424548 0.000000
0.784735 0.424548 0.000000
0.784735 0.424548 0.000000
0.000000 0.461055 0.000000
0.030552 0.461055 0.000000
0.054461 0.461055 0.000000
0.077971 0.461055 0.000000
0.101481 0.461055 0.000000
0.124992 0.461055 0.000000
0.148502 0.461055 0.000000
0.172012 0.461055 0.000000
0.195522 0.461055 0.000000
0.219032 0.461055 0.000000
0.242542 0.461055 0.000000
0.266052 0.461055 0.000000
0.289562 0.461055 0.000000
0.313072 0.461055 0.000000
0.336583 0.461055 0.000000
0.429950 0.461055 0.000000
0.462027 0.461055 0.000000
0.494104 0.461055 0.000000
0.526180 0.461055 0.000000
0.558257 0.461055 0.000000
0.590334 0.461055 0.000000
0.622411 0.461055 0.000000
0.654487 0.461055 0.000000
0.686564 0.461055 0.000000
0.718641 0.461055 0.000000
0.750718 0.461055 0.000000
0.782794 0.461055 0.000000
0.784735 0.461055 0.000000
0.784735 0.461055 0.000000
0.784735 0.461055 0.000000
0.784735 0.461055 0.000000
0.784735 0.461055 0.000000
0.784735 0.461055 0.000000
0.000000 0.497563 0.000000
0.030552 0.497563 0.000000
0.054461 0.497563 0.000000
0.077971 0.497563 0.000000
0.101481 0.497563 0.000000
0.124992 0.497563 0.000000
0.148502 0.497563 0.000000
0.172012 0.497563 0.000000
0.195522 0.497563 0.000000
0.219032 0.497563 0.000000
0.242542 0.497563 0.000000
0.266052 0.497563 0.000000
0.289562 0.497563 0.000000
0.313072 0.497563 0.000000
0.336583 0.497563 0.000000
0.429950 0.497563 0.000000
0.462027 0.497563 0.000000
0.494104 0.497563 0.000000
0.526180 0.497563 0.000000
0.558257 0.497563 0.000000
0.590334 0.497563 0.000000
0.622411 0.497563 0.000000
0.654487 0.497563 0.000000
0.686564 0.497563 0.000000
0.718641 0.497563 0.000000
0.750718 0.497563 0.000000
0.782794 0.497563 0.000000
0.784735 0.497563 0.000000
0.784735 0.497563 0.000000
0.784735 0.497563 0.000000
0.784735 0.497563 0.000000
0.784735 0.497563 0.000000
0.784735 0.497563 0.000000
0.000000 0.534070 0.000000
0.030552 0.534070 0.000000
0.054461 0.534070 0.000000
0.077971 0.534070 0.000000
0.101481 0.534070 0.000000
0.124992 0.534070 0.000000
0.148502 0.534070 0.000000
0.172012 0.534070 0.000000
0.195522 0.534070 0.000000
0.219032 0.534070 0.000000
0.242542 0.534070 0.000000
0.266052 0.534070 0.000000
0.289562 0.534070 0.000000
0.313072 0.534070 0.000000
0.336583 0.534070 0.000000
0.429950 0.534070 0.000000
0.462027 0.534070 0.000000
0.494104 0.534070 0.000000
0.526180 0.534070 0.000000
0.558257 0.534070 0.000000
0.590334 0.534070 0.000000
0.622411 0.534070 0.000000
0.654487 0.534070 0.000000
0.686564 0.534070 0.000000
0.718641 0.534070 0.000000
0.750718 0.534070 0.000000
0.782794 0.534070 0.000000
0.784735 0.534070 0.000000
0.784735 0.534070 0.000000
0.784735 0.534070 0.000000
0.784735 0.534070 0.000000
0.784735 0.534070 0.000000
0.784735 0.534070 0.000000
0.000000 0.570578 0.000000
0.030552 0.570578 0.000000
0.054461 0.570578 0.000000
0.077971 0.570578 0.000000
0.101481 0.570578 0.000000
0.124992 0.570578 0.000000
0.148502 0.570578 0.000000
0.172012 0.570578 0.000000
0.195522 0.570578 0.000000
0.219032 0.570578 0.000000
0.242542 0.570578 0.000000
0.266052 0.570578 0.000000
0.289562 0.570578 0.000000
0.313072 0.570578 0.000000
0.336583 0.570578 0.000000
0.429950 0.570578 0.000000
0.462027 0.570578 0.000000
0.494104 0.570578 0.000000
0.526180 0.570578 0.000000
0.558257 0.570578 0.000000
0.590334 0.570578 0.000000
0.622411 0.570578 0.000000
0.654487 0.570578 0.000000
0.686564 0.570578 0.000000
0.718641 0.570578 0.000000
0.750718 0.570578 0.000000
0.782794 0.570578 0.000000
0.784735 0.570578 0.000000
0.784735 0.570578 0.000000
0.784735 0.570578 0.000000
0.784735 0.570578 0.000000
0.784735 0.570578 0.000000
0.784735 0.570578 0.000000
0.000000 0.607085 0.000000
0.030552 0.607085 0.000000
0.054461 0.607085 0.000000
0.077971 0.607085 0.000000
0.101481 0.607085 0.000000
0.124992 0.607085 0.000000
0.148502 0.607085 0.000000
0.172012 0.607085 0.000000
0.195522 0.607085 0.000000
0.219032 0.607085 0.000000
0.242542 0.607085 0.000000
0.266052 0.607085 0.000000
0.289562 0.607085 0.000000
0.313072 0.607085 0.000000
0.336583 0.607085 0.000000
0.429950 0.607085 0.000000
0.462027 0.607085 0.000000
0.494104 0.607085 0.000000
0.526180 0.607085 0.000000
0.558257 0.607085 0.000000
0.590334 0.607085 0.000000
0.622411 0.607085 0.000000
0.654487 0.607085 0.000000
0.686564 0.607085 0.000000
0.718641 0.607085 0.000000
0.750718 0.607085 0.000000
0.782794 0.607085 0.000000
0.784735 0.607085 0.000000
0.784735 0.607085 0.000000
0.784735 0.607085 0.000000
0.784735 0.607085 0.000000
0.784735 0.607085 0.000000
0.784735 0.607085 0.000000
0.000000 0.643593 0.000000
0.030552 0.643593 0.000000
0.054461 0.643593 0.000000
0.077971 0.643593 0.000000
0.101481 0.643593 0.000000
0.124992 0.643593 0.000000
0.148502 0.643593 0.000000
0.172012 0.643593 0.000000
0.195522 0.643593 0.000000
0.219032 0.643593 0.000000
0.242542 0.643593 0.000000
0.266052 0.643593 0.000000
0.289562 0.643593 0.000000
0.313072 0.643593 0.000000
0.336583 0.643593 0.000000
0.429950 0.643593 0.000000
0.462027 0.643593 0.000000
0.494104 0.643593 0.000000
0.526180 0.643593 0.000000
0.558257 0.643593 0.000000
0.590334 0.643593 0.000000
0.622411 0.643593 0.000000
0.654487 0.643593 0.000000
0.686564 0.643593 0.000000
0.718641 0.643593 0.000000
0.750718 0.643593 0.000000
0.782794 0.643593 0.000000
0.784735 0.643593 0.000000
0.784735 0.643593 0.000000
0.784735 0.643593 0.000000
0.784735 0.643593 0.000000
0.784735 0.643593 0.000000
0.784735 0.643593 0.000000
0.000000 0.680100 0.000000
0.030552 0.680100 0.000000
0.054461 0.680100 0.000000
0.077971 0.680100 0.000000
0.101481 0.680100 0.000000
0.124992 0.680100 0.000000
0.148502 0.680100 0.000000
0.172012 0.680100 0.000000
0.195522 0.680100 0.000000
0.219032 0.680100 0.000000
0.242542 0.680100 0.000000
0.266052 0.680100 0.000000
0.289562 0.680100 0.000000
0.313072 0.680100 0.000000
0.336583 0.680100 0.000000
0.429950 0.680100 0.000000
0.462027 0.680100 0.000000
0.494104 0.680100 0.000000
0.526180 0.680100 0.000000
0.558257 0.680100 0.000000
0.590334 0.680100 0.000000
0.622411 0.680100 0.000000
0.654487 0.680100 0.000000
0.686564 0.680100 0.000000
0.718641 0.680100 0.000000
0.750718 0.680100 0.000000
0.782794 0.680100 0.000000
0.784735 0.680100 0.000000
0.784735 0.680100 0.000000
0.784735 0.680100 0.000000
0.784735 0.680100 0.000000
0.784735 0.680100 0.000000
0.784735 0.680100 0.000000
0.000000 0.716608 0.000000
0.030552 0.716608 0.000000
0.054461 0.716608 0.000000
0.077971 0.716608 0.000000
0.101481 0.716608 0.000000
0.124992 0.716608 0.000000
0.148502 0.716608 0.000000
0.172012 0.716608 0.000000
0.195522 0.716608 0.000000
0.219032 0.716608 0.000000
0.242542 0.716608 0.000000
0.266052 0.716608 0.000000
0.289562 0.716608 0.000000
0.313072 0.716608 0.000000
0.336583 0.716608 0.000000
0.429950 0.716608 0.000000
0.462027 0.716608 0.000000
0.494104 0.716608 0.000000
0.526180 0.716608 0.000000
0.558257 0.716608 0.000000
0.590334 0.716608 0.000000
0.622411 0.716608 0.000000
0.654487 0.716608 0.000000
0.686564 0.716608 0.000000
0.718641 0.716608 0.000000
0.750718 0.716608 0.000000
0.782794 0.716608 0.000000
0.784735 0.716608 0.000000
0.784735 0.716608 0.000000
0.784735 0.716608 0.000000
0.784735 0.716608 0.000000
0.784735 0.716608 0.000000
0.784735 0.716608 0.000000
0.000000 0.753115 0.000000
0.030552 0.753115 0.000000
0.054461 0.753115 0.000000
0.077971 0.753115 0.000000
0.101481 0.753115 0.000000
0.124992 0.753115 0.000000
0.148502 0.753115 0.000000
0.172012 0.753115 0.000000
0.195522 0.753115 0.000000
0.219032 0.753115 0.000000
0.242542 0.753115 0.000000
0.266052 0.753115 0.000000
0.289562 0.753115 0.000000
0.313072 0.753115 0.000000
0.336583 0.753115 0.000000
0.429950 0.753115 0.000000
0.462027 0.753115 0.000000
0.494104 0.753115 0.000000
0.526180 0.753115 0.000000
0.558257 0.753115 0.000000
0.590334 0.753115 0.000000
0.622411 0.753115 0.000000
0.654487 0.753115 0.000000
0.686564 0.753115 0.000000
0.718641 0.753115 0.000000
0.750718 0.753115 0.000000
0.782794 0.753115 0.000000
0.784735 0.753115 0.000000
0.784735 0.753115 0.000000
0.784735 0.753115 0.000000
0.784735 0.753115 0.000000
0.784735 0.753115 0.000000
0.784735 0.753115 0.000000
0.000000 0.789623 0.000000
0.030552 0.789623 0.000000
0.054461 0.789623 0.000000
0.077971 0.789623 0.000000
0.101481 0.789623 0.000000
0.124992 0.789623 0.000000
0.148502 0.789623 0.000000
0.172012 0.789623 0.000000
0.195522 0.789623 0.000000
0.219032 0.789623 0.000000
0.242542 0.789623 0.000000
0.266052 0.789623 0.000000
0.289562 0.789623 0.000000
0.313072 0.789623 0.000000
0.336583 0.789623 0.000000
0.429950 0.789623 0.000000
0.462027 0.789623 0.000000
0.494104 0.789623 0.000000
0.526180 0.789623 0.000000
0.558257 0.789623 0.000000
0.590334 0.789623 0.000000
0.622411 0.789623 0.000000
0.654487 0.789623 0.000000
0.686564 0.789623 0.000000
0.718641 0.789623 0.000000
0.750718 0.789623 0.000000
0.782794 0.789623 0.000000
0.784735 0.789623 0.000000
0.784735 0.789623 0.000000
0.784735 0.789623 0.000000
0.784735 0.789623 0.000000
0.784735 0.789623 0.000000
0.784735 0.789623 0.000000
0.000000 0.826130 0.000000
0.030552 0.826130 0.000000
0.054461 0.826130 0.000000
0.077971 0.826130 0.000000
0.101481 0.826130 0.000000
0.124992 0.826130 0.000000
0.148502 0.826130 0.000000
0.172012 0.826130 0.000000
0.195522 0.826130 0.000000
0.219032 0.826130 0.000000
0.242542 0.826130 0.000000
0.266052 0.826130 0.000000
0.289562 0.826130 0.000000
0.313072 0.826130 0.000000
0.336583 0.826130 0.000000
0.429950 0.826130 0.000000
0.462027 0.826130 0.000000
0.494104 0.826130 0.000000
0.526180 0.826130 0.000000
0.558257 0.826130 0.000000
0.590334 0.826130 0.000000
0.622411 0.826130 0.000000
0.654487 0.826130 0.000000
0.686564 0.826130 0.000000
0.718641 0.826130 0.000000
0.750718 0.826130 0.000000
0.782794 0.826130 0.000000
0.784735 0.826130 0.000000
0.784735 0.826130 0.000000
0.784735 0.826130 0.000000
0.784735 0.826130 0.000000
0.784735 0.826130 0.000000
0.784735 0.826130 0.000000
0.000000 0.840000 0.000000
0.030552 0.840000 0.000000
0.054461 0.840000 0.000000
0.077971 0.840000 0.000000
0.101481 0.840000 0.000000
0.124992 0.840000 0.000000
0.148502 0.840000 0.000000
0.172012 0.840000 0.000000
0.195522 0.840000 0.000000
0.219032 0.840000 0.000000
0.242542 0.840000 0.000000
0.266052 0.840000 0.000000
0.289562 0.840000 0.000000
0.313072 0.840000 0.000000
0.336583 0.840000 0.000000
0.429950 0.840000 0.000000
0.462027 0.840000 0.000000
0.494104 0.840000 0.000000
0.526180 0.840000 0.000000
0.558257 0.840000 0.000000
0.590334 0.840000 0.000000
0.622411 0.840000 0.000000
0.654487 0.840000 0.000000
0.686564 0.840000 0.000000
0.718641 0.840000 0.000000
0.750718 0.840000 0.000000
0.782794 0.840000 0.000000
0.784735 0.840000 0.000000
0.784735 0.840000 0.000000
0.784735 0.840000 0.000000
0.784735 0.840000 0.000000
0.784735 0.840000 0.000000
0.784735 0.840000 0.000000
0.000000 0.840000 0.000000
0.030552 0.840000 0.000000
0.054461 0.840000 0.000000
0.077971 0.840000 0.000000
0.101481 0.840000 0.000000
0.124992 0.840000 0.000000
0.148502 0.840000 0.000000
0.172012 0.840000 0.000000
0.195522 0.840000 0.000000
0.219032 0.840000 0.000000
0.242542 0.840000 0.000000
0.266052 0.840000 0.000000
0.289562 0.840000 0.000000
0.313072 0.840000 0.000000
0.336583 0.840000 0.000000
0.429950 0.840000 0.000000
0.462027 0.840000 0.000000
0.494104 0.840000 0.000000
0.526180 0.840000 0.000000
0.558257 0.840000 0.000000
0.590334 0.840000 0.000000
0.622411 0.840000 0.000000
0.654487 0.840000 0.000000
0.686564 0.840000 0.000000
