docs/luts/fuji_recipes/NEGA_MT_Pro_Neg_Hich_I.cube
TITLE "Fujifilm Recipe: MT Pro Neg Hich I (NEGA)"
# FilmSim=NEGA HL=0 SH=0 Col=0 WB=Auto WBR=2 WBB=-1
LUT_3D_SIZE 9
DOMAIN_MIN 0.0 0.0 0.0
DOMAIN_MAX 1.0 1.0 1.0
0.016000 0.016000 0.016000
0.129308 0.013038 0.013038
0.240923 0.011769 0.011769
0.352408 0.010629 0.010629
0.456781 0.009596 0.009596
0.567307 0.008519 0.008519
0.677825 0.007450 0.007450
0.788337 0.006386 0.006386
0.860166 0.002311 0.002311
0.013107 0.123984 0.013107
0.129308 0.123771 0.013038
0.240923 0.120890 0.011769
0.352408 0.119130 0.010629
0.456781 0.117786 0.009596
0.567307 0.116501 0.008519
0.677825 0.115292 0.007450
0.788337 0.114126 0.006386
0.860166 0.110867 0.002311
0.011881 0.230301 0.011881
0.126552 0.230301 0.011881
0.240923 0.230011 0.011769
0.352408 0.227632 0.010629
0.456781 0.225976 0.009596
0.567307 0.224484 0.008519
0.677825 0.223134 0.007450
0.788337 0.221867 0.006386
0.860166 0.219422 0.002311
0.010789 0.336485 0.010789
0.124782 0.336485 0.010789
0.238776 0.336485 0.010789
0.352408 0.336133 0.010629
0.456781 0.334166 0.009596
0.567307 0.332467 0.008519
0.677825 0.330976 0.007450
0.788337 0.329607 0.006386
0.860166 0.327978 0.002311
0.009737 0.442464 0.009737
0.123372 0.442464 0.009737
0.237007 0.442464 0.009737
0.350642 0.442464 0.009737
0.456781 0.442187 0.009596
0.567307 0.440281 0.008519
0.677825 0.438650 0.007450
0.788337 0.437180 0.006386
0.860166 0.436364 0.002311
0.008774 0.540992 0.008774
0.122200 0.540992 0.008774
0.235626 0.540992 0.008774
0.349051 0.540992 0.008774
0.455275 0.540992 0.008774
0.567307 0.540531 0.008519
0.677825 0.538770 0.007450
0.788337 0.537205 0.006386
0.860166 0.537146 0.002311
0.007754 0.646249 0.007754
0.121026 0.646249 0.007754
0.234297 0.646249 0.007754
0.347568 0.646249 0.007754
0.453648 0.646249 0.007754
0.565998 0.646249 0.007754
0.677825 0.645735 0.007450
0.788337 0.644070 0.006386
0.860166 0.644820 0.002311
0.006740 0.751500 0.006740
0.119900 0.751500 0.006740
0.233059 0.751500 0.006740
0.346219 0.751500 0.006740
0.452194 0.751500 0.006740
0.564434 0.751500 0.006740
0.676674 0.751500 0.006740
0.788337 0.750935 0.006386
0.860166 0.752493 0.002311
0.002311 0.860166 0.002311
0.116295 0.860166 0.002311
0.230278 0.860166 0.002311
0.344261 0.860166 0.002311
0.451008 0.860166 0.002311
0.564065 0.860166 0.002311
0.677121 0.860166 0.002311
0.790178 0.860166 0.002311
0.860166 0.860166 0.002311
0.013142 0.013142 0.121322
0.129308 0.013038 0.121003
0.240923 0.011769 0.118162
0.352408 0.010629 0.116418
0.456781 0.009596 0.115081
0.567307 0.008519 0.113802
0.677825 0.007450 0.112596
0.788337 0.006386 0.111433
0.860166 0.002311 0.108153
0.013107 0.123984 0.121212
0.144735 0.139138 0.136340
0.262091 0.130966 0.127986
0.376697 0.126634 0.123726
0.482891 0.123738 0.120872
0.594740 0.121307 0.118472
0.706211 0.119262 0.116449
0.850270 0.084896 0.081839
0.995503 0.007937 0.004360
0.011881 0.230301 0.118361
0.137469 0.251068 0.128500
0.262091 0.250171 0.127986
0.376697 0.242942 0.123726
0.482891 0.238361 0.120872
0.594740 0.234710 0.118472
0.706211 0.231785 0.116449
0.850270 0.207205 0.081839
0.995503 0.151012 0.004360
0.010789 0.336485 0.116640
0.132985 0.360422 0.124238
0.255451 0.360422 0.124238
0.376697 0.359251 0.123726
0.482891 0.352984 0.120872
0.594740 0.348112 0.118472
0.706211 0.344308 0.116449
0.850270 0.329514 0.081839
0.995503 0.294087 0.004360
0.009737 0.442464 0.115255
0.129833 0.468365 0.121222
0.250391 0.468365 0.121222
0.370949 0.468365 0.121222
0.482891 0.467429 0.120872
0.594740 0.461338 0.118472
0.706211 0.456655 0.116449
0.850270 0.451632 0.081839
0.995503 0.436938 0.004360
0.008774 0.540992 0.114098
0.127526 0.568150 0.119002
0.246865 0.568150 0.119002
0.366203 0.568150 0.119002
0.477965 0.568150 0.119002
0.594740 0.566619 0.118472
0.706211 0.561120 0.116449
0.850270 0.565182 0.081839
0.995503 0.569768 0.004360
0.007754 0.646249 0.112935
0.125455 0.674391 0.116998
0.243840 0.674391 0.116998
0.362225 0.674391 0.116998
0.473094 0.674391 0.116998
0.590517 0.674391 0.116998
0.706211 0.672729 0.116449
0.850270 0.686496 0.081839
0.995503 0.711679 0.004360
0.006740 0.751500 0.111817
0.122393 0.781670 0.113956
0.240511 0.781670 0.113956
0.358630 0.781670 0.113956
0.469249 0.781670 0.113956
0.586407 0.781670 0.113956
0.703565 0.781670 0.113956
0.850270 0.807810 0.081839
0.995503 0.853591 0.004360
0.002311 0.860166 0.108153
0.015090 0.995503 0.004360
0.165319 0.995503 0.004360
0.315548 0.995503 0.004360
0.456238 0.995503 0.004360
0.605246 0.995503 0.004360
0.754253 0.995503 0.004360
0.903260 0.995503 0.004360
0.995503 0.995503 0.004360
0.011938 0.011938 0.224990
0.126658 0.011938 0.224990
0.240923 0.011769 0.224555
0.352408 0.010629 0.222207
0.456781 0.009596 0.220566
0.567307 0.008519 0.219085
0.677825 0.007450 0.217742
0.788337 0.006386 0.216480
0.860166 0.002311 0.213995
0.011938 0.121195 0.224990
0.137935 0.131937 0.245899
0.262463 0.131138 0.244555
0.377171 0.126775 0.237415
0.483430 0.123856 0.232876
0.595328 0.121406 0.229250
0.706837 0.119346 0.226342
0.853190 0.082442 0.199451
0.995605 0.007780 0.143737
0.011881 0.230301 0.224841
0.138010 0.252127 0.246121
0.273470 0.262277 0.256680
0.391670 0.252203 0.246140
0.500569 0.246534 0.240580
0.614580 0.241887 0.236018
0.746463 0.219828 0.213583
0.905293 0.171184 0.164202
0.994328 0.150073 0.142921
0.010789 0.336485 0.222491
0.133438 0.361790 0.238831
0.265392 0.374907 0.247139
0.391670 0.373479 0.246140
0.500569 0.365613 0.240580
0.614580 0.359278 0.236018
0.746463 0.344734 0.213583
0.905293 0.310809 0.164202
0.994328 0.293108 0.142921
0.009737 0.442464 0.220774
0.130212 0.469943 0.233914
0.259158 0.485716 0.241257
0.384464 0.485716 0.241257
0.500569 0.484506 0.240580
0.614580 0.476486 0.236018
0.746463 0.469445 0.213583
0.905293 0.450215 0.164202
0.994328 0.435919 0.142921
0.008774 0.540992 0.219422
0.127850 0.569871 0.230464
0.254673 0.587528 0.237011
0.378309 0.587528 0.237011
0.494095 0.587528 0.237011
0.614580 0.585471 0.236018
0.746463 0.585406 0.213583
0.905293 0.579842 0.164202
0.994328 0.568712 0.142921
0.007754 0.646249 0.218116
0.125731 0.676226 0.227492
0.250777 0.695466 0.233310
0.373050 0.695466 0.233310
0.487559 0.695466 0.233310
0.608838 0.695466 0.233310
0.746463 0.709296 0.213583
0.905293 0.718332 0.164202
0.994328 0.710584 0.142921
0.006740 0.751500 0.216894
0.116458 0.789737 0.219852
0.194825 0.858894 0.174118
0.339771 0.858894 0.174118
0.475514 0.858894 0.174118
0.619281 0.858894 0.174118
0.763049 0.858894 0.174118
0.905293 0.856821 0.164202
0.994328 0.852456 0.142921
0.002311 0.860166 0.213995
0.014893 0.995538 0.143691
0.164376 0.994328 0.142921
0.314563 0.994328 0.142921
0.455214 0.994328 0.142921
0.604180 0.994328 0.142921
0.753145 0.994328 0.142921
0.902111 0.994328 0.142921
0.994328 0.994328 0.142921
0.010869 0.010869 0.328523
0.124898 0.010869 0.328523
0.238928 0.010869 0.328523
0.352408 0.010629 0.327996
0.456781 0.009596 0.326051
0.567307 0.008519 0.324368
0.677825 0.007450 0.322888
0.788337 0.006386 0.321527
0.860166 0.002311 0.319836
0.010869 0.119468 0.328523
0.133419 0.127570 0.352730
0.256233 0.127570 0.352730
0.377171 0.126775 0.350967
0.483430 0.123856 0.344764
0.595328 0.121406 0.339932
0.706837 0.119346 0.336153
0.853190 0.082442 0.319539
0.995605 0.007780 0.283272
0.010869 0.228068 0.328523
0.133722 0.245139 0.353624
0.266341 0.254131 0.367078
0.392279 0.252575 0.364946
0.501320 0.246875 0.357201
0.615448 0.242195 0.350945
0.750500 0.216592 0.333725
0.905247 0.171294 0.300419
0.994261 0.150034 0.282337
0.010789 0.336485 0.328343
0.133438 0.361790 0.353007
0.266557 0.376625 0.367452
0.402205 0.385415 0.377020
0.513186 0.374525 0.365349
0.637371 0.360173 0.350613
0.769429 0.338063 0.328004
0.904470 0.312833 0.302411
0.993020 0.292335 0.281616
0.009737 0.442464 0.326292
0.130212 0.469943 0.346257
0.260232 0.487877 0.359159
0.393952 0.498000 0.366359
0.513186 0.496682 0.365349
0.637371 0.487433 0.350613
0.769429 0.471974 0.328004
0.904470 0.451572 0.302411
0.993020 0.435038 0.281616
0.008774 0.540992 0.324746
0.127850 0.569871 0.341630
0.255658 0.590017 0.353239
0.387187 0.601930 0.359994
0.506030 0.601930 0.359994
0.637371 0.605765 0.350613
0.769429 0.596490 0.328004
0.904470 0.580578 0.302411
0.993020 0.567728 0.281616
0.007754 0.646249 0.323296
0.125731 0.676226 0.337734
0.243347 0.706564 0.343422
0.363928 0.732158 0.334004
0.494709 0.732158 0.334004
0.633221 0.732158 0.334004
0.769429 0.729520 0.328004
0.904470 0.718404 0.302411
0.993020 0.709492 0.281616
0.006740 0.751500 0.321971
0.116458 0.789737 0.331863
0.195327 0.858821 0.309115
0.342725 0.858535 0.311863
0.477602 0.858535 0.311863
0.620452 0.858535 0.311863
0.763302 0.858535 0.311863
0.904470 0.856231 0.302411
0.993020 0.851256 0.281616
0.002311 0.860166 0.319836
0.014893 0.995538 0.283222
0.164259 0.994126 0.282251
0.313774 0.993020 0.281616
0.454317 0.993020 0.281616
0.603169 0.993020 0.281616
0.752021 0.993020 0.281616
0.900873 0.993020 0.281616
0.993020 0.993020 0.281616
0.009840 0.009840 0.432016
0.123502 0.009840 0.432016
0.237165 0.009840 0.432016
0.350828 0.009840 0.432016
0.456781 0.009596 0.431536
0.567307 0.008519 0.429651
0.677825 0.007450 0.428034
0.788337 0.006386 0.426574
0.860166 0.002311 0.425678
0.009840 0.118090 0.432016
0.130237 0.124482 0.458283
0.251096 0.124482 0.458283
0.371955 0.124482 0.458283
0.483430 0.123856 0.456653
0.595328 0.121406 0.450614
0.706837 0.119346 0.445964
0.853190 0.082442 0.439628
0.995605 0.007780 0.422806
0.009840 0.226340 0.432016
0.130492 0.240101 0.459318
0.260065 0.248091 0.475582
0.385783 0.248091 0.475582
0.501320 0.246875 0.473490
0.615448 0.242195 0.465573
0.750500 0.216592 0.457190
0.905247 0.171294 0.436525
0.994261 0.150034 0.421791
0.009840 0.334591 0.432016
0.130492 0.355478 0.459318
0.260780 0.368882 0.476984
0.395371 0.376911 0.487671
0.514004 0.375099 0.485406
0.640700 0.357852 0.474903
0.769515 0.338486 0.459100
0.904414 0.313036 0.438041
0.992919 0.292284 0.420908
0.009737 0.442464 0.431810
0.130212 0.469943 0.458600
0.260232 0.487877 0.476073
0.395738 0.500326 0.488191
0.523108 0.508010 0.496992
0.644732 0.493309 0.480638
0.770916 0.476950 0.463902
0.903847 0.454006 0.440420
0.991716 0.434359 0.420305
0.008774 0.540992 0.430070
0.127850 0.569871 0.452796
0.255658 0.590017 0.468563
0.383261 0.610368 0.479123
0.513812 0.615359 0.483951
0.644732 0.612813 0.480638
0.770916 0.600006 0.463902
0.903847 0.582141 0.440420
0.991716 0.566901 0.420305
0.007754 0.646249 0.428477
0.125731 0.676226 0.447976
0.243347 0.706564 0.461691
0.365295 0.732571 0.464785
0.499865 0.734324 0.469223
0.636633 0.734324 0.469223
0.770916 0.731475 0.463902
0.903847 0.719037 0.440420
0.991716 0.708506 0.420305
0.006740 0.751500 0.427048
0.116458 0.789737 0.443874
0.195327 0.858821 0.443591
0.343606 0.858497 0.446295
0.480970 0.858536 0.449248
0.622557 0.858536 0.449248
0.764145 0.858536 0.449248
0.903847 0.855934 0.440420
0.991716 0.850111 0.420305
0.002311 0.860166 0.425678
0.014893 0.995538 0.422753
0.164259 0.994126 0.421696
0.313621 0.992718 0.420792
0.453617 0.991716 0.420305
0.602302 0.991716 0.420305
0.750988 0.991716 0.420305
0.899673 0.991716 0.420305
0.991716 0.991716 0.420305
0.008902 0.008902 0.527835
0.122351 0.008902 0.527835
0.235801 0.008902 0.527835
0.349250 0.008902 0.527835
0.455496 0.008902 0.527835
0.567307 0.008519 0.527143
0.677825 0.007450 0.525399
0.788337 0.006386 0.523847
0.860166 0.002311 0.523687
0.008902 0.116949 0.527835
0.127921 0.122226 0.555420
0.247530 0.122226 0.555420
0.367139 0.122226 0.555420
0.479154 0.122226 0.555420
0.595328 0.121406 0.553105
0.706837 0.119346 0.547649
0.853190 0.082442 0.550829
0.995605 0.007780 0.552015
0.008902 0.224996 0.527835
0.128140 0.236589 0.556551
0.255555 0.243743 0.574811
0.379580 0.243743 0.574811
0.495729 0.243743 0.574811
0.615448 0.242195 0.571719
0.750500 0.216592 0.571518
0.905247 0.171294 0.562558
0.994261 0.150034 0.550925
0.008902 0.333043 0.527835
0.128140 0.350745 0.556551
0.256214 0.362841 0.576431
0.388599 0.370407 0.589057
0.507858 0.370407 0.589057
0.640700 0.357852 0.592325
0.769515 0.338486 0.580095
0.904414 0.313036 0.563442
0.992919 0.292284 0.549939
0.008902 0.440921 0.527835
0.128140 0.464723 0.556551
0.256214 0.481130 0.576431
0.387661 0.493034 0.592938
0.516021 0.498835 0.601317
0.645205 0.494035 0.597407
0.771119 0.477571 0.584041
0.903800 0.454338 0.565267
0.991585 0.434307 0.549132
0.008774 0.540992 0.527599
0.127850 0.569871 0.555734
0.255658 0.590017 0.575352
0.383261 0.610368 0.594521
0.515530 0.616660 0.600858
0.650441 0.622686 0.608809
0.773273 0.604949 0.588764
0.903578 0.584861 0.567908
0.990518 0.566394 0.548722
0.007754 0.646249 0.525873
0.125731 0.676226 0.550059
0.243347 0.706564 0.571209
0.365295 0.732571 0.584550
0.501414 0.735012 0.589013
0.641351 0.737479 0.593288
0.773273 0.734429 0.588764
0.903578 0.720485 0.567908
0.990518 0.707769 0.548722
0.006740 0.751500 0.524348
0.116458 0.789737 0.547595
0.195327 0.858821 0.568115
0.343606 0.858497 0.569911
0.482049 0.858614 0.572828
0.625896 0.859074 0.575930
0.765803 0.859074 0.575930
0.903578 0.856109 0.567908
0.990518 0.849143 0.548722
0.002311 0.860166 0.523687
0.014893 0.995538 0.551959
0.164259 0.994126 0.550821
0.313621 0.992718 0.549804
0.453494 0.991405 0.549044
0.601738 0.990518 0.548722
0.750181 0.990518 0.548722
0.898624 0.990518 0.548722
0.990518 0.990518 0.548722
0.007907 0.007907 0.630461
0.121198 0.007907 0.630461
0.234490 0.007907 0.630461
0.347781 0.007907 0.630461
0.453879 0.007907 0.630461
0.566249 0.007907 0.630461
0.677825 0.007450 0.629690
0.788337 0.006386 0.628040
0.860166 0.002311 0.628669
0.007907 0.115803 0.630461
0.125841 0.120192 0.659084
0.244467 0.120192 0.659084
0.363093 0.120192 0.659084
0.474187 0.120192 0.659084
0.591849 0.120192 0.659084
0.706837 0.119346 0.656567
0.853190 0.082442 0.669941
0.995605 0.007780 0.690415
0.007907 0.223700 0.630461
0.126029 0.233563 0.660293
0.251623 0.239944 0.680242
0.374255 0.239944 0.680242
0.489101 0.239944 0.680242
0.610736 0.239944 0.680242
0.750500 0.216592 0.693979
0.905247 0.171294 0.697556
0.994261 0.150034 0.689246
0.007907 0.331596 0.630461
0.126029 0.346756 0.660293
0.252223 0.357633 0.682053
0.367095 0.347242 0.713852
0.497243 0.347242 0.713852
0.635085 0.347242 0.713852
0.769515 0.338486 0.709698
0.904414 0.313036 0.697764
0.992919 0.292284 0.688149
0.007907 0.439324 0.630461
0.126029 0.459773 0.660293
0.252223 0.474573 0.682053
0.368049 0.480141 0.714182
0.502868 0.485258 0.716525
0.638832 0.485258 0.716525
0.771119 0.477571 0.712042
0.903800 0.454338 0.698629
0.991585 0.434307 0.687178
0.007907 0.539494 0.630461
0.126029 0.564861 0.660293
0.252223 0.583308 0.682053
0.368049 0.602796 0.714182
0.503804 0.607165 0.716987
0.644037 0.612232 0.720369
0.773701 0.605807 0.715584
0.903576 0.585380 0.700472
0.990354 0.566356 0.686489
0.007754 0.646249 0.630199
0.125731 0.676226 0.659404
0.243347 0.706564 0.688517
0.365295 0.732571 0.712834
0.501414 0.735012 0.715546
0.643931 0.739247 0.720183
0.777583 0.739677 0.720723
0.903931 0.723835 0.703824
0.989253 0.707395 0.686256
0.006740 0.751500 0.628571
0.116458 0.789737 0.658695
0.195327 0.858821 0.701498
0.343606 0.858497 0.702321
0.482049 0.858614 0.703953
0.627884 0.859531 0.707305
0.769316 0.860710 0.710562
0.903931 0.857239 0.703824
0.989253 0.848324 0.686256
0.002311 0.860166 0.628669
0.014893 0.995538 0.690355
0.164259 0.994126 0.689132
0.313621 0.992718 0.687993
0.453494 0.991405 0.687061
0.601623 0.990028 0.686366
0.749674 0.989253 0.686256
0.897649 0.989253 0.686256
0.989253 0.989253 0.686256
0.006917 0.006917 0.733081
0.120094 0.006917 0.733081
0.233271 0.006917 0.733081
0.346448 0.006917 0.733081
0.452439 0.006917 0.733081
0.564696 0.006917 0.733081
0.676953 0.006917 0.733081
0.788337 0.006386 0.732233
0.860166 0.002311 0.733650
0.006917 0.114705 0.733081
0.124028 0.118415 0.762493
0.241909 0.118415 0.762493
0.359790 0.118415 0.762493
0.470186 0.118415 0.762493
0.587109 0.118415 0.762493
0.704031 0.118415 0.762493
0.853190 0.082442 0.789052
0.995605 0.007780 0.828815
0.006917 0.222492 0.733081
0.124190 0.231029 0.763762
0.199520 0.185794 0.836022
0.343650 0.185794 0.836022
0.478628 0.185794 0.836022
0.621586 0.185794 0.836022
0.764544 0.185794 0.836022
0.905247 0.171294 0.832555
0.994261 0.150034 0.827567
0.006917 0.330280 0.733081
0.124190 0.343492 0.763762
0.199908 0.323368 0.835999
0.347213 0.326775 0.835950
0.481195 0.326775 0.835950
0.623097 0.326775 0.835950
0.764999 0.326775 0.835950
0.904414 0.313036 0.832086
0.992919 0.292284 0.826359
0.006917 0.437899 0.733081
0.124190 0.455779 0.763762
0.199908 0.460331 0.835999
0.347886 0.463335 0.835975
0.485243 0.467051 0.836363
0.625691 0.467051 0.836363
0.766139 0.467051 0.836363
0.903800 0.454338 0.831990
0.991585 0.434307 0.825223
0.006917 0.537968 0.733081
0.124190 0.560187 0.763762
0.199908 0.587685 0.835999
0.347886 0.589663 0.835975
0.485951 0.592776 0.836471
0.629732 0.596757 0.837475
0.768227 0.596757 0.837475
0.903576 0.585380 0.832490
0.990354 0.566356 0.824288
0.006917 0.644880 0.733081
0.124190 0.671735 0.763762
0.199908 0.723748 0.835999
0.347886 0.724628 0.835975
0.485951 0.726307 0.836471
0.631219 0.729664 0.837954
0.772511 0.733879 0.840116
0.904086 0.724633 0.834299
0.989062 0.707411 0.823592
0.006740 0.751500 0.732793
0.116458 0.789737 0.769796
0.195327 0.858821 0.834881
0.343606 0.858497 0.834731
0.482049 0.858614 0.835079
0.627884 0.859531 0.836366
0.772032 0.862134 0.839608
0.905886 0.860721 0.838138
0.988051 0.848201 0.823727
0.002311 0.860166 0.733650
0.014893 0.995538 0.828752
0.164259 0.994126 0.827444
0.313621 0.992718 0.826182
0.453494 0.991405 0.825078
0.601623 0.990028 0.824073
0.749718 0.988685 0.823516
0.897148 0.988051 0.823727
0.988051 0.988051 0.823727
0.005931 0.005931 0.835699
0.119021 0.005931 0.835699
0.232112 0.005931 0.835699
0.345202 0.005931 0.835699
0.451112 0.005931 0.835699
0.563283 0.005931 0.835699
0.675454 0.005931 0.835699
0.787625 0.005931 0.835699
0.860166 0.002311 0.838631
0.005931 0.113636 0.835699
0.038049 0.031186 0.951352
0.182167 0.031186 0.951352
0.326284 0.031186 0.951352
0.461252 0.031186 0.951352
0.604198 0.031186 0.951352
0.747144 0.031186 0.951352
0.890090 0.031186 0.951352
0.995605 0.007780 0.967216
0.005931 0.221341 0.835699
0.031692 0.163925 0.957892
0.171215 0.157025 0.966422
0.320208 0.157025 0.966422
0.459741 0.157025 0.966422
0.607523 0.157025 0.966422
0.755305 0.157025 0.966422
0.903087 0.157025 0.966422
0.994261 0.150034 0.965887
0.005931 0.329046 0.835699
0.031692 0.303119 0.957892
0.171243 0.298926 0.966295
0.320427 0.299190 0.965165
0.459641 0.299190 0.965165
0.607086 0.299190 0.965165
0.754530 0.299190 0.965165
0.901975 0.299190 0.965165
0.992919 0.292284 0.964568
0.005931 0.436583 0.835699
0.031692 0.442094 0.957892
0.171243 0.440576 0.966295
0.320512 0.440579 0.964980
0.460123 0.441090 0.963955
0.607074 0.441090 0.963955
0.754025 0.441090 0.963955
0.900976 0.441090 0.963955
0.991585 0.434307 0.963268
0.005931 0.536576 0.835699
0.031692 0.571320 0.957892
0.171243 0.572287 0.966295
0.320512 0.571960 0.964980
0.460256 0.572154 0.963797
0.607775 0.572959 0.962904
0.754005 0.572959 0.962904
0.900234 0.572959 0.962904
0.990354 0.566356 0.962088
0.005931 0.643405 0.835699
0.031692 0.709381 0.957892
0.171243 0.713004 0.966295
0.320512 0.712324 0.964980
0.460256 0.712026 0.963797
0.608160 0.712420 0.962644
0.755050 0.713668 0.961958
0.899886 0.713668 0.961958
0.989062 0.707411 0.960897
0.005931 0.750235 0.835699
0.031692 0.847442 0.957892
0.171243 0.853721 0.966295
0.320512 0.852689 0.964980
0.460256 0.851899 0.963797
0.608160 0.851433 0.962644
0.755807 0.851913 0.961748
0.900959 0.853810 0.961580
0.987854 0.848383 0.959960
0.002311 0.860166 0.838631
0.014893 0.995538 0.967149
0.164259 0.994126 0.965755
0.313621 0.992718 0.964372
0.453494 0.991405 0.963094
0.601623 0.990028 0.961780
0.749718 0.988685 0.960571
0.897649 0.987505 0.959857
0.987371 0.987371 0.960677
