docs/luts/fuji_recipes/NEGA_JP_Hard_Portrait.cube
TITLE "Fujifilm Recipe: JP Hard Portrait (NEGA)"
# FilmSim=NEGA HL=0 SH=0 Col=-4 WB=Auto WBR=0 WBB=0
LUT_3D_SIZE 33
DOMAIN_MIN 0.0 0.0 0.0
DOMAIN_MAX 1.0 1.0 1.0
0.016000 0.016000 0.016000
0.035293 0.027457 0.027457
0.054585 0.038915 0.038915
0.073878 0.050372 0.050372
0.093170 0.061830 0.061830
0.112463 0.073287 0.073287
0.131755 0.084745 0.084745
0.151048 0.096202 0.096202
0.170340 0.107660 0.107660
0.189633 0.119117 0.119117
0.208926 0.130575 0.130575
0.228218 0.142032 0.142032
0.247511 0.153489 0.153489
0.266803 0.164947 0.164947
0.286096 0.176404 0.176404
0.305388 0.187862 0.187862
0.324560 0.199248 0.199248
0.338797 0.207703 0.207703
0.357933 0.219067 0.219067
0.377069 0.230431 0.230431
0.396204 0.241796 0.241796
0.415340 0.253160 0.253160
0.434476 0.264524 0.264524
0.453612 0.275889 0.275889
0.472747 0.287253 0.287253
0.491883 0.298617 0.298617
0.511019 0.309981 0.309981
0.530154 0.321346 0.321346
0.549290 0.332710 0.332710
0.568426 0.344074 0.344074
0.587561 0.355439 0.355439
0.606697 0.366803 0.366803
0.625833 0.378167 0.378167
0.027457 0.035293 0.027457
0.035293 0.035293 0.027457
0.054585 0.046750 0.038915
0.073878 0.058207 0.050372
0.093170 0.069665 0.061830
0.112463 0.081122 0.073287
0.131755 0.092580 0.084745
0.151048 0.104037 0.096202
0.170340 0.115495 0.107660
0.189633 0.126952 0.119117
0.208926 0.138410 0.130575
0.228218 0.149867 0.142032
0.247511 0.161325 0.153489
0.266803 0.172782 0.164947
0.286096 0.184239 0.176404
0.305388 0.195697 0.187862
0.324560 0.207083 0.199248
0.338797 0.215538 0.207703
0.357933 0.226902 0.219067
0.377069 0.238266 0.230431
0.396204 0.249631 0.241796
0.415340 0.260995 0.253160
0.434476 0.272359 0.264524
0.453612 0.283724 0.275889
0.472747 0.295088 0.287253
0.491883 0.306452 0.298617
0.511019 0.317816 0.309981
0.530154 0.329181 0.321346
0.549290 0.340545 0.332710
0.568426 0.351909 0.344074
0.587561 0.363274 0.355439
0.606697 0.374638 0.366803
0.625833 0.386002 0.378167
0.038915 0.054585 0.038915
0.046750 0.054585 0.038915
0.054585 0.054585 0.038915
0.073878 0.066043 0.050372
0.093170 0.077500 0.061830
0.112463 0.088957 0.073287
0.131755 0.100415 0.084745
0.151048 0.111872 0.096202
0.170340 0.123330 0.107660
0.189633 0.134787 0.119117
0.208926 0.146245 0.130575
0.228218 0.157702 0.142032
0.247511 0.169160 0.153489
0.266803 0.180617 0.164947
0.286096 0.192075 0.176404
0.305388 0.203532 0.187862
0.324560 0.214918 0.199248
0.338797 0.223373 0.207703
0.357933 0.234737 0.219067
0.377069 0.246101 0.230431
0.396204 0.257466 0.241796
0.415340 0.268830 0.253160
0.434476 0.280194 0.264524
0.453612 0.291559 0.275889
0.472747 0.302923 0.287253
0.491883 0.314287 0.298617
0.511019 0.325652 0.309981
0.530154 0.337016 0.321346
0.549290 0.348380 0.332710
0.568426 0.359744 0.344074
0.587561 0.371109 0.355439
0.606697 0.382473 0.366803
0.625833 0.393837 0.378167
0.050372 0.073878 0.050372
0.058207 0.073878 0.050372
0.066043 0.073878 0.050372
0.073878 0.073878 0.050372
0.093170 0.085335 0.061830
0.112463 0.096793 0.073287
0.131755 0.108250 0.084745
0.151048 0.119707 0.096202
0.170340 0.131165 0.107660
0.189633 0.142622 0.119117
0.208926 0.154080 0.130575
0.228218 0.165537 0.142032
0.247511 0.176995 0.153489
0.266803 0.188452 0.164947
0.286096 0.199910 0.176404
0.305388 0.211367 0.187862
0.324560 0.222753 0.199248
0.338797 0.231208 0.207703
0.357933 0.242572 0.219067
0.377069 0.253937 0.230431
0.396204 0.265301 0.241796
0.415340 0.276665 0.253160
0.434476 0.288030 0.264524
0.453612 0.299394 0.275889
0.472747 0.310758 0.287253
0.491883 0.322122 0.298617
0.511019 0.333487 0.309981
0.530154 0.344851 0.321346
0.549290 0.356215 0.332710
0.568426 0.367580 0.344074
0.587561 0.378944 0.355439
0.606697 0.390308 0.366803
0.625833 0.401672 0.378167
0.061830 0.093170 0.061830
0.069665 0.093170 0.061830
0.077500 0.093170 0.061830
0.085335 0.093170 0.061830
0.093170 0.093170 0.061830
0.112463 0.104628 0.073287
0.131755 0.116085 0.084745
0.151048 0.127543 0.096202
0.170340 0.139000 0.107660
0.189633 0.150457 0.119117
0.208926 0.161915 0.130575
0.228218 0.173372 0.142032
0.247511 0.184830 0.153489
0.266803 0.196287 0.164947
0.286096 0.207745 0.176404
0.305388 0.219202 0.187862
0.324560 0.230588 0.199248
0.338797 0.239043 0.207703
0.357933 0.250407 0.219067
0.377069 0.261772 0.230431
0.396204 0.273136 0.241796
0.415340 0.284500 0.253160
0.434476 0.295865 0.264524
0.453612 0.307229 0.275889
0.472747 0.318593 0.287253
0.491883 0.329958 0.298617
0.511019 0.341322 0.309981
0.530154 0.352686 0.321346
0.549290 0.364050 0.332710
0.568426 0.375415 0.344074
0.587561 0.386779 0.355439
0.606697 0.398143 0.366803
0.625833 0.409508 0.378167
0.073287 0.112463 0.073287
0.081122 0.112463 0.073287
0.088957 0.112463 0.073287
0.096793 0.112463 0.073287
0.104628 0.112463 0.073287
0.112463 0.112463 0.073287
0.131755 0.123920 0.084745
0.151048 0.135378 0.096202
0.170340 0.146835 0.107660
0.189633 0.158293 0.119117
0.208926 0.169750 0.130575
0.228218 0.181207 0.142032
0.247511 0.192665 0.153489
0.266803 0.204122 0.164947
0.286096 0.215580 0.176404
0.305388 0.227037 0.187862
0.324560 0.238423 0.199248
0.338797 0.246878 0.207703
0.357933 0.258242 0.219067
0.377069 0.269607 0.230431
0.396204 0.280971 0.241796
0.415340 0.292335 0.253160
0.434476 0.303700 0.264524
0.453612 0.315064 0.275889
0.472747 0.326428 0.287253
0.491883 0.337793 0.298617
0.511019 0.349157 0.309981
0.530154 0.360521 0.321346
0.549290 0.371886 0.332710
0.568426 0.383250 0.344074
0.587561 0.394614 0.355439
0.606697 0.405978 0.366803
0.625833 0.417343 0.378167
0.084745 0.131755 0.084745
0.092580 0.131755 0.084745
0.100415 0.131755 0.084745
0.108250 0.131755 0.084745
0.116085 0.131755 0.084745
0.123920 0.131755 0.084745
0.131755 0.131755 0.084745
0.151048 0.143213 0.096202
0.170340 0.154670 0.107660
0.189633 0.166128 0.119117
0.208926 0.177585 0.130575
0.228218 0.189043 0.142032
0.247511 0.200500 0.153489
0.266803 0.211957 0.164947
0.286096 0.223415 0.176404
0.305388 0.234872 0.187862
0.324560 0.246258 0.199248
0.338797 0.254713 0.207703
0.357933 0.266078 0.219067
0.377069 0.277442 0.230431
0.396204 0.288806 0.241796
0.415340 0.300171 0.253160
0.434476 0.311535 0.264524
0.453612 0.322899 0.275889
0.472747 0.334263 0.287253
0.491883 0.345628 0.298617
0.511019 0.356992 0.309981
0.530154 0.368356 0.321346
0.549290 0.379721 0.332710
0.568426 0.391085 0.344074
0.587561 0.402449 0.355439
0.606697 0.413813 0.366803
0.625833 0.425178 0.378167
0.096202 0.151048 0.096202
0.104037 0.151048 0.096202
0.111872 0.151048 0.096202
0.119707 0.151048 0.096202
0.127543 0.151048 0.096202
0.135378 0.151048 0.096202
0.143213 0.151048 0.096202
0.151048 0.151048 0.096202
0.170340 0.162505 0.107660
0.189633 0.173963 0.119117
0.208926 0.185420 0.130575
0.228218 0.196878 0.142032
0.247511 0.208335 0.153489
0.266803 0.219793 0.164947
0.286096 0.231250 0.176404
0.305388 0.242707 0.187862
0.324560 0.254093 0.199248
0.338797 0.262548 0.207703
0.357933 0.273913 0.219067
0.377069 0.285277 0.230431
0.396204 0.296641 0.241796
0.415340 0.308006 0.253160
0.434476 0.319370 0.264524
0.453612 0.330734 0.275889
0.472747 0.342099 0.287253
0.491883 0.353463 0.298617
0.511019 0.364827 0.309981
0.530154 0.376191 0.321346
0.549290 0.387556 0.332710
0.568426 0.398920 0.344074
0.587561 0.410284 0.355439
0.606697 0.421649 0.366803
0.625833 0.433013 0.378167
0.107660 0.170340 0.107660
0.115495 0.170340 0.107660
0.123330 0.170340 0.107660
0.131165 0.170340 0.107660
0.139000 0.170340 0.107660
0.146835 0.170340 0.107660
0.154670 0.170340 0.107660
0.162505 0.170340 0.107660
0.170340 0.170340 0.107660
0.189633 0.181798 0.119117
0.208926 0.193255 0.130575
0.228218 0.204713 0.142032
0.247511 0.216170 0.153489
0.266803 0.227628 0.164947
0.286096 0.239085 0.176404
0.305388 0.250543 0.187862
0.324560 0.261928 0.199248
0.338797 0.270383 0.207703
0.357933 0.281748 0.219067
0.377069 0.293112 0.230431
0.396204 0.304476 0.241796
0.415340 0.315841 0.253160
0.434476 0.327205 0.264524
0.453612 0.338569 0.275889
0.472747 0.349934 0.287253
0.491883 0.361298 0.298617
0.511019 0.372662 0.309981
0.530154 0.384026 0.321346
0.549290 0.395391 0.332710
0.568426 0.406755 0.344074
0.587561 0.418119 0.355439
0.606697 0.429484 0.366803
0.625833 0.440848 0.378167
0.119117 0.189633 0.119117
0.126952 0.189633 0.119117
0.134787 0.189633 0.119117
0.142622 0.189633 0.119117
0.150457 0.189633 0.119117
0.158293 0.189633 0.119117
0.166128 0.189633 0.119117
0.173963 0.189633 0.119117
0.181798 0.189633 0.119117
0.189633 0.189633 0.119117
0.208926 0.201090 0.130575
0.228218 0.212548 0.142032
0.247511 0.224005 0.153489
0.266803 0.235463 0.164947
0.286096 0.246920 0.176404
0.305388 0.258378 0.187862
0.324560 0.269764 0.199248
0.338797 0.278219 0.207703
0.357933 0.289583 0.219067
0.377069 0.300947 0.230431
0.396204 0.312312 0.241796
0.415340 0.323676 0.253160
0.434476 0.335040 0.264524
0.453612 0.346404 0.275889
0.472747 0.357769 0.287253
0.491883 0.369133 0.298617
0.511019 0.380497 0.309981
0.530154 0.391862 0.321346
0.549290 0.403226 0.332710
0.568426 0.414590 0.344074
0.587561 0.425955 0.355439
0.606697 0.437319 0.366803
0.625833 0.448683 0.378167
0.130575 0.208926 0.130575
0.138410 0.208926 0.130575
0.146245 0.208926 0.130575
0.154080 0.208926 0.130575
0.161915 0.208926 0.130575
0.169750 0.208926 0.130575
0.177585 0.208926 0.130575
0.185420 0.208926 0.130575
0.193255 0.208926 0.130575
0.201090 0.208926 0.130575
0.208925 0.208926 0.130575
0.228218 0.220383 0.142032
0.247511 0.231840 0.153489
0.266803 0.243298 0.164947
0.286096 0.254755 0.176404
0.305388 0.266213 0.187862
0.324560 0.277599 0.199248
0.338797 0.286054 0.207703
0.357933 0.297418 0.219067
0.377069 0.308782 0.230431
0.396204 0.320147 0.241796
0.415340 0.331511 0.253160
0.434476 0.342875 0.264524
0.453612 0.354240 0.275889
0.472747 0.365604 0.287253
0.491883 0.376968 0.298617
0.511019 0.388332 0.309981
0.530154 0.399697 0.321346
0.549290 0.411061 0.332710
0.568426 0.422425 0.344074
0.587561 0.433790 0.355439
0.606697 0.445154 0.366803
0.625833 0.456518 0.378167
0.142032 0.228218 0.142032
0.149867 0.228218 0.142032
0.157702 0.228218 0.142032
0.165537 0.228218 0.142032
0.173372 0.228218 0.142032
0.181207 0.228218 0.142032
0.189043 0.228218 0.142032
0.196878 0.228218 0.142032
0.204713 0.228218 0.142032
0.212548 0.228218 0.142032
0.220383 0.228218 0.142032
0.228218 0.228218 0.142032
0.247511 0.239676 0.153489
0.266803 0.251133 0.164947
0.286096 0.262590 0.176404
0.305388 0.274048 0.187862
0.324560 0.285434 0.199248
0.338797 0.293889 0.207703
0.357933 0.305253 0.219067
0.377069 0.316617 0.230431
0.396204 0.327982 0.241796
0.415340 0.339346 0.253160
0.434476 0.350710 0.264524
0.453612 0.362075 0.275889
0.472747 0.373439 0.287253
0.491883 0.384803 0.298617
0.511019 0.396167 0.309981
0.530154 0.407532 0.321346
0.549290 0.418896 0.332710
0.568426 0.430260 0.344074
0.587561 0.441625 0.355439
0.606697 0.452989 0.366803
0.625833 0.464353 0.378167
0.153489 0.247511 0.153489
0.161325 0.247511 0.153489
0.169160 0.247511 0.153489
0.176995 0.247511 0.153489
0.184830 0.247511 0.153489
0.192665 0.247511 0.153489
0.200500 0.247511 0.153489
0.208335 0.247511 0.153489
0.216170 0.247511 0.153489
0.224005 0.247511 0.153489
0.231840 0.247511 0.153489
0.239676 0.247511 0.153489
0.247511 0.247511 0.153489
0.266803 0.258968 0.164947
0.286096 0.270426 0.176404
0.305388 0.281883 0.187862
0.324560 0.293269 0.199248
0.338797 0.301724 0.207703
0.357933 0.313088 0.219067
0.377069 0.324453 0.230431
0.396204 0.335817 0.241796
0.415340 0.347181 0.253160
0.434476 0.358545 0.264524
0.453612 0.369910 0.275889
0.472747 0.381274 0.287253
0.491883 0.392638 0.298617
0.511019 0.404003 0.309981
0.530154 0.415367 0.321346
0.549290 0.426731 0.332710
0.568426 0.438095 0.344074
0.587561 0.449460 0.355439
0.606697 0.460824 0.366803
0.625833 0.472188 0.378167
0.164947 0.266803 0.164947
0.172782 0.266803 0.164947
0.180617 0.266803 0.164947
0.188452 0.266803 0.164947
0.196287 0.266803 0.164947
0.204122 0.266803 0.164947
0.211957 0.266803 0.164947
0.219793 0.266803 0.164947
0.227628 0.266803 0.164947
0.235463 0.266803 0.164947
0.243298 0.266803 0.164947
0.251133 0.266803 0.164947
0.258968 0.266803 0.164947
0.266803 0.266803 0.164947
0.286096 0.278261 0.176404
0.305388 0.289718 0.187862
0.324560 0.301104 0.199248
0.338797 0.309559 0.207703
0.357933 0.320923 0.219067
0.377069 0.332288 0.230431
0.396204 0.343652 0.241796
0.415340 0.355016 0.253160
0.434476 0.366380 0.264524
0.453612 0.377745 0.275889
0.472747 0.389109 0.287253
0.491883 0.400473 0.298617
0.511019 0.411838 0.309981
0.530154 0.423202 0.321346
0.549290 0.434566 0.332710
0.568426 0.445931 0.344074
0.587561 0.457295 0.355439
0.606697 0.468659 0.366803
0.625833 0.480023 0.378167
0.176404 0.286096 0.176404
0.184239 0.286096 0.176404
0.192075 0.286096 0.176404
0.199910 0.286096 0.176404
0.207745 0.286096 0.176404
0.215580 0.286096 0.176404
0.223415 0.286096 0.176404
0.231250 0.286096 0.176404
0.239085 0.286096 0.176404
0.246920 0.286096 0.176404
0.254755 0.286096 0.176404
0.262590 0.286096 0.176404
0.270426 0.286096 0.176404
0.278261 0.286096 0.176404
0.286096 0.286096 0.176404
0.305388 0.297553 0.187862
0.324560 0.308939 0.199248
0.338797 0.317394 0.207703
0.357933 0.328758 0.219067
0.377069 0.340123 0.230431
0.396204 0.351487 0.241796
0.415340 0.362851 0.253160
0.434476 0.374216 0.264524
0.453612 0.385580 0.275889
0.472747 0.396944 0.287253
0.491883 0.408308 0.298617
0.511019 0.419673 0.309981
0.530154 0.431037 0.321346
0.549290 0.442401 0.332710
0.568426 0.453766 0.344074
0.587561 0.465130 0.355439
0.606697 0.476494 0.366803
0.625833 0.487859 0.378167
0.187862 0.305388 0.187862
0.195697 0.305388 0.187862
0.203532 0.305388 0.187862
0.211367 0.305388 0.187862
0.219202 0.305388 0.187862
0.227037 0.305388 0.187862
0.234872 0.305388 0.187862
0.242707 0.305388 0.187862
0.250543 0.305388 0.187862
0.258378 0.305388 0.187862
0.266213 0.305388 0.187862
0.274048 0.305388 0.187862
0.281883 0.305388 0.187862
0.289718 0.305388 0.187862
0.297553 0.305388 0.187862
0.305388 0.305388 0.187862
0.324560 0.316774 0.199248
0.338797 0.325229 0.207703
0.357933 0.336593 0.219067
0.377069 0.347958 0.230431
0.396204 0.359322 0.241796
0.415340 0.370686 0.253160
0.434476 0.382051 0.264524
0.453612 0.393415 0.275889
0.472747 0.404779 0.287253
0.491883 0.416144 0.298617
0.511019 0.427508 0.309981
0.530154 0.438872 0.321346
0.549290 0.450237 0.332710
0.568426 0.461601 0.344074
0.587561 0.472965 0.355439
0.606697 0.484329 0.366803
0.625833 0.495694 0.378167
0.199248 0.324560 0.199248
0.207083 0.324560 0.199248
0.214918 0.324560 0.199248
0.222753 0.324560 0.199248
0.230588 0.324560 0.199248
0.238423 0.324560 0.199248
0.246258 0.324560 0.199248
0.254093 0.324560 0.199248
0.261928 0.324560 0.199248
0.269764 0.324560 0.199248
0.277599 0.324560 0.199248
0.285434 0.324560 0.199248
0.293269 0.324560 0.199248
0.301104 0.324560 0.199248
0.308939 0.324560 0.199248
0.316774 0.324560 0.199248
0.324560 0.324560 0.199248
0.338797 0.333015 0.207703
0.357933 0.344380 0.219067
0.377069 0.355744 0.230431
0.396204 0.367108 0.241796
0.415340 0.378473 0.253160
0.434476 0.389837 0.264524
0.453612 0.401201 0.275889
0.472747 0.412565 0.287253
0.491883 0.423930 0.298617
0.511019 0.435294 0.309981
0.530154 0.446658 0.321346
0.549290 0.458023 0.332710
0.568426 0.469387 0.344074
0.587561 0.480751 0.355439
0.606697 0.492116 0.366803
0.625833 0.503480 0.378167
0.207703 0.338797 0.207703
0.215538 0.338797 0.207703
0.223373 0.338797 0.207703
0.231208 0.338797 0.207703
0.239043 0.338797 0.207703
0.246878 0.338797 0.207703
0.254713 0.338797 0.207703
0.262548 0.338797 0.207703
0.270383 0.338797 0.207703
0.278219 0.338797 0.207703
0.286054 0.338797 0.207703
0.293889 0.338797 0.207703
0.301724 0.338797 0.207703
0.309559 0.338797 0.207703
0.317394 0.338797 0.207703
0.325229 0.338797 0.207703
0.333015 0.338797 0.207703
0.338797 0.338797 0.207703
0.357933 0.350162 0.219067
0.377069 0.361526 0.230431
0.396204 0.372890 0.241796
0.415340 0.384254 0.253160
0.434476 0.395619 0.264524
0.453612 0.406983 0.275889
0.472747 0.418347 0.287253
0.491883 0.429712 0.298617
0.511019 0.441076 0.309981
0.530154 0.452440 0.321346
0.549290 0.463805 0.332710
0.568426 0.475169 0.344074
0.587561 0.486533 0.355439
0.606697 0.497897 0.366803
0.625833 0.509262 0.378167
0.219067 0.357933 0.219067
0.226902 0.357933 0.219067
0.234737 0.357933 0.219067
0.242572 0.357933 0.219067
0.250407 0.357933 0.219067
0.258243 0.357933 0.219067
0.266078 0.357933 0.219067
0.273913 0.357933 0.219067
0.281748 0.357933 0.219067
0.289583 0.357933 0.219067
0.297418 0.357933 0.219067
0.305253 0.357933 0.219067
0.313088 0.357933 0.219067
0.320923 0.357933 0.219067
0.328758 0.357933 0.219067
0.336593 0.357933 0.219067
0.344380 0.357933 0.219067
0.350162 0.357933 0.219067
0.357933 0.357933 0.219067
0.377069 0.369297 0.230431
0.396204 0.380662 0.241796
0.415340 0.392026 0.253160
0.434476 0.403390 0.264524
0.453612 0.414755 0.275889
0.472747 0.426119 0.287253
0.491883 0.437483 0.298617
0.511019 0.448847 0.309981
0.530154 0.460212 0.321346
0.549290 0.471576 0.332710
0.568426 0.482940 0.344074
0.587561 0.494305 0.355439
0.606697 0.505669 0.366803
0.625833 0.517033 0.378167
0.230431 0.377069 0.230431
0.238266 0.377069 0.230431
0.246101 0.377069 0.230431
0.253937 0.377069 0.230431
0.261772 0.377069 0.230431
0.269607 0.377069 0.230431
0.277442 0.377069 0.230431
0.285277 0.377069 0.230431
0.293112 0.377069 0.230431
0.300947 0.377069 0.230431
0.308782 0.377069 0.230431
0.316617 0.377069 0.230431
0.324453 0.377069 0.230431
0.332288 0.377069 0.230431
0.340123 0.377069 0.230431
0.347958 0.377069 0.230431
0.355744 0.377069 0.230431
0.361526 0.377069 0.230431
0.369297 0.377069 0.230431
0.377069 0.377069 0.230431
0.396204 0.388433 0.241796
0.415340 0.399797 0.253160
0.434476 0.411162 0.264524
0.453612 0.422526 0.275889
0.472747 0.433890 0.287253
0.491883 0.445254 0.298617
0.511019 0.456619 0.309981
0.530154 0.467983 0.321346
0.549290 0.479347 0.332710
0.568426 0.490712 0.344074
0.587561 0.502076 0.355439
0.606697 0.513440 0.366803
0.625833 0.524805 0.378167
0.241796 0.396204 0.241796
0.249631 0.396204 0.241796
0.257466 0.396204 0.241796
0.265301 0.396204 0.241796
0.273136 0.396204 0.241796
0.280971 0.396204 0.241796
0.288806 0.396204 0.241796
0.296641 0.396204 0.241796
0.304476 0.396204 0.241796
0.312312 0.396204 0.241796
0.320147 0.396204 0.241796
0.327982 0.396204 0.241796
0.335817 0.396204 0.241796
0.343652 0.396204 0.241796
0.351487 0.396204 0.241796
0.359322 0.396204 0.241796
0.367108 0.396204 0.241796
0.372890 0.396204 0.241796
0.380662 0.396204 0.241796
0.388433 0.396204 0.241796
0.396204 0.396204 0.241796
0.415340 0.407569 0.253160
0.434476 0.418933 0.264524
0.453612 0.430297 0.275889
0.472747 0.441662 0.287253
0.491883 0.453026 0.298617
0.511019 0.464390 0.309981
0.530154 0.475755 0.321346
0.549290 0.487119 0.332710
0.568426 0.498483 0.344074
0.587561 0.509847 0.355439
0.606697 0.521212 0.366803
0.625833 0.532576 0.378167
0.253160 0.415340 0.253160
0.260995 0.415340 0.253160
0.268830 0.415340 0.253160
0.276665 0.415340 0.253160
0.284500 0.415340 0.253160
0.292335 0.415340 0.253160
0.300171 0.415340 0.253160
0.308006 0.415340 0.253160
0.315841 0.415340 0.253160
0.323676 0.415340 0.253160
0.331511 0.415340 0.253160
0.339346 0.415340 0.253160
0.347181 0.415340 0.253160
0.355016 0.415340 0.253160
0.362851 0.415340 0.253160
0.370686 0.415340 0.253160
0.378473 0.415340 0.253160
0.384254 0.415340 0.253160
0.392026 0.415340 0.253160
0.399797 0.415340 0.253160
0.407569 0.415340 0.253160
0.415340 0.415340 0.253160
0.434476 0.426704 0.264524
0.453612 0.438069 0.275889
0.472747 0.449433 0.287253
0.491883 0.460797 0.298617
0.511019 0.472162 0.309981
0.530154 0.483526 0.321346
0.549290 0.494890 0.332710
0.568426 0.506255 0.344074
0.587561 0.517619 0.355439
0.606697 0.528983 0.366803
0.625833 0.540347 0.378167
0.264524 0.434476 0.264524
0.272359 0.434476 0.264524
0.280194 0.434476 0.264524
0.288030 0.434476 0.264524
0.295865 0.434476 0.264524
0.303700 0.434476 0.264524
0.311535 0.434476 0.264524
0.319370 0.434476 0.264524
0.327205 0.434476 0.264524
0.335040 0.434476 0.264524
0.342875 0.434476 0.264524
0.350710 0.434476 0.264524
0.358545 0.434476 0.264524
0.366380 0.434476 0.264524
0.374216 0.434476 0.264524
0.382051 0.434476 0.264524
0.389837 0.434476 0.264524
0.395619 0.434476 0.264524
0.403390 0.434476 0.264524
0.411162 0.434476 0.264524
0.418933 0.434476 0.264524
0.426704 0.434476 0.264524
0.434476 0.434476 0.264524
0.453612 0.445840 0.275889
0.472747 0.457204 0.287253
0.491883 0.468569 0.298617
0.511019 0.479933 0.309981
0.530154 0.491297 0.321346
0.549290 0.502662 0.332710
0.568426 0.514026 0.344074
0.587561 0.525390 0.355439
0.606697 0.536755 0.366803
0.625833 0.548119 0.378167
0.275889 0.453612 0.275889
0.283724 0.453612 0.275889
0.291559 0.453612 0.275889
0.299394 0.453612 0.275889
0.307229 0.453612 0.275889
0.315064 0.453612 0.275889
0.322899 0.453612 0.275889
0.330734 0.453612 0.275889
0.338569 0.453612 0.275889
0.346404 0.453612 0.275889
0.354239 0.453612 0.275889
0.362075 0.453612 0.275889
0.369910 0.453612 0.275889
0.377745 0.453612 0.275889
0.385580 0.453612 0.275889
0.393415 0.453612 0.275889
0.401201 0.453612 0.275889
0.406983 0.453612 0.275889
0.414755 0.453612 0.275889
0.422526 0.453612 0.275889
0.430297 0.453612 0.275889
0.438069 0.453612 0.275889
0.445840 0.453612 0.275889
0.453611 0.453612 0.275889
0.472747 0.464976 0.287253
0.491883 0.476340 0.298617
0.511019 0.487704 0.309981
0.530154 0.499069 0.321346
0.549290 0.510433 0.332710
0.568426 0.521797 0.344074
0.587561 0.533162 0.355439
0.606697 0.544526 0.366803
0.625833 0.555890 0.378167
0.287253 0.472747 0.287253
0.295088 0.472747 0.287253
0.302923 0.472747 0.287253
0.310758 0.472747 0.287253
0.318593 0.472747 0.287253
0.326428 0.472747 0.287253
0.334263 0.472747 0.287253
0.342099 0.472747 0.287253
0.349934 0.472747 0.287253
0.357769 0.472747 0.287253
0.365604 0.472747 0.287253
0.373439 0.472747 0.287253
0.381274 0.472747 0.287253
0.389109 0.472747 0.287253
0.396944 0.472747 0.287253
0.404779 0.472747 0.287253
0.412565 0.472747 0.287253
0.418347 0.472747 0.287253
0.426119 0.472747 0.287253
0.433890 0.472747 0.287253
0.441662 0.472747 0.287253
0.449433 0.472747 0.287253
0.457204 0.472747 0.287253
0.464976 0.472747 0.287253
0.472747 0.472747 0.287253
0.491883 0.484111 0.298617
0.511019 0.495476 0.309981
0.530154 0.506840 0.321346
0.549290 0.518204 0.332710
0.568426 0.529569 0.344074
0.587561 0.540933 0.355439
0.606697 0.552297 0.366803
0.625833 0.563662 0.378167
0.298617 0.491883 0.298617
0.306452 0.491883 0.298617
0.314287 0.491883 0.298617
0.322122 0.491883 0.298617
0.329958 0.491883 0.298617
0.337793 0.491883 0.298617
0.345628 0.491883 0.298617
0.353463 0.491883 0.298617
0.361298 0.491883 0.298617
0.369133 0.491883 0.298617
0.376968 0.491883 0.298617
0.384803 0.491883 0.298617
0.392638 0.491883 0.298617
0.400473 0.491883 0.298617
0.408309 0.491883 0.298617
0.416144 0.491883 0.298617
0.423930 0.491883 0.298617
0.429712 0.491883 0.298617
0.437483 0.491883 0.298617
0.445254 0.491883 0.298617
0.453026 0.491883 0.298617
0.460797 0.491883 0.298617
0.468569 0.491883 0.298617
0.476340 0.491883 0.298617
0.484111 0.491883 0.298617
0.491883 0.491883 0.298617
0.511019 0.503247 0.309981
0.530154 0.514611 0.321346
0.549290 0.525976 0.332710
0.568426 0.537340 0.344074
0.587561 0.548704 0.355439
0.606697 0.560069 0.366803
0.625833 0.571433 0.378167
0.309981 0.511019 0.309981
0.317816 0.511019 0.309981
0.325652 0.511019 0.309981
0.333487 0.511019 0.309981
0.341322 0.511019 0.309981
0.349157 0.511019 0.309981
0.356992 0.511019 0.309981
0.364827 0.511019 0.309981
0.372662 0.511019 0.309981
0.380497 0.511019 0.309981
0.388332 0.511019 0.309981
0.396167 0.511019 0.309981
0.404003 0.511019 0.309981
0.411838 0.511019 0.309981
0.419673 0.511019 0.309981
0.427508 0.511019 0.309981
0.435294 0.511019 0.309981
0.441076 0.511019 0.309981
0.448847 0.511019 0.309981
0.456619 0.511019 0.309981
0.464390 0.511019 0.309981
0.472162 0.511019 0.309981
0.479933 0.511019 0.309981
0.487704 0.511019 0.309981
