docs/luts/fuji_recipes/NEGA_RR_Classic_Negative.cube
TITLE "Fujifilm Recipe: RR Classic Negative (NEGA)"
# FilmSim=NEGA HL=3 SH=2 Col=-3 WB=6700K WBR=-2 WBB=7
LUT_3D_SIZE 33
DOMAIN_MIN 0.0 0.0 0.0
DOMAIN_MAX 1.0 1.0 1.0
0.014720 0.014720 0.014720
0.035760 0.023343 0.023343
0.055854 0.031578 0.031578
0.075717 0.039719 0.039719
0.095580 0.047860 0.047860
0.115443 0.056000 0.056000
0.135306 0.064141 0.064141
0.155169 0.072282 0.072282
0.175032 0.080422 0.080422
0.194895 0.088563 0.088563
0.214757 0.096704 0.096704
0.234620 0.104844 0.104844
0.254483 0.112985 0.112985
0.274346 0.121125 0.121125
0.294209 0.129266 0.129266
0.314072 0.137407 0.137407
0.333854 0.145514 0.145514
0.378270 0.162525 0.162525
0.402181 0.172156 0.172156
0.426092 0.181788 0.181788
0.450003 0.191419 0.191419
0.473914 0.201050 0.201050
0.497825 0.210682 0.210682
0.521736 0.220313 0.220313
0.545647 0.229945 0.229945
0.569558 0.239576 0.239576
0.593469 0.249207 0.249207
0.617380 0.258839 0.258839
0.641291 0.268470 0.268470
0.665202 0.278102 0.278102
0.689113 0.287733 0.287733
0.704417 0.293898 0.293898
0.704417 0.293898 0.293898
0.022944 0.034786 0.022944
0.035760 0.035185 0.023343
0.055854 0.043421 0.031578
0.075717 0.051561 0.039719
0.095580 0.059702 0.047860
0.115443 0.067843 0.056000
0.135306 0.075983 0.064141
0.155169 0.084124 0.072282
0.175032 0.092264 0.080422
0.194895 0.100405 0.088563
0.214757 0.108546 0.096704
0.234620 0.116686 0.104844
0.254483 0.124827 0.112985
0.274346 0.132968 0.121125
0.294209 0.141108 0.129266
0.314072 0.149249 0.137407
0.333854 0.157356 0.145514
0.378270 0.174367 0.162525
0.402181 0.183998 0.172156
0.426092 0.193630 0.181788
0.450003 0.203261 0.191419
0.473914 0.212893 0.201050
0.497825 0.222524 0.210682
0.521736 0.232155 0.220313
0.545647 0.241787 0.229945
0.569558 0.251418 0.239576
0.593469 0.261050 0.249207
0.617380 0.270681 0.258839
0.641291 0.280312 0.268470
0.665202 0.289944 0.278102
0.689113 0.299575 0.287733
0.704417 0.305740 0.293898
0.704417 0.305740 0.293898
0.031168 0.054852 0.031168
0.043585 0.054852 0.031168
0.055854 0.055263 0.031578
0.075717 0.063403 0.039719
0.095580 0.071544 0.047860
0.115443 0.079685 0.056000
0.135306 0.087825 0.064141
0.155169 0.095966 0.072282
0.175032 0.104107 0.080422
0.194895 0.112247 0.088563
0.214757 0.120388 0.096704
0.234620 0.128529 0.104844
0.254483 0.136669 0.112985
0.274346 0.144810 0.121125
0.294209 0.152950 0.129266
0.314072 0.161091 0.137407
0.333854 0.169198 0.145514
0.378270 0.186209 0.162525
0.402181 0.195841 0.172156
0.426092 0.205472 0.181788
0.450003 0.215103 0.191419
0.473914 0.224735 0.201050
0.497825 0.234366 0.210682
0.521736 0.243998 0.220313
0.545647 0.253629 0.229945
0.569558 0.263260 0.239576
0.593469 0.272892 0.249207
0.617380 0.282523 0.258839
0.641291 0.292155 0.268470
0.665202 0.301786 0.278102
0.689113 0.311417 0.287733
0.704417 0.317582 0.293898
0.704417 0.317582 0.293898
0.039392 0.074918 0.039392
0.051809 0.074918 0.039392
0.063667 0.074918 0.039392
0.075717 0.075246 0.039719
0.095580 0.083386 0.047860
0.115443 0.091527 0.056000
0.135306 0.099668 0.064141
0.155169 0.107808 0.072282
0.175032 0.115949 0.080422
0.194895 0.124089 0.088563
0.214757 0.132230 0.096704
0.234620 0.140371 0.104844
0.254483 0.148511 0.112985
0.274346 0.156652 0.121125
0.294209 0.164793 0.129266
0.314072 0.172933 0.137407
0.333854 0.181041 0.145514
0.378270 0.198051 0.162525
0.402181 0.207683 0.172156
0.426092 0.217314 0.181788
0.450003 0.226946 0.191419
0.473914 0.236577 0.201050
0.497825 0.246208 0.210682
0.521736 0.255840 0.220313
0.545647 0.265471 0.229945
0.569558 0.275103 0.239576
0.593469 0.284734 0.249207
0.617380 0.294365 0.258839
0.641291 0.303997 0.268470
0.665202 0.313628 0.278102
0.689113 0.323260 0.287733
0.704417 0.329424 0.293898
0.704417 0.329424 0.293898
0.047616 0.094984 0.047616
0.060032 0.094984 0.047616
0.071891 0.094984 0.047616
0.083614 0.094984 0.047616
0.095580 0.095228 0.047860
0.115443 0.103369 0.056000
0.135306 0.111510 0.064141
0.155169 0.119650 0.072282
0.175032 0.127791 0.080422
0.194895 0.135932 0.088563
0.214757 0.144072 0.096704
0.234620 0.152213 0.104844
0.254483 0.160354 0.112985
0.274346 0.168494 0.121125
0.294209 0.176635 0.129266
0.314072 0.184775 0.137407
0.333854 0.192883 0.145514
0.378270 0.209894 0.162525
0.402181 0.219525 0.172156
0.426092 0.229156 0.181788
0.450003 0.238788 0.191419
0.473914 0.248419 0.201050
0.497825 0.258051 0.210682
0.521736 0.267682 0.220313
0.545647 0.277313 0.229945
0.569558 0.286945 0.239576
0.593469 0.296576 0.249207
0.617380 0.306208 0.258839
0.641291 0.315839 0.268470
0.665202 0.325470 0.278102
0.689113 0.335102 0.287733
0.704417 0.341267 0.293898
0.704417 0.341267 0.293898
0.055840 0.115050 0.055840
0.068256 0.115050 0.055840
0.080115 0.115050 0.055840
0.091837 0.115050 0.055840
0.103560 0.115050 0.055840
0.115443 0.115211 0.056000
0.135306 0.123352 0.064141
0.155169 0.131493 0.072282
0.175032 0.139633 0.080422
0.194895 0.147774 0.088563
0.214757 0.155914 0.096704
0.234620 0.164055 0.104844
0.254483 0.172196 0.112985
0.274346 0.180336 0.121125
0.294209 0.188477 0.129266
0.314072 0.196618 0.137407
0.333854 0.204725 0.145514
0.378270 0.221736 0.162525
0.402181 0.231367 0.172156
0.426092 0.240999 0.181788
0.450003 0.250630 0.191419
0.473914 0.260261 0.201050
0.497825 0.269893 0.210682
0.521736 0.279524 0.220313
0.545647 0.289156 0.229945
0.569558 0.298787 0.239576
0.593469 0.308418 0.249207
0.617380 0.318050 0.258839
0.641291 0.327681 0.268470
0.665202 0.337313 0.278102
0.689113 0.346944 0.287733
0.704417 0.353109 0.293898
0.704417 0.353109 0.293898
0.064063 0.135117 0.064063
0.076480 0.135117 0.064063
0.088339 0.135117 0.064063
0.100061 0.135117 0.064063
0.111784 0.135117 0.064063
0.123506 0.135117 0.064063
0.135306 0.135194 0.064141
0.155169 0.143335 0.072282
0.175032 0.151475 0.080422
0.194895 0.159616 0.088563
0.214757 0.167757 0.096704
0.234620 0.175897 0.104844
0.254483 0.184038 0.112985
0.274346 0.192179 0.121125
0.294209 0.200319 0.129266
0.314072 0.208460 0.137407
0.333854 0.216567 0.145514
0.378270 0.233578 0.162525
0.402181 0.243209 0.172156
0.426092 0.252841 0.181788
0.450003 0.262472 0.191419
0.473914 0.272104 0.201050
0.497825 0.281735 0.210682
0.521736 0.291366 0.220313
0.545647 0.300998 0.229945
0.569558 0.310629 0.239576
0.593469 0.320261 0.249207
0.617380 0.329892 0.258839
0.641291 0.339523 0.268470
0.665202 0.349155 0.278102
0.689113 0.358786 0.287733
0.704417 0.364951 0.293898
0.704417 0.364951 0.293898
0.072287 0.155183 0.072287
0.084704 0.155183 0.072287
0.096563 0.155183 0.072287
0.108285 0.155183 0.072287
0.120008 0.155183 0.072287
0.131730 0.155183 0.072287
0.143452 0.155183 0.072287
0.155174 0.155183 0.072287
0.175032 0.163318 0.080422
0.194895 0.171458 0.088563
0.214757 0.179599 0.096704
0.234620 0.187739 0.104844
0.254483 0.195880 0.112985
0.274346 0.204021 0.121125
0.294209 0.212161 0.129266
0.314072 0.220302 0.137407
0.333854 0.228409 0.145514
0.378270 0.245420 0.162525
0.402181 0.255052 0.172156
0.426092 0.264683 0.181788
0.450003 0.274314 0.191419
0.473914 0.283946 0.201050
0.497825 0.293577 0.210682
0.521736 0.303209 0.220313
0.545647 0.312840 0.229945
0.569558 0.322471 0.239576
0.593469 0.332103 0.249207
0.617380 0.341734 0.258839
0.641291 0.351366 0.268470
0.665202 0.360997 0.278102
0.689113 0.370628 0.287733
0.704417 0.376793 0.293898
0.704417 0.376793 0.293898
0.080511 0.175249 0.080511
0.092928 0.175249 0.080511
0.104787 0.175249 0.080511
0.116509 0.175249 0.080511
0.128231 0.175249 0.080511
0.139954 0.175249 0.080511
0.151676 0.175249 0.080511
0.163398 0.175249 0.080511
0.175121 0.175249 0.080511
0.194895 0.183300 0.088563
0.214757 0.191441 0.096704
0.234620 0.199582 0.104844
0.254483 0.207722 0.112985
0.274346 0.215863 0.121125
0.294209 0.224004 0.129266
0.314072 0.232144 0.137407
0.333854 0.240252 0.145514
0.378270 0.257262 0.162525
0.402181 0.266894 0.172156
0.426092 0.276525 0.181788
0.450003 0.286157 0.191419
0.473914 0.295788 0.201050
0.497825 0.305419 0.210682
0.521736 0.315051 0.220313
0.545647 0.324682 0.229945
0.569558 0.334314 0.239576
0.593469 0.343945 0.249207
0.617380 0.353576 0.258839
0.641291 0.363208 0.268470
0.665202 0.372839 0.278102
0.689113 0.382471 0.287733
0.704417 0.388635 0.293898
0.704417 0.388635 0.293898
0.088735 0.195315 0.088735
0.101152 0.195315 0.088735
0.113011 0.195315 0.088735
0.124733 0.195315 0.088735
0.136455 0.195315 0.088735
0.148178 0.195315 0.088735
0.159900 0.195315 0.088735
0.171622 0.195315 0.088735
0.183345 0.195315 0.088735
0.195067 0.195315 0.088735
0.214757 0.203283 0.096704
0.234620 0.211424 0.104844
0.254483 0.219565 0.112985
0.274346 0.227705 0.121125
0.294209 0.235846 0.129266
0.314072 0.243986 0.137407
0.333854 0.252094 0.145514
0.378270 0.269105 0.162525
0.402181 0.278736 0.172156
0.426092 0.288367 0.181788
0.450003 0.297999 0.191419
0.473914 0.307630 0.201050
0.497825 0.317262 0.210682
0.521736 0.326893 0.220313
0.545647 0.336524 0.229945
0.569558 0.346156 0.239576
0.593469 0.355787 0.249207
0.617380 0.365419 0.258839
0.641291 0.375050 0.268470
0.665202 0.384681 0.278102
0.689113 0.394313 0.287733
0.704417 0.400477 0.293898
0.704417 0.400477 0.293898
0.096959 0.215381 0.096959
0.109376 0.215381 0.096959
0.121235 0.215381 0.096959
0.132957 0.215381 0.096959
0.144679 0.215381 0.096959
0.156402 0.215381 0.096959
0.168124 0.215381 0.096959
0.179846 0.215381 0.096959
0.191568 0.215381 0.096959
0.203291 0.215381 0.096959
0.215013 0.215381 0.096959
0.234620 0.223266 0.104844
0.254483 0.231407 0.112985
0.274346 0.239547 0.121125
0.294209 0.247688 0.129266
0.314072 0.255829 0.137407
0.333854 0.263936 0.145514
0.378270 0.280947 0.162525
0.402181 0.290578 0.172156
0.426092 0.300210 0.181788
0.450003 0.309841 0.191419
0.473914 0.319472 0.201050
0.497825 0.329104 0.210682
0.521736 0.338735 0.220313
0.545647 0.348367 0.229945
0.569558 0.357998 0.239576
0.593469 0.367629 0.249207
0.617380 0.377261 0.258839
0.641291 0.386892 0.268470
0.665202 0.396524 0.278102
0.689113 0.406155 0.287733
0.704417 0.412320 0.293898
0.704417 0.412320 0.293898
0.105183 0.235447 0.105183
0.117600 0.235447 0.105183
0.129459 0.235447 0.105183
0.141181 0.235447 0.105183
0.152903 0.235447 0.105183
0.164625 0.235447 0.105183
0.176348 0.235447 0.105183
0.188070 0.235447 0.105183
0.199792 0.235447 0.105183
0.211515 0.235447 0.105183
0.223237 0.235447 0.105183
0.234959 0.235447 0.105183
0.254483 0.243249 0.112985
0.274346 0.251390 0.121125
0.294209 0.259530 0.129266
0.314072 0.267671 0.137407
0.333854 0.275778 0.145514
0.378270 0.292789 0.162525
0.402181 0.302420 0.172156
0.426092 0.312052 0.181788
0.450003 0.321683 0.191419
0.473914 0.331315 0.201050
0.497825 0.340946 0.210682
0.521736 0.350577 0.220313
0.545647 0.360209 0.229945
0.569558 0.369840 0.239576
0.593469 0.379472 0.249207
0.617380 0.389103 0.258839
0.641291 0.398734 0.268470
0.665202 0.408366 0.278102
0.689113 0.417997 0.287733
0.704417 0.424162 0.293898
0.704417 0.424162 0.293898
0.113407 0.255513 0.113407
0.125824 0.255513 0.113407
0.137682 0.255513 0.113407
0.149405 0.255513 0.113407
0.161127 0.255513 0.113407
0.172849 0.255513 0.113407
0.184572 0.255513 0.113407
0.196294 0.255513 0.113407
0.208016 0.255513 0.113407
0.219739 0.255513 0.113407
0.231461 0.255513 0.113407
0.243183 0.255513 0.113407
0.254905 0.255513 0.113407
0.274346 0.263232 0.121125
0.294209 0.271372 0.129266
0.314072 0.279513 0.137407
0.333854 0.287620 0.145514
0.378270 0.304631 0.162525
0.402181 0.314262 0.172156
0.426092 0.323894 0.181788
0.450003 0.333525 0.191419
0.473914 0.343157 0.201050
0.497825 0.352788 0.210682
0.521736 0.362420 0.220313
0.545647 0.372051 0.229945
0.569558 0.381682 0.239576
0.593469 0.391314 0.249207
0.617380 0.400945 0.258839
0.641291 0.410577 0.268470
0.665202 0.420208 0.278102
0.689113 0.429839 0.287733
0.704417 0.436004 0.293898
0.704417 0.436004 0.293898
0.121631 0.275579 0.121631
0.134048 0.275579 0.121631
0.145906 0.275579 0.121631
0.157629 0.275579 0.121631
0.169351 0.275579 0.121631
0.181073 0.275579 0.121631
0.192796 0.275579 0.121631
0.204518 0.275579 0.121631
0.216240 0.275579 0.121631
0.227962 0.275579 0.121631
0.239685 0.275579 0.121631
0.251407 0.275579 0.121631
0.263129 0.275579 0.121631
0.274852 0.275579 0.121631
0.294209 0.283215 0.129266
0.314072 0.291355 0.137407
0.333854 0.299463 0.145514
0.378270 0.316473 0.162525
0.402181 0.326105 0.172156
0.426092 0.335736 0.181788
0.450003 0.345368 0.191419
0.473914 0.354999 0.201050
0.497825 0.364630 0.210682
0.521736 0.374262 0.220313
0.545647 0.383893 0.229945
0.569558 0.393525 0.239576
0.593469 0.403156 0.249207
0.617380 0.412787 0.258839
0.641291 0.422419 0.268470
0.665202 0.432050 0.278102
0.689113 0.441682 0.287733
0.704417 0.447846 0.293898
0.704417 0.447846 0.293898
0.129855 0.295645 0.129855
0.142272 0.295645 0.129855
0.154130 0.295645 0.129855
0.165853 0.295645 0.129855
0.177575 0.295645 0.129855
0.189297 0.295645 0.129855
0.201019 0.295645 0.129855
0.212742 0.295645 0.129855
0.224464 0.295645 0.129855
0.236186 0.295645 0.129855
0.247909 0.295645 0.129855
0.259631 0.295645 0.129855
0.271353 0.295645 0.129855
0.283075 0.295645 0.129855
0.294798 0.295645 0.129855
0.314072 0.303197 0.137407
0.333854 0.311305 0.145514
0.378270 0.328315 0.162525
0.402181 0.337947 0.172156
0.426092 0.347578 0.181788
0.450003 0.357210 0.191419
0.473914 0.366841 0.201050
0.497825 0.376473 0.210682
0.521736 0.386104 0.220313
0.545647 0.395735 0.229945
0.569558 0.405367 0.239576
0.593469 0.414998 0.249207
0.617380 0.424630 0.258839
0.641291 0.434261 0.268470
0.665202 0.443892 0.278102
0.689113 0.453524 0.287733
0.704417 0.459688 0.293898
0.704417 0.459688 0.293898
0.138079 0.315711 0.138079
0.150495 0.315711 0.138079
0.162354 0.315711 0.138079
0.174076 0.315711 0.138079
0.185799 0.315711 0.138079
0.197521 0.315711 0.138079
0.209243 0.315711 0.138079
0.220966 0.315711 0.138079
0.232688 0.315711 0.138079
0.244410 0.315711 0.138079
0.256133 0.315711 0.138079
0.267855 0.315711 0.138079
0.279577 0.315711 0.138079
0.291299 0.315711 0.138079
0.303022 0.315711 0.138079
0.314744 0.315711 0.138079
0.333854 0.323147 0.145514
0.378270 0.340158 0.162525
0.402181 0.349789 0.172156
0.426092 0.359420 0.181788
0.450003 0.369052 0.191419
0.473914 0.378683 0.201050
0.497825 0.388315 0.210682
0.521736 0.397946 0.220313
0.545647 0.407578 0.229945
0.569558 0.417209 0.239576
0.593469 0.426840 0.249207
0.617380 0.436472 0.258839
0.641291 0.446103 0.268470
0.665202 0.455735 0.278102
0.689113 0.465366 0.287733
0.704417 0.471531 0.293898
0.704417 0.471531 0.293898
0.146251 0.335652 0.146251
0.158668 0.335652 0.146251
0.170527 0.335652 0.146251
0.182249 0.335652 0.146251
0.193971 0.335652 0.146251
0.205694 0.335652 0.146251
0.217416 0.335652 0.146251
0.229138 0.335652 0.146251
0.240861 0.335652 0.146251
0.252583 0.335652 0.146251
0.264305 0.335652 0.146251
0.276027 0.335652 0.146251
0.287750 0.335652 0.146251
0.299472 0.335652 0.146251
0.311194 0.335652 0.146251
0.322917 0.335652 0.146251
0.334591 0.335652 0.146251
0.378270 0.351926 0.162525
0.402181 0.361557 0.172156
0.426092 0.371189 0.181788
0.450003 0.380820 0.191419
0.473914 0.390452 0.201050
0.497825 0.400083 0.210682
0.521736 0.409714 0.220313
0.545647 0.419346 0.229945
0.569558 0.428977 0.239576
0.593469 0.438609 0.249207
0.617380 0.466653 0.258839
0.641291 0.476410 0.268470
0.665202 0.486166 0.278102
0.689113 0.495922 0.287733
0.704417 0.502167 0.293898
0.704417 0.502167 0.293898
0.163517 0.380733 0.163517
0.175934 0.380733 0.163517
0.187792 0.380733 0.163517
0.199515 0.380733 0.163517
0.211237 0.380733 0.163517
0.222959 0.380733 0.163517
0.234682 0.380733 0.163517
0.246404 0.380733 0.163517
0.258126 0.380733 0.163517
0.269848 0.380733 0.163517
0.281571 0.380733 0.163517
0.293293 0.380733 0.163517
0.305015 0.380733 0.163517
0.316738 0.380733 0.163517
0.328460 0.380733 0.163517
0.340182 0.380733 0.163517
0.351857 0.380733 0.163517
0.379275 0.380733 0.163517
0.402181 0.389484 0.172156
0.426092 0.399241 0.181788
0.450003 0.408997 0.191419
0.473914 0.418754 0.201050
0.497825 0.428510 0.210682
0.521736 0.438266 0.220313
0.545647 0.448023 0.229945
0.569558 0.457779 0.239576
0.593469 0.467536 0.249207
0.617380 0.477292 0.258839
0.641291 0.487048 0.268470
0.665202 0.496805 0.278102
0.689113 0.506561 0.287733
0.704417 0.512806 0.293898
0.704417 0.512806 0.293898
0.173247 0.404888 0.173247
0.185663 0.404888 0.173247
0.197522 0.404888 0.173247
0.209245 0.404888 0.173247
0.220967 0.404888 0.173247
0.232689 0.404888 0.173247
0.244411 0.404888 0.173247
0.256134 0.404888 0.173247
0.267856 0.404888 0.173247
0.279578 0.404888 0.173247
0.291301 0.404888 0.173247
0.303023 0.404888 0.173247
0.314745 0.404888 0.173247
0.326467 0.404888 0.173247
0.338190 0.404888 0.173247
0.349912 0.404888 0.173247
0.361587 0.404888 0.173247
0.389131 0.404888 0.173247
0.403286 0.404888 0.173247
0.426092 0.413540 0.181788
0.450003 0.423297 0.191419
0.473914 0.433053 0.201050
0.497825 0.442809 0.210682
0.521736 0.452566 0.220313
0.545647 0.462322 0.229945
0.569558 0.472079 0.239576
0.593469 0.481835 0.249207
0.617380 0.491591 0.258839
0.641291 0.501348 0.268470
0.665202 0.511104 0.278102
0.689113 0.520861 0.287733
0.704417 0.527105 0.293898
0.704417 0.527105 0.293898
0.182977 0.429044 0.182977
0.195393 0.429044 0.182977
0.207252 0.429044 0.182977
0.218975 0.429044 0.182977
0.230697 0.429044 0.182977
0.242419 0.429044 0.182977
0.254141 0.429044 0.182977
0.265864 0.429044 0.182977
0.277586 0.429044 0.182977
0.289308 0.429044 0.182977
0.301031 0.429044 0.182977
0.312753 0.429044 0.182977
0.324475 0.429044 0.182977
0.336197 0.429044 0.182977
0.347920 0.429044 0.182977
0.359642 0.429044 0.182977
0.371316 0.429044 0.182977
0.398987 0.429044 0.182977
0.413142 0.429044 0.182977
0.427297 0.429044 0.182977
0.450003 0.437596 0.191419
0.473914 0.447352 0.201050
0.497825 0.457109 0.210682
0.521736 0.466865 0.220313
0.545647 0.476622 0.229945
0.569558 0.486378 0.239576
0.593469 0.496134 0.249207
0.617380 0.505891 0.258839
0.641291 0.515647 0.268470
0.665202 0.525404 0.278102
0.689113 0.535160 0.287733
0.704417 0.541405 0.293898
0.704417 0.541405 0.293898
0.192706 0.453200 0.192706
0.205123 0.453200 0.192706
0.216982 0.453200 0.192706
0.228704 0.453200 0.192706
0.240427 0.453200 0.192706
0.252149 0.453200 0.192706
0.263871 0.453200 0.192706
0.275594 0.453200 0.192706
0.287316 0.453200 0.192706
0.299038 0.453200 0.192706
0.310760 0.453200 0.192706
0.322483 0.453200 0.192706
0.334205 0.453200 0.192706
0.345927 0.453200 0.192706
0.357650 0.453200 0.192706
0.369372 0.453200 0.192706
0.381046 0.453200 0.192706
0.408844 0.453200 0.192706
0.422998 0.453200 0.192706
0.437153 0.453200 0.192706
0.451307 0.453200 0.192706
0.473914 0.461652 0.201050
0.497825 0.471408 0.210682
0.521736 0.481165 0.220313
0.545647 0.490921 0.229945
0.569558 0.500677 0.239576
0.593469 0.510434 0.249207
0.617380 0.520190 0.258839
0.641291 0.529947 0.268470
0.665202 0.539703 0.278102
0.689113 0.549459 0.287733
0.704417 0.555704 0.293898
0.704417 0.555704 0.293898
0.202436 0.477355 0.202436
0.214853 0.477355 0.202436
0.226712 0.477355 0.202436
0.238434 0.477355 0.202436
0.250157 0.477355 0.202436
0.261879 0.477355 0.202436
0.273601 0.477355 0.202436
0.285324 0.477355 0.202436
0.297046 0.477355 0.202436
0.308768 0.477355 0.202436
0.320490 0.477355 0.202436
0.332213 0.477355 0.202436
0.343935 0.477355 0.202436
0.355657 0.477355 0.202436
0.367380 0.477355 0.202436
0.379102 0.477355 0.202436
0.390776 0.477355 0.202436
0.418700 0.477355 0.202436
0.432854 0.477355 0.202436
0.447009 0.477355 0.202436
0.461164 0.477355 0.202436
0.475318 0.477355 0.202436
0.497825 0.485707 0.210682
0.521736 0.495464 0.220313
0.545647 0.505220 0.229945
0.569558 0.514977 0.239576
0.593469 0.524733 0.249207
0.617380 0.534490 0.258839
0.641291 0.544246 0.268470
0.665202 0.554002 0.278102
0.689113 0.563759 0.287733
0.704417 0.570003 0.293898
0.704417 0.570003 0.293898
0.212166 0.501511 0.212166
0.224583 0.501511 0.212166
0.236442 0.501511 0.212166
0.248164 0.501511 0.212166
0.259887 0.501511 0.212166
0.271609 0.501511 0.212166
0.283331 0.501511 0.212166
0.295053 0.501511 0.212166
0.306776 0.501511 0.212166
0.318498 0.501511 0.212166
0.330220 0.501511 0.212166
0.341943 0.501511 0.212166
0.353665 0.501511 0.212166
0.365387 0.501511 0.212166
0.377109 0.501511 0.212166
0.388832 0.501511 0.212166
0.400506 0.501511 0.212166
0.428556 0.501511 0.212166
0.442711 0.501511 0.212166
0.456865 0.501511 0.212166
0.471020 0.501511 0.212166
0.485174 0.501511 0.212166
0.499329 0.501511 0.212166
0.521736 0.509763 0.220313
0.545647 0.519520 0.229945
0.569558 0.529276 0.239576
0.593469 0.539032 0.249207
0.617380 0.548789 0.258839
0.641291 0.558545 0.268470
0.665202 0.568302 0.278102
0.689113 0.578058 0.287733
0.704417 0.584303 0.293898
0.704417 0.584303 0.293898
0.221896 0.525666 0.221896
0.234313 0.525666 0.221896
0.246172 0.525666 0.221896
0.257894 0.525666 0.221896
0.269617 0.525666 0.221896
0.281339 0.525666 0.221896
0.293061 0.525666 0.221896
0.304783 0.525666 0.221896
0.316506 0.525666 0.221896
0.328228 0.525666 0.221896
0.339950 0.525666 0.221896
0.351673 0.525666 0.221896
0.363395 0.525666 0.221896
0.375117 0.525666 0.221896
0.386839 0.525666 0.221896
0.398562 0.525666 0.221896
0.410236 0.525666 0.221896
0.438412 0.525666 0.221896
0.452567 0.525666 0.221896
0.466721 0.525666 0.221896
0.480876 0.525666 0.221896
0.495031 0.525666 0.221896
0.509185 0.525666 0.221896
0.523340 0.525666 0.221896
0.545647 0.533819 0.229945
0.569558 0.543575 0.239576
0.593469 0.553332 0.249207
0.617380 0.563088 0.258839
0.641291 0.572845 0.268470
0.665202 0.582601 0.278102
0.689113 0.592357 0.287733
0.704417 0.598602 0.293898
0.704417 0.598602 0.293898
0.231626 0.549822 0.231626
0.244043 0.549822 0.231626
0.255902 0.549822 0.231626
0.267624 0.549822 0.231626
0.279346 0.549822 0.231626
0.291069 0.549822 0.231626
0.302791 0.549822 0.231626
0.314513 0.549822 0.231626
0.326236 0.549822 0.231626
0.337958 0.549822 0.231626
0.349680 0.549822 0.231626
0.361402 0.549822 0.231626
0.373125 0.549822 0.231626
0.384847 0.549822 0.231626
0.396569 0.549822 0.231626
0.408292 0.549822 0.231626
0.419966 0.549822 0.231626
0.448268 0.549822 0.231626
0.462423 0.549822 0.231626
0.476578 0.549822 0.231626
0.490732 0.549822 0.231626
0.504887 0.549822 0.231626
0.519041 0.549822 0.231626
0.533196 0.549822 0.231626
0.547351 0.549822 0.231626
0.569558 0.557875 0.239576
0.593469 0.567631 0.249207
0.617380 0.577388 0.258839
0.641291 0.587144 0.268470
0.665202 0.596900 0.278102
0.689113 0.606657 0.287733
0.704417 0.612901 0.293898
0.704417 0.612901 0.293898
0.241356 0.573977 0.241356
0.253773 0.573977 0.241356
0.265632 0.573977 0.241356
0.277354 0.573977 0.241356
0.289076 0.573977 0.241356
0.300799 0.573977 0.241356
0.312521 0.573977 0.241356
0.324243 0.573977 0.241356
0.335966 0.573977 0.241356
0.347688 0.573977 0.241356
0.359410 0.573977 0.241356
0.371132 0.573977 0.241356
0.382855 0.573977 0.241356
0.394577 0.573977 0.241356
0.406299 0.573977 0.241356
0.418022 0.573977 0.241356
0.429696 0.573977 0.241356
0.458125 0.573977 0.241356
0.472279 0.573977 0.241356
0.486434 0.573977 0.241356
0.500588 0.573977 0.241356
0.514743 0.573977 0.241356
0.528898 0.573977 0.241356
0.543052 0.573977 0.241356
0.557207 0.573977 0.241356
0.571361 0.573977 0.241356
0.593469 0.581931 0.249207
0.617380 0.591687 0.258839
0.641291 0.601443 0.268470
0.665202 0.611200 0.278102
0.689113 0.620956 0.287733
0.704417 0.627201 0.293898
0.704417 0.627201 0.293898
0.251086 0.598133 0.251086
0.263503 0.598133 0.251086
0.275362 0.598133 0.251086
0.287084 0.598133 0.251086
0.298806 0.598133 0.251086
0.310529 0.598133 0.251086
0.322251 0.598133 0.251086
0.333973 0.598133 0.251086
0.345695 0.598133 0.251086
0.357418 0.598133 0.251086
0.369140 0.598133 0.251086
0.380862 0.598133 0.251086
0.392585 0.598133 0.251086
0.404307 0.598133 0.251086
0.416029 0.598133 0.251086
0.427751 0.598133 0.251086
0.439426 0.598133 0.251086
0.467981 0.598133 0.251086
0.482135 0.598133 0.251086
0.496290 0.598133 0.251086
0.510445 0.598133 0.251086
0.524599 0.598133 0.251086
0.538754 0.598133 0.251086
0.552908 0.598133 0.251086
