docs/luts/fuji_recipes/NEGA_PE_Pro_Neg_LaRoque.cube
TITLE "Fujifilm Recipe: PE Pro Neg LaRoque (NEGA)"
# FilmSim=NEGA HL=-2 SH=-2 Col=-1 WB=Auto WBR=0 WBB=0
LUT_3D_SIZE 9
DOMAIN_MIN 0.0 0.0 0.0
DOMAIN_MAX 1.0 1.0 1.0
0.094720 0.094720 0.094720
0.193520 0.109080 0.109080
0.292320 0.123440 0.123440
0.391120 0.137800 0.137800
0.489766 0.152138 0.152138
0.541643 0.161528 0.161528
0.635398 0.175352 0.175352
0.729154 0.189176 0.189176
0.822910 0.203000 0.203000
0.109080 0.193520 0.109080
0.193520 0.193520 0.109080
0.292320 0.207880 0.123440
0.391120 0.222240 0.137800
0.489766 0.236578 0.152138
0.541643 0.245968 0.161528
0.635398 0.259792 0.175352
0.729154 0.273616 0.189176
0.822910 0.287440 0.203000
0.123440 0.292320 0.123440
0.207880 0.292320 0.123440
0.292320 0.292320 0.123440
0.391120 0.306680 0.137800
0.489766 0.321018 0.152138
0.541643 0.330408 0.161528
0.635398 0.344232 0.175352
0.729154 0.358056 0.189176
0.822910 0.371880 0.203000
0.137800 0.391120 0.137800
0.222240 0.391120 0.137800
0.306680 0.391120 0.137800
0.391120 0.391120 0.137800
0.489766 0.405458 0.152138
0.541643 0.414848 0.161528
0.635398 0.428672 0.175352
0.729154 0.442496 0.189176
0.822910 0.456320 0.203000
0.152138 0.489766 0.152138
0.236578 0.489766 0.152138
0.321018 0.489766 0.152138
0.405458 0.489766 0.152138
0.489766 0.489766 0.152138
0.541643 0.499156 0.161528
0.635398 0.512980 0.175352
0.729154 0.493945 0.189176
0.822910 0.507589 0.203000
0.161528 0.541643 0.161528
0.245968 0.541643 0.161528
0.330408 0.541643 0.161528
0.414848 0.541643 0.161528
0.499156 0.541643 0.161528
0.541643 0.541643 0.161528
0.635398 0.555286 0.175352
0.729154 0.568930 0.189176
0.822910 0.582574 0.203000
0.175352 0.635398 0.175352
0.259792 0.635398 0.175352
0.344232 0.635398 0.175352
0.428672 0.635398 0.175352
0.512980 0.635398 0.175352
0.555286 0.635398 0.175352
0.635398 0.635398 0.175352
0.729154 0.649042 0.189176
0.822910 0.662686 0.203000
0.189176 0.729154 0.189176
0.273616 0.729154 0.189176
0.358056 0.729154 0.189176
0.442496 0.729154 0.189176
0.493945 0.729154 0.189176
0.568930 0.729154 0.189176
0.649042 0.729154 0.189176
0.729154 0.729154 0.189176
0.822910 0.742798 0.203000
0.203000 0.822910 0.203000
0.287440 0.822910 0.203000
0.371880 0.822910 0.203000
0.456320 0.822910 0.203000
0.507589 0.822910 0.203000
0.582574 0.822910 0.203000
0.662686 0.822910 0.203000
0.742798 0.822910 0.203000
0.822910 0.822910 0.203000
0.109080 0.109080 0.193520
0.193520 0.109080 0.193520
0.292320 0.123440 0.207880
0.391120 0.137800 0.222240
0.489766 0.152138 0.236578
0.541643 0.161528 0.245968
0.635398 0.175352 0.259792
0.729154 0.189176 0.273616
0.822910 0.203000 0.287440
0.109080 0.193520 0.193520
0.207880 0.207880 0.207880
0.306680 0.222240 0.222240
0.405480 0.236600 0.236600
0.504126 0.250938 0.250938
0.555801 0.260308 0.260308
0.649557 0.274132 0.274132
0.743313 0.287956 0.287956
0.837068 0.301780 0.301780
0.123440 0.292320 0.207880
0.222240 0.306680 0.222240
0.306680 0.306680 0.222240
0.405480 0.321040 0.236600
0.504126 0.335378 0.250938
0.555801 0.344748 0.260308
0.649557 0.358572 0.274132
0.743313 0.372396 0.287956
0.837068 0.386220 0.301780
0.137800 0.391120 0.222240
0.236600 0.405480 0.236600
0.321040 0.405480 0.236600
0.405480 0.405480 0.236600
0.504126 0.419818 0.250938
0.555801 0.429188 0.260308
0.649557 0.443012 0.274132
0.743313 0.456836 0.287956
0.837068 0.470660 0.301780
0.152138 0.489766 0.236578
0.250938 0.504126 0.250938
0.335378 0.504126 0.250938
0.419818 0.504126 0.250938
0.504126 0.504126 0.250938
0.555801 0.513496 0.260308
0.649557 0.494460 0.274132
0.743313 0.508104 0.287956
0.837068 0.521747 0.301780
0.161528 0.541643 0.245968
0.260308 0.555801 0.260308
0.344748 0.555801 0.260308
0.429188 0.555801 0.260308
0.513496 0.555801 0.260308
0.555801 0.555801 0.260308
0.649557 0.569445 0.274132
0.743313 0.583089 0.287956
0.837068 0.596732 0.301780
0.175352 0.635398 0.259792
0.274132 0.649557 0.274132
0.358572 0.649557 0.274132
0.443012 0.649557 0.274132
0.494460 0.649557 0.274132
0.569445 0.649557 0.274132
0.649557 0.649557 0.274132
0.743313 0.663201 0.287956
0.837068 0.676844 0.301780
0.189176 0.729154 0.273616
0.287956 0.743313 0.287956
0.372396 0.743313 0.287956
0.456836 0.743313 0.287956
0.508104 0.743313 0.287956
0.583089 0.743313 0.287956
0.663201 0.743313 0.287956
0.743313 0.743313 0.287956
0.837068 0.756956 0.301780
0.203000 0.822910 0.287440
0.301780 0.837068 0.301780
0.386220 0.837068 0.301780
0.470660 0.837068 0.301780
0.521747 0.837068 0.301780
0.596732 0.837068 0.301780
0.676844 0.837068 0.301780
0.756956 0.837068 0.301780
0.837068 0.837068 0.301780
0.123440 0.123440 0.292320
0.207880 0.123440 0.292320
0.292320 0.123440 0.292320
0.391120 0.137800 0.306680
0.489766 0.152138 0.321018
0.541643 0.161528 0.330408
0.635398 0.175352 0.344232
0.729154 0.189176 0.358056
0.822910 0.203000 0.371880
0.123440 0.207880 0.292320
0.222240 0.222240 0.306680
0.306680 0.222240 0.306680
0.405480 0.236600 0.321040
0.504126 0.250938 0.335378
0.555801 0.260308 0.344748
0.649557 0.274132 0.358572
0.743313 0.287956 0.372396
0.837068 0.301780 0.386220
0.123440 0.292320 0.292320
0.222240 0.306680 0.306680
0.321040 0.321040 0.321040
0.419840 0.335400 0.335400
0.518486 0.349738 0.349738
0.569960 0.359088 0.359088
0.663715 0.372912 0.372912
0.757471 0.386736 0.386736
0.851227 0.400560 0.400560
0.137800 0.391120 0.306680
0.236600 0.405480 0.321040
0.335400 0.419840 0.335400
0.419840 0.419840 0.335400
0.518486 0.434178 0.349738
0.569960 0.443528 0.359088
0.663715 0.457352 0.372912
0.757471 0.471176 0.386736
0.851227 0.485000 0.400560
0.152138 0.489766 0.321018
0.250938 0.504126 0.335378
0.349738 0.518486 0.349738
0.434178 0.518486 0.349738
0.518486 0.518486 0.349738
0.569960 0.494975 0.359088
0.663715 0.508618 0.372912
0.757471 0.522262 0.386736
0.851227 0.535906 0.400560
0.161528 0.541643 0.330408
0.260308 0.555801 0.344748
0.359088 0.569960 0.359088
0.443528 0.569960 0.359088
0.494975 0.569960 0.359088
0.569960 0.569960 0.359088
0.663715 0.583603 0.372912
0.757471 0.597247 0.386736
0.851227 0.610891 0.400560
0.175352 0.635398 0.344232
0.274132 0.649557 0.358572
0.372912 0.663715 0.372912
0.457352 0.663715 0.372912
0.508618 0.663715 0.372912
0.583603 0.663715 0.372912
0.663715 0.663715 0.372912
0.757471 0.677359 0.386736
0.851227 0.691003 0.400560
0.189176 0.729154 0.358056
0.287956 0.743313 0.372396
0.386736 0.757471 0.386736
0.471176 0.757471 0.386736
0.522262 0.757471 0.386736
0.597247 0.757471 0.386736
0.677359 0.757471 0.386736
0.757471 0.757471 0.386736
0.851227 0.771115 0.400560
0.203000 0.822910 0.371880
0.301780 0.837068 0.386220
0.400560 0.851227 0.400560
0.485000 0.851227 0.400560
0.535906 0.851227 0.400560
0.610891 0.851227 0.400560
0.691003 0.851227 0.400560
0.771115 0.851227 0.400560
0.851227 0.851227 0.400560
0.137800 0.137800 0.391120
0.222240 0.137800 0.391120
0.306680 0.137800 0.391120
0.391120 0.137800 0.391120
0.489766 0.152138 0.405458
0.541643 0.161528 0.414848
0.635398 0.175352 0.428672
0.729154 0.189176 0.442496
0.822910 0.203000 0.456320
0.137800 0.222240 0.391120
0.236600 0.236600 0.405480
0.321040 0.236600 0.405480
0.405480 0.236600 0.405480
0.504126 0.250938 0.419818
0.555801 0.260308 0.429188
0.649557 0.274132 0.443012
0.743313 0.287956 0.456836
0.837068 0.301780 0.470660
0.137800 0.306680 0.391120
0.236600 0.321040 0.405480
0.335400 0.335400 0.419840
0.419840 0.335400 0.419840
0.518486 0.349738 0.434178
0.569960 0.359088 0.443528
0.663715 0.372912 0.457352
0.757471 0.386736 0.471176
0.851227 0.400560 0.485000
0.137800 0.391120 0.391120
0.236600 0.405480 0.405480
0.335400 0.419840 0.419840
0.434200 0.434200 0.434200
0.496363 0.444929 0.444929
0.584118 0.457868 0.457868
0.677874 0.471692 0.471692
0.771630 0.485516 0.485516
0.865385 0.499340 0.499340
0.152138 0.489766 0.405458
0.250938 0.504126 0.419818
0.349738 0.518486 0.434178
0.444929 0.496363 0.444929
0.496363 0.496363 0.444929
0.584118 0.509133 0.457868
0.677874 0.522777 0.471692
0.771630 0.536421 0.485516
0.865385 0.550065 0.499340
0.161528 0.541643 0.414848
0.260308 0.555801 0.429188
0.359088 0.569960 0.443528
0.457868 0.584118 0.457868
0.509133 0.584118 0.457868
0.584118 0.584118 0.457868
0.677874 0.597762 0.471692
0.771630 0.611406 0.485516
0.865385 0.625049 0.499340
0.175352 0.635398 0.428672
0.274132 0.649557 0.443012
0.372912 0.663715 0.457352
0.471692 0.677874 0.471692
0.522777 0.677874 0.471692
0.597762 0.677874 0.471692
0.677874 0.677874 0.471692
0.771630 0.691518 0.485516
0.865385 0.705161 0.499340
0.189176 0.729154 0.442496
0.287956 0.743313 0.456836
0.386736 0.757471 0.471176
0.485516 0.771630 0.485516
0.536421 0.771630 0.485516
0.611406 0.771630 0.485516
0.691518 0.771630 0.485516
0.771630 0.771630 0.485516
0.865385 0.785273 0.499340
0.203000 0.822910 0.456320
0.301780 0.837068 0.470660
0.400560 0.851227 0.485000
0.499340 0.865385 0.499340
0.550065 0.865385 0.499340
0.625049 0.865385 0.499340
0.705161 0.865385 0.499340
0.785273 0.865385 0.499340
0.865385 0.865385 0.499340
0.152138 0.152138 0.489766
0.236578 0.152138 0.489766
0.321018 0.152138 0.489766
0.405458 0.152138 0.489766
0.489766 0.152138 0.489766
0.541643 0.161528 0.499156
0.635398 0.175352 0.512980
0.729154 0.189176 0.493945
0.822910 0.203000 0.507589
0.152138 0.236578 0.489766
0.250938 0.250938 0.504126
0.335378 0.250938 0.504126
0.419818 0.250938 0.504126
0.504126 0.250938 0.504126
0.555801 0.260308 0.513496
0.649557 0.274132 0.494460
0.743313 0.287956 0.508104
0.837068 0.301780 0.521747
0.152138 0.321018 0.489766
0.250938 0.335378 0.504126
0.349738 0.349738 0.518486
0.434178 0.349738 0.518486
0.518486 0.349738 0.518486
0.569960 0.359088 0.494975
0.663715 0.372912 0.508618
0.757471 0.386736 0.522262
0.851227 0.400560 0.535906
0.152138 0.405458 0.489766
0.250938 0.419818 0.504126
0.349738 0.434178 0.518486
0.444929 0.444929 0.496363
0.496363 0.444929 0.496363
0.584118 0.457868 0.509133
0.677874 0.471692 0.522777
0.771630 0.485516 0.536421
0.865385 0.499340 0.550065
0.152138 0.489766 0.489766
0.250938 0.504126 0.504126
0.349738 0.518486 0.518486
0.444929 0.496363 0.496363
0.506871 0.506871 0.506871
0.594608 0.519623 0.519623
0.688344 0.533247 0.533247
0.782080 0.546871 0.546871
0.875816 0.560495 0.560495
0.161528 0.541643 0.499156
0.260308 0.555801 0.513496
0.359088 0.569960 0.494975
0.457868 0.584118 0.509133
0.519623 0.594608 0.519623
0.594608 0.594608 0.519623
0.688344 0.608232 0.533247
0.782080 0.621856 0.546871
0.875816 0.635480 0.560495
0.175352 0.635398 0.512980
0.274132 0.649557 0.494460
0.372912 0.663715 0.508618
0.471692 0.677874 0.522777
0.533247 0.688344 0.533247
0.608232 0.688344 0.533247
0.688344 0.688344 0.533247
0.782080 0.701968 0.546871
0.875816 0.715592 0.560495
0.189176 0.729154 0.493945
0.287956 0.743313 0.508104
0.386736 0.757471 0.522262
0.485516 0.771630 0.536421
0.546871 0.782080 0.546871
0.621856 0.782080 0.546871
0.701968 0.782080 0.546871
0.782080 0.782080 0.546871
0.875816 0.795704 0.560495
0.203000 0.822910 0.507589
0.301780 0.837068 0.521747
0.400560 0.851227 0.535906
0.499340 0.865385 0.550065
0.560495 0.875816 0.560495
0.635480 0.875816 0.560495
0.715592 0.875816 0.560495
0.795704 0.875816 0.560495
0.875816 0.875816 0.560495
0.161528 0.161528 0.541643
0.245968 0.161528 0.541643
0.330408 0.161528 0.541643
0.414848 0.161528 0.541643
0.499156 0.161528 0.541643
0.541643 0.161528 0.541643
0.635398 0.175352 0.555286
0.729154 0.189176 0.568930
0.822910 0.203000 0.582574
0.161528 0.245968 0.541643
0.260308 0.260308 0.555801
0.344748 0.260308 0.555801
0.429188 0.260308 0.555801
0.513496 0.260308 0.555801
0.555801 0.260308 0.555801
0.649557 0.274132 0.569445
0.743313 0.287956 0.583089
0.837068 0.301780 0.596732
0.161528 0.330408 0.541643
0.260308 0.344748 0.555801
0.359088 0.359088 0.569960
0.443528 0.359088 0.569960
0.494975 0.359088 0.569960
0.569960 0.359088 0.569960
0.663715 0.372912 0.583603
0.757471 0.386736 0.597247
0.851227 0.400560 0.610891
0.161528 0.414848 0.541643
0.260308 0.429188 0.555801
0.359088 0.443528 0.569960
0.457868 0.457868 0.584118
0.509133 0.457868 0.584118
0.584118 0.457868 0.584118
0.677874 0.471692 0.597762
0.771630 0.485516 0.611406
0.865385 0.499340 0.625049
0.161528 0.499156 0.541643
0.260308 0.513496 0.555801
0.359088 0.494975 0.569960
0.457868 0.509133 0.584118
0.519623 0.519623 0.594608
0.594608 0.519623 0.594608
0.688344 0.533247 0.608232
0.782080 0.546871 0.621856
0.875816 0.560495 0.635480
0.161528 0.541643 0.541643
0.260308 0.555801 0.555801
0.359088 0.569960 0.569960
0.457868 0.584118 0.584118
0.519623 0.594608 0.594608
0.607360 0.607360 0.607360
0.701096 0.620984 0.620984
0.794832 0.634608 0.634608
0.888568 0.648232 0.648232
0.175352 0.635398 0.555286
0.274132 0.649557 0.569445
0.372912 0.663715 0.583603
0.471692 0.677874 0.597762
0.533247 0.688344 0.608232
0.620984 0.701096 0.620984
0.701096 0.701096 0.620984
0.794832 0.714720 0.634608
0.888568 0.728344 0.648232
0.189176 0.729154 0.568930
0.287956 0.743313 0.583089
0.386736 0.757471 0.597247
0.485516 0.771630 0.611406
0.546871 0.782080 0.621856
0.634608 0.794832 0.634608
0.714720 0.794832 0.634608
0.794832 0.794832 0.634608
0.888568 0.808456 0.648232
0.203000 0.822910 0.582574
0.301780 0.837068 0.596732
0.400560 0.851227 0.610891
0.499340 0.865385 0.625049
0.560495 0.875816 0.635480
0.648232 0.888568 0.648232
0.728344 0.888568 0.648232
0.808456 0.888568 0.648232
0.888568 0.888568 0.648232
0.175352 0.175352 0.635398
0.259792 0.175352 0.635398
0.344232 0.175352 0.635398
0.428672 0.175352 0.635398
0.512980 0.175352 0.635398
0.555286 0.175352 0.635398
0.635398 0.175352 0.635398
0.729154 0.189176 0.649042
0.822910 0.203000 0.662686
0.175352 0.259792 0.635398
0.274132 0.274132 0.649557
0.358572 0.274132 0.649557
0.443012 0.274132 0.649557
0.494460 0.274132 0.649557
0.569445 0.274132 0.649557
0.649557 0.274132 0.649557
0.743313 0.287956 0.663201
0.837068 0.301780 0.676844
0.175352 0.344232 0.635398
0.274132 0.358572 0.649557
0.372912 0.372912 0.663715
0.457352 0.372912 0.663715
0.508618 0.372912 0.663715
0.583603 0.372912 0.663715
0.663715 0.372912 0.663715
0.757471 0.386736 0.677359
0.851227 0.400560 0.691003
0.175352 0.428672 0.635398
0.274132 0.443012 0.649557
0.372912 0.457352 0.663715
0.471692 0.471692 0.677874
0.522777 0.471692 0.677874
0.597762 0.471692 0.677874
0.677874 0.471692 0.677874
0.771630 0.485516 0.691518
0.865385 0.499340 0.705161
0.175352 0.512980 0.635398
0.274132 0.494460 0.649557
0.372912 0.508618 0.663715
0.471692 0.522777 0.677874
0.533247 0.533247 0.688344
0.608232 0.533247 0.688344
0.688344 0.533247 0.688344
0.782080 0.546871 0.701968
0.875816 0.560495 0.715592
0.175352 0.555286 0.635398
0.274132 0.569445 0.649557
0.372912 0.583603 0.663715
0.471692 0.597762 0.677874
0.533247 0.608232 0.688344
0.620984 0.620984 0.701096
0.701096 0.620984 0.701096
0.794832 0.634608 0.714720
0.888568 0.648232 0.728344
0.175352 0.635398 0.635398
0.274132 0.649557 0.649557
0.372912 0.663715 0.663715
0.471692 0.677874 0.677874
0.533247 0.688344 0.688344
0.620984 0.701096 0.701096
0.714720 0.714720 0.714720
0.808456 0.728344 0.728344
0.902192 0.741968 0.741968
0.189176 0.729154 0.649042
0.287956 0.743313 0.663201
0.386736 0.757471 0.677359
0.485516 0.771630 0.691518
0.546871 0.782080 0.701968
0.634608 0.794832 0.714720
0.728344 0.808456 0.728344
0.808456 0.808456 0.728344
0.902192 0.822080 0.741968
0.203000 0.822910 0.662686
0.301780 0.837068 0.676844
0.400560 0.851227 0.691003
0.499340 0.865385 0.705161
0.560495 0.875816 0.715592
0.648232 0.888568 0.728344
0.741968 0.902192 0.741968
0.822080 0.902192 0.741968
0.902192 0.902192 0.741968
0.189176 0.189176 0.729154
0.273616 0.189176 0.729154
0.358056 0.189176 0.729154
0.442496 0.189176 0.729154
0.493945 0.189176 0.729154
0.568930 0.189176 0.729154
0.649042 0.189176 0.729154
0.729154 0.189176 0.729154
0.822910 0.203000 0.742798
0.189176 0.273616 0.729154
0.287956 0.287956 0.743313
0.372396 0.287956 0.743313
0.456836 0.287956 0.743313
0.508104 0.287956 0.743313
0.583089 0.287956 0.743313
0.663201 0.287956 0.743313
0.743313 0.287956 0.743313
0.837068 0.301780 0.756956
0.189176 0.358056 0.729154
0.287956 0.372396 0.743313
0.386736 0.386736 0.757471
0.471176 0.386736 0.757471
0.522262 0.386736 0.757471
0.597247 0.386736 0.757471
0.677359 0.386736 0.757471
0.757471 0.386736 0.757471
0.851227 0.400560 0.771115
0.189176 0.442496 0.729154
0.287956 0.456836 0.743313
0.386736 0.471176 0.757471
0.485516 0.485516 0.771630
0.536421 0.485516 0.771630
0.611406 0.485516 0.771630
0.691518 0.485516 0.771630
0.771630 0.485516 0.771630
0.865385 0.499340 0.785273
0.189176 0.493945 0.729154
0.287956 0.508104 0.743313
0.386736 0.522262 0.757471
0.485516 0.536421 0.771630
0.546871 0.546871 0.782080
0.621856 0.546871 0.782080
0.701968 0.546871 0.782080
0.782080 0.546871 0.782080
0.875816 0.560495 0.795704
0.189176 0.568930 0.729154
0.287956 0.583089 0.743313
0.386736 0.597247 0.757471
0.485516 0.611406 0.771630
0.546871 0.621856 0.782080
0.634608 0.634608 0.794832
0.714720 0.634608 0.794832
0.794832 0.634608 0.794832
0.888568 0.648232 0.808456
0.189176 0.649042 0.729154
0.287956 0.663201 0.743313
0.386736 0.677359 0.757471
0.485516 0.691518 0.771630
0.546871 0.701968 0.782080
0.634608 0.714720 0.794832
0.728344 0.728344 0.808456
0.808456 0.728344 0.808456
0.902192 0.741968 0.822080
0.189176 0.729154 0.729154
0.287956 0.743313 0.743313
0.386736 0.757471 0.757471
0.485516 0.771630 0.771630
0.546871 0.782080 0.782080
0.634608 0.794832 0.794832
0.728344 0.808456 0.808456
0.822080 0.822080 0.822080
0.915816 0.835704 0.835704
0.203000 0.822910 0.742798
0.301780 0.837068 0.756956
0.400560 0.851227 0.771115
0.499340 0.865385 0.785273
0.560495 0.875816 0.795704
0.648232 0.888568 0.808456
0.741968 0.902192 0.822080
0.835704 0.915816 0.835704
0.915816 0.915816 0.835704
0.203000 0.203000 0.822910
0.287440 0.203000 0.822910
0.371880 0.203000 0.822910
0.456320 0.203000 0.822910
0.507589 0.203000 0.822910
0.582574 0.203000 0.822910
0.662686 0.203000 0.822910
0.742798 0.203000 0.822910
0.822910 0.203000 0.822910
0.203000 0.287440 0.822910
0.301780 0.301780 0.837068
0.386220 0.301780 0.837068
0.470660 0.301780 0.837068
0.521747 0.301780 0.837068
0.596732 0.301780 0.837068
0.676844 0.301780 0.837068
0.756956 0.301780 0.837068
0.837068 0.301780 0.837068
0.203000 0.371880 0.822910
0.301780 0.386220 0.837068
0.400560 0.400560 0.851227
0.485000 0.400560 0.851227
0.535906 0.400560 0.851227
0.610891 0.400560 0.851227
0.691003 0.400560 0.851227
0.771115 0.400560 0.851227
0.851227 0.400560 0.851227
0.203000 0.456320 0.822910
0.301780 0.470660 0.837068
0.400560 0.485000 0.851227
0.499340 0.499340 0.865385
0.550065 0.499340 0.865385
0.625049 0.499340 0.865385
0.705161 0.499340 0.865385
0.785273 0.499340 0.865385
0.865385 0.499340 0.865385
0.203000 0.507589 0.822910
0.301780 0.521747 0.837068
0.400560 0.535906 0.851227
0.499340 0.550065 0.865385
0.560495 0.560495 0.875816
0.635480 0.560495 0.875816
0.715592 0.560495 0.875816
0.795704 0.560495 0.875816
0.875816 0.560495 0.875816
0.203000 0.582574 0.822910
0.301780 0.596732 0.837068
0.400560 0.610891 0.851227
0.499340 0.625049 0.865385
0.560495 0.635480 0.875816
0.648232 0.648232 0.888568
0.728344 0.648232 0.888568
0.808456 0.648232 0.888568
0.888568 0.648232 0.888568
0.203000 0.662686 0.822910
0.301780 0.676844 0.837068
0.400560 0.691003 0.851227
0.499340 0.705161 0.865385
0.560495 0.715592 0.875816
0.648232 0.728344 0.888568
0.741968 0.741968 0.902192
0.822080 0.741968 0.902192
0.902192 0.741968 0.902192
0.203000 0.742798 0.822910
0.301780 0.756956 0.837068
0.400560 0.771115 0.851227
0.499340 0.785273 0.865385
0.560495 0.795704 0.875816
0.648232 0.808456 0.888568
0.741968 0.822080 0.902192
0.835704 0.835704 0.915816
0.915816 0.835704 0.915816
0.203000 0.822910 0.822910
0.301780 0.837068 0.837068
0.400560 0.851227 0.851227
0.499340 0.865385 0.865385
0.560495 0.875816 0.875816
0.648232 0.888568 0.888568
0.741968 0.902192 0.902192
0.835704 0.915816 0.915816
0.929440 0.929440 0.929440
