docs/luts/fuji_recipes/NEGAhi_RR_Faded_Color_Vintage_1_2.cube
TITLE "Fujifilm Recipe: RR Faded Color Vintage 1/2 (NEGAhi)"
# FilmSim=NEGAhi HL=4 SH=4 Col=4 WB=Auto WBR=-5 WBB=5
LUT_3D_SIZE 5
DOMAIN_MIN 0.0 0.0 0.0
DOMAIN_MAX 1.0 1.0 1.0
0.000000 0.000000 0.000000
0.195522 0.000000 0.000000
0.462027 0.000000 0.000000
0.718641 0.000000 0.000000
0.784735 0.000000 0.000000
0.000000 0.222346 0.000000
0.195522 0.222346 0.000000
0.462027 0.222346 0.000000
0.718641 0.222346 0.000000
0.784735 0.222346 0.000000
0.000000 0.534070 0.000000
0.195522 0.534070 0.000000
0.462027 0.534070 0.000000
0.718641 0.534070 0.000000
0.784735 0.534070 0.000000
0.000000 0.826130 0.000000
0.195522 0.826130 0.000000
0.462027 0.826130 0.000000
0.718641 0.826130 0.000000
0.784735 0.826130 0.000000
0.000000 0.840000 0.000000
0.195522 0.840000 0.000000
0.462027 0.840000 0.000000
0.718641 0.840000 0.000000
0.784735 0.840000 0.000000
0.000000 0.000000 0.250139
0.195522 0.000000 0.250139
0.462027 0.000000 0.250139
0.718641 0.000000 0.250139
0.784735 0.000000 0.250139
0.000000 0.222346 0.250139
0.195812 0.255253 0.316843
0.616448 0.119757 0.177353
0.979457 0.000000 0.054851
1.000000 0.070730 0.116654
0.000000 0.534070 0.250139
0.040195 0.717453 0.149454
0.564658 0.713415 0.127146
1.000000 0.613069 0.017838
1.000000 0.582275 0.109111
0.000000 0.826130 0.250139
0.090853 1.000000 0.169594
0.472975 1.000000 0.166276
0.844414 1.000000 0.166276
0.940082 1.000000 0.166276
0.000000 0.840000 0.250139
0.110006 1.000000 0.185430
0.478037 1.000000 0.185430
0.832409 1.000000 0.185430
0.923681 1.000000 0.185430
0.000000 0.000000 0.608498
0.195522 0.000000 0.608498
0.462027 0.000000 0.608498
0.718641 0.000000 0.608498
0.784735 0.000000 0.608498
0.000000 0.222346 0.608498
0.004325 0.057145 0.817543
0.524504 0.045141 0.817448
0.979457 0.000000 0.762087
1.000000 0.070730 0.708794
0.000000 0.534070 0.608498
0.004325 0.670982 0.817543
0.434162 0.610309 0.792286
0.952227 0.478627 0.669606
1.000000 0.501207 0.649310
0.000000 0.826130 0.608498
0.090853 1.000000 0.686240
0.458883 1.000000 0.676564
0.832642 1.000000 0.661153
0.935549 1.000000 0.661153
0.000000 0.840000 0.608498
0.110006 1.000000 0.680307
0.478037 1.000000 0.680307
0.832409 1.000000 0.680307
0.923681 1.000000 0.680307
0.000000 0.000000 0.840000
0.195522 0.000000 0.840000
0.462027 0.000000 0.840000
0.718641 0.000000 0.840000
0.784735 0.000000 0.840000
0.000000 0.222346 0.840000
0.110006 0.147049 1.000000
0.478037 0.147049 1.000000
0.832409 0.147049 1.000000
0.923681 0.147049 1.000000
0.000000 0.534070 0.840000
0.110006 0.577526 1.000000
0.478037 0.577526 1.000000
0.832409 0.577526 1.000000
0.923681 0.577526 1.000000
0.000000 0.826130 0.840000
0.110006 0.980846 1.000000
0.478037 0.980846 1.000000
0.832409 0.980846 1.000000
0.923681 0.980846 1.000000
0.000000 0.840000 0.840000
0.110006 1.000000 1.000000
0.478037 1.000000 1.000000
0.832409 1.000000 1.000000
0.923681 1.000000 1.000000
0.000000 0.000000 0.840000
0.195522 0.000000 0.840000
0.462027 0.000000 0.840000
0.718641 0.000000 0.840000
0.784735 0.000000 0.840000
0.000000 0.222346 0.840000
0.110006 0.147049 1.000000
0.478037 0.147049 1.000000
0.832409 0.147049 1.000000
0.923681 0.147049 1.000000
0.000000 0.534070 0.840000
0.110006 0.577526 1.000000
0.478037 0.577526 1.000000
0.832409 0.577526 1.000000
0.923681 0.577526 1.000000
0.000000 0.826130 0.840000
0.110006 0.980846 1.000000
0.478037 0.980846 1.000000
0.832409 0.980846 1.000000
0.923681 0.980846 1.000000
0.000000 0.840000 0.840000
0.110006 1.000000 1.000000
0.478037 1.000000 1.000000
0.832409 1.000000 1.000000
0.923681 1.000000 1.000000
