docs/luts/fuji_recipes/NEGAhi_RR_Pro_Neg_HI.cube
TITLE "Fujifilm Recipe: RR Pro Neg HI (NEGAhi)"
# FilmSim=NEGAhi HL=-1 SH=-1 Col=1 WB=Auto WBR=0 WBB=0
LUT_3D_SIZE 9
DOMAIN_MIN 0.0 0.0 0.0
DOMAIN_MAX 1.0 1.0 1.0
0.040000 0.040000 0.040000
0.190495 0.027574 0.027574
0.334973 0.015644 0.015644
0.479450 0.003715 0.003715
0.593898 0.000000 0.000000
0.722127 0.000000 0.000000
0.850357 0.000000 0.000000
0.978586 0.000000 0.000000
1.000000 0.004360 0.004360
0.027645 0.189635 0.027645
0.190495 0.189564 0.027574
0.334973 0.177634 0.015644
0.479450 0.165705 0.003715
0.593898 0.158650 0.000000
0.722127 0.154383 0.000000
0.850357 0.151536 0.000000
0.978586 0.149501 0.000000
1.000000 0.152226 0.004360
0.015765 0.333514 0.015765
0.178687 0.333514 0.015765
0.334973 0.333394 0.015644
0.479450 0.321465 0.003715
0.593898 0.311199 0.000000
0.722127 0.302828 0.000000
0.850357 0.297243 0.000000
0.978586 0.293253 0.000000
1.000000 0.294404 0.004360
0.003885 0.477394 0.003885
0.166807 0.477394 0.003885
0.323213 0.477394 0.003885
0.479450 0.477224 0.003715
0.593898 0.463747 0.000000
0.722127 0.451273 0.000000
0.850357 0.442951 0.000000
0.978586 0.437004 0.000000
1.000000 0.436583 0.004360
0.000000 0.591543 0.000000
0.159662 0.591543 0.000000
0.312939 0.591543 0.000000
0.466216 0.591543 0.000000
0.593898 0.591176 0.000000
0.722127 0.575274 0.000000
0.850357 0.564665 0.000000
0.978586 0.557085 0.000000
1.000000 0.555349 0.004360
0.000000 0.719241 0.000000
0.155348 0.719241 0.000000
0.304485 0.719241 0.000000
0.453621 0.719241 0.000000
0.578212 0.719241 0.000000
0.722127 0.718882 0.000000
0.850357 0.705625 0.000000
0.978586 0.696152 0.000000
1.000000 0.692895 0.004360
0.000000 0.846940 0.000000
0.152471 0.846940 0.000000
0.298846 0.846940 0.000000
0.445220 0.846940 0.000000
0.567503 0.846940 0.000000
0.709108 0.846940 0.000000
0.850357 0.846585 0.000000
0.978586 0.835220 0.000000
1.000000 0.830441 0.004360
0.000000 0.974639 0.000000
0.150416 0.974639 0.000000
0.294816 0.974639 0.000000
0.439217 0.974639 0.000000
0.559852 0.974639 0.000000
0.699547 0.974639 0.000000
0.839243 0.974639 0.000000
0.978586 0.974287 0.000000
1.000000 0.967987 0.004360
0.004360 1.000000 0.004360
0.153076 1.000000 0.004360
0.295845 1.000000 0.004360
0.438615 1.000000 0.004360
0.557886 1.000000 0.004360
0.696004 1.000000 0.004360
0.834121 1.000000 0.004360
0.972238 1.000000 0.004360
1.000000 1.000000 0.004360
0.027645 0.027645 0.189635
0.190495 0.027574 0.189564
0.334973 0.015644 0.177634
0.479450 0.003715 0.165705
0.593898 0.000000 0.158650
0.722127 0.000000 0.154383
0.850357 0.000000 0.151536
0.978586 0.000000 0.149501
1.000000 0.004360 0.152226
0.027645 0.189635 0.189635
0.178140 0.177208 0.177208
0.322618 0.165279 0.165279
0.467095 0.153350 0.153350
0.587794 0.143384 0.143384
0.727564 0.131843 0.131843
0.867334 0.120303 0.120303
1.000000 0.115865 0.115865
1.000000 0.141640 0.141640
0.015765 0.333514 0.177755
0.166331 0.321159 0.165400
0.322618 0.321039 0.165279
0.467095 0.309109 0.153350
0.587794 0.299143 0.143384
0.727564 0.287603 0.131843
0.867334 0.276062 0.120303
1.000000 0.269162 0.115865
1.000000 0.285593 0.141640
0.003885 0.477394 0.165875
0.154451 0.465039 0.153520
0.310858 0.465039 0.153520
0.467095 0.464869 0.153350
0.587794 0.454903 0.143384
0.727564 0.443362 0.131843
0.867334 0.431822 0.120303
1.000000 0.422458 0.115865
1.000000 0.429547 0.141640
0.000000 0.591543 0.158749
0.144528 0.585226 0.143596
0.300934 0.585226 0.143596
0.457341 0.585226 0.143596
0.587794 0.585014 0.143384
0.727564 0.573474 0.131843
0.867334 0.561933 0.120303
1.000000 0.550512 0.115865
1.000000 0.549797 0.141640
0.000000 0.719241 0.154460
0.133035 0.724418 0.132103
0.289442 0.724418 0.132103
0.445848 0.724418 0.132103
0.576513 0.724418 0.132103
0.727564 0.724158 0.131843
0.867334 0.712617 0.120303
1.000000 0.698813 0.115865
1.000000 0.689060 0.141640
0.000000 0.846940 0.151599
0.121542 0.863609 0.120610
0.277949 0.863609 0.120610
0.434355 0.863609 0.120610
0.565020 0.863609 0.120610
0.716331 0.863609 0.120610
0.867334 0.863302 0.120303
1.000000 0.847115 0.115865
1.000000 0.828324 0.141640
0.000000 0.974639 0.149555
0.112844 1.000000 0.111918
0.268271 1.000000 0.111918
0.423697 1.000000 0.111918
0.553542 1.000000 0.111918
0.703904 1.000000 0.111918
0.854266 1.000000 0.111918
1.000000 0.995416 0.115865
1.000000 0.967587 0.141640
0.004360 1.000000 0.152226
0.142501 1.000000 0.141640
0.287053 1.000000 0.141640
0.431605 1.000000 0.141640
0.552366 1.000000 0.141640
0.692208 1.000000 0.141640
0.832050 1.000000 0.141640
0.971892 1.000000 0.141640
1.000000 1.000000 0.141640
0.015765 0.015765 0.333514
0.178687 0.015765 0.333514
0.334973 0.015644 0.333394
0.479450 0.003715 0.321465
0.593898 0.000000 0.311199
0.722127 0.000000 0.302828
0.850357 0.000000 0.297243
0.978586 0.000000 0.293253
1.000000 0.004360 0.294404
0.015765 0.177755 0.333514
0.166331 0.165400 0.321159
0.322618 0.165279 0.321039
0.467095 0.153350 0.309109
0.587794 0.143384 0.299143
0.727564 0.131843 0.287603
0.867334 0.120303 0.276062
1.000000 0.115865 0.269162
1.000000 0.141640 0.285593
0.015765 0.333514 0.333514
0.166260 0.321088 0.321088
0.310738 0.309159 0.309159
0.455215 0.297229 0.297229
0.575914 0.287264 0.287264
0.715684 0.275723 0.275723
0.855454 0.264182 0.264182
0.995223 0.252642 0.252642
1.000000 0.273639 0.273639
0.003885 0.477394 0.321634
0.154380 0.464968 0.309208
0.298978 0.453159 0.297399
0.455215 0.452989 0.297229
0.575914 0.443023 0.287264
0.715684 0.431482 0.275723
0.855454 0.419942 0.264182
0.995223 0.408401 0.252642
1.000000 0.420002 0.273639
0.000000 0.591543 0.311392
0.144457 0.585155 0.299284
0.289054 0.573346 0.287476
0.445461 0.573346 0.287476
0.575914 0.573134 0.287264
0.715684 0.561594 0.275723
0.855454 0.550053 0.264182
0.995223 0.538512 0.252642
1.000000 0.542263 0.273639
0.000000 0.719241 0.302979
0.132964 0.724347 0.287792
0.277562 0.712538 0.275983
0.433968 0.712538 0.275983
0.564633 0.712538 0.275983
0.715684 0.712278 0.275723
0.855454 0.700737 0.264182
0.995223 0.689197 0.252642
1.000000 0.683857 0.273639
0.000000 0.846940 0.297368
0.121471 0.863538 0.276299
0.266069 0.851729 0.264490
0.422475 0.851729 0.264490
0.553140 0.851729 0.264490
0.704451 0.851729 0.264490
0.855454 0.851422 0.264182
0.995223 0.839881 0.252642
1.000000 0.825451 0.273639
0.000000 0.974639 0.293359
0.112708 1.000000 0.266589
0.254576 0.990921 0.252997
0.410983 0.990921 0.252997
0.541647 0.990921 0.252997
0.692958 0.990921 0.252997
0.844268 0.990921 0.252997
0.995223 0.990566 0.252642
1.000000 0.967045 0.273639
0.004360 1.000000 0.294404
0.142429 1.000000 0.285534
0.275123 1.000000 0.273639
0.422094 1.000000 0.273639
0.544875 1.000000 0.273639
0.687057 1.000000 0.273639
0.829239 1.000000 0.273639
0.971421 1.000000 0.273639
1.000000 1.000000 0.273639
0.003885 0.003885 0.477394
0.166807 0.003885 0.477394
0.323213 0.003885 0.477394
0.479450 0.003715 0.477224
0.593898 0.000000 0.463747
0.722127 0.000000 0.451273
0.850357 0.000000 0.442951
0.978586 0.000000 0.437004
1.000000 0.004360 0.436583
0.003885 0.165875 0.477394
0.154451 0.153520 0.465039
0.310858 0.153520 0.465039
0.467095 0.153350 0.464869
0.587794 0.143384 0.454903
0.727564 0.131843 0.443362
0.867334 0.120303 0.431822
1.000000 0.115865 0.422458
1.000000 0.141640 0.429547
0.003885 0.321634 0.477394
0.154380 0.309208 0.464968
0.298978 0.297399 0.453159
0.455215 0.297229 0.452989
0.575914 0.287264 0.443023
0.715684 0.275723 0.431482
0.855454 0.264182 0.419942
0.995223 0.252642 0.408401
1.000000 0.273639 0.420002
0.003885 0.477394 0.477394
0.154380 0.464968 0.464968
0.298858 0.453038 0.453038
0.443335 0.441109 0.441109
0.564034 0.431143 0.431143
0.703804 0.419603 0.419603
0.843574 0.408062 0.408062
0.983343 0.396521 0.396521
1.000000 0.405639 0.405639
0.000000 0.591543 0.464035
0.144457 0.585155 0.455044
0.288934 0.573226 0.443115
0.433581 0.561466 0.431355
0.564034 0.561254 0.431143
0.703804 0.549714 0.419603
0.843574 0.538173 0.408062
0.983343 0.526632 0.396521
1.000000 0.530928 0.405639
0.000000 0.719241 0.451498
0.132964 0.724347 0.443551
0.277441 0.712417 0.431622
0.422088 0.700658 0.419862
0.552753 0.700658 0.419862
0.703804 0.700398 0.419603
0.843574 0.688857 0.408062
0.983343 0.677317 0.396521
1.000000 0.676028 0.405639
0.000000 0.846940 0.443137
0.121471 0.863538 0.432058
0.265948 0.851609 0.420129
0.410595 0.839849 0.408369
0.541260 0.839849 0.408369
0.692571 0.839849 0.408369
0.843574 0.839542 0.408062
0.983343 0.828001 0.396521
1.000000 0.821128 0.405639
0.000000 0.974639 0.437162
0.112708 1.000000 0.421396
0.254455 0.990801 0.408636
0.399103 0.979041 0.396877
0.529767 0.979041 0.396877
0.681078 0.979041 0.396877
0.832388 0.979041 0.396877
0.983343 0.978686 0.396521
1.000000 0.966229 0.405639
0.004360 1.000000 0.436583
0.142429 1.000000 0.429500
0.274977 1.000000 0.419885
0.407782 1.000000 0.405639
0.533605 1.000000 0.405639
0.679308 1.000000 0.405639
0.825011 1.000000 0.405639
0.970714 1.000000 0.405639
1.000000 1.000000 0.405639
0.000000 0.000000 0.591543
0.159662 0.000000 0.591543
0.312939 0.000000 0.591543
0.466216 0.000000 0.591543
0.593898 0.000000 0.591176
0.722127 0.000000 0.575274
0.850357 0.000000 0.564665
0.978586 0.000000 0.557085
1.000000 0.004360 0.555349
0.000000 0.158749 0.591543
0.144528 0.143596 0.585226
0.300934 0.143596 0.585226
0.457341 0.143596 0.585226
0.587794 0.143384 0.585014
0.727564 0.131843 0.573474
0.867334 0.120303 0.561933
1.000000 0.115865 0.550512
1.000000 0.141640 0.549797
0.000000 0.311392 0.591543
0.144457 0.299284 0.585155
0.289054 0.287476 0.573346
0.445461 0.287476 0.573346
0.575914 0.287264 0.573134
0.715684 0.275723 0.561594
0.855454 0.264182 0.550053
0.995223 0.252642 0.538512
1.000000 0.273639 0.542263
0.000000 0.464035 0.591543
0.144457 0.455044 0.585155
0.288934 0.443115 0.573226
0.433581 0.431355 0.561466
0.564034 0.431143 0.561254
0.703804 0.419603 0.549714
0.843574 0.408062 0.538173
0.983343 0.396521 0.526632
1.000000 0.405639 0.530928
0.000000 0.591543 0.591543
0.144457 0.585155 0.585155
0.288934 0.573226 0.573226
0.433411 0.561297 0.561297
0.554110 0.551331 0.551331
0.693880 0.539790 0.539790
0.833650 0.528249 0.528249
0.973420 0.516709 0.516709
1.000000 0.515903 0.515903
0.000000 0.719241 0.575561
0.132964 0.724347 0.573662
0.277441 0.712417 0.561733
0.421919 0.700488 0.549804
0.542829 0.690734 0.540050
0.693880 0.690474 0.539790
0.833650 0.678934 0.528249
0.973420 0.667393 0.516709
1.000000 0.665651 0.515903
0.000000 0.846940 0.564902
0.121471 0.863538 0.562169
0.265948 0.851609 0.550240
0.410426 0.839680 0.538311
0.531336 0.829926 0.528557
0.682647 0.829926 0.528557
0.833650 0.829618 0.528249
0.973420 0.818078 0.516709
1.000000 0.815399 0.515903
0.000000 0.974639 0.557286
0.112708 1.000000 0.550711
0.254455 0.990801 0.538747
0.398933 0.978871 0.526818
0.519844 0.969117 0.517064
0.671154 0.969117 0.517064
0.822464 0.969117 0.517064
0.973420 0.968762 0.516709
1.000000 0.965147 0.515903
0.004360 1.000000 0.555349
0.142429 1.000000 0.549759
0.274977 1.000000 0.542172
0.407525 1.000000 0.530725
0.518665 1.000000 0.515903
0.669035 1.000000 0.515903
0.819405 1.000000 0.515903
0.969775 1.000000 0.515903
1.000000 1.000000 0.515903
0.000000 0.000000 0.719241
0.155348 0.000000 0.719241
0.304485 0.000000 0.719241
0.453621 0.000000 0.719241
0.578212 0.000000 0.719241
0.722127 0.000000 0.718882
0.850357 0.000000 0.705625
0.978586 0.000000 0.696152
1.000000 0.004360 0.692895
0.000000 0.154460 0.719241
0.133035 0.132103 0.724418
0.289442 0.132103 0.724418
0.445848 0.132103 0.724418
0.576513 0.132103 0.724418
0.727564 0.131843 0.724158
0.867334 0.120303 0.712617
1.000000 0.115865 0.698813
1.000000 0.141640 0.689060
0.000000 0.302979 0.719241
0.132964 0.287792 0.724347
0.277562 0.275983 0.712538
0.433968 0.275983 0.712538
0.564633 0.275983 0.712538
0.715684 0.275723 0.712278
0.855454 0.264182 0.700737
0.995223 0.252642 0.689197
1.000000 0.273639 0.683857
0.000000 0.451498 0.719241
0.132964 0.443551 0.724347
0.277441 0.431622 0.712417
0.422088 0.419862 0.700658
0.552753 0.419862 0.700658
0.703804 0.419603 0.700398
0.843574 0.408062 0.688857
0.983343 0.396521 0.677317
1.000000 0.405639 0.676028
0.000000 0.575561 0.719241
0.132964 0.573662 0.724347
0.277441 0.561733 0.712417
0.421919 0.549804 0.700488
0.542829 0.540050 0.690734
0.693880 0.539790 0.690474
0.833650 0.528249 0.678934
0.973420 0.516709 0.667393
1.000000 0.515903 0.665651
0.000000 0.719241 0.719241
0.132964 0.724347 0.724347
0.277441 0.712417 0.712417
0.421919 0.700488 0.700488
0.542617 0.690522 0.690522
0.682387 0.678982 0.678982
0.822157 0.667441 0.667441
0.961927 0.655900 0.655900
0.990021 0.653581 0.653581
0.000000 0.846940 0.705921
0.121471 0.863538 0.712854
0.265948 0.851609 0.700925
0.410426 0.839680 0.688995
0.531124 0.829714 0.679029
0.671154 0.818433 0.667748
0.822157 0.818125 0.667441
0.961927 0.806585 0.655900
0.990021 0.804265 0.653581
0.000000 0.974639 0.696403
0.112708 1.000000 0.700474
0.254455 0.990801 0.689432
0.398933 0.978871 0.677502
0.519632 0.968905 0.667536
0.659661 0.957624 0.656255
0.810972 0.957624 0.656255
0.961927 0.957269 0.655900
0.990021 0.954949 0.653581
0.004360 1.000000 0.692895
0.142429 1.000000 0.689034
0.274977 1.000000 0.683794
0.407525 1.000000 0.675888
0.518258 1.000000 0.665368
0.656986 0.990021 0.653581
0.808297 0.990021 0.653581
0.959607 0.990021 0.653581
0.990021 0.990021 0.653581
0.000000 0.000000 0.846940
0.152471 0.000000 0.846940
0.298846 0.000000 0.846940
0.445220 0.000000 0.846940
0.567503 0.000000 0.846940
0.709108 0.000000 0.846940
0.850357 0.000000 0.846585
0.978586 0.000000 0.835220
1.000000 0.004360 0.830441
0.000000 0.151599 0.846940
0.121542 0.120610 0.863609
0.277949 0.120610 0.863609
0.434355 0.120610 0.863609
0.565020 0.120610 0.863609
0.716331 0.120610 0.863609
0.867334 0.120303 0.863302
1.000000 0.115865 0.847115
1.000000 0.141640 0.828324
0.000000 0.297368 0.846940
0.121471 0.276299 0.863538
0.266069 0.264490 0.851729
0.422475 0.264490 0.851729
0.553140 0.264490 0.851729
0.704451 0.264490 0.851729
0.855454 0.264182 0.851422
0.995223 0.252642 0.839881
1.000000 0.273639 0.825451
0.000000 0.443137 0.846940
0.121471 0.432058 0.863538
0.265948 0.420129 0.851609
0.410595 0.408369 0.839849
0.541260 0.408369 0.839849
0.692571 0.408369 0.839849
0.843574 0.408062 0.839542
0.983343 0.396521 0.828001
1.000000 0.405639 0.821128
0.000000 0.564902 0.846940
0.121471 0.562169 0.863538
0.265948 0.550240 0.851609
0.410426 0.538311 0.839680
0.531336 0.528557 0.829926
0.682647 0.528557 0.829926
0.833650 0.528249 0.829618
0.973420 0.516709 0.818078
1.000000 0.515903 0.815399
0.000000 0.705921 0.846940
0.121471 0.712854 0.863538
0.265948 0.700925 0.851609
0.410426 0.688995 0.839680
0.531124 0.679029 0.829714
0.671154 0.667748 0.818433
0.822157 0.667441 0.818125
0.961927 0.655900 0.806585
0.990021 0.653581 0.804265
0.000000 0.846940 0.846940
0.121471 0.863538 0.863538
0.265948 0.851609 0.851609
0.410426 0.839680 0.839680
0.531124 0.829714 0.829714
0.670894 0.818173 0.818173
0.810664 0.806632 0.806632
0.950434 0.795092 0.795092
0.978528 0.792772 0.792772
0.000000 0.974639 0.835521
0.112708 1.000000 0.850237
0.254455 0.990801 0.840116
0.398933 0.978871 0.828187
0.519632 0.968905 0.818221
0.659401 0.957365 0.806680
0.799479 0.946132 0.795447
0.950434 0.945776 0.795092
0.978528 0.943457 0.792772
0.004360 1.000000 0.830441
0.142429 1.000000 0.828309
0.274977 1.000000 0.825416
0.407525 1.000000 0.821051
0.518258 1.000000 0.815243
0.656726 0.989761 0.804005
0.796804 0.978528 0.792772
0.948114 0.978528 0.792772
0.978528 0.978528 0.792772
0.000000 0.000000 0.974639
0.150416 0.000000 0.974639
0.294816 0.000000 0.974639
0.439217 0.000000 0.974639
0.559852 0.000000 0.974639
0.699547 0.000000 0.974639
0.839243 0.000000 0.974639
0.978586 0.000000 0.974287
1.000000 0.004360 0.967987
0.000000 0.149555 0.974639
0.112844 0.111918 1.000000
0.268271 0.111918 1.000000
0.423697 0.111918 1.000000
0.553542 0.111918 1.000000
0.703904 0.111918 1.000000
0.854266 0.111918 1.000000
1.000000 0.115865 0.995416
1.000000 0.141640 0.967587
0.000000 0.293359 0.974639
0.112708 0.266589 1.000000
0.254576 0.252997 0.990921
0.410983 0.252997 0.990921
0.541647 0.252997 0.990921
0.692958 0.252997 0.990921
0.844268 0.252997 0.990921
0.995223 0.252642 0.990566
1.000000 0.273639 0.967045
0.000000 0.437162 0.974639
0.112708 0.421396 1.000000
0.254455 0.408636 0.990801
0.399103 0.396877 0.979041
0.529767 0.396877 0.979041
0.681078 0.396877 0.979041
0.832388 0.396877 0.979041
0.983343 0.396521 0.978686
1.000000 0.405639 0.966229
0.000000 0.557286 0.974639
0.112708 0.550711 1.000000
0.254455 0.538747 0.990801
0.398933 0.526818 0.978871
0.519844 0.517064 0.969117
0.671154 0.517064 0.969117
0.822464 0.517064 0.969117
0.973420 0.516709 0.968762
1.000000 0.515903 0.965147
0.000000 0.696403 0.974639
0.112708 0.700474 1.000000
0.254455 0.689432 0.990801
0.398933 0.677502 0.978871
0.519632 0.667536 0.968905
0.659661 0.656255 0.957624
0.810972 0.656255 0.957624
0.961927 0.655900 0.957269
0.990021 0.653581 0.954949
0.000000 0.835521 0.974639
0.112708 0.850237 1.000000
0.254455 0.840116 0.990801
0.398933 0.828187 0.978871
0.519632 0.818221 0.968905
0.659401 0.806680 0.957365
0.799479 0.795447 0.946132
0.950434 0.795092 0.945776
0.978528 0.792772 0.943457
0.000000 0.974639 0.974639
0.112708 1.000000 1.000000
0.254455 0.990801 0.990801
0.398933 0.978871 0.978871
0.519632 0.968905 0.968905
0.659401 0.957365 0.957365
0.799171 0.945824 0.945824
0.938941 0.934283 0.934283
0.967035 0.931964 0.931964
0.004360 1.000000 0.967987
0.142429 1.000000 0.967584
0.274977 1.000000 0.967038
0.407525 1.000000 0.966214
0.518258 1.000000 0.965117
0.656726 0.989761 0.954690
0.796496 0.978220 0.943149
0.936621 0.967035 0.931964
0.967035 0.967035 0.931964
0.004360 0.004360 1.000000
0.153076 0.004360 1.000000
0.295845 0.004360 1.000000
0.438615 0.004360 1.000000
0.557886 0.004360 1.000000
0.696004 0.004360 1.000000
0.834121 0.004360 1.000000
0.972238 0.004360 1.000000
1.000000 0.004360 1.000000
0.004360 0.152226 1.000000
0.142501 0.141640 1.000000
0.287053 0.141640 1.000000
0.431605 0.141640 1.000000
0.552366 0.141640 1.000000
0.692208 0.141640 1.000000
0.832050 0.141640 1.000000
0.971892 0.141640 1.000000
1.000000 0.141640 1.000000
0.004360 0.294404 1.000000
0.142429 0.285534 1.000000
0.275123 0.273639 1.000000
0.422094 0.273639 1.000000
0.544875 0.273639 1.000000
0.687057 0.273639 1.000000
0.829239 0.273639 1.000000
0.971421 0.273639 1.000000
1.000000 0.273639 1.000000
0.004360 0.436583 1.000000
0.142429 0.429500 1.000000
0.274977 0.419885 1.000000
0.407782 0.405639 1.000000
0.533605 0.405639 1.000000
0.679308 0.405639 1.000000
0.825011 0.405639 1.000000
0.970714 0.405639 1.000000
1.000000 0.405639 1.000000
0.004360 0.555349 1.000000
0.142429 0.549759 1.000000
0.274977 0.542172 1.000000
0.407525 0.530725 1.000000
0.518665 0.515903 1.000000
0.669035 0.515903 1.000000
0.819405 0.515903 1.000000
0.969775 0.515903 1.000000
1.000000 0.515903 1.000000
0.004360 0.692895 1.000000
0.142429 0.689034 1.000000
0.274977 0.683794 1.000000
0.407525 0.675888 1.000000
0.518258 0.665368 1.000000
0.656986 0.653581 0.990021
0.808297 0.653581 0.990021
0.959607 0.653581 0.990021
0.990021 0.653581 0.990021
0.004360 0.830441 1.000000
0.142429 0.828309 1.000000
0.274977 0.825416 1.000000
0.407525 0.821051 1.000000
0.518258 0.815243 1.000000
0.656726 0.804005 0.989761
0.796804 0.792772 0.978528
0.948114 0.792772 0.978528
0.978528 0.792772 0.978528
0.004360 0.967987 1.000000
0.142429 0.967584 1.000000
0.274977 0.967038 1.000000
0.407525 0.966214 1.000000
0.518258 0.965117 1.000000
0.656726 0.954690 0.989761
0.796496 0.943149 0.978220
0.936621 0.931964 0.967035
0.967035 0.931964 0.967035
0.004360 1.000000 1.000000
0.142429 1.000000 1.000000
0.274977 1.000000 1.000000
0.407525 1.000000 1.000000
0.518258 1.000000 1.000000
0.656726 0.989761 0.989761
0.796496 0.978220 0.978220
0.936266 0.966680 0.966680
0.964360 0.964360 0.964360
