docs/luts/fuji_recipes/NEGA_MT_Pro_Neg_Hich_I.cube
TITLE "Fujifilm Recipe: MT Pro Neg Hich I (NEGA)"
# FilmSim=NEGA HL=0 SH=0 Col=0 WB=Auto WBR=2 WBB=-1
LUT_3D_SIZE 5
DOMAIN_MIN 0.0 0.0 0.0
DOMAIN_MAX 1.0 1.0 1.0
0.016000 0.016000 0.016000
0.240923 0.011769 0.011769
0.456781 0.009596 0.009596
0.677825 0.007450 0.007450
0.860166 0.002311 0.002311
0.011881 0.230301 0.011881
0.240923 0.230011 0.011769
0.456781 0.225976 0.009596
0.677825 0.223134 0.007450
0.860166 0.219422 0.002311
0.009737 0.442464 0.009737
0.237007 0.442464 0.009737
0.456781 0.442187 0.009596
0.677825 0.438650 0.007450
0.860166 0.436364 0.002311
0.007754 0.646249 0.007754
0.234297 0.646249 0.007754
0.453648 0.646249 0.007754
0.677825 0.645735 0.007450
0.860166 0.644820 0.002311
0.002311 0.860166 0.002311
0.230278 0.860166 0.002311
0.451008 0.860166 0.002311
0.677121 0.860166 0.002311
0.860166 0.860166 0.002311
0.011938 0.011938 0.224990
0.240923 0.011769 0.224555
0.456781 0.009596 0.220566
0.677825 0.007450 0.217742
0.860166 0.002311 0.213995
0.011881 0.230301 0.224841
0.273470 0.262277 0.256680
0.500569 0.246534 0.240580
0.746463 0.219828 0.213583
0.994328 0.150073 0.142921
0.009737 0.442464 0.220774
0.259158 0.485716 0.241257
0.500569 0.484506 0.240580
0.746463 0.469445 0.213583
0.994328 0.435919 0.142921
0.007754 0.646249 0.218116
0.250777 0.695466 0.233310
0.487559 0.695466 0.233310
0.746463 0.709296 0.213583
0.994328 0.710584 0.142921
0.002311 0.860166 0.213995
0.164376 0.994328 0.142921
0.455214 0.994328 0.142921
0.753145 0.994328 0.142921
0.994328 0.994328 0.142921
0.009840 0.009840 0.432016
0.237165 0.009840 0.432016
0.456781 0.009596 0.431536
0.677825 0.007450 0.428034
0.860166 0.002311 0.425678
0.009840 0.226340 0.432016
0.260065 0.248091 0.475582
0.501320 0.246875 0.473490
0.750500 0.216592 0.457190
0.994261 0.150034 0.421791
0.009737 0.442464 0.431810
0.260232 0.487877 0.476073
0.523108 0.508010 0.496992
0.770916 0.476950 0.463902
0.991716 0.434359 0.420305
0.007754 0.646249 0.428477
0.243347 0.706564 0.461691
0.499865 0.734324 0.469223
0.770916 0.731475 0.463902
0.991716 0.708506 0.420305
0.002311 0.860166 0.425678
0.164259 0.994126 0.421696
0.453617 0.991716 0.420305
0.750988 0.991716 0.420305
0.991716 0.991716 0.420305
0.007907 0.007907 0.630461
0.234490 0.007907 0.630461
0.453879 0.007907 0.630461
0.677825 0.007450 0.629690
0.860166 0.002311 0.628669
0.007907 0.223700 0.630461
0.251623 0.239944 0.680242
0.489101 0.239944 0.680242
0.750500 0.216592 0.693979
0.994261 0.150034 0.689246
0.007907 0.439324 0.630461
0.252223 0.474573 0.682053
0.502868 0.485258 0.716525
0.771119 0.477571 0.712042
0.991585 0.434307 0.687178
0.007754 0.646249 0.630199
0.243347 0.706564 0.688517
0.501414 0.735012 0.715546
0.777583 0.739677 0.720723
0.989253 0.707395 0.686256
0.002311 0.860166 0.628669
0.164259 0.994126 0.689132
0.453494 0.991405 0.687061
0.749674 0.989253 0.686256
0.989253 0.989253 0.686256
0.005931 0.005931 0.835699
0.232112 0.005931 0.835699
0.451112 0.005931 0.835699
0.675454 0.005931 0.835699
0.860166 0.002311 0.838631
0.005931 0.221341 0.835699
0.171215 0.157025 0.966422
0.459741 0.157025 0.966422
0.755305 0.157025 0.966422
0.994261 0.150034 0.965887
0.005931 0.436583 0.835699
0.171243 0.440576 0.966295
0.460123 0.441090 0.963955
0.754025 0.441090 0.963955
0.991585 0.434307 0.963268
0.005931 0.643405 0.835699
0.171243 0.713004 0.966295
0.460256 0.712026 0.963797
0.755050 0.713668 0.961958
0.989062 0.707411 0.960897
0.002311 0.860166 0.838631
0.164259 0.994126 0.965755
0.453494 0.991405 0.963094
0.749718 0.988685 0.960571
0.987371 0.987371 0.960677
