docs/luts/fuji_recipes/NEGA_RR_CineStill_800T.cube
TITLE "Fujifilm Recipe: RR CineStill 800T (NEGA)"
# FilmSim=NEGA HL=3 SH=1 Col=-1 WB=3200K WBR=0 WBB=0
LUT_3D_SIZE 5
DOMAIN_MIN 0.0 0.0 0.0
DOMAIN_MAX 1.0 1.0 1.0
0.015360 0.015360 0.015360
0.217181 0.044694 0.044694
0.419790 0.074142 0.074142
0.661170 0.107039 0.107039
0.805587 0.127075 0.127075
0.048985 0.246706 0.048985
0.221472 0.246706 0.048985
0.419790 0.271863 0.074142
0.661170 0.304760 0.107039
0.805587 0.324796 0.127075
0.083153 0.488999 0.083153
0.255641 0.488999 0.083153
0.428802 0.488999 0.083153
0.661170 0.513925 0.107039
0.805587 0.534834 0.127075
0.119541 0.751285 0.119541
0.292029 0.751285 0.119541
0.465190 0.751285 0.119541
0.674217 0.751285 0.119541
0.805587 0.759147 0.127075
0.141970 0.912951 0.141970
0.314458 0.912951 0.141970
0.487619 0.912951 0.141970
0.697623 0.912951 0.141970
0.821131 0.912951 0.141970
0.053631 0.053631 0.278671
0.226118 0.053631 0.278671
0.419790 0.074142 0.299182
0.661170 0.107039 0.332079
0.805587 0.127075 0.352115
0.053631 0.251352 0.278671
0.255452 0.280685 0.308004
0.453415 0.305488 0.332806
0.696604 0.338564 0.365883
0.841020 0.358600 0.385919
0.083153 0.488999 0.308193
0.285130 0.519910 0.337682
0.467276 0.529328 0.346667
0.701499 0.554254 0.370553
0.845916 0.575163 0.390589
0.119541 0.751285 0.344581
0.321519 0.782196 0.374071
0.520789 0.791614 0.383056
0.714546 0.791614 0.383056
0.845916 0.799476 0.390589
0.141970 0.912951 0.367010
0.343074 0.935029 0.395626
0.542988 0.941082 0.404278
0.736745 0.941082 0.404278
0.860253 0.941082 0.404278
0.092485 0.092485 0.556262
0.264972 0.092485 0.556262
0.438134 0.092485 0.556262
0.661170 0.107039 0.571450
0.805587 0.127075 0.592359
0.092485 0.290206 0.556262
0.294462 0.319695 0.587173
0.471937 0.324009 0.591695
0.696604 0.338564 0.606883
0.841020 0.358600 0.627792
0.092485 0.498737 0.556262
0.294462 0.529648 0.587173
0.516027 0.562539 0.620064
0.732952 0.585707 0.643232
0.877464 0.606711 0.664236
0.119541 0.751285 0.584497
0.321519 0.782196 0.615408
0.544391 0.815217 0.648428
0.755841 0.832910 0.666121
0.887247 0.840807 0.674019
0.141970 0.912951 0.607902
0.343074 0.935029 0.637940
0.565934 0.957070 0.669971
0.776819 0.969054 0.687099
0.900328 0.969054 0.687099
0.133077 0.133077 0.848847
0.305564 0.133077 0.848847
0.478726 0.133077 0.848847
0.688342 0.133077 0.848847
0.811850 0.133077 0.848847
0.133077 0.330798 0.848847
0.335054 0.360287 0.879758
0.530018 0.364601 0.884280
0.723775 0.364601 0.884280
0.847283 0.364601 0.884280
0.133077 0.541097 0.848847
0.335054 0.572008 0.879758
0.558581 0.605093 0.912843
0.760248 0.613003 0.920753
0.883756 0.613003 0.920753
0.133077 0.765410 0.848847
0.335054 0.796321 0.879758
0.558581 0.829406 0.912843
0.785289 0.862357 0.945794
0.921903 0.875463 0.958900
0.141970 0.912951 0.858128
0.343074 0.935029 0.888165
0.565934 0.957070 0.920196
0.791590 0.979388 0.952096
0.935432 0.993614 0.972429
0.141970 0.141970 0.912951
0.314458 0.141970 0.912951
0.487619 0.141970 0.912951
0.697623 0.141970 0.912951
0.821131 0.141970 0.912951
0.141970 0.339691 0.912951
0.343074 0.368307 0.935029
0.538265 0.372462 0.937936
0.732022 0.372462 0.937936
0.855531 0.372462 0.937936
0.141970 0.550378 0.912951
0.343074 0.580415 0.935029
0.565934 0.612446 0.957070
0.767349 0.620104 0.962428
0.890857 0.620104 0.962428
0.141970 0.774691 0.912951
0.343074 0.804728 0.935029
0.565934 0.836759 0.957070
0.791590 0.868659 0.979388
0.927787 0.881347 0.988265
0.141970 0.912951 0.912951
0.343074 0.935029 0.935029
0.565934 0.957070 0.957070
0.791590 0.979388 0.979388
0.935432 0.993614 0.993614
