docs/luts/fuji_recipes/NEGAhi_MT_Pro_Neg_Hich_II.cube
TITLE "Fujifilm Recipe: MT Pro Neg Hich II (NEGAhi)"
# FilmSim=NEGAhi HL=0 SH=0 Col=0 WB=Auto WBR=2 WBB=-1
LUT_3D_SIZE 5
DOMAIN_MIN 0.0 0.0 0.0
DOMAIN_MAX 1.0 1.0 1.0
0.000000 0.000000 0.000000
0.221608 0.000000 0.000000
0.442748 0.000000 0.000000
0.661507 0.000000 0.000000
0.834960 0.000000 0.000000
0.000000 0.210000 0.000000
0.221608 0.210000 0.000000
0.442748 0.210000 0.000000
0.661507 0.210000 0.000000
0.834960 0.210000 0.000000
0.000000 0.420000 0.000000
0.221608 0.420000 0.000000
0.442748 0.420000 0.000000
0.661507 0.420000 0.000000
0.834960 0.420000 0.000000
0.000000 0.627480 0.000000
0.221608 0.627480 0.000000
0.442748 0.627480 0.000000
0.661507 0.627480 0.000000
0.834960 0.627480 0.000000
0.000000 0.834960 0.000000
0.221608 0.834960 0.000000
0.442748 0.834960 0.000000
0.661507 0.834960 0.000000
0.834960 0.834960 0.000000
0.000000 0.000000 0.204750
0.221608 0.000000 0.204750
0.442748 0.000000 0.204750
0.661507 0.000000 0.204750
0.834960 0.000000 0.204750
0.000000 0.210000 0.204750
0.263819 0.250000 0.243750
0.512083 0.220003 0.213415
0.768937 0.182143 0.175320
1.000000 0.125060 0.117710
0.000000 0.420000 0.204750
0.237024 0.486964 0.215786
0.512083 0.483536 0.213415
0.768937 0.455066 0.175320
1.000000 0.419059 0.117710
0.000000 0.627480 0.204750
0.216850 0.714031 0.196199
0.487739 0.714031 0.196199
0.768937 0.724714 0.175320
1.000000 0.709529 0.117710
0.000000 0.834960 0.204750
0.141311 1.000000 0.117710
0.450905 1.000000 0.117710
0.757167 1.000000 0.117710
1.000000 1.000000 0.117710
0.000000 0.000000 0.409500
0.221608 0.000000 0.409500
0.442748 0.000000 0.409500
0.661507 0.000000 0.409500
0.834960 0.000000 0.409500
0.000000 0.210000 0.409500
0.238283 0.223603 0.475897
0.512687 0.220061 0.470886
0.773323 0.178184 0.441148
1.000000 0.124960 0.404291
0.000000 0.420000 0.409500
0.237297 0.488733 0.475426
0.527081 0.500000 0.487500
0.792632 0.449302 0.434375
1.000000 0.415256 0.400460
0.000000 0.627480 0.409500
0.211402 0.722108 0.447825
0.490023 0.749692 0.443288
0.792632 0.744258 0.434375
1.000000 0.707628 0.400460
0.000000 0.834960 0.409500
0.140990 1.000000 0.404136
0.447311 1.000000 0.400460
0.755577 1.000000 0.400460
1.000000 1.000000 0.400460
0.000000 0.000000 0.611919
0.221608 0.000000 0.611919
0.442748 0.000000 0.611919
0.661507 0.000000 0.611919
0.834960 0.000000 0.611919
0.000000 0.210000 0.611919
0.218244 0.203978 0.697941
0.490028 0.203978 0.697941
0.773323 0.178184 0.707960
1.000000 0.124960 0.687708
0.000000 0.420000 0.611919
0.218263 0.462967 0.699687
0.493719 0.461951 0.729968
0.792153 0.449354 0.721767
1.000000 0.414960 0.685541
0.000000 0.627480 0.611919
0.211402 0.722108 0.702528
0.490322 0.748571 0.726818
0.786973 0.740718 0.719565
1.000000 0.702317 0.679991
0.000000 0.834960 0.611919
0.140990 1.000000 0.687627
0.446374 1.000000 0.685167
0.751137 1.000000 0.679991
1.000000 1.000000 0.679991
0.000000 0.000000 0.814212
0.221608 0.000000 0.814212
0.442748 0.000000 0.814212
0.661507 0.000000 0.814212
0.834960 0.000000 0.814212
0.000000 0.210000 0.814212
0.121422 0.104212 1.000000
0.449277 0.104212 1.000000
0.773604 0.104212 1.000000
1.000000 0.124960 0.970950
0.000000 0.420000 0.814212
0.120242 0.414767 1.000000
0.431736 0.397114 0.997098
0.764684 0.397114 0.997098
1.000000 0.414960 0.970748
0.000000 0.627480 0.814212
0.120242 0.722785 1.000000
0.430378 0.711292 0.995248
0.751328 0.700271 0.980461
1.000000 0.701480 0.970148
0.000000 0.834960 0.814212
0.140990 1.000000 0.970942
0.446374 1.000000 0.970713
0.748470 1.000000 0.969913
0.994995 0.994995 0.964353
