docs/luts/fuji_recipes/NEGA_RR_Analog_Color.cube
TITLE "Fujifilm Recipe: RR Analog Color (NEGA)"
# FilmSim=NEGA HL=3 SH=0 Col=-1 WB=Daylight WBR=-3 WBB=1
LUT_3D_SIZE 5
DOMAIN_MIN 0.0 0.0 0.0
DOMAIN_MAX 1.0 1.0 1.0
0.016000 0.016000 0.016000
0.249267 0.035307 0.035307
0.470149 0.054771 0.054771
0.717737 0.075638 0.075638
0.781503 0.081016 0.081016
0.036978 0.268075 0.036978
0.250743 0.268075 0.036978
0.470149 0.284619 0.054771
0.717737 0.304818 0.075638
0.781503 0.310093 0.081016
0.058218 0.511078 0.058218
0.270684 0.511078 0.058218
0.473517 0.511078 0.058218
0.717737 0.528490 0.075638
0.781503 0.533972 0.081016
0.080783 0.778735 0.080783
0.292682 0.778735 0.080783
0.496272 0.778735 0.080783
0.722898 0.778735 0.080783
0.781503 0.778969 0.081016
0.040329 0.893939 0.040329
0.277894 0.893939 0.040329
0.506517 0.893939 0.040329
0.760593 0.893939 0.040329
0.826033 0.893939 0.040329
0.037536 0.037536 0.274344
0.251241 0.037536 0.274344
0.470149 0.054771 0.290365
0.717737 0.075638 0.310548
0.781503 0.081016 0.315820
0.037536 0.268568 0.274344
0.306753 0.324106 0.329891
0.538582 0.334887 0.341150
0.824993 0.316931 0.323958
0.901617 0.309451 0.316624
0.058218 0.511078 0.293654
0.315238 0.576465 0.340068
0.541368 0.582191 0.344367
0.825780 0.593763 0.324857
0.902377 0.592366 0.317405
0.080783 0.778735 0.315591
0.285974 0.895951 0.314649
0.545590 0.898993 0.317787
0.829133 0.898993 0.317787
0.902377 0.899204 0.317405
0.040329 0.893939 0.303577
0.276980 0.969246 0.306295
0.542529 0.970613 0.309111
0.832530 0.970613 0.309111
0.907224 0.970613 0.309111
0.059367 0.059367 0.524721
0.271791 0.059367 0.524721
0.474649 0.059367 0.524721
0.717737 0.075638 0.540982
0.781503 0.081016 0.546459
0.059367 0.289014 0.524721
0.316032 0.334627 0.590464
0.540533 0.337825 0.594812
0.824993 0.316931 0.608225
0.901617 0.309451 0.607213
0.059367 0.512203 0.524721
0.316032 0.576949 0.590464
0.587396 0.625233 0.637845
0.856000 0.628521 0.643537
0.930856 0.623240 0.638758
0.080783 0.778735 0.546220
0.285974 0.895951 0.604907
0.571540 0.922775 0.633650
0.859892 0.929104 0.640892
0.932436 0.929290 0.640580
0.040329 0.893939 0.562516
0.276980 0.969246 0.603455
0.565835 0.981533 0.629751
0.861976 0.984512 0.635892
0.936670 0.984512 0.635892
0.082498 0.082498 0.799067
0.294370 0.082498 0.799067
0.498031 0.082498 0.799067
0.724628 0.082498 0.799067
0.782991 0.082498 0.799067
0.082498 0.311549 0.799067
0.283006 0.304667 0.920967
0.543701 0.306876 0.923238
0.829387 0.306876 0.923238
0.902969 0.306876 0.923238
0.082498 0.535488 0.799067
0.283006 0.588618 0.920967
0.568904 0.616023 0.947597
0.858711 0.620991 0.952269
0.932064 0.620991 0.952269
0.082498 0.780457 0.799067
0.283006 0.897502 0.920967
0.568904 0.924186 0.947597
0.883874 0.952970 0.976002
0.964139 0.961108 0.983369
0.040329 0.893939 0.844059
0.276980 0.969246 0.924808
0.565835 0.981533 0.951104
0.883697 0.995053 0.978965
0.965566 0.998535 0.986141
0.040329 0.040329 0.893939
0.277894 0.040329 0.893939
0.506517 0.040329 0.893939
0.760593 0.040329 0.893939
0.826033 0.040329 0.893939
0.040329 0.297156 0.893939
0.276980 0.298966 0.969246
0.541782 0.301078 0.970271
0.831783 0.301078 0.970271
0.906476 0.301078 0.970271
0.040329 0.548516 0.893939
0.276980 0.587476 0.969246
0.565835 0.613772 0.981533
0.860441 0.618377 0.983768
0.935135 0.618377 0.983768
0.040329 0.823193 0.893939
0.276980 0.900991 0.969246
0.565835 0.927287 0.981533
0.883697 0.955148 0.995053
0.965255 0.962012 0.998384
0.040329 0.893939 0.893939
0.276980 0.969246 0.969246
0.565835 0.981533 0.981533
0.883697 0.995053 0.995053
0.965566 0.998535 0.998535
