docs/luts/fuji_recipes/NEGAhi_PS_Fujifilm_Superia_100.cube
TITLE "Fujifilm Recipe: PS Fujifilm Superia 100 (NEGAhi)"
# FilmSim=NEGAhi HL=-2 SH=2 Col=2 WB=UWater WBR=-1 WBB=-3
LUT_3D_SIZE 5
DOMAIN_MIN 0.0 0.0 0.0
DOMAIN_MAX 1.0 1.0 1.0
0.000000 0.000000 0.000000
0.338544 0.000000 0.000000
0.685676 0.000000 0.000000
0.916705 0.000000 0.000000
0.916705 0.000000 0.000000
0.000000 0.323956 0.000000
0.338544 0.323956 0.000000
0.685676 0.323956 0.000000
0.916705 0.323956 0.000000
0.916705 0.323956 0.000000
0.000000 0.661573 0.000000
0.338544 0.661573 0.000000
0.685676 0.661573 0.000000
0.916705 0.661573 0.000000
0.916705 0.661573 0.000000
0.000000 0.934720 0.000000
0.338544 0.934720 0.000000
0.685676 0.934720 0.000000
0.916705 0.934720 0.000000
0.916705 0.934720 0.000000
0.000000 0.934720 0.000000
0.338544 0.934720 0.000000
0.685676 0.934720 0.000000
0.916705 0.934720 0.000000
0.916705 0.934720 0.000000
0.000000 0.000000 0.280754
0.338544 0.000000 0.280754
0.685676 0.000000 0.280754
0.916705 0.000000 0.280754
0.916705 0.000000 0.280754
0.000000 0.323956 0.280754
0.348947 0.329107 0.270352
0.758562 0.266623 0.207868
1.000000 0.251978 0.197459
1.000000 0.251978 0.197459
0.000000 0.661573 0.280754
0.290801 0.730121 0.212207
0.758562 0.725782 0.207868
1.000000 0.678036 0.197459
1.000000 0.678036 0.197459
0.000000 0.934720 0.280754
0.284802 1.000000 0.215474
0.701236 1.000000 0.215474
0.978388 1.000000 0.215474
0.978388 1.000000 0.215474
0.000000 0.934720 0.280754
0.284802 1.000000 0.215474
0.701236 1.000000 0.215474
0.978388 1.000000 0.215474
0.978388 1.000000 0.215474
0.000000 0.000000 0.584341
0.338544 0.000000 0.584341
0.685676 0.000000 0.584341
0.916705 0.000000 0.584341
0.916705 0.000000 0.584341
0.000000 0.323956 0.584341
0.296927 0.277087 0.631210
0.750786 0.258846 0.612970
1.000000 0.240661 0.574226
1.000000 0.240661 0.574226
0.000000 0.661573 0.584341
0.280399 0.719719 0.614682
0.703917 0.671137 0.566100
0.976530 0.629552 0.524515
0.976530 0.629552 0.524515
0.000000 0.934720 0.584341
0.273264 1.000000 0.572889
0.659089 0.997788 0.521273
0.973287 0.997788 0.521273
0.973287 0.997788 0.521273
0.000000 0.934720 0.584341
0.273264 1.000000 0.572889
0.659089 0.997788 0.521273
0.973287 0.997788 0.521273
0.973287 0.997788 0.521273
0.000000 0.000000 0.823215
0.338544 0.000000 0.823215
0.685676 0.000000 0.823215
0.916705 0.000000 0.823215
0.916705 0.000000 0.823215
0.000000 0.323956 0.823215
0.253930 0.234089 0.913081
0.726029 0.234089 0.913081
1.000000 0.240661 0.880235
1.000000 0.240661 0.880235
0.000000 0.661573 0.823215
0.251304 0.690623 0.910455
0.665258 0.632478 0.852310
0.962628 0.615650 0.835482
0.962628 0.615650 0.835482
0.000000 0.934720 0.823215
0.273264 1.000000 0.864076
0.640848 0.979548 0.827901
0.930290 0.954791 0.803144
0.930290 0.954791 0.803144
0.000000 0.934720 0.823215
0.273264 1.000000 0.864076
0.640848 0.979548 0.827901
0.930290 0.954791 0.803144
0.930290 0.954791 0.803144
0.000000 0.000000 0.823215
0.338544 0.000000 0.823215
0.685676 0.000000 0.823215
0.916705 0.000000 0.823215
0.916705 0.000000 0.823215
0.000000 0.323956 0.823215
0.253930 0.234089 0.913081
0.726029 0.234089 0.913081
1.000000 0.240661 0.880235
1.000000 0.240661 0.880235
0.000000 0.661573 0.823215
0.251304 0.690623 0.910455
0.665258 0.632478 0.852310
0.962628 0.615650 0.835482
0.962628 0.615650 0.835482
0.000000 0.934720 0.823215
0.273264 1.000000 0.864076
0.640848 0.979548 0.827901
0.930290 0.954791 0.803144
0.930290 0.954791 0.803144
0.000000 0.934720 0.823215
0.273264 1.000000 0.864076
0.640848 0.979548 0.827901
0.930290 0.954791 0.803144
0.930290 0.954791 0.803144
