docs/luts/fuji_recipes/NEGAhi_PS_Kodak_Gold_200.cube
TITLE "Fujifilm Recipe: PS Kodak Gold 200 (NEGAhi)"
# FilmSim=NEGAhi HL=-2 SH=-1 Col=1 WB=FLight1 WBR=4 WBB=-3
LUT_3D_SIZE 33
DOMAIN_MIN 0.0 0.0 0.0
DOMAIN_MAX 1.0 1.0 1.0
0.040000 0.040000 0.040000
0.099115 0.035119 0.035119
0.144512 0.031371 0.031371
0.189151 0.027685 0.027685
0.233791 0.023999 0.023999
0.278430 0.020313 0.020313
0.323069 0.016627 0.016627
0.367708 0.012942 0.012942
0.412347 0.009256 0.009256
0.456986 0.005570 0.005570
0.501626 0.001884 0.001884
0.544463 0.000000 0.000000
0.563019 0.000000 0.000000
0.600109 0.000000 0.000000
0.637199 0.000000 0.000000
0.674289 0.000000 0.000000
0.711379 0.000000 0.000000
0.748469 0.000000 0.000000
0.785560 0.000000 0.000000
0.822650 0.000000 0.000000
0.859740 0.000000 0.000000
0.896830 0.000000 0.000000
0.933920 0.000000 0.000000
0.971010 0.000000 0.000000
0.974720 0.000000 0.000000
0.974720 0.000000 0.000000
0.974720 0.000000 0.000000
0.974720 0.000000 0.000000
0.974720 0.000000 0.000000
0.974720 0.000000 0.000000
0.974720 0.000000 0.000000
0.974720 0.000000 0.000000
0.974720 0.000000 0.000000
0.034866 0.102179 0.034866
0.098863 0.102179 0.034866
0.144512 0.098684 0.031371
0.189151 0.094998 0.027685
0.233791 0.091312 0.023999
0.278430 0.087626 0.020313
0.323069 0.083941 0.016627
0.367708 0.080255 0.012942
0.412347 0.076569 0.009256
0.456986 0.072883 0.005570
0.501626 0.069197 0.001884
0.544463 0.066871 0.000000
0.563019 0.066493 0.000000
0.600109 0.065820 0.000000
0.637199 0.065235 0.000000
0.674289 0.064724 0.000000
0.711379 0.064273 0.000000
0.748469 0.063872 0.000000
0.785560 0.063513 0.000000
0.822650 0.063190 0.000000
0.859740 0.062898 0.000000
0.896830 0.062632 0.000000
0.933920 0.062389 0.000000
0.971010 0.062167 0.000000
0.974720 0.062146 0.000000
0.974720 0.062146 0.000000
0.974720 0.062146 0.000000
0.974720 0.062146 0.000000
0.974720 0.062146 0.000000
0.974720 0.062146 0.000000
0.974720 0.062146 0.000000
0.974720 0.062146 0.000000
0.974720 0.062146 0.000000
0.031201 0.146569 0.031201
0.095197 0.146569 0.031201
0.144342 0.146569 0.031201
0.189151 0.143053 0.027685
0.233791 0.139367 0.023999
0.278430 0.135682 0.020313
0.323069 0.131996 0.016627
0.367708 0.128310 0.012942
0.412347 0.124624 0.009256
0.456986 0.120938 0.005570
0.501626 0.117253 0.001884
0.544463 0.114610 0.000000
0.563019 0.113963 0.000000
0.600109 0.112808 0.000000
0.637199 0.111807 0.000000
0.674289 0.110931 0.000000
0.711379 0.110158 0.000000
0.748469 0.109471 0.000000
0.785560 0.108856 0.000000
0.822650 0.108302 0.000000
0.859740 0.107801 0.000000
0.896830 0.107345 0.000000
0.933920 0.106930 0.000000
0.971010 0.106548 0.000000
0.974720 0.106512 0.000000
0.974720 0.106512 0.000000
0.974720 0.106512 0.000000
0.974720 0.106512 0.000000
0.974720 0.106512 0.000000
0.974720 0.106512 0.000000
0.974720 0.106512 0.000000
0.974720 0.106512 0.000000
0.974720 0.106512 0.000000
0.027597 0.190218 0.027597
0.091593 0.190218 0.027597
0.140738 0.190218 0.027597
0.189063 0.190218 0.027597
0.233791 0.186621 0.023999
0.278430 0.182935 0.020313
0.323069 0.179249 0.016627
0.367708 0.175563 0.012942
0.412347 0.171878 0.009256
0.456986 0.168192 0.005570
0.501626 0.164506 0.001884
0.544463 0.161553 0.000000
0.563019 0.160641 0.000000
0.600109 0.159013 0.000000
0.637199 0.157602 0.000000
0.674289 0.156367 0.000000
0.711379 0.155277 0.000000
0.748469 0.154308 0.000000
0.785560 0.153441 0.000000
0.822650 0.152661 0.000000
0.859740 0.151955 0.000000
0.896830 0.151313 0.000000
0.933920 0.150726 0.000000
0.971010 0.150189 0.000000
0.974720 0.150138 0.000000
0.974720 0.150138 0.000000
0.974720 0.150138 0.000000
0.974720 0.150138 0.000000
0.974720 0.150138 0.000000
0.974720 0.150138 0.000000
0.974720 0.150138 0.000000
0.974720 0.150138 0.000000
0.974720 0.150138 0.000000
0.023993 0.233868 0.023993
0.087989 0.233868 0.023993
0.137134 0.233868 0.023993
0.185459 0.233868 0.023993
0.233784 0.233868 0.023993
0.278430 0.230188 0.020313
0.323069 0.226503 0.016627
0.367708 0.222817 0.012942
0.412347 0.219131 0.009256
0.456986 0.215445 0.005570
0.501626 0.211759 0.001884
0.544463 0.208495 0.000000
0.563019 0.207318 0.000000
0.600109 0.205218 0.000000
0.637199 0.203397 0.000000
0.674289 0.201803 0.000000
0.711379 0.200396 0.000000
0.748469 0.199146 0.000000
0.785560 0.198027 0.000000
0.822650 0.197020 0.000000
0.859740 0.196109 0.000000
0.896830 0.195280 0.000000
0.933920 0.194523 0.000000
0.971010 0.193830 0.000000
0.974720 0.193763 0.000000
0.974720 0.193763 0.000000
0.974720 0.193763 0.000000
0.974720 0.193763 0.000000
0.974720 0.193763 0.000000
0.974720 0.193763 0.000000
0.974720 0.193763 0.000000
0.974720 0.193763 0.000000
0.974720 0.193763 0.000000
0.020389 0.277517 0.020389
0.084385 0.277517 0.020389
0.133530 0.277517 0.020389
0.181855 0.277517 0.020389
0.230180 0.277517 0.020389
0.278430 0.277442 0.020313
0.323069 0.273756 0.016627
0.367708 0.270070 0.012942
0.412347 0.266384 0.009256
0.456986 0.262698 0.005570
0.501626 0.259013 0.001884
0.544463 0.255438 0.000000
0.563019 0.253996 0.000000
0.600109 0.251422 0.000000
0.637199 0.249191 0.000000
0.674289 0.247239 0.000000
0.711379 0.245516 0.000000
0.748469 0.243984 0.000000
0.785560 0.242613 0.000000
0.822650 0.241379 0.000000
0.859740 0.240262 0.000000
0.896830 0.239247 0.000000
0.933920 0.238320 0.000000
0.971010 0.237470 0.000000
0.974720 0.237389 0.000000
0.974720 0.237389 0.000000
0.974720 0.237389 0.000000
0.974720 0.237389 0.000000
0.974720 0.237389 0.000000
0.974720 0.237389 0.000000
0.974720 0.237389 0.000000
0.974720 0.237389 0.000000
0.974720 0.237389 0.000000
0.016784 0.321166 0.016784
0.080781 0.321166 0.016784
0.129926 0.321166 0.016784
0.178251 0.321166 0.016784
0.226576 0.321166 0.016784
0.274901 0.321166 0.016784
0.323069 0.321009 0.016627
0.367708 0.317323 0.012942
0.412347 0.313638 0.009256
0.456986 0.309952 0.005570
0.501626 0.306266 0.001884
0.544463 0.302381 0.000000
0.563019 0.300674 0.000000
0.600109 0.297627 0.000000
0.637199 0.294986 0.000000
0.674289 0.292675 0.000000
0.711379 0.290635 0.000000
0.748469 0.288821 0.000000
0.785560 0.287199 0.000000
0.822650 0.285738 0.000000
0.859740 0.284416 0.000000
0.896830 0.283214 0.000000
0.933920 0.282117 0.000000
0.971010 0.281111 0.000000
0.974720 0.281015 0.000000
0.974720 0.281015 0.000000
0.974720 0.281015 0.000000
0.974720 0.281015 0.000000
0.974720 0.281015 0.000000
0.974720 0.281015 0.000000
0.974720 0.281015 0.000000
0.974720 0.281015 0.000000
0.974720 0.281015 0.000000
0.013180 0.364816 0.013180
0.077177 0.364816 0.013180
0.126322 0.364816 0.013180
0.174647 0.364816 0.013180
0.222972 0.364816 0.013180
0.271297 0.364816 0.013180
0.319622 0.364816 0.013180
0.367708 0.364577 0.012942
0.412347 0.360891 0.009256
0.456986 0.357205 0.005570
0.501626 0.353519 0.001884
0.544463 0.349323 0.000000
0.563019 0.347351 0.000000
0.600109 0.343832 0.000000
0.637199 0.340781 0.000000
0.674289 0.338111 0.000000
0.711379 0.335754 0.000000
0.748469 0.333659 0.000000
0.785560 0.331784 0.000000
0.822650 0.330097 0.000000
0.859740 0.328570 0.000000
0.896830 0.327182 0.000000
0.933920 0.325914 0.000000
0.971010 0.324752 0.000000
0.974720 0.324641 0.000000
0.974720 0.324641 0.000000
0.974720 0.324641 0.000000
0.974720 0.324641 0.000000
0.974720 0.324641 0.000000
0.974720 0.324641 0.000000
0.974720 0.324641 0.000000
0.974720 0.324641 0.000000
0.974720 0.324641 0.000000
0.009576 0.408465 0.009576
0.073573 0.408465 0.009576
0.122718 0.408465 0.009576
0.171043 0.408465 0.009576
0.219368 0.408465 0.009576
0.267693 0.408465 0.009576
0.316018 0.408465 0.009576
0.364343 0.408465 0.009576
0.412347 0.408144 0.009256
0.456986 0.404458 0.005570
0.501626 0.400773 0.001884
0.544463 0.396266 0.000000
0.563019 0.394029 0.000000
0.600109 0.390037 0.000000
0.637199 0.386575 0.000000
0.674289 0.383546 0.000000
0.711379 0.380873 0.000000
0.748469 0.378497 0.000000
0.785560 0.376370 0.000000
0.822650 0.374456 0.000000
0.859740 0.372724 0.000000
0.896830 0.371149 0.000000
0.933920 0.369711 0.000000
0.971010 0.368392 0.000000
0.974720 0.368267 0.000000
0.974720 0.368267 0.000000
0.974720 0.368267 0.000000
0.974720 0.368267 0.000000
0.974720 0.368267 0.000000
0.974720 0.368267 0.000000
0.974720 0.368267 0.000000
0.974720 0.368267 0.000000
0.974720 0.368267 0.000000
0.005972 0.452114 0.005972
0.069969 0.452114 0.005972
0.119114 0.452114 0.005972
0.167439 0.452114 0.005972
0.215764 0.452114 0.005972
0.264089 0.452114 0.005972
0.312414 0.452114 0.005972
0.360739 0.452114 0.005972
0.409064 0.452114 0.005972
0.456986 0.451712 0.005570
0.501626 0.448026 0.001884
0.544463 0.443209 0.000000
0.563019 0.440707 0.000000
0.600109 0.436241 0.000000
0.637199 0.432370 0.000000
0.674289 0.428982 0.000000
0.711379 0.425992 0.000000
0.748469 0.423334 0.000000
0.785560 0.420956 0.000000
0.822650 0.418815 0.000000
0.859740 0.416877 0.000000
0.896830 0.415116 0.000000
0.933920 0.413508 0.000000
0.971010 0.412033 0.000000
0.974720 0.411892 0.000000
0.974720 0.411892 0.000000
0.974720 0.411892 0.000000
0.974720 0.411892 0.000000
0.974720 0.411892 0.000000
0.974720 0.411892 0.000000
0.974720 0.411892 0.000000
0.974720 0.411892 0.000000
0.974720 0.411892 0.000000
0.002368 0.495763 0.002368
0.066365 0.495763 0.002368
0.115510 0.495763 0.002368
0.163835 0.495763 0.002368
0.212160 0.495763 0.002368
0.260485 0.495763 0.002368
0.308810 0.495763 0.002368
0.357135 0.495763 0.002368
0.405460 0.495763 0.002368
0.453785 0.495763 0.002368
0.501626 0.495279 0.001884
0.544463 0.490151 0.000000
0.563019 0.487385 0.000000
0.600109 0.482446 0.000000
0.637199 0.478165 0.000000
0.674289 0.474418 0.000000
0.711379 0.471112 0.000000
0.748469 0.468172 0.000000
0.785560 0.465541 0.000000
0.822650 0.463174 0.000000
0.859740 0.461031 0.000000
0.896830 0.459083 0.000000
0.933920 0.457304 0.000000
0.971010 0.455674 0.000000
0.974720 0.455518 0.000000
0.974720 0.455518 0.000000
0.974720 0.455518 0.000000
0.974720 0.455518 0.000000
0.974720 0.455518 0.000000
0.974720 0.455518 0.000000
0.974720 0.455518 0.000000
0.974720 0.455518 0.000000
0.974720 0.455518 0.000000
0.000000 0.538177 0.000000
0.063704 0.538177 0.000000
0.112624 0.538177 0.000000
0.160728 0.538177 0.000000
0.208832 0.538177 0.000000
0.256937 0.538177 0.000000
0.305041 0.538177 0.000000
0.353145 0.538177 0.000000
0.401249 0.538177 0.000000
0.449353 0.538177 0.000000
0.497457 0.538177 0.000000
0.544463 0.537094 0.000000
0.563019 0.534062 0.000000
0.600109 0.528651 0.000000
0.637199 0.523960 0.000000
0.674289 0.519854 0.000000
0.711379 0.516231 0.000000
0.748469 0.513010 0.000000
0.785560 0.510127 0.000000
0.822650 0.507533 0.000000
0.859740 0.505185 0.000000
0.896830 0.503050 0.000000
0.933920 0.501101 0.000000
0.971010 0.499314 0.000000
0.974720 0.499144 0.000000
0.974720 0.499144 0.000000
0.974720 0.499144 0.000000
0.974720 0.499144 0.000000
0.974720 0.499144 0.000000
0.974720 0.499144 0.000000
0.974720 0.499144 0.000000
0.974720 0.499144 0.000000
0.974720 0.499144 0.000000
0.000000 0.556503 0.000000
0.063340 0.556503 0.000000
0.111980 0.556503 0.000000
0.159810 0.556503 0.000000
0.207639 0.556503 0.000000
0.255468 0.556503 0.000000
0.303297 0.556503 0.000000
0.351126 0.556503 0.000000
0.398955 0.556503 0.000000
0.446784 0.556503 0.000000
0.494613 0.556503 0.000000
0.542442 0.556503 0.000000
0.563019 0.555424 0.000000
0.600109 0.549796 0.000000
0.637199 0.544917 0.000000
0.674289 0.540647 0.000000
0.711379 0.536879 0.000000
0.748469 0.533529 0.000000
0.785560 0.530531 0.000000
0.822650 0.527833 0.000000
0.859740 0.525391 0.000000
0.896830 0.523171 0.000000
0.933920 0.521144 0.000000
0.971010 0.519286 0.000000
0.974720 0.519109 0.000000
0.974720 0.519109 0.000000
0.974720 0.519109 0.000000
0.974720 0.519109 0.000000
0.974720 0.519109 0.000000
0.974720 0.519109 0.000000
0.974720 0.519109 0.000000
0.974720 0.519109 0.000000
0.974720 0.519109 0.000000
0.000000 0.592771 0.000000
0.062696 0.592771 0.000000
0.110842 0.592771 0.000000
0.158185 0.592771 0.000000
0.205527 0.592771 0.000000
0.252870 0.592771 0.000000
0.300213 0.592771 0.000000
0.347556 0.592771 0.000000
0.394898 0.592771 0.000000
0.442241 0.592771 0.000000
0.489584 0.592771 0.000000
0.536926 0.592771 0.000000
0.558377 0.592771 0.000000
0.600109 0.591642 0.000000
0.637199 0.586392 0.000000
0.674289 0.581797 0.000000
0.711379 0.577742 0.000000
0.748469 0.574137 0.000000
0.785560 0.570911 0.000000
0.822650 0.568007 0.000000
0.859740 0.565380 0.000000
0.896830 0.562991 0.000000
0.933920 0.560810 0.000000
0.971010 0.558810 0.000000
0.974720 0.558619 0.000000
0.974720 0.558619 0.000000
0.974720 0.558619 0.000000
0.974720 0.558619 0.000000
0.974720 0.558619 0.000000
0.974720 0.558619 0.000000
0.974720 0.558619 0.000000
0.974720 0.558619 0.000000
0.974720 0.558619 0.000000
0.000000 0.629038 0.000000
0.062137 0.629038 0.000000
0.109854 0.629038 0.000000
0.156774 0.629038 0.000000
0.203695 0.629038 0.000000
0.250616 0.629038 0.000000
0.297536 0.629038 0.000000
0.344457 0.629038 0.000000
0.391378 0.629038 0.000000
0.438298 0.629038 0.000000
0.485219 0.629038 0.000000
0.532140 0.629038 0.000000
0.553399 0.629038 0.000000
0.595894 0.629038 0.000000
0.637199 0.627866 0.000000
0.674289 0.622947 0.000000
0.711379 0.618605 0.000000
0.748469 0.614745 0.000000
0.785560 0.611291 0.000000
0.822650 0.608182 0.000000
0.859740 0.605369 0.000000
0.896830 0.602811 0.000000
0.933920 0.600475 0.000000
0.971010 0.598334 0.000000
0.974720 0.598130 0.000000
0.974720 0.598130 0.000000
0.974720 0.598130 0.000000
0.974720 0.598130 0.000000
0.974720 0.598130 0.000000
0.974720 0.598130 0.000000
0.974720 0.598130 0.000000
0.974720 0.598130 0.000000
0.974720 0.598130 0.000000
0.000000 0.665306 0.000000
0.061647 0.665306 0.000000
0.108988 0.665306 0.000000
0.155539 0.665306 0.000000
0.202090 0.665306 0.000000
0.248641 0.665306 0.000000
0.295192 0.665306 0.000000
0.341743 0.665306 0.000000
0.388294 0.665306 0.000000
0.434844 0.665306 0.000000
0.481395 0.665306 0.000000
0.527946 0.665306 0.000000
0.549038 0.665306 0.000000
0.591198 0.665306 0.000000
0.633357 0.665306 0.000000
0.674289 0.664096 0.000000
0.711379 0.659468 0.000000
0.748469 0.655353 0.000000
0.785560 0.651671 0.000000
0.822650 0.648356 0.000000
0.859740 0.645357 0.000000
0.896830 0.642630 0.000000
0.933920 0.640140 0.000000
0.971010 0.637858 0.000000
0.974720 0.637640 0.000000
0.974720 0.637640 0.000000
0.974720 0.637640 0.000000
0.974720 0.637640 0.000000
0.974720 0.637640 0.000000
0.974720 0.637640 0.000000
0.974720 0.637640 0.000000
0.974720 0.637640 0.000000
0.974720 0.637640 0.000000
0.000000 0.701573 0.000000
0.061215 0.701573 0.000000
0.108223 0.701573 0.000000
0.154448 0.701573 0.000000
0.200672 0.701573 0.000000
0.246896 0.701573 0.000000
0.293121 0.701573 0.000000
0.339345 0.701573 0.000000
0.385569 0.701573 0.000000
0.431794 0.701573 0.000000
0.478018 0.701573 0.000000
0.524242 0.701573 0.000000
0.545186 0.701573 0.000000
0.587050 0.701573 0.000000
0.628914 0.701573 0.000000
0.670778 0.701573 0.000000
0.711379 0.700331 0.000000
0.748469 0.695961 0.000000
0.785560 0.692051 0.000000
0.822650 0.688531 0.000000
0.859740 0.685346 0.000000
0.896830 0.682450 0.000000
0.933920 0.679806 0.000000
0.971010 0.677382 0.000000
0.974720 0.677150 0.000000
0.974720 0.677150 0.000000
0.974720 0.677150 0.000000
0.974720 0.677150 0.000000
0.974720 0.677150 0.000000
0.974720 0.677150 0.000000
0.974720 0.677150 0.000000
0.974720 0.677150 0.000000
0.974720 0.677150 0.000000
0.000000 0.737841 0.000000
0.060830 0.737841 0.000000
0.107543 0.737841 0.000000
0.153477 0.737841 0.000000
0.199410 0.737841 0.000000
0.245344 0.737841 0.000000
0.291278 0.737841 0.000000
0.337212 0.737841 0.000000
0.383145 0.737841 0.000000
0.429079 0.737841 0.000000
0.475013 0.737841 0.000000
0.520946 0.737841 0.000000
0.541759 0.737841 0.000000
0.583359 0.737841 0.000000
0.624960 0.737841 0.000000
0.666561 0.737841 0.000000
0.708161 0.737841 0.000000
0.748469 0.736569 0.000000
0.785560 0.732430 0.000000
0.822650 0.728705 0.000000
0.859740 0.725334 0.000000
0.896830 0.722270 0.000000
0.933920 0.719471 0.000000
0.971010 0.716906 0.000000
0.974720 0.716661 0.000000
0.974720 0.716661 0.000000
0.974720 0.716661 0.000000
0.974720 0.716661 0.000000
0.974720 0.716661 0.000000
0.974720 0.716661 0.000000
0.974720 0.716661 0.000000
0.974720 0.716661 0.000000
0.974720 0.716661 0.000000
0.000000 0.774109 0.000000
0.060485 0.774109 0.000000
0.106934 0.774109 0.000000
0.152607 0.774109 0.000000
0.198281 0.774109 0.000000
0.243954 0.774109 0.000000
0.289628 0.774109 0.000000
0.335301 0.774109 0.000000
0.380975 0.774109 0.000000
0.426648 0.774109 0.000000
0.472322 0.774109 0.000000
0.517995 0.774109 0.000000
0.538690 0.774109 0.000000
0.580055 0.774109 0.000000
0.621419 0.774109 0.000000
0.662784 0.774109 0.000000
0.704149 0.774109 0.000000
0.745514 0.774109 0.000000
0.785560 0.772810 0.000000
0.822650 0.768880 0.000000
0.859740 0.765323 0.000000
0.896830 0.762089 0.000000
0.933920 0.759137 0.000000
0.971010 0.756430 0.000000
0.974720 0.756171 0.000000
0.974720 0.756171 0.000000
0.974720 0.756171 0.000000
0.974720 0.756171 0.000000
0.974720 0.756171 0.000000
0.974720 0.756171 0.000000
0.974720 0.756171 0.000000
0.974720 0.756171 0.000000
0.974720 0.756171 0.000000
0.000000 0.810376 0.000000
0.060175 0.810376 0.000000
0.106385 0.810376 0.000000
0.151824 0.810376 0.000000
0.197263 0.810376 0.000000
0.242702 0.810376 0.000000
0.288141 0.810376 0.000000
0.333581 0.810376 0.000000
0.379020 0.810376 0.000000
0.424459 0.810376 0.000000
0.469898 0.810376 0.000000
0.515337 0.810376 0.000000
0.535925 0.810376 0.000000
0.577078 0.810376 0.000000
0.618231 0.810376 0.000000
0.659383 0.810376 0.000000
0.700536 0.810376 0.000000
0.741689 0.810376 0.000000
0.782841 0.810376 0.000000
0.822650 0.809054 0.000000
0.859740 0.805312 0.000000
0.896830 0.801909 0.000000
0.933920 0.798802 0.000000
0.971010 0.795954 0.000000
0.974720 0.795682 0.000000
0.974720 0.795682 0.000000
0.974720 0.795682 0.000000
0.974720 0.795682 0.000000
0.974720 0.795682 0.000000
0.974720 0.795682 0.000000
0.974720 0.795682 0.000000
0.974720 0.795682 0.000000
0.974720 0.795682 0.000000
0.000000 0.846644 0.000000
0.059894 0.846644 0.000000
0.105888 0.846644 0.000000
0.151115 0.846644 0.000000
0.196342 0.846644 0.000000
0.241569 0.846644 0.000000
0.286796 0.846644 0.000000
0.332023 0.846644 0.000000
0.377250 0.846644 0.000000
0.422477 0.846644 0.000000
0.467703 0.846644 0.000000
0.512930 0.846644 0.000000
0.533422 0.846644 0.000000
0.574383 0.846644 0.000000
0.615343 0.846644 0.000000
0.656304 0.846644 0.000000
0.697264 0.846644 0.000000
0.738225 0.846644 0.000000
0.779185 0.846644 0.000000
0.820146 0.846644 0.000000
0.859740 0.845300 0.000000
0.896830 0.841729 0.000000
0.933920 0.838467 0.000000
0.971010 0.835477 0.000000
0.974720 0.835192 0.000000
0.974720 0.835192 0.000000
0.974720 0.835192 0.000000
0.974720 0.835192 0.000000
0.974720 0.835192 0.000000
0.974720 0.835192 0.000000
0.974720 0.835192 0.000000
0.974720 0.835192 0.000000
0.974720 0.835192 0.000000
0.000000 0.882911 0.000000
0.059638 0.882911 0.000000
0.105436 0.882911 0.000000
0.150470 0.882911 0.000000
0.195504 0.882911 0.000000
0.240538 0.882911 0.000000
0.285572 0.882911 0.000000
0.330606 0.882911 0.000000
0.375639 0.882911 0.000000
0.420673 0.882911 0.000000
0.465707 0.882911 0.000000
0.510741 0.882911 0.000000
0.531146 0.882911 0.000000
0.571931 0.882911 0.000000
0.612717 0.882911 0.000000
0.653503 0.882911 0.000000
0.694288 0.882911 0.000000
0.735074 0.882911 0.000000
0.775860 0.882911 0.000000
0.816645 0.882911 0.000000
0.857431 0.882911 0.000000
0.896830 0.881548 0.000000
0.933920 0.878133 0.000000
0.971010 0.875001 0.000000
0.974720 0.874702 0.000000
0.974720 0.874702 0.000000
0.974720 0.874702 0.000000
0.974720 0.874702 0.000000
0.974720 0.874702 0.000000
0.974720 0.874702 0.000000
0.974720 0.874702 0.000000
0.974720 0.874702 0.000000
0.974720 0.874702 0.000000
0.000000 0.919179 0.000000
0.059405 0.919179 0.000000
0.105023 0.919179 0.000000
0.149881 0.919179 0.000000
0.194738 0.919179 0.000000
0.239596 0.919179 0.000000
0.284453 0.919179 0.000000
0.329311 0.919179 0.000000
0.374168 0.919179 0.000000
0.419026 0.919179 0.000000
0.463883 0.919179 0.000000
0.508741 0.919179 0.000000
0.529066 0.919179 0.000000
0.569692 0.919179 0.000000
0.610318 0.919179 0.000000
0.650944 0.919179 0.000000
0.691570 0.919179 0.000000
0.732195 0.919179 0.000000
0.772821 0.919179 0.000000
0.813447 0.919179 0.000000
0.854073 0.919179 0.000000
0.894699 0.919179 0.000000
0.933920 0.917798 0.000000
0.971010 0.914525 0.000000
0.974720 0.914213 0.000000
0.974720 0.914213 0.000000
0.974720 0.914213 0.000000
0.974720 0.914213 0.000000
0.974720 0.914213 0.000000
0.974720 0.914213 0.000000
0.974720 0.914213 0.000000
0.974720 0.914213 0.000000
0.974720 0.914213 0.000000
0.000000 0.955447 0.000000
0.059190 0.955447 0.000000
0.104645 0.955447 0.000000
0.149340 0.955447 0.000000
0.194036 0.955447 0.000000
0.238732 0.955447 0.000000
0.283428 0.955447 0.000000
0.328124 0.955447 0.000000
0.372819 0.955447 0.000000
0.417515 0.955447 0.000000
0.462211 0.955447 0.000000
0.506907 0.955447 0.000000
0.527158 0.955447 0.000000
0.567638 0.955447 0.000000
0.608117 0.955447 0.000000
0.648596 0.955447 0.000000
0.689076 0.955447 0.000000
0.729555 0.955447 0.000000
0.770035 0.955447 0.000000
0.810514 0.955447 0.000000
0.850994 0.955447 0.000000
0.891473 0.955447 0.000000
0.931953 0.955447 0.000000
0.971010 0.954049 0.000000
0.974720 0.953723 0.000000
0.974720 0.953723 0.000000
0.974720 0.953723 0.000000
0.974720 0.953723 0.000000
0.974720 0.953723 0.000000
0.974720 0.953723 0.000000
0.974720 0.953723 0.000000
0.974720 0.953723 0.000000
0.974720 0.953723 0.000000
0.000000 0.974720 0.000000
0.059084 0.974720 0.000000
0.104456 0.974720 0.000000
0.149071 0.974720 0.000000
0.193686 0.974720 0.000000
0.238301 0.974720 0.000000
0.282917 0.974720 0.000000
0.327532 0.974720 0.000000
0.372147 0.974720 0.000000
0.416762 0.974720 0.000000
0.461377 0.974720 0.000000
0.505992 0.974720 0.000000
0.526207 0.974720 0.000000
0.566614 0.974720 0.000000
0.607020 0.974720 0.000000
0.647427 0.974720 0.000000
0.687833 0.974720 0.000000
0.728240 0.974720 0.000000
0.768646 0.974720 0.000000
0.809052 0.974720 0.000000
0.849459 0.974720 0.000000
0.889865 0.974720 0.000000
0.930272 0.974720 0.000000
0.970678 0.974720 0.000000
0.974720 0.974720 0.000000
0.974720 0.974720 0.000000
0.974720 0.974720 0.000000
0.974720 0.974720 0.000000
0.974720 0.974720 0.000000
0.974720 0.974720 0.000000
0.974720 0.974720 0.000000
0.974720 0.974720 0.000000
0.974720 0.974720 0.000000
0.000000 0.974720 0.000000
0.059084 0.974720 0.000000
0.104456 0.974720 0.000000
0.149071 0.974720 0.000000
0.193686 0.974720 0.000000
0.238301 0.974720 0.000000
0.282917 0.974720 0.000000
0.327532 0.974720 0.000000
0.372147 0.974720 0.000000
0.416762 0.974720 0.000000
0.461377 0.974720 0.000000
0.505992 0.974720 0.000000
0.526207 0.974720 0.000000
0.566614 0.974720 0.000000
0.607020 0.974720 0.000000
0.647427 0.974720 0.000000
0.687833 0.974720 0.000000
0.728240 0.974720 0.000000
0.768646 0.974720 0.000000
0.809052 0.974720 0.000000
0.849459 0.974720 0.000000
0.889865 0.974720 0.000000
0.930272 0.974720 0.000000
0.970678 0.974720 0.000000
0.974720 0.974720 0.000000
0.974720 0.974720 0.000000
0.974720 0.974720 0.000000
0.974720 0.974720 0.000000
0.974720 0.974720 0.000000
0.974720 0.974720 0.000000
0.974720 0.974720 0.000000
0.974720 0.974720 0.000000
0.974720 0.974720 0.000000
0.000000 0.974720 0.000000
0.059084 0.974720 0.000000
0.104456 0.974720 0.000000
0.149071 0.974720 0.000000
0.193686 0.974720 0.000000
0.238301 0.974720 0.000000
0.282917 0.974720 0.000000
0.327532 0.974720 0.000000
0.372147 0.974720 0.000000
0.416762 0.974720 0.000000
0.461377 0.974720 0.000000
0.505992 0.974720 0.000000
0.526207 0.974720 0.000000
0.566614 0.974720 0.000000
0.607020 0.974720 0.000000
0.647427 0.974720 0.000000
0.687833 0.974720 0.000000
0.728240 0.974720 0.000000
0.768646 0.974720 0.000000
0.809052 0.974720 0.000000
0.849459 0.974720 0.000000
0.889865 0.974720 0.000000
0.930272 0.974720 0.000000
0.970678 0.974720 0.000000
