docs/luts/fuji_recipes/NEGAhi_RR_Pro_Neg_HI.cube
TITLE "Fujifilm Recipe: RR Pro Neg HI (NEGAhi)"
# FilmSim=NEGAhi HL=-1 SH=-1 Col=1 WB=Auto WBR=0 WBB=0
LUT_3D_SIZE 33
DOMAIN_MIN 0.0 0.0 0.0
DOMAIN_MAX 1.0 1.0 1.0
0.040000 0.040000 0.040000
0.081515 0.036572 0.036572
0.118257 0.033538 0.033538
0.154376 0.030556 0.030556
0.190495 0.027574 0.027574
0.226615 0.024591 0.024591
0.262734 0.021609 0.021609
0.298854 0.018627 0.018627
0.334973 0.015644 0.015644
0.371092 0.012662 0.012662
0.407212 0.009680 0.009680
0.443331 0.006697 0.006697
0.479450 0.003715 0.003715
0.515570 0.000733 0.000733
0.549439 0.000000 0.000000
0.561841 0.000000 0.000000
0.593898 0.000000 0.000000
0.625955 0.000000 0.000000
0.658013 0.000000 0.000000
0.690070 0.000000 0.000000
0.722127 0.000000 0.000000
0.754185 0.000000 0.000000
0.786242 0.000000 0.000000
0.818299 0.000000 0.000000
0.850357 0.000000 0.000000
0.882414 0.000000 0.000000
0.914471 0.000000 0.000000
0.946529 0.000000 0.000000
0.978586 0.000000 0.000000
1.000000 0.004360 0.004360
1.000000 0.004360 0.004360
1.000000 0.004360 0.004360
1.000000 0.004360 0.004360
0.036606 0.081104 0.036606
0.081515 0.081070 0.036572
0.118257 0.078037 0.033538
0.154376 0.075054 0.030556
0.190495 0.072072 0.027574
0.226615 0.069090 0.024591
0.262734 0.066107 0.021609
0.298854 0.063125 0.018627
0.334973 0.060143 0.015644
0.371092 0.057160 0.012662
0.407212 0.054178 0.009680
0.443331 0.051196 0.006697
0.479450 0.048213 0.003715
0.515570 0.045231 0.000733
0.549439 0.044137 0.000000
0.561841 0.043971 0.000000
0.593898 0.043581 0.000000
0.625955 0.043236 0.000000
0.658013 0.042930 0.000000
0.690070 0.042655 0.000000
0.722127 0.042409 0.000000
0.754185 0.042185 0.000000
0.786242 0.041982 0.000000
0.818299 0.041797 0.000000
0.850357 0.041627 0.000000
0.882414 0.041470 0.000000
0.914471 0.041326 0.000000
0.946529 0.041192 0.000000
0.978586 0.041068 0.000000
1.000000 0.044978 0.004360
1.000000 0.044978 0.004360
1.000000 0.044978 0.004360
1.000000 0.044978 0.004360
0.033585 0.117695 0.033585
0.078528 0.117695 0.033585
0.118257 0.117648 0.033538
0.154376 0.114666 0.030556
0.190495 0.111684 0.027574
0.226615 0.108701 0.024591
0.262734 0.105719 0.021609
0.298854 0.102737 0.018627
0.334973 0.099754 0.015644
0.371092 0.096772 0.012662
0.407212 0.093790 0.009680
0.443331 0.090807 0.006697
0.479450 0.087825 0.003715
0.515570 0.084843 0.000733
0.549439 0.083427 0.000000
0.561841 0.083114 0.000000
0.593898 0.082376 0.000000
0.625955 0.081724 0.000000
0.658013 0.081145 0.000000
0.690070 0.080627 0.000000
0.722127 0.080160 0.000000
0.754185 0.079738 0.000000
0.786242 0.079354 0.000000
0.818299 0.079003 0.000000
0.850357 0.078682 0.000000
0.882414 0.078386 0.000000
0.914471 0.078113 0.000000
0.946529 0.077860 0.000000
0.978586 0.077626 0.000000
1.000000 0.081136 0.004360
1.000000 0.081136 0.004360
1.000000 0.081136 0.004360
1.000000 0.081136 0.004360
0.030615 0.153665 0.030615
0.075558 0.153665 0.030615
0.115333 0.153665 0.030615
0.154376 0.153606 0.030556
0.190495 0.150624 0.027574
0.226615 0.147641 0.024591
0.262734 0.144659 0.021609
0.298854 0.141677 0.018627
0.334973 0.138694 0.015644
0.371092 0.135712 0.012662
0.407212 0.132730 0.009680
0.443331 0.129747 0.006697
0.479450 0.126765 0.003715
0.515570 0.123783 0.000733
0.549439 0.122051 0.000000
0.561841 0.121593 0.000000
0.593898 0.120513 0.000000
0.625955 0.119560 0.000000
0.658013 0.118712 0.000000
0.690070 0.117954 0.000000
0.722127 0.117271 0.000000
0.754185 0.116654 0.000000
0.786242 0.116092 0.000000
0.818299 0.115579 0.000000
0.850357 0.115109 0.000000
0.882414 0.114676 0.000000
0.914471 0.114277 0.000000
0.946529 0.113907 0.000000
0.978586 0.113564 0.000000
1.000000 0.116681 0.004360
1.000000 0.116681 0.004360
1.000000 0.116681 0.004360
1.000000 0.116681 0.004360
0.027645 0.189635 0.027645
0.072588 0.189635 0.027645
0.112363 0.189635 0.027645
0.151465 0.189635 0.027645
0.190495 0.189564 0.027574
0.226615 0.186581 0.024591
0.262734 0.183599 0.021609
0.298854 0.180617 0.018627
0.334973 0.177634 0.015644
0.371092 0.174652 0.012662
0.407212 0.171670 0.009680
0.443331 0.168687 0.006697
0.479450 0.165705 0.003715
0.515570 0.162723 0.000733
0.549439 0.160674 0.000000
0.561841 0.160072 0.000000
0.593898 0.158650 0.000000
0.625955 0.157395 0.000000
0.658013 0.156280 0.000000
0.690070 0.155281 0.000000
0.722127 0.154383 0.000000
0.754185 0.153569 0.000000
0.786242 0.152830 0.000000
0.818299 0.152155 0.000000
0.850357 0.151536 0.000000
0.882414 0.150966 0.000000
0.914471 0.150440 0.000000
0.946529 0.149954 0.000000
0.978586 0.149501 0.000000
1.000000 0.152226 0.004360
1.000000 0.152226 0.004360
1.000000 0.152226 0.004360
1.000000 0.152226 0.004360
0.024675 0.225605 0.024675
0.069618 0.225605 0.024675
0.109393 0.225605 0.024675
0.148495 0.225605 0.024675
0.187597 0.225605 0.024675
0.226615 0.225521 0.024591
0.262734 0.222539 0.021609
0.298854 0.219557 0.018627
0.334973 0.216574 0.015644
0.371092 0.213592 0.012662
0.407212 0.210610 0.009680
0.443331 0.207627 0.006697
0.479450 0.204645 0.003715
0.515570 0.201663 0.000733
0.549439 0.199298 0.000000
0.561841 0.198551 0.000000
0.593898 0.196787 0.000000
0.625955 0.195231 0.000000
0.658013 0.193847 0.000000
0.690070 0.192609 0.000000
0.722127 0.191494 0.000000
0.754185 0.190485 0.000000
0.786242 0.189568 0.000000
0.818299 0.188730 0.000000
0.850357 0.187963 0.000000
0.882414 0.187256 0.000000
0.914471 0.186604 0.000000
0.946529 0.186000 0.000000
0.978586 0.185439 0.000000
1.000000 0.187770 0.004360
1.000000 0.187770 0.004360
1.000000 0.187770 0.004360
1.000000 0.187770 0.004360
0.021705 0.261575 0.021705
0.066648 0.261575 0.021705
0.106423 0.261575 0.021705
0.145525 0.261575 0.021705
0.184627 0.261575 0.021705
0.223728 0.261575 0.021705
0.262734 0.261479 0.021609
0.298854 0.258496 0.018627
0.334973 0.255514 0.015644
0.371092 0.252532 0.012662
0.407212 0.249549 0.009680
0.443331 0.246567 0.006697
0.479450 0.243585 0.003715
0.515570 0.240602 0.000733
0.549439 0.237921 0.000000
0.561841 0.237030 0.000000
0.593898 0.234924 0.000000
0.625955 0.233066 0.000000
0.658013 0.231414 0.000000
0.690070 0.229936 0.000000
0.722127 0.228605 0.000000
0.754185 0.227401 0.000000
0.786242 0.226306 0.000000
0.818299 0.225306 0.000000
0.850357 0.224390 0.000000
0.882414 0.223546 0.000000
0.914471 0.222768 0.000000
0.946529 0.222047 0.000000
0.978586 0.221377 0.000000
1.000000 0.223315 0.004360
1.000000 0.223315 0.004360
1.000000 0.223315 0.004360
1.000000 0.223315 0.004360
0.018735 0.297544 0.018735
0.063678 0.297544 0.018735
0.103453 0.297544 0.018735
0.142555 0.297544 0.018735
0.181657 0.297544 0.018735
0.220758 0.297544 0.018735
0.259860 0.297544 0.018735
0.298854 0.297436 0.018627
0.334973 0.294454 0.015644
0.371092 0.291472 0.012662
0.407212 0.288489 0.009680
0.443331 0.285507 0.006697
0.479450 0.282525 0.003715
0.515570 0.279542 0.000733
0.549439 0.276545 0.000000
0.561841 0.275509 0.000000
0.593898 0.273062 0.000000
0.625955 0.270902 0.000000
0.658013 0.268982 0.000000
0.690070 0.267263 0.000000
0.722127 0.265716 0.000000
0.754185 0.264317 0.000000
0.786242 0.263044 0.000000
0.818299 0.261882 0.000000
0.850357 0.260816 0.000000
0.882414 0.259836 0.000000
0.914471 0.258931 0.000000
0.946529 0.258093 0.000000
0.978586 0.257315 0.000000
1.000000 0.258859 0.004360
1.000000 0.258859 0.004360
1.000000 0.258859 0.004360
1.000000 0.258859 0.004360
0.015765 0.333514 0.015765
0.060708 0.333514 0.015765
0.100483 0.333514 0.015765
0.139585 0.333514 0.015765
0.178687 0.333514 0.015765
0.217788 0.333514 0.015765
0.256890 0.333514 0.015765
0.295992 0.333514 0.015765
0.334973 0.333394 0.015644
0.371092 0.330412 0.012662
0.407212 0.327429 0.009680
0.443331 0.324447 0.006697
0.479450 0.321465 0.003715
0.515570 0.318482 0.000733
0.549439 0.315169 0.000000
0.561841 0.313988 0.000000
0.593898 0.311199 0.000000
0.625955 0.308737 0.000000
0.658013 0.306549 0.000000
0.690070 0.304590 0.000000
0.722127 0.302828 0.000000
0.754185 0.301232 0.000000
0.786242 0.299782 0.000000
0.818299 0.298458 0.000000
0.850357 0.297243 0.000000
0.882414 0.296126 0.000000
0.914471 0.295095 0.000000
0.946529 0.294140 0.000000
0.978586 0.293253 0.000000
1.000000 0.294404 0.004360
1.000000 0.294404 0.004360
1.000000 0.294404 0.004360
1.000000 0.294404 0.004360
0.012795 0.369484 0.012795
0.057738 0.369484 0.012795
0.097513 0.369484 0.012795
0.136615 0.369484 0.012795
0.175717 0.369484 0.012795
0.214818 0.369484 0.012795
0.253920 0.369484 0.012795
0.293022 0.369484 0.012795
0.332123 0.369484 0.012795
0.371092 0.369351 0.012662
0.407212 0.366369 0.009680
0.443331 0.363387 0.006697
0.479450 0.360404 0.003715
0.515570 0.357422 0.000733
0.549439 0.353792 0.000000
0.561841 0.352467 0.000000
0.593898 0.349336 0.000000
0.625955 0.346573 0.000000
0.658013 0.344116 0.000000
0.690070 0.341918 0.000000
0.722127 0.339939 0.000000
0.754185 0.338148 0.000000
0.786242 0.336520 0.000000
0.818299 0.335033 0.000000
0.850357 0.333670 0.000000
0.882414 0.332416 0.000000
0.914471 0.331258 0.000000
0.946529 0.330186 0.000000
0.978586 0.329191 0.000000
1.000000 0.329949 0.004360
1.000000 0.329949 0.004360
1.000000 0.329949 0.004360
1.000000 0.329949 0.004360
0.009825 0.405454 0.009825
0.054768 0.405454 0.009825
0.094543 0.405454 0.009825
0.133645 0.405454 0.009825
0.172747 0.405454 0.009825
0.211848 0.405454 0.009825
0.250950 0.405454 0.009825
0.290052 0.405454 0.009825
0.329153 0.405454 0.009825
0.368255 0.405454 0.009825
0.407212 0.405309 0.009680
0.443331 0.402327 0.006697
0.479450 0.399344 0.003715
0.515570 0.396362 0.000733
0.549439 0.392416 0.000000
0.561841 0.390945 0.000000
0.593898 0.387473 0.000000
0.625955 0.384408 0.000000
0.658013 0.381683 0.000000
0.690070 0.379245 0.000000
0.722127 0.377050 0.000000
0.754185 0.375064 0.000000
0.786242 0.373258 0.000000
0.818299 0.371609 0.000000
0.850357 0.370097 0.000000
0.882414 0.368706 0.000000
0.914471 0.367422 0.000000
0.946529 0.366233 0.000000
0.978586 0.365129 0.000000
1.000000 0.365493 0.004360
1.000000 0.365493 0.004360
1.000000 0.365493 0.004360
1.000000 0.365493 0.004360
0.006855 0.441424 0.006855
0.051798 0.441424 0.006855
0.091573 0.441424 0.006855
0.130675 0.441424 0.006855
0.169777 0.441424 0.006855
0.208878 0.441424 0.006855
0.247980 0.441424 0.006855
0.287082 0.441424 0.006855
0.326183 0.441424 0.006855
0.365285 0.441424 0.006855
0.404387 0.441424 0.006855
0.443331 0.441267 0.006697
0.479450 0.438284 0.003715
0.515570 0.435302 0.000733
0.549439 0.431040 0.000000
0.561841 0.429424 0.000000
0.593898 0.425610 0.000000
0.625955 0.422244 0.000000
0.658013 0.419251 0.000000
0.690070 0.416572 0.000000
0.722127 0.414161 0.000000
0.754185 0.411980 0.000000
0.786242 0.409996 0.000000
0.818299 0.408185 0.000000
0.850357 0.406524 0.000000
0.882414 0.404996 0.000000
0.914471 0.403586 0.000000
0.946529 0.402279 0.000000
0.978586 0.401066 0.000000
1.000000 0.401038 0.004360
1.000000 0.401038 0.004360
1.000000 0.401038 0.004360
1.000000 0.401038 0.004360
0.003885 0.477394 0.003885
0.048828 0.477394 0.003885
0.088603 0.477394 0.003885
0.127705 0.477394 0.003885
0.166807 0.477394 0.003885
0.205908 0.477394 0.003885
0.245010 0.477394 0.003885
0.284112 0.477394 0.003885
0.323213 0.477394 0.003885
0.362315 0.477394 0.003885
0.401417 0.477394 0.003885
0.440518 0.477394 0.003885
0.479450 0.477224 0.003715
0.515570 0.474242 0.000733
0.549439 0.469663 0.000000
0.561841 0.467903 0.000000
0.593898 0.463747 0.000000
0.625955 0.460079 0.000000
0.658013 0.456818 0.000000
0.690070 0.453900 0.000000
0.722127 0.451273 0.000000
0.754185 0.448895 0.000000
0.786242 0.446734 0.000000
0.818299 0.444760 0.000000
0.850357 0.442951 0.000000
0.882414 0.441286 0.000000
0.914471 0.439749 0.000000
0.946529 0.438326 0.000000
0.978586 0.437004 0.000000
1.000000 0.436583 0.004360
1.000000 0.436583 0.004360
1.000000 0.436583 0.004360
1.000000 0.436583 0.004360
0.000915 0.513364 0.000915
0.045858 0.513364 0.000915
0.085633 0.513364 0.000915
0.124735 0.513364 0.000915
0.163837 0.513364 0.000915
0.202938 0.513364 0.000915
0.242040 0.513364 0.000915
0.281142 0.513364 0.000915
0.320243 0.513364 0.000915
0.359345 0.513364 0.000915
0.398447 0.513364 0.000915
0.437548 0.513364 0.000915
0.476650 0.513364 0.000915
0.515570 0.513182 0.000733
0.549439 0.508287 0.000000
0.561841 0.506382 0.000000
0.593898 0.501884 0.000000
0.625955 0.497915 0.000000
0.658013 0.494385 0.000000
0.690070 0.491227 0.000000
0.722127 0.488384 0.000000
0.754185 0.485811 0.000000
0.786242 0.483472 0.000000
0.818299 0.481336 0.000000
0.850357 0.479378 0.000000
0.882414 0.477576 0.000000
0.914471 0.475913 0.000000
0.946529 0.474372 0.000000
0.978586 0.472942 0.000000
1.000000 0.472127 0.004360
1.000000 0.472127 0.004360
1.000000 0.472127 0.004360
1.000000 0.472127 0.004360
0.000000 0.547279 0.000000
0.044608 0.547279 0.000000
0.084087 0.547279 0.000000
0.122897 0.547279 0.000000
0.161707 0.547279 0.000000
0.200517 0.547279 0.000000
0.239328 0.547279 0.000000
0.278138 0.547279 0.000000
0.316948 0.547279 0.000000
0.355758 0.547279 0.000000
0.394569 0.547279 0.000000
0.433379 0.547279 0.000000
0.472189 0.547279 0.000000
0.510999 0.547279 0.000000
0.549439 0.546911 0.000000
0.561841 0.544861 0.000000
0.593898 0.540021 0.000000
0.625955 0.535750 0.000000
0.658013 0.531953 0.000000
0.690070 0.528554 0.000000
0.722127 0.525495 0.000000
0.754185 0.522727 0.000000
0.786242 0.520210 0.000000
0.818299 0.517912 0.000000
0.850357 0.515805 0.000000
0.882414 0.513866 0.000000
0.914471 0.512076 0.000000
0.946529 0.510419 0.000000
0.978586 0.508880 0.000000
1.000000 0.507672 0.004360
1.000000 0.507672 0.004360
1.000000 0.507672 0.004360
1.000000 0.507672 0.004360
0.000000 0.559618 0.000000
0.044440 0.559618 0.000000
0.083771 0.559618 0.000000
0.122435 0.559618 0.000000
0.161099 0.559618 0.000000
0.199763 0.559618 0.000000
0.238428 0.559618 0.000000
0.277092 0.559618 0.000000
0.315756 0.559618 0.000000
0.354420 0.559618 0.000000
0.393085 0.559618 0.000000
0.431749 0.559618 0.000000
0.470413 0.559618 0.000000
0.509077 0.559618 0.000000
0.547742 0.559618 0.000000
0.561841 0.559249 0.000000
0.593898 0.554281 0.000000
0.625955 0.549897 0.000000
0.658013 0.546000 0.000000
0.690070 0.542511 0.000000
0.722127 0.539372 0.000000
0.754185 0.536530 0.000000
0.786242 0.533947 0.000000
0.818299 0.531588 0.000000
0.850357 0.529425 0.000000
0.882414 0.527435 0.000000
0.914471 0.525598 0.000000
0.946529 0.523897 0.000000
0.978586 0.522318 0.000000
1.000000 0.520963 0.004360
1.000000 0.520963 0.004360
1.000000 0.520963 0.004360
1.000000 0.520963 0.004360
0.000000 0.591543 0.000000
0.044044 0.591543 0.000000
0.083023 0.591543 0.000000
0.121343 0.591543 0.000000
0.159662 0.591543 0.000000
0.197981 0.591543 0.000000
0.236300 0.591543 0.000000
0.274620 0.591543 0.000000
0.312939 0.591543 0.000000
0.351258 0.591543 0.000000
0.389578 0.591543 0.000000
0.427897 0.591543 0.000000
0.466216 0.591543 0.000000
0.504536 0.591543 0.000000
0.542855 0.591543 0.000000
0.557196 0.591543 0.000000
0.593898 0.591176 0.000000
0.625955 0.586500 0.000000
0.658013 0.582343 0.000000
0.690070 0.578622 0.000000
0.722127 0.575274 0.000000
0.754185 0.572243 0.000000
0.786242 0.569488 0.000000
0.818299 0.566972 0.000000
0.850357 0.564665 0.000000
0.882414 0.562543 0.000000
0.914471 0.560584 0.000000
0.946529 0.558769 0.000000
0.978586 0.557085 0.000000
1.000000 0.555349 0.004360
1.000000 0.555349 0.004360
1.000000 0.555349 0.004360
1.000000 0.555349 0.004360
0.000000 0.623467 0.000000
0.043694 0.623467 0.000000
0.082364 0.623467 0.000000
0.120379 0.623467 0.000000
0.158393 0.623467 0.000000
0.196408 0.623467 0.000000
0.234423 0.623467 0.000000
0.272438 0.623467 0.000000
0.310453 0.623467 0.000000
0.348468 0.623467 0.000000
0.386483 0.623467 0.000000
0.424498 0.623467 0.000000
0.462513 0.623467 0.000000
0.500527 0.623467 0.000000
0.538542 0.623467 0.000000
0.552769 0.623467 0.000000
0.589545 0.623467 0.000000
0.625955 0.623103 0.000000
0.658013 0.618686 0.000000
0.690070 0.614733 0.000000
0.722127 0.611176 0.000000
0.754185 0.607956 0.000000
0.786242 0.605029 0.000000
0.818299 0.602356 0.000000
0.850357 0.599905 0.000000
0.882414 0.597650 0.000000
0.914471 0.595569 0.000000
0.946529 0.593641 0.000000
0.978586 0.591851 0.000000
1.000000 0.589736 0.004360
1.000000 0.589736 0.004360
1.000000 0.589736 0.004360
1.000000 0.589736 0.004360
0.000000 0.655392 0.000000
0.043383 0.655392 0.000000
0.081777 0.655392 0.000000
0.119522 0.655392 0.000000
0.157266 0.655392 0.000000
0.195010 0.655392 0.000000
0.232754 0.655392 0.000000
0.270499 0.655392 0.000000
0.308243 0.655392 0.000000
0.345987 0.655392 0.000000
0.383731 0.655392 0.000000
0.421476 0.655392 0.000000
0.459220 0.655392 0.000000
0.496964 0.655392 0.000000
0.534708 0.655392 0.000000
0.548834 0.655392 0.000000
0.585348 0.655392 0.000000
0.621863 0.655392 0.000000
0.658013 0.655029 0.000000
0.690070 0.650844 0.000000
0.722127 0.647078 0.000000
0.754185 0.643669 0.000000
0.786242 0.640570 0.000000
0.818299 0.637740 0.000000
0.850357 0.635145 0.000000
0.882414 0.632758 0.000000
0.914471 0.630554 0.000000
0.946529 0.628513 0.000000
0.978586 0.626618 0.000000
1.000000 0.624122 0.004360
1.000000 0.624122 0.004360
1.000000 0.624122 0.004360
1.000000 0.624122 0.004360
0.000000 0.687317 0.000000
0.043105 0.687317 0.000000
0.081253 0.687317 0.000000
0.118755 0.687317 0.000000
0.156257 0.687317 0.000000
0.193759 0.687317 0.000000
0.231261 0.687317 0.000000
0.268763 0.687317 0.000000
0.306265 0.687317 0.000000
0.343767 0.687317 0.000000
0.381269 0.687317 0.000000
0.418771 0.687317 0.000000
0.456273 0.687317 0.000000
0.493775 0.687317 0.000000
0.531277 0.687317 0.000000
0.545312 0.687317 0.000000
0.581592 0.687317 0.000000
0.617873 0.687317 0.000000
0.654153 0.687317 0.000000
0.690070 0.686956 0.000000
0.722127 0.682980 0.000000
0.754185 0.679382 0.000000
0.786242 0.676111 0.000000
0.818299 0.673124 0.000000
0.850357 0.670385 0.000000
0.882414 0.667866 0.000000
0.914471 0.665539 0.000000
0.946529 0.663386 0.000000
0.978586 0.661385 0.000000
1.000000 0.658508 0.004360
1.000000 0.658508 0.004360
1.000000 0.658508 0.004360
1.000000 0.658508 0.004360
0.000000 0.719241 0.000000
0.042854 0.719241 0.000000
0.080780 0.719241 0.000000
0.118064 0.719241 0.000000
0.155348 0.719241 0.000000
0.192632 0.719241 0.000000
0.229917 0.719241 0.000000
0.267201 0.719241 0.000000
0.304485 0.719241 0.000000
0.341769 0.719241 0.000000
0.379053 0.719241 0.000000
0.416337 0.719241 0.000000
0.453621 0.719241 0.000000
0.490905 0.719241 0.000000
0.528189 0.719241 0.000000
0.542142 0.719241 0.000000
0.578212 0.719241 0.000000
0.614281 0.719241 0.000000
0.650350 0.719241 0.000000
0.686419 0.719241 0.000000
0.722127 0.718882 0.000000
0.754185 0.715095 0.000000
0.786242 0.711652 0.000000
0.818299 0.708508 0.000000
0.850357 0.705625 0.000000
0.882414 0.702973 0.000000
0.914471 0.700525 0.000000
0.946529 0.698258 0.000000
0.978586 0.696152 0.000000
1.000000 0.692895 0.004360
1.000000 0.692895 0.004360
1.000000 0.692895 0.004360
1.000000 0.692895 0.004360
0.000000 0.751166 0.000000
0.042627 0.751166 0.000000
0.080353 0.751166 0.000000
0.117440 0.751166 0.000000
0.154526 0.751166 0.000000
0.191613 0.751166 0.000000
0.228700 0.751166 0.000000
0.265787 0.751166 0.000000
0.302874 0.751166 0.000000
0.339961 0.751166 0.000000
0.377047 0.751166 0.000000
0.414134 0.751166 0.000000
0.451221 0.751166 0.000000
0.488308 0.751166 0.000000
0.525395 0.751166 0.000000
0.539274 0.751166 0.000000
0.575153 0.751166 0.000000
0.611031 0.751166 0.000000
0.646909 0.751166 0.000000
0.682788 0.751166 0.000000
0.718666 0.751166 0.000000
0.754185 0.750808 0.000000
0.786242 0.747193 0.000000
0.818299 0.743892 0.000000
0.850357 0.740865 0.000000
0.882414 0.738081 0.000000
0.914471 0.735510 0.000000
0.946529 0.733130 0.000000
0.978586 0.730919 0.000000
1.000000 0.727281 0.004360
1.000000 0.727281 0.004360
1.000000 0.727281 0.004360
1.000000 0.727281 0.004360
0.000000 0.783091 0.000000
0.042421 0.783091 0.000000
0.079964 0.783091 0.000000
0.116872 0.783091 0.000000
0.153779 0.783091 0.000000
0.190687 0.783091 0.000000
0.227594 0.783091 0.000000
0.264502 0.783091 0.000000
0.301409 0.783091 0.000000
0.338317 0.783091 0.000000
0.375224 0.783091 0.000000
0.412131 0.783091 0.000000
0.449039 0.783091 0.000000
0.485946 0.783091 0.000000
0.522854 0.783091 0.000000
0.536666 0.783091 0.000000
0.572371 0.783091 0.000000
0.608076 0.783091 0.000000
0.643781 0.783091 0.000000
0.679486 0.783091 0.000000
0.715191 0.783091 0.000000
0.750896 0.783091 0.000000
0.786242 0.782734 0.000000
0.818299 0.779275 0.000000
0.850357 0.776105 0.000000
0.882414 0.773188 0.000000
0.914471 0.770495 0.000000
0.946529 0.768002 0.000000
0.978586 0.765686 0.000000
1.000000 0.761668 0.004360
1.000000 0.761668 0.004360
1.000000 0.761668 0.004360
1.000000 0.761668 0.004360
0.000000 0.815015 0.000000
0.042233 0.815015 0.000000
0.079609 0.815015 0.000000
0.116353 0.815015 0.000000
0.153097 0.815015 0.000000
0.189841 0.815015 0.000000
0.226584 0.815015 0.000000
0.263328 0.815015 0.000000
0.300072 0.815015 0.000000
0.336815 0.815015 0.000000
0.373559 0.815015 0.000000
0.410303 0.815015 0.000000
0.447046 0.815015 0.000000
0.483790 0.815015 0.000000
0.520534 0.815015 0.000000
0.534285 0.815015 0.000000
0.569831 0.815015 0.000000
0.605378 0.815015 0.000000
0.640924 0.815015 0.000000
0.676471 0.815015 0.000000
0.712017 0.815015 0.000000
0.747564 0.815015 0.000000
0.783110 0.815015 0.000000
0.818299 0.814659 0.000000
0.850357 0.811345 0.000000
0.882414 0.808296 0.000000
0.914471 0.805481 0.000000
0.946529 0.802874 0.000000
0.978586 0.800453 0.000000
1.000000 0.796054 0.004360
1.000000 0.796054 0.004360
1.000000 0.796054 0.004360
1.000000 0.796054 0.004360
0.000000 0.846940 0.000000
0.042060 0.846940 0.000000
0.079284 0.846940 0.000000
0.115878 0.846940 0.000000
0.152471 0.846940 0.000000
0.189065 0.846940 0.000000
0.225658 0.846940 0.000000
0.262252 0.846940 0.000000
0.298846 0.846940 0.000000
0.335439 0.846940 0.000000
0.372033 0.846940 0.000000
0.408626 0.846940 0.000000
0.445220 0.846940 0.000000
0.481813 0.846940 0.000000
0.518407 0.846940 0.000000
0.532102 0.846940 0.000000
0.567503 0.846940 0.000000
0.602904 0.846940 0.000000
0.638306 0.846940 0.000000
0.673707 0.846940 0.000000
0.709108 0.846940 0.000000
0.744509 0.846940 0.000000
0.779911 0.846940 0.000000
0.815312 0.846940 0.000000
0.850357 0.846585 0.000000
0.882414 0.843403 0.000000
0.914471 0.840466 0.000000
0.946529 0.837746 0.000000
0.978586 0.835220 0.000000
1.000000 0.830441 0.004360
1.000000 0.830441 0.004360
1.000000 0.830441 0.004360
1.000000 0.830441 0.004360
0.000000 0.878865 0.000000
0.041902 0.878865 0.000000
0.078985 0.878865 0.000000
0.115440 0.878865 0.000000
0.151896 0.878865 0.000000
0.188351 0.878865 0.000000
0.224807 0.878865 0.000000
0.261262 0.878865 0.000000
0.297718 0.878865 0.000000
0.334173 0.878865 0.000000
0.370628 0.878865 0.000000
0.407084 0.878865 0.000000
0.443539 0.878865 0.000000
0.479995 0.878865 0.000000
0.516450 0.878865 0.000000
0.530093 0.878865 0.000000
0.565361 0.878865 0.000000
0.600629 0.878865 0.000000
0.635896 0.878865 0.000000
0.671164 0.878865 0.000000
0.706431 0.878865 0.000000
0.741699 0.878865 0.000000
0.776967 0.878865 0.000000
0.812234 0.878865 0.000000
0.847502 0.878865 0.000000
0.882414 0.878511 0.000000
0.914471 0.875451 0.000000
0.946529 0.872618 0.000000
0.978586 0.869987 0.000000
1.000000 0.864827 0.004360
1.000000 0.864827 0.004360
1.000000 0.864827 0.004360
1.000000 0.864827 0.004360
0.000000 0.910789 0.000000
0.041755 0.910789 0.000000
0.078709 0.910789 0.000000
0.115037 0.910789 0.000000
0.151364 0.910789 0.000000
0.187692 0.910789 0.000000
0.224020 0.910789 0.000000
0.260348 0.910789 0.000000
0.296676 0.910789 0.000000
0.333004 0.910789 0.000000
0.369332 0.910789 0.000000
0.405660 0.910789 0.000000
0.441988 0.910789 0.000000
0.478316 0.910789 0.000000
0.514644 0.910789 0.000000
0.528239 0.910789 0.000000
0.563383 0.910789 0.000000
0.598528 0.910789 0.000000
0.633672 0.910789 0.000000
0.668816 0.910789 0.000000
0.703960 0.910789 0.000000
0.739105 0.910789 0.000000
0.774249 0.910789 0.000000
0.809393 0.910789 0.000000
