docs/luts/fuji_recipes/NEGAhi_RR_Classic_Negative.cube
TITLE "Fujifilm Recipe: RR Classic Negative (NEGAhi)"
# FilmSim=NEGAhi HL=2 SH=2 Col=-2 WB=FLight1 WBR=-2 WBB=4
LUT_3D_SIZE 9
DOMAIN_MIN 0.0 0.0 0.0
DOMAIN_MAX 1.0 1.0 1.0
0.000000 0.000000 0.000000
0.106131 0.023297 0.023297
0.207200 0.045483 0.045483
0.308270 0.067669 0.067669
0.447276 0.098182 0.098182
0.564499 0.123914 0.123914
0.681721 0.149646 0.149646
0.742106 0.162901 0.162901
0.742106 0.162901 0.162901
0.027064 0.123291 0.027064
0.109898 0.123291 0.027064
0.207200 0.141710 0.045483
0.308270 0.163896 0.067669
0.447276 0.194409 0.098182
0.564499 0.220141 0.123914
0.681721 0.245873 0.149646
0.742106 0.259128 0.162901
0.742106 0.259128 0.162901
0.052183 0.237723 0.052183
0.135017 0.237723 0.052183
0.213901 0.237723 0.052183
0.308270 0.253209 0.067669
0.447276 0.283723 0.098182
0.564499 0.309454 0.123914
0.681721 0.335186 0.149646
0.742106 0.348441 0.162901
0.742106 0.348441 0.162901
0.077302 0.352156 0.077302
0.160136 0.352156 0.077302
0.239020 0.352156 0.077302
0.317903 0.352156 0.077302
0.447276 0.373036 0.098182
0.564499 0.398768 0.123914
0.681721 0.424499 0.149646
0.742106 0.437754 0.162901
0.742106 0.437754 0.162901
0.112758 0.513675 0.112758
0.195592 0.513675 0.112758
0.274475 0.513675 0.112758
0.353359 0.513675 0.112758
0.461851 0.513675 0.112758
0.564499 0.524831 0.123914
0.681721 0.550563 0.149646
0.742106 0.563818 0.162901
0.742106 0.563818 0.162901
0.141892 0.646396 0.141892
0.224726 0.646396 0.141892
0.303609 0.646396 0.141892
0.382493 0.646396 0.141892
0.490985 0.646396 0.141892
0.582476 0.646396 0.141892
0.681721 0.654151 0.149646
0.742106 0.667406 0.162901
0.742106 0.667406 0.162901
0.171026 0.779118 0.171026
0.253860 0.779118 0.171026
0.332743 0.779118 0.171026
0.411627 0.779118 0.171026
0.520119 0.779118 0.171026
0.611610 0.779118 0.171026
0.703101 0.779118 0.171026
0.750230 0.779118 0.171026
0.750230 0.779118 0.171026
0.180000 0.820000 0.180000
0.262834 0.820000 0.180000
0.341717 0.820000 0.180000
0.420601 0.820000 0.180000
0.529093 0.820000 0.180000
0.620584 0.820000 0.180000
0.712075 0.820000 0.180000
0.759205 0.820000 0.180000
0.759205 0.820000 0.180000
0.180000 0.820000 0.180000
0.262834 0.820000 0.180000
0.341717 0.820000 0.180000
0.420601 0.820000 0.180000
0.529093 0.820000 0.180000
0.620584 0.820000 0.180000
0.712075 0.820000 0.180000
0.759205 0.820000 0.180000
0.759205 0.820000 0.180000
0.032956 0.032956 0.150134
0.115790 0.032956 0.150134
0.207200 0.045483 0.162661
0.308270 0.067669 0.184847
0.447276 0.098182 0.215360
0.564499 0.123914 0.241092
0.681721 0.149646 0.266824
0.742106 0.162901 0.280079
0.742106 0.162901 0.280079
0.032956 0.129183 0.150134
0.139087 0.152480 0.173431
0.234264 0.168774 0.189725
0.335334 0.190960 0.211911
0.474340 0.221473 0.242424
0.591562 0.247205 0.268156
0.708785 0.272937 0.293888
0.769170 0.286192 0.307143
0.769170 0.286192 0.307143
0.052183 0.237723 0.169361
0.158314 0.261020 0.192658
0.246857 0.270680 0.202317
0.341226 0.286165 0.217803
0.480232 0.316679 0.248317
0.597455 0.342411 0.274049
0.714678 0.368143 0.299780
0.775062 0.381398 0.313036
0.775062 0.381398 0.313036
0.077302 0.352156 0.194480
0.183434 0.375453 0.217778
0.271976 0.385112 0.227437
0.350860 0.385112 0.227437
0.480232 0.405992 0.248317
0.597455 0.431724 0.274049
0.714678 0.457456 0.299780
0.775062 0.470711 0.313036
0.775062 0.470711 0.313036
0.112758 0.513675 0.229936
0.218889 0.536972 0.253233
0.307432 0.546631 0.262892
0.386315 0.546631 0.262892
0.494807 0.546631 0.262892
0.597455 0.557787 0.274049
0.714678 0.583519 0.299780
0.775062 0.596774 0.313036
0.775062 0.596774 0.313036
0.141892 0.646396 0.259070
0.248023 0.669693 0.282367
0.336566 0.679353 0.292026
0.415449 0.679353 0.292026
0.523941 0.679353 0.292026
0.615432 0.679353 0.292026
0.714678 0.687107 0.299780
0.775062 0.700362 0.313036
0.775062 0.700362 0.313036
0.171026 0.779118 0.288204
0.277157 0.802415 0.311501
0.365700 0.812074 0.321160
0.444583 0.812074 0.321160
0.553076 0.812074 0.321160
0.644567 0.812074 0.321160
0.736058 0.812074 0.321160
0.783187 0.812074 0.321160
0.783187 0.812074 0.321160
0.180000 0.820000 0.297178
0.286131 0.843297 0.320475
0.374674 0.852956 0.330134
0.453557 0.852956 0.330134
0.562050 0.852956 0.330134
0.653541 0.852956 0.330134
0.745032 0.852956 0.330134
0.792161 0.852956 0.330134
0.792161 0.852956 0.330134
0.180000 0.820000 0.297178
0.286131 0.843297 0.320475
0.374674 0.852956 0.330134
0.453557 0.852956 0.330134
0.562050 0.852956 0.330134
0.653541 0.852956 0.330134
0.745032 0.852956 0.330134
0.792161 0.852956 0.330134
0.792161 0.852956 0.330134
0.062800 0.062800 0.286090
0.145634 0.062800 0.286090
0.224518 0.062800 0.286090
0.308270 0.067669 0.290958
0.447276 0.098182 0.321472
0.564499 0.123914 0.347204
0.681721 0.149646 0.372936
0.742106 0.162901 0.386191
0.742106 0.162901 0.386191
0.062800 0.159027 0.286090
0.168931 0.182324 0.309387
0.251581 0.186091 0.313153
0.335334 0.190960 0.318022
0.474340 0.221473 0.348536
0.591562 0.247205 0.374268
0.708785 0.272937 0.399999
0.769170 0.286192 0.413255
0.769170 0.286192 0.413255
0.062800 0.248340 0.286090
0.168931 0.271637 0.309387
0.270001 0.293823 0.331573
0.360453 0.305392 0.343142
0.499459 0.335906 0.373655
0.616682 0.361638 0.399387
0.733905 0.387369 0.425119
0.794289 0.400624 0.438374
0.794289 0.400624 0.438374
0.077302 0.352156 0.300592
0.183434 0.375453 0.323889
0.284503 0.397639 0.346075
0.380703 0.414956 0.363392
0.510076 0.435836 0.384272
0.627299 0.461568 0.410004
0.744522 0.487300 0.435736
0.804906 0.500555 0.448991
0.804906 0.500555 0.448991
0.112758 0.513675 0.336047
0.218889 0.536972 0.359344
0.319958 0.559158 0.381530
0.416159 0.576475 0.398847
0.524651 0.576475 0.398847
0.627299 0.587631 0.410004
0.744522 0.613363 0.435736
0.804906 0.626618 0.448991
0.804906 0.626618 0.448991
0.141892 0.646396 0.365181
0.248023 0.669693 0.388478
0.349092 0.691879 0.410664
0.445293 0.709197 0.427981
0.553785 0.709197 0.427981
0.645276 0.709197 0.427981
0.744522 0.716951 0.435736
0.804906 0.730206 0.448991
0.804906 0.730206 0.448991
0.171026 0.779118 0.394315
0.277157 0.802415 0.417612
0.378226 0.824601 0.439798
0.474427 0.841918 0.457115
0.582919 0.841918 0.457115
0.674410 0.841918 0.457115
0.765901 0.841918 0.457115
0.813031 0.841918 0.457115
0.813031 0.841918 0.457115
0.180000 0.820000 0.403289
0.286131 0.843297 0.426586
0.387200 0.865483 0.448772
0.483401 0.882800 0.466090
0.591893 0.882800 0.466090
0.683384 0.882800 0.466090
0.774875 0.882800 0.466090
0.822005 0.882800 0.466090
0.822005 0.882800 0.466090
0.180000 0.820000 0.403289
0.286131 0.843297 0.426586
0.387200 0.865483 0.448772
0.483401 0.882800 0.466090
0.591893 0.882800 0.466090
0.683384 0.882800 0.466090
0.774875 0.882800 0.466090
0.822005 0.882800 0.466090
0.822005 0.882800 0.466090
0.101417 0.101417 0.462012
0.184251 0.101417 0.462012
0.263135 0.101417 0.462012
0.342018 0.101417 0.462012
0.450511 0.101417 0.462012
0.564499 0.123914 0.484509
0.681721 0.149646 0.510241
0.742106 0.162901 0.523496
0.742106 0.162901 0.523496
0.101417 0.197644 0.462012
0.207548 0.220941 0.485309
0.290199 0.224708 0.489076
0.369082 0.224708 0.489076
0.477574 0.224708 0.489076
0.591562 0.247205 0.511573
0.708785 0.272937 0.537305
0.769170 0.286192 0.550560
0.769170 0.286192 0.550560
0.101417 0.286957 0.462012
0.207548 0.310254 0.485309
0.308618 0.332440 0.507495
0.394201 0.339140 0.514195
0.502694 0.339140 0.514195
0.616682 0.361638 0.536692
0.733905 0.387369 0.562424
0.794289 0.400624 0.575679
0.794289 0.400624 0.575679
0.101417 0.376270 0.462012
0.207548 0.399568 0.485309
0.308618 0.421754 0.507495
0.409687 0.443939 0.529681
0.527813 0.453573 0.539315
0.641801 0.476070 0.561812
0.759024 0.501802 0.587543
0.819408 0.515057 0.600799
0.819408 0.515057 0.600799
0.112758 0.513675 0.473353
0.218889 0.536972 0.496650
0.319958 0.559158 0.518836
0.421028 0.581344 0.541022
0.560034 0.611857 0.571535
0.665916 0.626248 0.585926
0.783139 0.651980 0.611658
0.843523 0.665235 0.624913
0.843523 0.665235 0.624913
0.141892 0.646396 0.502487
0.248023 0.669693 0.525784
0.349092 0.691879 0.547970
0.450162 0.714065 0.570156
0.589168 0.744579 0.600669
0.683893 0.747814 0.603904
0.783139 0.755568 0.611658
0.843523 0.768823 0.624913
0.843523 0.768823 0.624913
0.171026 0.779118 0.531621
0.277157 0.802415 0.554918
0.378226 0.824601 0.577104
0.479296 0.846787 0.599290
0.618302 0.877301 0.629803
0.713028 0.880535 0.633038
0.804519 0.880535 0.633038
0.851648 0.880535 0.633038
0.851648 0.880535 0.633038
0.180000 0.820000 0.540595
0.286131 0.843297 0.563892
0.387200 0.865483 0.586078
0.488270 0.887669 0.608264
0.627276 0.918182 0.638777
0.722002 0.921417 0.642012
0.813493 0.921417 0.642012
0.860622 0.921417 0.642012
0.860622 0.921417 0.642012
0.180000 0.820000 0.540595
0.286131 0.843297 0.563892
0.387200 0.865483 0.586078
0.488270 0.887669 0.608264
0.627276 0.918182 0.638777
0.722002 0.921417 0.642012
0.813493 0.921417 0.642012
0.860622 0.921417 0.642012
0.860622 0.921417 0.642012
0.136031 0.136031 0.619697
0.218865 0.136031 0.619697
0.297748 0.136031 0.619697
0.376632 0.136031 0.619697
0.485124 0.136031 0.619697
0.576615 0.136031 0.619697
0.681721 0.149646 0.633312
0.742106 0.162901 0.646567
0.742106 0.162901 0.646567
0.136031 0.232258 0.619697
0.242162 0.255555 0.642994
0.324812 0.259322 0.646760
0.403696 0.259322 0.646760
0.512188 0.259322 0.646760
0.603679 0.259322 0.646760
0.708785 0.272937 0.660376
0.769170 0.286192 0.673631
0.769170 0.286192 0.673631
0.136031 0.321571 0.619697
0.242162 0.344868 0.642994
0.343231 0.367054 0.665180
0.428815 0.373754 0.671880
0.537307 0.373754 0.671880
0.628798 0.373754 0.671880
0.733905 0.387369 0.685495
0.794289 0.400624 0.698750
0.794289 0.400624 0.698750
0.136031 0.410884 0.619697
0.242162 0.434181 0.642994
0.343231 0.456367 0.665180
0.444301 0.478553 0.687366
0.562427 0.488187 0.696999
0.653918 0.488187 0.696999
0.759024 0.501802 0.710614
0.819408 0.515057 0.723869
0.819408 0.515057 0.723869
0.136031 0.536948 0.619697
0.242162 0.560245 0.642994
0.343231 0.582431 0.665180
0.444301 0.604617 0.687366
0.583307 0.635130 0.717879
0.689373 0.649706 0.732454
0.794479 0.663321 0.746070
0.854864 0.676576 0.759325
0.854864 0.676576 0.759325
0.141892 0.646396 0.625557
0.248023 0.669693 0.648855
0.349092 0.691879 0.671041
0.450162 0.714065 0.693226
0.589168 0.744579 0.723740
0.706391 0.770311 0.749472
0.817752 0.790182 0.769343
0.878137 0.803437 0.782598
0.878137 0.803437 0.782598
0.171026 0.779118 0.654692
0.277157 0.802415 0.677989
0.378226 0.824601 0.700175
0.479296 0.846787 0.722361
0.618302 0.877301 0.752874
0.735525 0.903033 0.778606
0.839132 0.915149 0.790722
0.886261 0.915149 0.790722
0.886261 0.915149 0.790722
0.180000 0.820000 0.663666
0.286131 0.843297 0.686963
0.387200 0.865483 0.709149
0.488270 0.887669 0.731335
0.627276 0.918182 0.761848
0.744499 0.943914 0.787580
0.848106 0.956031 0.799697
0.895236 0.956031 0.799697
0.895236 0.956031 0.799697
0.180000 0.820000 0.663666
0.286131 0.843297 0.686963
0.387200 0.865483 0.709149
0.488270 0.887669 0.731335
0.627276 0.918182 0.761848
0.744499 0.943914 0.787580
0.848106 0.956031 0.799697
0.895236 0.956031 0.799697
0.895236 0.956031 0.799697
0.170645 0.170645 0.777381
0.253479 0.170645 0.777381
0.332362 0.170645 0.777381
0.411245 0.170645 0.777381
0.519738 0.170645 0.777381
0.611229 0.170645 0.777381
0.702720 0.170645 0.777381
0.749849 0.170645 0.777381
0.749849 0.170645 0.777381
0.170645 0.266872 0.777381
0.276776 0.290169 0.800678
0.359426 0.293935 0.804445
0.438309 0.293935 0.804445
0.546802 0.293935 0.804445
0.638293 0.293935 0.804445
0.729784 0.293935 0.804445
0.776913 0.293935 0.804445
0.776913 0.293935 0.804445
0.170645 0.356185 0.777381
0.276776 0.379482 0.800678
0.377845 0.401668 0.822864
0.463429 0.408368 0.829564
0.571921 0.408368 0.829564
0.663412 0.408368 0.829564
0.754903 0.408368 0.829564
0.802032 0.408368 0.829564
0.802032 0.408368 0.829564
0.170645 0.445498 0.777381
0.276776 0.468795 0.800678
0.377845 0.490981 0.822864
0.478914 0.513167 0.845050
0.597040 0.522800 0.854683
0.688531 0.522800 0.854683
0.780022 0.522800 0.854683
0.827152 0.522800 0.854683
0.827152 0.522800 0.854683
0.170645 0.571561 0.777381
0.276776 0.594858 0.800678
0.377845 0.617044 0.822864
0.478914 0.639230 0.845050
0.617920 0.669744 0.875563
0.723987 0.684319 0.890139
0.815478 0.684319 0.890139
0.862607 0.684319 0.890139
0.862607 0.684319 0.890139
0.170645 0.675149 0.777381
0.276776 0.698446 0.800678
0.377845 0.720632 0.822864
0.478914 0.742818 0.845050
0.617920 0.773332 0.875563
0.735143 0.799063 0.901295
0.844612 0.817041 0.919273
0.891741 0.817041 0.919273
0.891741 0.817041 0.919273
0.171026 0.779118 0.777762
0.277157 0.802415 0.801059
0.378226 0.824601 0.823245
0.479296 0.846787 0.845431
0.618302 0.877301 0.875945
0.735525 0.903033 0.901677
0.852747 0.928764 0.927408
0.913132 0.942019 0.940664
0.913132 0.942019 0.940664
0.180000 0.820000 0.786736
0.286131 0.843297 0.810033
0.387200 0.865483 0.832219
0.488270 0.887669 0.854405
0.627276 0.918182 0.884919
0.744499 0.943914 0.910651
0.861721 0.969646 0.936383
0.922106 0.982901 0.949638
0.922106 0.982901 0.949638
0.180000 0.820000 0.786736
0.286131 0.843297 0.810033
0.387200 0.865483 0.832219
0.488270 0.887669 0.854405
0.627276 0.918182 0.884919
0.744499 0.943914 0.910651
0.861721 0.969646 0.936383
0.922106 0.982901 0.949638
0.922106 0.982901 0.949638
0.180000 0.180000 0.820000
0.262834 0.180000 0.820000
0.341717 0.180000 0.820000
0.420601 0.180000 0.820000
0.529093 0.180000 0.820000
0.620584 0.180000 0.820000
0.712075 0.180000 0.820000
0.759205 0.180000 0.820000
0.759205 0.180000 0.820000
0.180000 0.276227 0.820000
0.286131 0.299524 0.843297
0.368781 0.303291 0.847064
0.447665 0.303291 0.847064
0.556157 0.303291 0.847064
0.647648 0.303291 0.847064
0.739139 0.303291 0.847064
0.786268 0.303291 0.847064
0.786268 0.303291 0.847064
0.180000 0.365540 0.820000
0.286131 0.388837 0.843297
0.387200 0.411023 0.865483
0.472784 0.417723 0.872183
0.581276 0.417723 0.872183
0.672767 0.417723 0.872183
0.764258 0.417723 0.872183
0.811388 0.417723 0.872183
0.811388 0.417723 0.872183
0.180000 0.454853 0.820000
0.286131 0.478150 0.843297
0.387200 0.500336 0.865483
0.488270 0.522522 0.887669
0.606396 0.532156 0.897302
0.697887 0.532156 0.897302
0.789378 0.532156 0.897302
0.836507 0.532156 0.897302
0.836507 0.532156 0.897302
0.180000 0.580917 0.820000
0.286131 0.604214 0.843297
0.387200 0.626400 0.865483
0.488270 0.648586 0.887669
0.627276 0.679099 0.918182
0.733342 0.693675 0.932758
0.824833 0.693675 0.932758
0.871962 0.693675 0.932758
0.871962 0.693675 0.932758
0.180000 0.684505 0.820000
0.286131 0.707802 0.843297
0.387200 0.729988 0.865483
0.488270 0.752173 0.887669
0.627276 0.782687 0.918182
0.744499 0.808419 0.943914
0.853967 0.826396 0.961892
0.901096 0.826396 0.961892
0.901096 0.826396 0.961892
0.180000 0.788092 0.820000
0.286131 0.811389 0.843297
0.387200 0.833575 0.865483
0.488270 0.855761 0.887669
0.627276 0.886275 0.918182
0.744499 0.912007 0.943914
0.861721 0.937738 0.969646
0.922106 0.950994 0.982901
0.922106 0.950994 0.982901
0.180000 0.820000 0.820000
0.286131 0.843297 0.843297
0.387200 0.865483 0.865483
0.488270 0.887669 0.887669
0.627276 0.918182 0.918182
0.744499 0.943914 0.943914
0.861721 0.969646 0.969646
0.922106 0.982901 0.982901
0.922106 0.982901 0.982901
0.180000 0.820000 0.820000
0.286131 0.843297 0.843297
0.387200 0.865483 0.865483
0.488270 0.887669 0.887669
0.627276 0.918182 0.918182
0.744499 0.943914 0.943914
0.861721 0.969646 0.969646
0.922106 0.982901 0.982901
0.922106 0.982901 0.982901
0.180000 0.180000 0.820000
0.262834 0.180000 0.820000
0.341717 0.180000 0.820000
0.420601 0.180000 0.820000
0.529093 0.180000 0.820000
0.620584 0.180000 0.820000
0.712075 0.180000 0.820000
0.759205 0.180000 0.820000
0.759205 0.180000 0.820000
0.180000 0.276227 0.820000
0.286131 0.299524 0.843297
0.368781 0.303291 0.847064
0.447665 0.303291 0.847064
0.556157 0.303291 0.847064
0.647648 0.303291 0.847064
0.739139 0.303291 0.847064
0.786268 0.303291 0.847064
0.786268 0.303291 0.847064
0.180000 0.365540 0.820000
0.286131 0.388837 0.843297
0.387200 0.411023 0.865483
0.472784 0.417723 0.872183
0.581276 0.417723 0.872183
0.672767 0.417723 0.872183
0.764258 0.417723 0.872183
0.811388 0.417723 0.872183
0.811388 0.417723 0.872183
0.180000 0.454853 0.820000
0.286131 0.478150 0.843297
0.387200 0.500336 0.865483
0.488270 0.522522 0.887669
0.606396 0.532156 0.897302
0.697887 0.532156 0.897302
0.789378 0.532156 0.897302
0.836507 0.532156 0.897302
0.836507 0.532156 0.897302
0.180000 0.580917 0.820000
0.286131 0.604214 0.843297
0.387200 0.626400 0.865483
0.488270 0.648586 0.887669
0.627276 0.679099 0.918182
0.733342 0.693675 0.932758
0.824833 0.693675 0.932758
0.871962 0.693675 0.932758
0.871962 0.693675 0.932758
0.180000 0.684505 0.820000
0.286131 0.707802 0.843297
0.387200 0.729988 0.865483
0.488270 0.752173 0.887669
0.627276 0.782687 0.918182
0.744499 0.808419 0.943914
0.853967 0.826396 0.961892
0.901096 0.826396 0.961892
0.901096 0.826396 0.961892
0.180000 0.788092 0.820000
0.286131 0.811389 0.843297
0.387200 0.833575 0.865483
0.488270 0.855761 0.887669
0.627276 0.886275 0.918182
0.744499 0.912007 0.943914
0.861721 0.937738 0.969646
0.922106 0.950994 0.982901
0.922106 0.950994 0.982901
0.180000 0.820000 0.820000
0.286131 0.843297 0.843297
0.387200 0.865483 0.865483
0.488270 0.887669 0.887669
0.627276 0.918182 0.918182
0.744499 0.943914 0.943914
0.861721 0.969646 0.969646
0.922106 0.982901 0.982901
0.922106 0.982901 0.982901
0.180000 0.820000 0.820000
0.286131 0.843297 0.843297
0.387200 0.865483 0.865483
0.488270 0.887669 0.887669
0.627276 0.918182 0.918182
0.744499 0.943914 0.943914
0.861721 0.969646 0.969646
0.922106 0.982901 0.982901
0.922106 0.982901 0.982901
0.180000 0.180000 0.820000
0.262834 0.180000 0.820000
0.341717 0.180000 0.820000
0.420601 0.180000 0.820000
0.529093 0.180000 0.820000
0.620584 0.180000 0.820000
0.712075 0.180000 0.820000
0.759205 0.180000 0.820000
0.759205 0.180000 0.820000
0.180000 0.276227 0.820000
0.286131 0.299524 0.843297
0.368781 0.303291 0.847064
0.447665 0.303291 0.847064
0.556157 0.303291 0.847064
0.647648 0.303291 0.847064
0.739139 0.303291 0.847064
0.786268 0.303291 0.847064
0.786268 0.303291 0.847064
0.180000 0.365540 0.820000
0.286131 0.388837 0.843297
0.387200 0.411023 0.865483
0.472784 0.417723 0.872183
0.581276 0.417723 0.872183
0.672767 0.417723 0.872183
0.764258 0.417723 0.872183
0.811388 0.417723 0.872183
0.811388 0.417723 0.872183
0.180000 0.454853 0.820000
0.286131 0.478150 0.843297
0.387200 0.500336 0.865483
0.488270 0.522522 0.887669
0.606396 0.532156 0.897302
0.697887 0.532156 0.897302
0.789378 0.532156 0.897302
0.836507 0.532156 0.897302
0.836507 0.532156 0.897302
0.180000 0.580917 0.820000
0.286131 0.604214 0.843297
0.387200 0.626400 0.865483
0.488270 0.648586 0.887669
0.627276 0.679099 0.918182
0.733342 0.693675 0.932758
0.824833 0.693675 0.932758
0.871962 0.693675 0.932758
0.871962 0.693675 0.932758
0.180000 0.684505 0.820000
0.286131 0.707802 0.843297
0.387200 0.729988 0.865483
0.488270 0.752173 0.887669
0.627276 0.782687 0.918182
0.744499 0.808419 0.943914
0.853967 0.826396 0.961892
0.901096 0.826396 0.961892
0.901096 0.826396 0.961892
0.180000 0.788092 0.820000
0.286131 0.811389 0.843297
0.387200 0.833575 0.865483
0.488270 0.855761 0.887669
0.627276 0.886275 0.918182
0.744499 0.912007 0.943914
0.861721 0.937738 0.969646
0.922106 0.950994 0.982901
0.922106 0.950994 0.982901
0.180000 0.820000 0.820000
0.286131 0.843297 0.843297
0.387200 0.865483 0.865483
0.488270 0.887669 0.887669
0.627276 0.918182 0.918182
0.744499 0.943914 0.943914
0.861721 0.969646 0.969646
0.922106 0.982901 0.982901
0.922106 0.982901 0.982901
0.180000 0.820000 0.820000
0.286131 0.843297 0.843297
0.387200 0.865483 0.865483
0.488270 0.887669 0.887669
0.627276 0.918182 0.918182
0.744499 0.943914 0.943914
0.861721 0.969646 0.969646
0.922106 0.982901 0.982901
0.922106 0.982901 0.982901
