docs/luts/fuji_recipes/NEGAhi_VM_Vision__Film_500_Daylight.cube
TITLE "Fujifilm Recipe: VM Vision; Film 500 Daylight (NEGAhi)"
# FilmSim=NEGAhi HL=0 SH=-2 Col=0 WB=Auto WBR=0 WBB=-3
LUT_3D_SIZE 33
DOMAIN_MIN 0.0 0.0 0.0
DOMAIN_MAX 1.0 1.0 1.0
0.080000 0.080000 0.080000
0.109038 0.080000 0.080000
0.137949 0.080000 0.080000
0.166819 0.080000 0.080000
0.195688 0.080000 0.080000
0.224557 0.080000 0.080000
0.253427 0.080000 0.080000
0.282296 0.080000 0.080000
0.311166 0.080000 0.080000
0.340035 0.080000 0.080000
0.368905 0.080000 0.080000
0.397774 0.080000 0.080000
0.426644 0.080000 0.080000
0.455513 0.080000 0.080000
0.484382 0.080000 0.080000
0.513252 0.080000 0.080000
0.502278 0.080000 0.080000
0.533281 0.080000 0.080000
0.564285 0.080000 0.080000
0.595288 0.080000 0.080000
0.626291 0.080000 0.080000
0.657294 0.080000 0.080000
0.688298 0.080000 0.080000
0.719301 0.080000 0.080000
0.750304 0.080000 0.080000
0.781308 0.080000 0.080000
0.812311 0.080000 0.080000
0.843314 0.080000 0.080000
0.874317 0.080000 0.080000
0.905321 0.080000 0.080000
0.936324 0.080000 0.080000
0.967327 0.080000 0.080000
0.994000 0.080000 0.080000
0.080000 0.108750 0.080000
0.109038 0.108750 0.080000
0.137949 0.108750 0.080000
0.166819 0.108750 0.080000
0.195688 0.108750 0.080000
0.224557 0.108750 0.080000
0.253427 0.108750 0.080000
0.282296 0.108750 0.080000
0.311166 0.108750 0.080000
0.340035 0.108750 0.080000
0.368905 0.108750 0.080000
0.397774 0.108750 0.080000
0.426644 0.108750 0.080000
0.455513 0.108750 0.080000
0.484382 0.108750 0.080000
0.513252 0.108750 0.080000
0.502278 0.108750 0.080000
0.533281 0.108750 0.080000
0.564285 0.108750 0.080000
0.595288 0.108750 0.080000
0.626291 0.108750 0.080000
0.657294 0.108750 0.080000
0.688298 0.108750 0.080000
0.719301 0.108750 0.080000
0.750304 0.108750 0.080000
0.781308 0.108750 0.080000
0.812311 0.108750 0.080000
0.843314 0.108750 0.080000
0.874317 0.108750 0.080000
0.905321 0.108750 0.080000
0.936324 0.108750 0.080000
0.967327 0.108750 0.080000
0.994000 0.108750 0.080000
0.080000 0.137500 0.080000
0.109038 0.137500 0.080000
0.137949 0.137500 0.080000
0.166819 0.137500 0.080000
0.195688 0.137500 0.080000
0.224557 0.137500 0.080000
0.253427 0.137500 0.080000
0.282296 0.137500 0.080000
0.311166 0.137500 0.080000
0.340035 0.137500 0.080000
0.368905 0.137500 0.080000
0.397774 0.137500 0.080000
0.426644 0.137500 0.080000
0.455513 0.137500 0.080000
0.484382 0.137500 0.080000
0.513252 0.137500 0.080000
0.502278 0.137500 0.080000
0.533281 0.137500 0.080000
0.564285 0.137500 0.080000
0.595288 0.137500 0.080000
0.626291 0.137500 0.080000
0.657294 0.137500 0.080000
0.688298 0.137500 0.080000
0.719301 0.137500 0.080000
0.750304 0.137500 0.080000
0.781308 0.137500 0.080000
0.812311 0.137500 0.080000
0.843314 0.137500 0.080000
0.874317 0.137500 0.080000
0.905321 0.137500 0.080000
0.936324 0.137500 0.080000
0.967327 0.137500 0.080000
0.994000 0.137500 0.080000
0.080000 0.166250 0.080000
0.109038 0.166250 0.080000
0.137949 0.166250 0.080000
0.166819 0.166250 0.080000
0.195688 0.166250 0.080000
0.224557 0.166250 0.080000
0.253427 0.166250 0.080000
0.282296 0.166250 0.080000
0.311166 0.166250 0.080000
0.340035 0.166250 0.080000
0.368905 0.166250 0.080000
0.397774 0.166250 0.080000
0.426644 0.166250 0.080000
0.455513 0.166250 0.080000
0.484382 0.166250 0.080000
0.513252 0.166250 0.080000
0.502278 0.166250 0.080000
0.533281 0.166250 0.080000
0.564285 0.166250 0.080000
0.595288 0.166250 0.080000
0.626291 0.166250 0.080000
0.657294 0.166250 0.080000
0.688298 0.166250 0.080000
0.719301 0.166250 0.080000
0.750304 0.166250 0.080000
0.781308 0.166250 0.080000
0.812311 0.166250 0.080000
0.843314 0.166250 0.080000
0.874317 0.166250 0.080000
0.905321 0.166250 0.080000
0.936324 0.166250 0.080000
0.967327 0.166250 0.080000
0.994000 0.166250 0.080000
0.080000 0.195000 0.080000
0.109038 0.195000 0.080000
0.137949 0.195000 0.080000
0.166819 0.195000 0.080000
0.195688 0.195000 0.080000
0.224557 0.195000 0.080000
0.253427 0.195000 0.080000
0.282296 0.195000 0.080000
0.311166 0.195000 0.080000
0.340035 0.195000 0.080000
0.368905 0.195000 0.080000
0.397774 0.195000 0.080000
0.426644 0.195000 0.080000
0.455513 0.195000 0.080000
0.484382 0.195000 0.080000
0.513252 0.195000 0.080000
0.502278 0.195000 0.080000
0.533281 0.195000 0.080000
0.564285 0.195000 0.080000
0.595288 0.195000 0.080000
0.626291 0.195000 0.080000
0.657294 0.195000 0.080000
0.688298 0.195000 0.080000
0.719301 0.195000 0.080000
0.750304 0.195000 0.080000
0.781308 0.195000 0.080000
0.812311 0.195000 0.080000
0.843314 0.195000 0.080000
0.874317 0.195000 0.080000
0.905321 0.195000 0.080000
0.936324 0.195000 0.080000
0.967327 0.195000 0.080000
0.994000 0.195000 0.080000
0.080000 0.223750 0.080000
0.109038 0.223750 0.080000
0.137949 0.223750 0.080000
0.166819 0.223750 0.080000
0.195688 0.223750 0.080000
0.224557 0.223750 0.080000
0.253427 0.223750 0.080000
0.282296 0.223750 0.080000
0.311166 0.223750 0.080000
0.340035 0.223750 0.080000
0.368905 0.223750 0.080000
0.397774 0.223750 0.080000
0.426644 0.223750 0.080000
0.455513 0.223750 0.080000
0.484382 0.223750 0.080000
0.513252 0.223750 0.080000
0.502278 0.223750 0.080000
0.533281 0.223750 0.080000
0.564285 0.223750 0.080000
0.595288 0.223750 0.080000
0.626291 0.223750 0.080000
0.657294 0.223750 0.080000
0.688298 0.223750 0.080000
0.719301 0.223750 0.080000
0.750304 0.223750 0.080000
0.781308 0.223750 0.080000
0.812311 0.223750 0.080000
0.843314 0.223750 0.080000
0.874317 0.223750 0.080000
0.905321 0.223750 0.080000
0.936324 0.223750 0.080000
0.967327 0.223750 0.080000
0.994000 0.223750 0.080000
0.080000 0.252500 0.080000
0.109038 0.252500 0.080000
0.137949 0.252500 0.080000
0.166819 0.252500 0.080000
0.195688 0.252500 0.080000
0.224557 0.252500 0.080000
0.253427 0.252500 0.080000
0.282296 0.252500 0.080000
0.311166 0.252500 0.080000
0.340035 0.252500 0.080000
0.368905 0.252500 0.080000
0.397774 0.252500 0.080000
0.426644 0.252500 0.080000
0.455513 0.252500 0.080000
0.484382 0.252500 0.080000
0.513252 0.252500 0.080000
0.502278 0.252500 0.080000
0.533281 0.252500 0.080000
0.564285 0.252500 0.080000
0.595288 0.252500 0.080000
0.626291 0.252500 0.080000
0.657294 0.252500 0.080000
0.688298 0.252500 0.080000
0.719301 0.252500 0.080000
0.750304 0.252500 0.080000
0.781308 0.252500 0.080000
0.812311 0.252500 0.080000
0.843314 0.252500 0.080000
0.874317 0.252500 0.080000
0.905321 0.252500 0.080000
0.936324 0.252500 0.080000
0.967327 0.252500 0.080000
0.994000 0.252500 0.080000
0.080000 0.281250 0.080000
0.109038 0.281250 0.080000
0.137949 0.281250 0.080000
0.166819 0.281250 0.080000
0.195688 0.281250 0.080000
0.224557 0.281250 0.080000
0.253427 0.281250 0.080000
0.282296 0.281250 0.080000
0.311166 0.281250 0.080000
0.340035 0.281250 0.080000
0.368905 0.281250 0.080000
0.397774 0.281250 0.080000
0.426644 0.281250 0.080000
0.455513 0.281250 0.080000
0.484382 0.281250 0.080000
0.513252 0.281250 0.080000
0.502278 0.281250 0.080000
0.533281 0.281250 0.080000
0.564285 0.281250 0.080000
0.595288 0.281250 0.080000
0.626291 0.281250 0.080000
0.657294 0.281250 0.080000
0.688298 0.281250 0.080000
0.719301 0.281250 0.080000
0.750304 0.281250 0.080000
0.781308 0.281250 0.080000
0.812311 0.281250 0.080000
0.843314 0.281250 0.080000
0.874317 0.281250 0.080000
0.905321 0.281250 0.080000
0.936324 0.281250 0.080000
0.967327 0.281250 0.080000
0.994000 0.281250 0.080000
0.080000 0.310000 0.080000
0.109038 0.310000 0.080000
0.137949 0.310000 0.080000
0.166819 0.310000 0.080000
0.195688 0.310000 0.080000
0.224557 0.310000 0.080000
0.253427 0.310000 0.080000
0.282296 0.310000 0.080000
0.311166 0.310000 0.080000
0.340035 0.310000 0.080000
0.368905 0.310000 0.080000
0.397774 0.310000 0.080000
0.426644 0.310000 0.080000
0.455513 0.310000 0.080000
0.484382 0.310000 0.080000
0.513252 0.310000 0.080000
0.502278 0.310000 0.080000
0.533281 0.310000 0.080000
0.564285 0.310000 0.080000
0.595288 0.310000 0.080000
0.626291 0.310000 0.080000
0.657294 0.310000 0.080000
0.688298 0.310000 0.080000
0.719301 0.310000 0.080000
0.750304 0.310000 0.080000
0.781308 0.310000 0.080000
0.812311 0.310000 0.080000
0.843314 0.310000 0.080000
0.874317 0.310000 0.080000
0.905321 0.310000 0.080000
0.936324 0.310000 0.080000
0.967327 0.310000 0.080000
0.994000 0.310000 0.080000
0.080000 0.338750 0.080000
0.109038 0.338750 0.080000
0.137949 0.338750 0.080000
0.166819 0.338750 0.080000
0.195688 0.338750 0.080000
0.224557 0.338750 0.080000
0.253427 0.338750 0.080000
0.282296 0.338750 0.080000
0.311166 0.338750 0.080000
0.340035 0.338750 0.080000
0.368905 0.338750 0.080000
0.397774 0.338750 0.080000
0.426644 0.338750 0.080000
0.455513 0.338750 0.080000
0.484382 0.338750 0.080000
0.513252 0.338750 0.080000
0.502278 0.338750 0.080000
0.533281 0.338750 0.080000
0.564285 0.338750 0.080000
0.595288 0.338750 0.080000
0.626291 0.338750 0.080000
0.657294 0.338750 0.080000
0.688298 0.338750 0.080000
0.719301 0.338750 0.080000
0.750304 0.338750 0.080000
0.781308 0.338750 0.080000
0.812311 0.338750 0.080000
0.843314 0.338750 0.080000
0.874317 0.338750 0.080000
0.905321 0.338750 0.080000
0.936324 0.338750 0.080000
0.967327 0.338750 0.080000
0.994000 0.338750 0.080000
0.080000 0.367500 0.080000
0.109038 0.367500 0.080000
0.137949 0.367500 0.080000
0.166819 0.367500 0.080000
0.195688 0.367500 0.080000
0.224557 0.367500 0.080000
0.253427 0.367500 0.080000
0.282296 0.367500 0.080000
0.311166 0.367500 0.080000
0.340035 0.367500 0.080000
0.368905 0.367500 0.080000
0.397774 0.367500 0.080000
0.426644 0.367500 0.080000
0.455513 0.367500 0.080000
0.484382 0.367500 0.080000
0.513252 0.367500 0.080000
0.502278 0.367500 0.080000
0.533281 0.367500 0.080000
0.564285 0.367500 0.080000
0.595288 0.367500 0.080000
0.626291 0.367500 0.080000
0.657294 0.367500 0.080000
0.688298 0.367500 0.080000
0.719301 0.367500 0.080000
0.750304 0.367500 0.080000
0.781308 0.367500 0.080000
0.812311 0.367500 0.080000
0.843314 0.367500 0.080000
0.874317 0.367500 0.080000
0.905321 0.367500 0.080000
0.936324 0.367500 0.080000
0.967327 0.367500 0.080000
0.994000 0.367500 0.080000
0.080000 0.396250 0.080000
0.109038 0.396250 0.080000
0.137949 0.396250 0.080000
0.166819 0.396250 0.080000
0.195688 0.396250 0.080000
0.224557 0.396250 0.080000
0.253427 0.396250 0.080000
0.282296 0.396250 0.080000
0.311166 0.396250 0.080000
0.340035 0.396250 0.080000
0.368905 0.396250 0.080000
0.397774 0.396250 0.080000
0.426644 0.396250 0.080000
0.455513 0.396250 0.080000
0.484382 0.396250 0.080000
0.513252 0.396250 0.080000
0.502278 0.396250 0.080000
0.533281 0.396250 0.080000
0.564285 0.396250 0.080000
0.595288 0.396250 0.080000
0.626291 0.396250 0.080000
0.657294 0.396250 0.080000
0.688298 0.396250 0.080000
0.719301 0.396250 0.080000
0.750304 0.396250 0.080000
0.781308 0.396250 0.080000
0.812311 0.396250 0.080000
0.843314 0.396250 0.080000
0.874317 0.396250 0.080000
0.905321 0.396250 0.080000
0.936324 0.396250 0.080000
0.967327 0.396250 0.080000
0.994000 0.396250 0.080000
0.080000 0.425000 0.080000
0.109038 0.425000 0.080000
0.137949 0.425000 0.080000
0.166819 0.425000 0.080000
0.195688 0.425000 0.080000
0.224557 0.425000 0.080000
0.253427 0.425000 0.080000
0.282296 0.425000 0.080000
0.311166 0.425000 0.080000
0.340035 0.425000 0.080000
0.368905 0.425000 0.080000
0.397774 0.425000 0.080000
0.426644 0.425000 0.080000
0.455513 0.425000 0.080000
0.484382 0.425000 0.080000
0.513252 0.425000 0.080000
0.502278 0.425000 0.080000
0.533281 0.425000 0.080000
0.564285 0.425000 0.080000
0.595288 0.425000 0.080000
0.626291 0.425000 0.080000
0.657294 0.425000 0.080000
0.688298 0.425000 0.080000
0.719301 0.425000 0.080000
0.750304 0.425000 0.080000
0.781308 0.425000 0.080000
0.812311 0.425000 0.080000
0.843314 0.425000 0.080000
0.874317 0.425000 0.080000
0.905321 0.425000 0.080000
0.936324 0.425000 0.080000
0.967327 0.425000 0.080000
0.994000 0.425000 0.080000
0.080000 0.453750 0.080000
0.109038 0.453750 0.080000
0.137949 0.453750 0.080000
0.166819 0.453750 0.080000
0.195688 0.453750 0.080000
0.224557 0.453750 0.080000
0.253427 0.453750 0.080000
0.282296 0.453750 0.080000
0.311166 0.453750 0.080000
0.340035 0.453750 0.080000
0.368905 0.453750 0.080000
0.397774 0.453750 0.080000
0.426644 0.453750 0.080000
0.455513 0.453750 0.080000
0.484382 0.453750 0.080000
0.513252 0.453750 0.080000
0.502278 0.453750 0.080000
0.533281 0.453750 0.080000
0.564285 0.453750 0.080000
0.595288 0.453750 0.080000
0.626291 0.453750 0.080000
0.657294 0.453750 0.080000
0.688298 0.453750 0.080000
0.719301 0.453750 0.080000
0.750304 0.453750 0.080000
0.781308 0.453750 0.080000
0.812311 0.453750 0.080000
0.843314 0.453750 0.080000
0.874317 0.453750 0.080000
0.905321 0.453750 0.080000
0.936324 0.453750 0.080000
0.967327 0.453750 0.080000
0.994000 0.453750 0.080000
0.080000 0.482500 0.080000
0.109038 0.482500 0.080000
0.137949 0.482500 0.080000
0.166819 0.482500 0.080000
0.195688 0.482500 0.080000
0.224557 0.482500 0.080000
0.253427 0.482500 0.080000
0.282296 0.482500 0.080000
0.311166 0.482500 0.080000
0.340035 0.482500 0.080000
0.368905 0.482500 0.080000
0.397774 0.482500 0.080000
0.426644 0.482500 0.080000
0.455513 0.482500 0.080000
0.484382 0.482500 0.080000
0.513252 0.482500 0.080000
0.502278 0.482500 0.080000
0.533281 0.482500 0.080000
0.564285 0.482500 0.080000
0.595288 0.482500 0.080000
0.626291 0.482500 0.080000
0.657294 0.482500 0.080000
0.688298 0.482500 0.080000
0.719301 0.482500 0.080000
0.750304 0.482500 0.080000
0.781308 0.482500 0.080000
0.812311 0.482500 0.080000
0.843314 0.482500 0.080000
0.874317 0.482500 0.080000
0.905321 0.482500 0.080000
0.936324 0.482500 0.080000
0.967327 0.482500 0.080000
0.994000 0.482500 0.080000
0.080000 0.511250 0.080000
0.109038 0.511250 0.080000
0.137949 0.511250 0.080000
0.166819 0.511250 0.080000
0.195688 0.511250 0.080000
0.224557 0.511250 0.080000
0.253427 0.511250 0.080000
0.282296 0.511250 0.080000
0.311166 0.511250 0.080000
0.340035 0.511250 0.080000
0.368905 0.511250 0.080000
0.397774 0.511250 0.080000
0.426644 0.511250 0.080000
0.455513 0.511250 0.080000
0.484382 0.511250 0.080000
0.513252 0.511250 0.080000
0.502278 0.511250 0.080000
0.533281 0.511250 0.080000
0.564285 0.511250 0.080000
0.595288 0.511250 0.080000
0.626291 0.511250 0.080000
0.657294 0.511250 0.080000
0.688298 0.511250 0.080000
0.719301 0.511250 0.080000
0.750304 0.511250 0.080000
0.781308 0.511250 0.080000
0.812311 0.511250 0.080000
0.843314 0.511250 0.080000
0.874317 0.511250 0.080000
0.905321 0.511250 0.080000
0.936324 0.511250 0.080000
0.967327 0.511250 0.080000
0.994000 0.511250 0.080000
0.080000 0.540000 0.080000
0.109038 0.540000 0.080000
0.137949 0.540000 0.080000
0.166819 0.540000 0.080000
0.195688 0.540000 0.080000
0.224557 0.540000 0.080000
0.253427 0.540000 0.080000
0.282296 0.540000 0.080000
0.311166 0.540000 0.080000
0.340035 0.540000 0.080000
0.368905 0.540000 0.080000
0.397774 0.540000 0.080000
0.426644 0.540000 0.080000
0.455513 0.540000 0.080000
0.484382 0.540000 0.080000
0.513252 0.540000 0.080000
0.502278 0.540000 0.080000
0.533281 0.540000 0.080000
0.564285 0.540000 0.080000
0.595288 0.540000 0.080000
0.626291 0.540000 0.080000
0.657294 0.540000 0.080000
0.688298 0.540000 0.080000
0.719301 0.540000 0.080000
0.750304 0.540000 0.080000
0.781308 0.540000 0.080000
0.812311 0.540000 0.080000
0.843314 0.540000 0.080000
0.874317 0.540000 0.080000
0.905321 0.540000 0.080000
0.936324 0.540000 0.080000
0.967327 0.540000 0.080000
0.994000 0.540000 0.080000
0.080000 0.530875 0.080000
0.109038 0.530875 0.080000
0.137949 0.530875 0.080000
0.166819 0.530875 0.080000
0.195688 0.530875 0.080000
0.224557 0.530875 0.080000
0.253427 0.530875 0.080000
0.282296 0.530875 0.080000
0.311166 0.530875 0.080000
0.340035 0.530875 0.080000
0.368905 0.530875 0.080000
0.397774 0.530875 0.080000
0.426644 0.530875 0.080000
0.455513 0.530875 0.080000
0.484382 0.530875 0.080000
0.513252 0.530875 0.080000
0.502278 0.530875 0.080000
0.533281 0.530875 0.080000
0.564285 0.530875 0.080000
0.595288 0.530875 0.080000
0.626291 0.530875 0.080000
0.657294 0.530875 0.080000
0.688298 0.530875 0.080000
0.719301 0.530875 0.080000
0.750304 0.530875 0.080000
0.781308 0.530875 0.080000
0.812311 0.530875 0.080000
0.843314 0.530875 0.080000
0.874317 0.530875 0.080000
0.905321 0.530875 0.080000
0.936324 0.530875 0.080000
0.967327 0.530875 0.080000
0.994000 0.530875 0.080000
0.080000 0.561750 0.080000
0.109038 0.561750 0.080000
0.137949 0.561750 0.080000
0.166819 0.561750 0.080000
0.195688 0.561750 0.080000
0.224557 0.561750 0.080000
0.253427 0.561750 0.080000
0.282296 0.561750 0.080000
0.311166 0.561750 0.080000
0.340035 0.561750 0.080000
0.368905 0.561750 0.080000
0.397774 0.561750 0.080000
0.426644 0.561750 0.080000
0.455513 0.561750 0.080000
0.484382 0.561750 0.080000
0.513252 0.561750 0.080000
0.502278 0.561750 0.080000
0.533281 0.561750 0.080000
0.564285 0.561750 0.080000
0.595288 0.561750 0.080000
0.626291 0.561750 0.080000
0.657294 0.561750 0.080000
0.688298 0.561750 0.080000
0.719301 0.561750 0.080000
0.750304 0.561750 0.080000
0.781308 0.561750 0.080000
0.812311 0.561750 0.080000
0.843314 0.561750 0.080000
0.874317 0.561750 0.080000
0.905321 0.561750 0.080000
0.936324 0.561750 0.080000
0.967327 0.561750 0.080000
0.994000 0.561750 0.080000
0.080000 0.592625 0.080000
0.109038 0.592625 0.080000
0.137949 0.592625 0.080000
0.166819 0.592625 0.080000
0.195688 0.592625 0.080000
0.224557 0.592625 0.080000
0.253427 0.592625 0.080000
0.282296 0.592625 0.080000
0.311166 0.592625 0.080000
0.340035 0.592625 0.080000
0.368905 0.592625 0.080000
0.397774 0.592625 0.080000
0.426644 0.592625 0.080000
0.455513 0.592625 0.080000
0.484382 0.592625 0.080000
0.513252 0.592625 0.080000
0.502278 0.592625 0.080000
0.533281 0.592625 0.080000
0.564285 0.592625 0.080000
0.595288 0.592625 0.080000
0.626291 0.592625 0.080000
0.657294 0.592625 0.080000
0.688298 0.592625 0.080000
0.719301 0.592625 0.080000
0.750304 0.592625 0.080000
0.781308 0.592625 0.080000
0.812311 0.592625 0.080000
0.843314 0.592625 0.080000
0.874317 0.592625 0.080000
0.905321 0.592625 0.080000
0.936324 0.592625 0.080000
0.967327 0.592625 0.080000
0.994000 0.592625 0.080000
0.080000 0.623500 0.080000
0.109038 0.623500 0.080000
0.137949 0.623500 0.080000
0.166819 0.623500 0.080000
0.195688 0.623500 0.080000
0.224557 0.623500 0.080000
0.253427 0.623500 0.080000
0.282296 0.623500 0.080000
0.311166 0.623500 0.080000
0.340035 0.623500 0.080000
0.368905 0.623500 0.080000
0.397774 0.623500 0.080000
0.426644 0.623500 0.080000
0.455513 0.623500 0.080000
0.484382 0.623500 0.080000
0.513252 0.623500 0.080000
0.502278 0.623500 0.080000
0.533281 0.623500 0.080000
0.564285 0.623500 0.080000
0.595288 0.623500 0.080000
0.626291 0.623500 0.080000
0.657294 0.623500 0.080000
0.688298 0.623500 0.080000
0.719301 0.623500 0.080000
0.750304 0.623500 0.080000
0.781308 0.623500 0.080000
0.812311 0.623500 0.080000
0.843314 0.623500 0.080000
0.874317 0.623500 0.080000
0.905321 0.623500 0.080000
0.936324 0.623500 0.080000
0.967327 0.623500 0.080000
0.994000 0.623500 0.080000
0.080000 0.654375 0.080000
0.109038 0.654375 0.080000
0.137949 0.654375 0.080000
0.166819 0.654375 0.080000
0.195688 0.654375 0.080000
0.224557 0.654375 0.080000
0.253427 0.654375 0.080000
0.282296 0.654375 0.080000
0.311166 0.654375 0.080000
0.340035 0.654375 0.080000
0.368905 0.654375 0.080000
0.397774 0.654375 0.080000
0.426644 0.654375 0.080000
0.455513 0.654375 0.080000
0.484382 0.654375 0.080000
0.513252 0.654375 0.080000
0.502278 0.654375 0.080000
0.533281 0.654375 0.080000
0.564285 0.654375 0.080000
0.595288 0.654375 0.080000
0.626291 0.654375 0.080000
0.657294 0.654375 0.080000
0.688298 0.654375 0.080000
0.719301 0.654375 0.080000
0.750304 0.654375 0.080000
0.781308 0.654375 0.080000
0.812311 0.654375 0.080000
0.843314 0.654375 0.080000
0.874317 0.654375 0.080000
0.905321 0.654375 0.080000
0.936324 0.654375 0.080000
0.967327 0.654375 0.080000
0.994000 0.654375 0.080000
0.080000 0.685250 0.080000
0.109038 0.685250 0.080000
0.137949 0.685250 0.080000
0.166819 0.685250 0.080000
0.195688 0.685250 0.080000
0.224557 0.685250 0.080000
0.253427 0.685250 0.080000
0.282296 0.685250 0.080000
0.311166 0.685250 0.080000
0.340035 0.685250 0.080000
0.368905 0.685250 0.080000
0.397774 0.685250 0.080000
0.426644 0.685250 0.080000
0.455513 0.685250 0.080000
0.484382 0.685250 0.080000
0.513252 0.685250 0.080000
0.502278 0.685250 0.080000
0.533281 0.685250 0.080000
0.564285 0.685250 0.080000
0.595288 0.685250 0.080000
0.626291 0.685250 0.080000
0.657294 0.685250 0.080000
0.688298 0.685250 0.080000
0.719301 0.685250 0.080000
0.750304 0.685250 0.080000
0.781308 0.685250 0.080000
0.812311 0.685250 0.080000
0.843314 0.685250 0.080000
0.874317 0.685250 0.080000
0.905321 0.685250 0.080000
0.936324 0.685250 0.080000
0.967327 0.685250 0.080000
0.994000 0.685250 0.080000
0.080000 0.716125 0.080000
0.109038 0.716125 0.080000
0.137949 0.716125 0.080000
0.166819 0.716125 0.080000
0.195688 0.716125 0.080000
0.224557 0.716125 0.080000
0.253427 0.716125 0.080000
0.282296 0.716125 0.080000
0.311166 0.716125 0.080000
0.340035 0.716125 0.080000
0.368905 0.716125 0.080000
0.397774 0.716125 0.080000
0.426644 0.716125 0.080000
0.455513 0.716125 0.080000
0.484382 0.716125 0.080000
0.513252 0.716125 0.080000
0.502278 0.716125 0.080000
0.533281 0.716125 0.080000
0.564285 0.716125 0.080000
0.595288 0.716125 0.080000
0.626291 0.716125 0.080000
0.657294 0.716125 0.080000
0.688298 0.716125 0.080000
0.719301 0.716125 0.080000
0.750304 0.716125 0.080000
0.781308 0.716125 0.080000
0.812311 0.716125 0.080000
0.843314 0.716125 0.080000
0.874317 0.716125 0.080000
0.905321 0.716125 0.080000
0.936324 0.716125 0.080000
0.967327 0.716125 0.080000
0.994000 0.716125 0.080000
0.080000 0.747000 0.080000
0.109038 0.747000 0.080000
0.137949 0.747000 0.080000
0.166819 0.747000 0.080000
0.195688 0.747000 0.080000
0.224557 0.747000 0.080000
0.253427 0.747000 0.080000
0.282296 0.747000 0.080000
0.311166 0.747000 0.080000
0.340035 0.747000 0.080000
0.368905 0.747000 0.080000
0.397774 0.747000 0.080000
0.426644 0.747000 0.080000
0.455513 0.747000 0.080000
0.484382 0.747000 0.080000
0.513252 0.747000 0.080000
0.502278 0.747000 0.080000
0.533281 0.747000 0.080000
0.564285 0.747000 0.080000
0.595288 0.747000 0.080000
0.626291 0.747000 0.080000
0.657294 0.747000 0.080000
0.688298 0.747000 0.080000
0.719301 0.747000 0.080000
0.750304 0.747000 0.080000
0.781308 0.747000 0.080000
0.812311 0.747000 0.080000
0.843314 0.747000 0.080000
0.874317 0.747000 0.080000
0.905321 0.747000 0.080000
0.936324 0.747000 0.080000
0.967327 0.747000 0.080000
0.994000 0.747000 0.080000
0.080000 0.777875 0.080000
0.109038 0.777875 0.080000
0.137949 0.777875 0.080000
0.166819 0.777875 0.080000
0.195688 0.777875 0.080000
0.224557 0.777875 0.080000
0.253427 0.777875 0.080000
0.282296 0.777875 0.080000
0.311166 0.777875 0.080000
0.340035 0.777875 0.080000
0.368905 0.777875 0.080000
0.397774 0.777875 0.080000
0.426644 0.777875 0.080000
0.455513 0.777875 0.080000
0.484382 0.777875 0.080000
0.513252 0.777875 0.080000
0.502278 0.777875 0.080000
0.533281 0.777875 0.080000
0.564285 0.777875 0.080000
0.595288 0.777875 0.080000
0.626291 0.777875 0.080000
0.657294 0.777875 0.080000
0.688298 0.777875 0.080000
0.719301 0.777875 0.080000
0.750304 0.777875 0.080000
0.781308 0.777875 0.080000
0.812311 0.777875 0.080000
0.843314 0.777875 0.080000
0.874317 0.777875 0.080000
0.905321 0.777875 0.080000
0.936324 0.777875 0.080000
0.967327 0.777875 0.080000
0.994000 0.777875 0.080000
0.080000 0.808750 0.080000
0.109038 0.808750 0.080000
0.137949 0.808750 0.080000
0.166819 0.808750 0.080000
0.195688 0.808750 0.080000
0.224557 0.808750 0.080000
0.253427 0.808750 0.080000
0.282296 0.808750 0.080000
0.311166 0.808750 0.080000
0.340035 0.808750 0.080000
0.368905 0.808750 0.080000
0.397774 0.808750 0.080000
0.426644 0.808750 0.080000
0.455513 0.808750 0.080000
0.484382 0.808750 0.080000
0.513252 0.808750 0.080000
0.502278 0.808750 0.080000
0.533281 0.808750 0.080000
0.564285 0.808750 0.080000
0.595288 0.808750 0.080000
0.626291 0.808750 0.080000
0.657294 0.808750 0.080000
0.688298 0.808750 0.080000
0.719301 0.808750 0.080000
