docs/luts/fuji_recipes/NEGA_PS_Pro_400H.cube
TITLE "Fujifilm Recipe: PS Pro 400H (NEGA)"
# FilmSim=NEGA HL=-2 SH=0 Col=1 WB=Auto WBR=1 WBB=-3
LUT_3D_SIZE 33
DOMAIN_MIN 0.0 0.0 0.0
DOMAIN_MAX 1.0 1.0 1.0
0.016000 0.016000 0.016000
0.078145 0.013788 0.013788
0.122510 0.012210 0.012210
0.166135 0.010657 0.010657
0.209760 0.009105 0.009105
0.253385 0.007552 0.007552
0.297010 0.006000 0.006000
0.340635 0.004447 0.004447
0.384260 0.002895 0.002895
0.427885 0.001342 0.001342
0.471299 0.000000 0.000000
0.513372 0.000000 0.000000
0.546228 0.000000 0.000000
0.583176 0.000000 0.000000
0.620124 0.000000 0.000000
0.657072 0.000000 0.000000
0.694021 0.000000 0.000000
0.730969 0.000000 0.000000
0.767917 0.000000 0.000000
0.804865 0.000000 0.000000
0.841813 0.000000 0.000000
0.878761 0.000000 0.000000
0.915709 0.000000 0.000000
0.950689 0.000000 0.000000
0.950689 0.000000 0.000000
0.950689 0.000000 0.000000
0.950689 0.000000 0.000000
0.950689 0.000000 0.000000
0.950689 0.000000 0.000000
0.950689 0.000000 0.000000
0.950689 0.000000 0.000000
0.950689 0.000000 0.000000
0.950689 0.000000 0.000000
0.013842 0.076629 0.013842
0.078145 0.076575 0.013788
0.122510 0.074996 0.012210
0.166135 0.073444 0.010657
0.209760 0.071891 0.009105
0.253385 0.070339 0.007552
0.297010 0.068786 0.006000
0.340635 0.067234 0.004447
0.384260 0.065681 0.002895
0.427885 0.064129 0.001342
0.471299 0.062731 0.000000
0.513372 0.062358 0.000000
0.546228 0.062121 0.000000
0.583176 0.061930 0.000000
0.620124 0.061762 0.000000
0.657072 0.061614 0.000000
0.694021 0.061482 0.000000
0.730969 0.061364 0.000000
0.767917 0.061258 0.000000
0.804865 0.061162 0.000000
0.841813 0.061074 0.000000
0.878761 0.060994 0.000000
0.915709 0.060921 0.000000
0.950689 0.060857 0.000000
0.950689 0.060857 0.000000
0.950689 0.060857 0.000000
0.950689 0.060857 0.000000
0.950689 0.060857 0.000000
0.950689 0.060857 0.000000
0.950689 0.060857 0.000000
0.950689 0.060857 0.000000
0.950689 0.060857 0.000000
0.950689 0.060857 0.000000
0.012302 0.119912 0.012302
0.076658 0.119912 0.012302
0.122510 0.119820 0.012210
0.166135 0.118267 0.010657
0.209760 0.116715 0.009105
0.253385 0.115162 0.007552
0.297010 0.113610 0.006000
0.340635 0.112057 0.004447
0.384260 0.110505 0.002895
0.427885 0.108952 0.001342
0.471299 0.107514 0.000000
0.513372 0.106876 0.000000
0.546228 0.106470 0.000000
0.583176 0.106142 0.000000
0.620124 0.105854 0.000000
0.657072 0.105600 0.000000
0.694021 0.105374 0.000000
0.730969 0.105172 0.000000
0.767917 0.104990 0.000000
0.804865 0.104825 0.000000
0.841813 0.104676 0.000000
0.878761 0.104539 0.000000
0.915709 0.104413 0.000000
0.950689 0.104303 0.000000
0.950689 0.104303 0.000000
0.950689 0.104303 0.000000
0.950689 0.104303 0.000000
0.950689 0.104303 0.000000
0.950689 0.104303 0.000000
0.950689 0.104303 0.000000
0.950689 0.104303 0.000000
0.950689 0.104303 0.000000
0.950689 0.104303 0.000000
0.010787 0.162473 0.010787
0.075144 0.162473 0.010787
0.121088 0.162473 0.010787
0.166135 0.162343 0.010657
0.209760 0.160790 0.009105
0.253385 0.159238 0.007552
0.297010 0.157685 0.006000
0.340635 0.156133 0.004447
0.384260 0.154580 0.002895
0.427885 0.153028 0.001342
0.471299 0.151550 0.000000
0.513372 0.150651 0.000000
0.546228 0.150079 0.000000
0.583176 0.149616 0.000000
0.620124 0.149211 0.000000
0.657072 0.148853 0.000000
0.694021 0.148534 0.000000
0.730969 0.148249 0.000000
0.767917 0.147993 0.000000
0.804865 0.147760 0.000000
0.841813 0.147549 0.000000
0.878761 0.147356 0.000000
0.915709 0.147179 0.000000
0.950689 0.147025 0.000000
0.950689 0.147025 0.000000
0.950689 0.147025 0.000000
0.950689 0.147025 0.000000
0.950689 0.147025 0.000000
0.950689 0.147025 0.000000
0.950689 0.147025 0.000000
0.950689 0.147025 0.000000
0.950689 0.147025 0.000000
0.950689 0.147025 0.000000
0.009273 0.205034 0.009273
0.073629 0.205034 0.009273
0.119573 0.205034 0.009273
0.164751 0.205034 0.009273
0.209760 0.204866 0.009105
0.253385 0.203313 0.007552
0.297010 0.201761 0.006000
0.340635 0.200208 0.004447
0.384260 0.198656 0.002895
0.427885 0.197103 0.001342
0.471299 0.195587 0.000000
0.513372 0.194426 0.000000
0.546228 0.193687 0.000000
0.583176 0.193090 0.000000
0.620124 0.192567 0.000000
0.657072 0.192105 0.000000
0.694021 0.191694 0.000000
0.730969 0.191326 0.000000
0.767917 0.190995 0.000000
0.804865 0.190695 0.000000
0.841813 0.190423 0.000000
0.878761 0.190174 0.000000
0.915709 0.189945 0.000000
0.950689 0.189746 0.000000
0.950689 0.189746 0.000000
0.950689 0.189746 0.000000
0.950689 0.189746 0.000000
0.950689 0.189746 0.000000
0.950689 0.189746 0.000000
0.950689 0.189746 0.000000
0.950689 0.189746 0.000000
0.950689 0.189746 0.000000
0.950689 0.189746 0.000000
0.007758 0.247595 0.007758
0.072114 0.247595 0.007758
0.118059 0.247595 0.007758
0.163236 0.247595 0.007758
0.208413 0.247595 0.007758
0.253385 0.247389 0.007552
0.297010 0.245836 0.006000
0.340635 0.244284 0.004447
0.384260 0.242731 0.002895
0.427885 0.241179 0.001342
0.471299 0.239623 0.000000
0.513372 0.238201 0.000000
0.546228 0.237296 0.000000
0.583176 0.236564 0.000000
0.620124 0.235923 0.000000
0.657072 0.235358 0.000000
0.694021 0.234854 0.000000
0.730969 0.234404 0.000000
0.767917 0.233998 0.000000
0.804865 0.233631 0.000000
0.841813 0.233296 0.000000
0.878761 0.232991 0.000000
0.915709 0.232712 0.000000
0.950689 0.232467 0.000000
0.950689 0.232467 0.000000
0.950689 0.232467 0.000000
0.950689 0.232467 0.000000
0.950689 0.232467 0.000000
0.950689 0.232467 0.000000
0.950689 0.232467 0.000000
0.950689 0.232467 0.000000
0.950689 0.232467 0.000000
0.950689 0.232467 0.000000
0.006244 0.290156 0.006244
0.070600 0.290156 0.006244
0.116544 0.290156 0.006244
0.161721 0.290156 0.006244
0.206899 0.290156 0.006244
0.252076 0.290156 0.006244
0.297010 0.289912 0.006000
0.340635 0.288359 0.004447
0.384260 0.286807 0.002895
0.427885 0.285254 0.001342
0.471299 0.283659 0.000000
0.513372 0.281976 0.000000
0.546228 0.280905 0.000000
0.583176 0.280038 0.000000
0.620124 0.279280 0.000000
0.657072 0.278610 0.000000
0.694021 0.278014 0.000000
0.730969 0.277481 0.000000
0.767917 0.277000 0.000000
0.804865 0.276566 0.000000
0.841813 0.276170 0.000000
0.878761 0.275809 0.000000
0.915709 0.275478 0.000000
0.950689 0.275188 0.000000
0.950689 0.275188 0.000000
0.950689 0.275188 0.000000
0.950689 0.275188 0.000000
0.950689 0.275188 0.000000
0.950689 0.275188 0.000000
0.950689 0.275188 0.000000
0.950689 0.275188 0.000000
0.950689 0.275188 0.000000
0.950689 0.275188 0.000000
0.004729 0.332717 0.004729
0.069085 0.332717 0.004729
0.115029 0.332717 0.004729
0.160207 0.332717 0.004729
0.205384 0.332717 0.004729
0.250562 0.332717 0.004729
0.295739 0.332717 0.004729
0.340635 0.332435 0.004447
0.384260 0.330883 0.002895
0.427885 0.329330 0.001342
0.471299 0.327695 0.000000
0.513372 0.325751 0.000000
0.546228 0.324513 0.000000
0.583176 0.323513 0.000000
0.620124 0.322636 0.000000
0.657072 0.321862 0.000000
0.694021 0.321174 0.000000
0.730969 0.320558 0.000000
0.767917 0.320003 0.000000
0.804865 0.319501 0.000000
0.841813 0.319044 0.000000
0.878761 0.318626 0.000000
0.915709 0.318244 0.000000
0.950689 0.317910 0.000000
0.950689 0.317910 0.000000
0.950689 0.317910 0.000000
0.950689 0.317910 0.000000
0.950689 0.317910 0.000000
0.950689 0.317910 0.000000
0.950689 0.317910 0.000000
0.950689 0.317910 0.000000
0.950689 0.317910 0.000000
0.950689 0.317910 0.000000
0.003214 0.375278 0.003214
0.067571 0.375278 0.003214
0.113515 0.375278 0.003214
0.158692 0.375278 0.003214
0.203870 0.375278 0.003214
0.249047 0.375278 0.003214
0.294224 0.375278 0.003214
0.339402 0.375278 0.003214
0.384260 0.374958 0.002895
0.427885 0.373406 0.001342
0.471299 0.371732 0.000000
0.513372 0.369526 0.000000
0.546228 0.368122 0.000000
0.583176 0.366987 0.000000
0.620124 0.365993 0.000000
0.657072 0.365115 0.000000
0.694021 0.364334 0.000000
0.730969 0.363635 0.000000
0.767917 0.363005 0.000000
0.804865 0.362436 0.000000
0.841813 0.361917 0.000000
0.878761 0.361444 0.000000
0.915709 0.361010 0.000000
0.950689 0.360631 0.000000
0.950689 0.360631 0.000000
0.950689 0.360631 0.000000
0.950689 0.360631 0.000000
0.950689 0.360631 0.000000
0.950689 0.360631 0.000000
0.950689 0.360631 0.000000
0.950689 0.360631 0.000000
0.950689 0.360631 0.000000
0.950689 0.360631 0.000000
0.001700 0.417839 0.001700
0.066056 0.417839 0.001700
0.112000 0.417839 0.001700
0.157178 0.417839 0.001700
0.202355 0.417839 0.001700
0.247532 0.417839 0.001700
0.292710 0.417839 0.001700
0.337887 0.417839 0.001700
0.383065 0.417839 0.001700
0.427885 0.417481 0.001342
0.471299 0.415768 0.000000
0.513372 0.413301 0.000000
0.546228 0.411731 0.000000
0.583176 0.410461 0.000000
0.620124 0.409349 0.000000
0.657072 0.408367 0.000000
0.694021 0.407494 0.000000
0.730969 0.406712 0.000000
0.767917 0.406008 0.000000
0.804865 0.405371 0.000000
0.841813 0.404791 0.000000
0.878761 0.404262 0.000000
0.915709 0.403776 0.000000
0.950689 0.403352 0.000000
0.950689 0.403352 0.000000
0.950689 0.403352 0.000000
0.950689 0.403352 0.000000
0.950689 0.403352 0.000000
0.950689 0.403352 0.000000
0.950689 0.403352 0.000000
0.950689 0.403352 0.000000
0.950689 0.403352 0.000000
0.950689 0.403352 0.000000
0.000185 0.460400 0.000185
0.064541 0.460400 0.000185
0.110485 0.460400 0.000185
0.155663 0.460400 0.000185
0.200840 0.460400 0.000185
0.246018 0.460400 0.000185
0.291195 0.460400 0.000185
0.336373 0.460400 0.000185
0.381550 0.460400 0.000185
0.426727 0.460400 0.000185
0.471299 0.459804 0.000000
0.513372 0.457076 0.000000
0.546228 0.455339 0.000000
0.583176 0.453935 0.000000
0.620124 0.452705 0.000000
0.657072 0.451620 0.000000
0.694021 0.450654 0.000000
0.730969 0.449789 0.000000
0.767917 0.449010 0.000000
0.804865 0.448306 0.000000
0.841813 0.447665 0.000000
0.878761 0.447079 0.000000
0.915709 0.446542 0.000000
0.950689 0.446073 0.000000
0.950689 0.446073 0.000000
0.950689 0.446073 0.000000
0.950689 0.446073 0.000000
0.950689 0.446073 0.000000
0.950689 0.446073 0.000000
0.950689 0.446073 0.000000
0.950689 0.446073 0.000000
0.950689 0.446073 0.000000
0.950689 0.446073 0.000000
0.000000 0.501631 0.000000
0.064017 0.501631 0.000000
0.109719 0.501631 0.000000
0.154658 0.501631 0.000000
0.199597 0.501631 0.000000
0.244536 0.501631 0.000000
0.289476 0.501631 0.000000
0.334415 0.501631 0.000000
0.379354 0.501631 0.000000
0.424293 0.501631 0.000000
0.469233 0.501631 0.000000
0.513372 0.500851 0.000000
0.546228 0.498948 0.000000
0.583176 0.497409 0.000000
0.620124 0.496062 0.000000
0.657072 0.494872 0.000000
0.694021 0.493814 0.000000
0.730969 0.492866 0.000000
0.767917 0.492013 0.000000
0.804865 0.491241 0.000000
0.841813 0.490538 0.000000
0.878761 0.489897 0.000000
0.915709 0.489308 0.000000
0.950689 0.488795 0.000000
0.950689 0.488795 0.000000
0.950689 0.488795 0.000000
0.950689 0.488795 0.000000
0.950689 0.488795 0.000000
0.950689 0.488795 0.000000
0.950689 0.488795 0.000000
0.950689 0.488795 0.000000
0.950689 0.488795 0.000000
0.950689 0.488795 0.000000
0.000000 0.534526 0.000000
0.063750 0.534526 0.000000
0.109261 0.534526 0.000000
0.154012 0.534526 0.000000
0.198764 0.534526 0.000000
0.243515 0.534526 0.000000
0.288267 0.534526 0.000000
0.333018 0.534526 0.000000
0.377770 0.534526 0.000000
0.422522 0.534526 0.000000
0.467273 0.534526 0.000000
0.512025 0.534526 0.000000
0.546228 0.533896 0.000000
0.583176 0.532250 0.000000
0.620124 0.530775 0.000000
0.657072 0.529241 0.000000
0.694021 0.527848 0.000000
0.730969 0.526576 0.000000
0.767917 0.525405 0.000000
0.804865 0.524321 0.000000
0.841813 0.523313 0.000000
0.878761 0.522370 0.000000
0.915709 0.521484 0.000000
0.950689 0.520693 0.000000
0.950689 0.520693 0.000000
0.950689 0.520693 0.000000
0.950689 0.520693 0.000000
0.950689 0.520693 0.000000
0.950689 0.520693 0.000000
0.950689 0.520693 0.000000
0.950689 0.520693 0.000000
0.950689 0.520693 0.000000
0.950689 0.520693 0.000000
0.000000 0.571063 0.000000
0.063540 0.571063 0.000000
0.108901 0.571063 0.000000
0.153505 0.571063 0.000000
0.198109 0.571063 0.000000
0.242713 0.571063 0.000000
0.287317 0.571063 0.000000
0.331921 0.571063 0.000000
0.376526 0.571063 0.000000
0.421130 0.571063 0.000000
0.465734 0.571063 0.000000
0.510338 0.571063 0.000000
0.544894 0.571063 0.000000
0.583176 0.570425 0.000000
0.620124 0.568618 0.000000
0.657072 0.566993 0.000000
0.694021 0.565520 0.000000
0.730969 0.564175 0.000000
0.767917 0.562939 0.000000
0.804865 0.561797 0.000000
0.841813 0.560735 0.000000
0.878761 0.559743 0.000000
0.915709 0.558813 0.000000
0.950689 0.557982 0.000000
0.950689 0.557982 0.000000
0.950689 0.557982 0.000000
0.950689 0.557982 0.000000
0.950689 0.557982 0.000000
0.950689 0.557982 0.000000
0.950689 0.557982 0.000000
0.950689 0.557982 0.000000
0.950689 0.557982 0.000000
0.950689 0.557982 0.000000
0.000000 0.607110 0.000000
0.063364 0.607110 0.000000
0.108600 0.607110 0.000000
0.153081 0.607110 0.000000
0.197562 0.607110 0.000000
0.242043 0.607110 0.000000
0.286524 0.607110 0.000000
0.331006 0.607110 0.000000
0.375487 0.607110 0.000000
0.419968 0.607110 0.000000
0.464449 0.607110 0.000000
0.508930 0.607110 0.000000
0.543135 0.607110 0.000000
0.581960 0.607110 0.000000
0.620124 0.606461 0.000000
0.657072 0.604746 0.000000
0.694021 0.603192 0.000000
0.730969 0.601775 0.000000
0.767917 0.600474 0.000000
0.804865 0.599272 0.000000
0.841813 0.598157 0.000000
0.878761 0.597116 0.000000
0.915709 0.596141 0.000000
0.950689 0.595271 0.000000
0.950689 0.595271 0.000000
0.950689 0.595271 0.000000
0.950689 0.595271 0.000000
0.950689 0.595271 0.000000
0.950689 0.595271 0.000000
0.950689 0.595271 0.000000
0.950689 0.595271 0.000000
0.950689 0.595271 0.000000
0.950689 0.595271 0.000000
0.000000 0.643157 0.000000
0.063209 0.643157 0.000000
0.108335 0.643157 0.000000
0.152707 0.643157 0.000000
0.197079 0.643157 0.000000
0.241452 0.643157 0.000000
0.285824 0.643157 0.000000
0.330197 0.643157 0.000000
0.374569 0.643157 0.000000
0.418941 0.643157 0.000000
0.463314 0.643157 0.000000
0.507686 0.643157 0.000000
0.541553 0.643157 0.000000
0.580283 0.643157 0.000000
0.619013 0.643157 0.000000
0.657072 0.642499 0.000000
0.694021 0.640864 0.000000
0.730969 0.639375 0.000000
0.767917 0.638008 0.000000
0.804865 0.636748 0.000000
0.841813 0.635579 0.000000
0.878761 0.634489 0.000000
0.915709 0.633469 0.000000
0.950689 0.632560 0.000000
0.950689 0.632560 0.000000
0.950689 0.632560 0.000000
0.950689 0.632560 0.000000
0.950689 0.632560 0.000000
0.950689 0.632560 0.000000
0.950689 0.632560 0.000000
0.950689 0.632560 0.000000
0.950689 0.632560 0.000000
0.950689 0.632560 0.000000
0.000000 0.679204 0.000000
0.063072 0.679204 0.000000
0.108099 0.679204 0.000000
0.152374 0.679204 0.000000
0.196650 0.679204 0.000000
0.240925 0.679204 0.000000
0.285201 0.679204 0.000000
0.329477 0.679204 0.000000
0.373752 0.679204 0.000000
0.418028 0.679204 0.000000
0.462304 0.679204 0.000000
0.506579 0.679204 0.000000
0.540118 0.679204 0.000000
0.578764 0.679204 0.000000
0.617410 0.679204 0.000000
0.656056 0.679204 0.000000
0.694021 0.678536 0.000000
0.730969 0.676974 0.000000
0.767917 0.675543 0.000000
0.804865 0.674223 0.000000
0.841813 0.673001 0.000000
0.878761 0.671862 0.000000
0.915709 0.670797 0.000000
0.950689 0.669849 0.000000
0.950689 0.669849 0.000000
0.950689 0.669849 0.000000
0.950689 0.669849 0.000000
0.950689 0.669849 0.000000
0.950689 0.669849 0.000000
0.950689 0.669849 0.000000
0.950689 0.669849 0.000000
0.950689 0.669849 0.000000
0.950689 0.669849 0.000000
0.000000 0.715251 0.000000
0.062948 0.715251 0.000000
0.107887 0.715251 0.000000
0.152076 0.715251 0.000000
0.196265 0.715251 0.000000
0.240454 0.715251 0.000000
0.284643 0.715251 0.000000
0.328832 0.715251 0.000000
0.373021 0.715251 0.000000
0.417210 0.715251 0.000000
0.461399 0.715251 0.000000
0.505588 0.715251 0.000000
0.538808 0.715251 0.000000
0.577378 0.715251 0.000000
0.615948 0.715251 0.000000
0.654518 0.715251 0.000000
0.693089 0.715251 0.000000
0.730969 0.714574 0.000000
0.767917 0.713077 0.000000
0.804865 0.711699 0.000000
0.841813 0.710423 0.000000
0.878761 0.709235 0.000000
0.915709 0.708126 0.000000
0.950689 0.707138 0.000000
0.950689 0.707138 0.000000
0.950689 0.707138 0.000000
0.950689 0.707138 0.000000
0.950689 0.707138 0.000000
0.950689 0.707138 0.000000
0.950689 0.707138 0.000000
0.950689 0.707138 0.000000
0.950689 0.707138 0.000000
0.950689 0.707138 0.000000
0.000000 0.751298 0.000000
0.062837 0.751298 0.000000
0.107697 0.751298 0.000000
0.151808 0.751298 0.000000
0.195919 0.751298 0.000000
0.240030 0.751298 0.000000
0.284141 0.751298 0.000000
0.328252 0.751298 0.000000
0.372363 0.751298 0.000000
0.416474 0.751298 0.000000
0.460585 0.751298 0.000000
0.504696 0.751298 0.000000
0.537603 0.751298 0.000000
0.576105 0.751298 0.000000
0.614607 0.751298 0.000000
0.653110 0.751298 0.000000
0.691612 0.751298 0.000000
0.730114 0.751298 0.000000
0.767917 0.750612 0.000000
0.804865 0.749175 0.000000
0.841813 0.747845 0.000000
0.878761 0.746608 0.000000
0.915709 0.745454 0.000000
0.950689 0.744427 0.000000
0.950689 0.744427 0.000000
0.950689 0.744427 0.000000
0.950689 0.744427 0.000000
0.950689 0.744427 0.000000
0.950689 0.744427 0.000000
0.950689 0.744427 0.000000
0.950689 0.744427 0.000000
0.950689 0.744427 0.000000
0.950689 0.744427 0.000000
0.000000 0.787345 0.000000
0.062736 0.787345 0.000000
0.107524 0.787345 0.000000
0.151565 0.787345 0.000000
0.195605 0.787345 0.000000
0.239645 0.787345 0.000000
0.283686 0.787345 0.000000
0.327726 0.787345 0.000000
0.371766 0.787345 0.000000
0.415807 0.787345 0.000000
0.459847 0.787345 0.000000
0.503888 0.787345 0.000000
0.536489 0.787345 0.000000
0.574930 0.787345 0.000000
0.613370 0.787345 0.000000
0.651811 0.787345 0.000000
0.690251 0.787345 0.000000
0.728692 0.787345 0.000000
0.767132 0.787345 0.000000
0.804865 0.786650 0.000000
0.841813 0.785267 0.000000
0.878761 0.783982 0.000000
0.915709 0.782782 0.000000
0.950689 0.781716 0.000000
0.950689 0.781716 0.000000
0.950689 0.781716 0.000000
0.950689 0.781716 0.000000
0.950689 0.781716 0.000000
0.950689 0.781716 0.000000
0.950689 0.781716 0.000000
0.950689 0.781716 0.000000
0.950689 0.781716 0.000000
0.950689 0.781716 0.000000
0.000000 0.823392 0.000000
0.062645 0.823392 0.000000
0.107367 0.823392 0.000000
0.151343 0.823392 0.000000
0.195320 0.823392 0.000000
0.239296 0.823392 0.000000
0.283272 0.823392 0.000000
0.327248 0.823392 0.000000
0.371224 0.823392 0.000000
0.415200 0.823392 0.000000
0.459176 0.823392 0.000000
0.503152 0.823392 0.000000
0.535454 0.823392 0.000000
0.573839 0.823392 0.000000
0.612223 0.823392 0.000000
0.650607 0.823392 0.000000
0.688992 0.823392 0.000000
0.727376 0.823392 0.000000
0.765760 0.823392 0.000000
0.804145 0.823392 0.000000
0.841813 0.822689 0.000000
0.878761 0.821355 0.000000
0.915709 0.820110 0.000000
0.950689 0.819005 0.000000
0.950689 0.819005 0.000000
0.950689 0.819005 0.000000
0.950689 0.819005 0.000000
0.950689 0.819005 0.000000
0.950689 0.819005 0.000000
0.950689 0.819005 0.000000
0.950689 0.819005 0.000000
0.950689 0.819005 0.000000
0.950689 0.819005 0.000000
0.000000 0.859439 0.000000
0.062561 0.859439 0.000000
0.107224 0.859439 0.000000
0.151141 0.859439 0.000000
0.195059 0.859439 0.000000
0.238976 0.859439 0.000000
0.282894 0.859439 0.000000
0.326811 0.859439 0.000000
0.370728 0.859439 0.000000
0.414646 0.859439 0.000000
0.458563 0.859439 0.000000
0.502481 0.859439 0.000000
0.534487 0.859439 0.000000
0.572820 0.859439 0.000000
0.611154 0.859439 0.000000
0.649487 0.859439 0.000000
0.687820 0.859439 0.000000
0.726153 0.859439 0.000000
0.764486 0.859439 0.000000
0.802819 0.859439 0.000000
0.841152 0.859439 0.000000
0.878761 0.858728 0.000000
0.915709 0.857439 0.000000
0.950689 0.856294 0.000000
0.950689 0.856294 0.000000
0.950689 0.856294 0.000000
0.950689 0.856294 0.000000
0.950689 0.856294 0.000000
0.950689 0.856294 0.000000
0.950689 0.856294 0.000000
0.950689 0.856294 0.000000
0.950689 0.856294 0.000000
0.950689 0.856294 0.000000
0.000000 0.895486 0.000000
0.062485 0.895486 0.000000
0.107093 0.895486 0.000000
0.150956 0.895486 0.000000
0.194820 0.895486 0.000000
0.238683 0.895486 0.000000
0.282547 0.895486 0.000000
0.326410 0.895486 0.000000
0.370274 0.895486 0.000000
0.414138 0.895486 0.000000
0.458001 0.895486 0.000000
0.501865 0.895486 0.000000
0.533580 0.895486 0.000000
0.571866 0.895486 0.000000
0.610153 0.895486 0.000000
0.648439 0.895486 0.000000
0.686725 0.895486 0.000000
0.725011 0.895486 0.000000
0.763297 0.895486 0.000000
0.801583 0.895486 0.000000
0.839869 0.895486 0.000000
0.878156 0.895486 0.000000
0.915709 0.894767 0.000000
0.950689 0.893583 0.000000
0.950689 0.893583 0.000000
0.950689 0.893583 0.000000
0.950689 0.893583 0.000000
0.950689 0.893583 0.000000
0.950689 0.893583 0.000000
0.950689 0.893583 0.000000
0.950689 0.893583 0.000000
0.950689 0.893583 0.000000
0.950689 0.893583 0.000000
0.000000 0.931533 0.000000
0.062414 0.931533 0.000000
0.106972 0.931533 0.000000
0.150786 0.931533 0.000000
0.194600 0.931533 0.000000
0.238414 0.931533 0.000000
0.282228 0.931533 0.000000
0.326042 0.931533 0.000000
0.369856 0.931533 0.000000
0.413670 0.931533 0.000000
0.457484 0.931533 0.000000
0.501298 0.931533 0.000000
0.532726 0.931533 0.000000
0.570969 0.931533 0.000000
0.609212 0.931533 0.000000
0.647455 0.931533 0.000000
0.685698 0.931533 0.000000
0.723940 0.931533 0.000000
0.762183 0.931533 0.000000
0.800426 0.931533 0.000000
0.838669 0.931533 0.000000
0.876912 0.931533 0.000000
0.915155 0.931533 0.000000
0.950689 0.930873 0.000000
0.950689 0.930873 0.000000
0.950689 0.930873 0.000000
0.950689 0.930873 0.000000
0.950689 0.930873 0.000000
0.950689 0.930873 0.000000
0.950689 0.930873 0.000000
0.950689 0.930873 0.000000
0.950689 0.930873 0.000000
0.950689 0.930873 0.000000
0.000000 0.950689 0.000000
0.062379 0.950689 0.000000
0.106911 0.950689 0.000000
0.150700 0.950689 0.000000
0.194490 0.950689 0.000000
0.238279 0.950689 0.000000
0.282068 0.950689 0.000000
0.325857 0.950689 0.000000
0.369647 0.950689 0.000000
0.413436 0.950689 0.000000
0.457225 0.950689 0.000000
0.501015 0.950689 0.000000
0.532291 0.950689 0.000000
0.570513 0.950689 0.000000
0.608734 0.950689 0.000000
0.646955 0.950689 0.000000
0.685176 0.950689 0.000000
0.723398 0.950689 0.000000
0.761619 0.950689 0.000000
0.799840 0.950689 0.000000
0.838061 0.950689 0.000000
0.876283 0.950689 0.000000
0.914504 0.950689 0.000000
0.950689 0.950689 0.000000
0.950689 0.950689 0.000000
0.950689 0.950689 0.000000
0.950689 0.950689 0.000000
0.950689 0.950689 0.000000
0.950689 0.950689 0.000000
0.950689 0.950689 0.000000
0.950689 0.950689 0.000000
0.950689 0.950689 0.000000
0.950689 0.950689 0.000000
0.000000 0.950689 0.000000
0.062379 0.950689 0.000000
0.106911 0.950689 0.000000
0.150700 0.950689 0.000000
0.194490 0.950689 0.000000
0.238279 0.950689 0.000000
0.282068 0.950689 0.000000
0.325857 0.950689 0.000000
0.369647 0.950689 0.000000
0.413436 0.950689 0.000000
0.457225 0.950689 0.000000
0.501015 0.950689 0.000000
0.532291 0.950689 0.000000
0.570513 0.950689 0.000000
0.608734 0.950689 0.000000
0.646955 0.950689 0.000000
0.685176 0.950689 0.000000
0.723398 0.950689 0.000000
0.761619 0.950689 0.000000
0.799840 0.950689 0.000000
0.838061 0.950689 0.000000
0.876283 0.950689 0.000000
0.914504 0.950689 0.000000
0.950689 0.950689 0.000000
0.950689 0.950689 0.000000
0.950689 0.950689 0.000000
0.950689 0.950689 0.000000
0.950689 0.950689 0.000000
0.950689 0.950689 0.000000
0.950689 0.950689 0.000000
0.950689 0.950689 0.000000
0.950689 0.950689 0.000000
0.950689 0.950689 0.000000
0.000000 0.950689 0.000000
0.062379 0.950689 0.000000
0.106911 0.950689 0.000000
0.150700 0.950689 0.000000
0.194490 0.950689 0.000000
0.238279 0.950689 0.000000
0.282068 0.950689 0.000000
0.325857 0.950689 0.000000
0.369647 0.950689 0.000000
0.413436 0.950689 0.000000
0.457225 0.950689 0.000000
0.501015 0.950689 0.000000
0.532291 0.950689 0.000000
0.570513 0.950689 0.000000
0.608734 0.950689 0.000000
0.646955 0.950689 0.000000
0.685176 0.950689 0.000000
0.723398 0.950689 0.000000
0.761619 0.950689 0.000000
0.799840 0.950689 0.000000
0.838061 0.950689 0.000000
0.876283 0.950689 0.000000
0.914504 0.950689 0.000000
0.950689 0.950689 0.000000
0.950689 0.950689 0.000000
