docs/luts/fuji_recipes/NEGA_JP_Hard_Portrait.cube
TITLE "Fujifilm Recipe: JP Hard Portrait (NEGA)"
# FilmSim=NEGA HL=0 SH=0 Col=-4 WB=Auto WBR=0 WBB=0
LUT_3D_SIZE 5
DOMAIN_MIN 0.0 0.0 0.0
DOMAIN_MAX 1.0 1.0 1.0
0.016000 0.016000 0.016000
0.170340 0.107660 0.107660
0.324560 0.199248 0.199248
0.472747 0.287253 0.287253
0.625833 0.378167 0.378167
0.107660 0.170340 0.107660
0.170340 0.170340 0.107660
0.324560 0.261928 0.199248
0.472747 0.349934 0.287253
0.625833 0.440848 0.378167
0.199248 0.324560 0.199248
0.261928 0.324560 0.199248
0.324560 0.324560 0.199248
0.472747 0.412565 0.287253
0.625833 0.503480 0.378167
0.287253 0.472747 0.287253
0.349934 0.472747 0.287253
0.412565 0.472747 0.287253
0.472747 0.472747 0.287253
0.625833 0.563662 0.378167
0.378167 0.625833 0.378167
0.440848 0.625833 0.378167
0.503480 0.625833 0.378167
0.563662 0.625833 0.378167
0.625833 0.625833 0.378167
0.107660 0.107660 0.170340
0.170340 0.107660 0.170340
0.324560 0.199248 0.261928
0.472747 0.287253 0.349934
0.625833 0.378167 0.440848
0.107660 0.170340 0.170340
0.262000 0.262000 0.262000
0.416220 0.353588 0.353588
0.564407 0.441593 0.441593
0.717492 0.532508 0.532508
0.199248 0.324560 0.261928
0.353588 0.416220 0.353588
0.416220 0.416220 0.353588
0.564407 0.504225 0.441593
0.717492 0.595139 0.532508
0.287253 0.472747 0.349934
0.441593 0.564407 0.441593
0.504225 0.564407 0.441593
0.564407 0.564407 0.441593
0.717492 0.655321 0.532508
0.378167 0.625833 0.440848
0.532508 0.717492 0.532508
0.595139 0.717492 0.532508
0.655321 0.717492 0.532508
0.717492 0.717492 0.532508
0.199248 0.199248 0.324560
0.261928 0.199248 0.324560
0.324560 0.199248 0.324560
0.472747 0.287253 0.412565
0.625833 0.378167 0.503480
0.199248 0.261928 0.324560
0.353588 0.353588 0.416220
0.416220 0.353588 0.416220
0.564407 0.441593 0.504225
0.717492 0.532508 0.595139
0.199248 0.324560 0.324560
0.353588 0.416220 0.416220
0.507808 0.507808 0.507808
0.655995 0.595813 0.595813
0.809080 0.686728 0.686728
0.287253 0.472747 0.412565
0.441593 0.564407 0.504225
0.595813 0.655995 0.595813
0.655995 0.655995 0.595813
0.809080 0.746909 0.686728
0.378167 0.625833 0.503480
0.532508 0.717492 0.595139
0.686728 0.809080 0.686728
0.746909 0.809080 0.686728
0.809080 0.809080 0.686728
0.287253 0.287253 0.472747
0.349934 0.287253 0.472747
0.412565 0.287253 0.472747
0.472747 0.287253 0.472747
0.625833 0.378167 0.563662
0.287253 0.349934 0.472747
0.441593 0.441593 0.564407
0.504225 0.441593 0.564407
0.564407 0.441593 0.564407
0.717492 0.532508 0.655321
0.287253 0.412565 0.472747
0.441593 0.504225 0.564407
0.595813 0.595813 0.655995
0.655995 0.595813 0.655995
0.809080 0.686728 0.746909
0.287253 0.472747 0.472747
0.441593 0.564407 0.564407
0.595813 0.655995 0.655995
0.744000 0.744000 0.744000
0.897086 0.834914 0.834914
0.378167 0.625833 0.563662
0.532508 0.717492 0.655321
0.686728 0.809080 0.746909
0.834914 0.897086 0.834914
0.897086 0.897086 0.834914
0.378167 0.378167 0.625833
0.440848 0.378167 0.625833
0.503480 0.378167 0.625833
0.563662 0.378167 0.625833
0.625833 0.378167 0.625833
0.378167 0.440848 0.625833
0.532508 0.532508 0.717492
0.595139 0.532508 0.717492
0.655321 0.532508 0.717492
0.717492 0.532508 0.717492
0.378167 0.503480 0.625833
0.532508 0.595139 0.717492
0.686728 0.686728 0.809080
0.746909 0.686728 0.809080
0.809080 0.686728 0.809080
0.378167 0.563662 0.625833
0.532508 0.655321 0.717492
0.686728 0.746909 0.809080
0.834914 0.834914 0.897086
0.897086 0.834914 0.897086
0.378167 0.625833 0.625833
0.532508 0.717492 0.717492
0.686728 0.809080 0.809080
0.834914 0.897086 0.897086
0.988000 0.988000 0.988000
