docs/luts/fuji_recipes/NEGA_RR_Eterna.cube
TITLE "Fujifilm Recipe: RR Eterna (NEGA)"
# FilmSim=NEGA HL=-2 SH=-1 Col=-4 WB=Auto WBR=2 WBB=2
LUT_3D_SIZE 33
DOMAIN_MIN 0.0 0.0 0.0
DOMAIN_MAX 1.0 1.0 1.0
0.055360 0.055360 0.055360
0.092338 0.077321 0.077321
0.118737 0.092999 0.092999
0.144696 0.108415 0.108415
0.170654 0.123831 0.123831
0.196613 0.139247 0.139247
0.222571 0.154663 0.154663
0.248530 0.170080 0.170080
0.274488 0.185496 0.185496
0.300447 0.200912 0.200912
0.326405 0.216328 0.216328
0.347540 0.228880 0.228880
0.359458 0.236392 0.236392
0.383115 0.250507 0.250507
0.406773 0.264622 0.264622
0.430430 0.278737 0.278737
0.454087 0.292852 0.292852
0.477744 0.306967 0.306967
0.501402 0.321082 0.321082
0.525059 0.335198 0.335198
0.548716 0.349313 0.349313
0.572373 0.363428 0.363428
0.596030 0.377543 0.377543
0.605253 0.383046 0.383046
0.605253 0.383046 0.383046
0.605253 0.383046 0.383046
0.605253 0.383046 0.383046
0.605253 0.383046 0.383046
0.605253 0.383046 0.383046
0.605253 0.383046 0.383046
0.605253 0.383046 0.383046
0.605253 0.383046 0.383046
0.605253 0.383046 0.383046
0.076275 0.090578 0.076275
0.092338 0.091623 0.077321
0.118737 0.107301 0.092999
0.144696 0.122717 0.108415
0.170654 0.138133 0.123831
0.196613 0.153550 0.139247
0.222571 0.168966 0.154663
0.248530 0.184382 0.170080
0.274488 0.199798 0.185496
0.300447 0.215215 0.200912
0.326405 0.230631 0.216328
0.347540 0.243182 0.228880
0.359458 0.250694 0.236392
0.383115 0.264809 0.250507
0.406773 0.278924 0.264622
0.430430 0.293040 0.278737
0.454087 0.307155 0.292852
0.477744 0.321270 0.306967
0.501402 0.335385 0.321082
0.525059 0.349500 0.335198
0.548716 0.363615 0.349313
0.572373 0.377730 0.363428
0.596030 0.391846 0.377543
0.605253 0.397348 0.383046
0.605253 0.397348 0.383046
0.605253 0.397348 0.383046
0.605253 0.397348 0.383046
0.605253 0.397348 0.383046
0.605253 0.397348 0.383046
0.605253 0.397348 0.383046
0.605253 0.397348 0.383046
0.605253 0.397348 0.383046
0.605253 0.397348 0.383046
0.091206 0.115719 0.091206
0.106224 0.115719 0.091206
0.118737 0.117512 0.092999
0.144696 0.132928 0.108415
0.170654 0.148344 0.123831
0.196613 0.163760 0.139247
0.222571 0.179177 0.154663
0.248530 0.194593 0.170080
0.274488 0.210009 0.185496
0.300447 0.225425 0.200912
0.326405 0.240841 0.216328
0.347540 0.253393 0.228880
0.359458 0.260905 0.236392
0.383115 0.275020 0.250507
0.406773 0.289135 0.264622
0.430430 0.303250 0.278737
0.454087 0.317365 0.292852
0.477744 0.331481 0.306967
0.501402 0.345596 0.321082
0.525059 0.359711 0.335198
0.548716 0.373826 0.349313
0.572373 0.387941 0.363428
0.596030 0.402056 0.377543
0.605253 0.407559 0.383046
0.605253 0.407559 0.383046
0.605253 0.407559 0.383046
0.605253 0.407559 0.383046
0.605253 0.407559 0.383046
0.605253 0.407559 0.383046
0.605253 0.407559 0.383046
0.605253 0.407559 0.383046
0.605253 0.407559 0.383046
0.605253 0.407559 0.383046
0.105888 0.140442 0.105888
0.120906 0.140442 0.105888
0.131627 0.140442 0.105888
0.144696 0.142968 0.108415
0.170654 0.158384 0.123831
0.196613 0.173801 0.139247
0.222571 0.189217 0.154663
0.248530 0.204633 0.170080
0.274488 0.220049 0.185496
0.300447 0.235465 0.200912
0.326405 0.250882 0.216328
0.347540 0.263433 0.228880
0.359458 0.270945 0.236392
0.383115 0.285060 0.250507
0.406773 0.299175 0.264622
0.430430 0.313291 0.278737
0.454087 0.327406 0.292852
0.477744 0.341521 0.306967
0.501402 0.355636 0.321082
0.525059 0.369751 0.335198
0.548716 0.383866 0.349313
0.572373 0.397981 0.363428
0.596030 0.412096 0.377543
0.605253 0.417599 0.383046
0.605253 0.417599 0.383046
0.605253 0.417599 0.383046
0.605253 0.417599 0.383046
0.605253 0.417599 0.383046
0.605253 0.417599 0.383046
0.605253 0.417599 0.383046
0.605253 0.417599 0.383046
0.605253 0.417599 0.383046
0.605253 0.417599 0.383046
0.120570 0.165164 0.120570
0.135588 0.165164 0.120570
0.146309 0.165164 0.120570
0.156852 0.165164 0.120570
0.170654 0.168425 0.123831
0.196613 0.183841 0.139247
0.222571 0.199257 0.154663
0.248530 0.214673 0.170080
0.274488 0.230090 0.185496
0.300447 0.245506 0.200912
0.326405 0.260922 0.216328
0.347540 0.273473 0.228880
0.359458 0.280985 0.236392
0.383115 0.295101 0.250507
0.406773 0.309216 0.264622
0.430430 0.323331 0.278737
0.454087 0.337446 0.292852
0.477744 0.351561 0.306967
0.501402 0.365676 0.321082
0.525059 0.379791 0.335198
0.548716 0.393906 0.349313
0.572373 0.408022 0.363428
0.596030 0.422137 0.377543
0.605253 0.427640 0.383046
0.605253 0.427640 0.383046
0.605253 0.427640 0.383046
0.605253 0.427640 0.383046
0.605253 0.427640 0.383046
0.605253 0.427640 0.383046
0.605253 0.427640 0.383046
0.605253 0.427640 0.383046
0.605253 0.427640 0.383046
0.605253 0.427640 0.383046
0.135253 0.189887 0.135253
0.150270 0.189887 0.135253
0.160991 0.189887 0.135253
0.171534 0.189887 0.135253
0.182076 0.189887 0.135253
0.196613 0.193881 0.139247
0.222571 0.209297 0.154663
0.248530 0.224714 0.170080
0.274488 0.240130 0.185496
0.300447 0.255546 0.200912
0.326405 0.270962 0.216328
0.347540 0.283514 0.228880
0.359458 0.291026 0.236392
0.383115 0.305141 0.250507
0.406773 0.319256 0.264622
0.430430 0.333371 0.278737
0.454087 0.347486 0.292852
0.477744 0.361601 0.306967
0.501402 0.375716 0.321082
0.525059 0.389832 0.335198
0.548716 0.403947 0.349313
0.572373 0.418062 0.363428
0.596030 0.432177 0.377543
0.605253 0.437680 0.383046
0.605253 0.437680 0.383046
0.605253 0.437680 0.383046
0.605253 0.437680 0.383046
0.605253 0.437680 0.383046
0.605253 0.437680 0.383046
0.605253 0.437680 0.383046
0.605253 0.437680 0.383046
0.605253 0.437680 0.383046
0.605253 0.437680 0.383046
0.149935 0.214609 0.149935
0.164952 0.214609 0.149935
0.175673 0.214609 0.149935
0.186216 0.214609 0.149935
0.196758 0.214609 0.149935
0.207300 0.214609 0.149935
0.222571 0.219338 0.154663
0.248530 0.234754 0.170080
0.274488 0.250170 0.185496
0.300447 0.265586 0.200912
0.326405 0.281002 0.216328
0.347540 0.293554 0.228880
0.359458 0.301066 0.236392
0.383115 0.315181 0.250507
0.406773 0.329296 0.264622
0.430430 0.343411 0.278737
0.454087 0.357526 0.292852
0.477744 0.371642 0.306967
0.501402 0.385757 0.321082
0.525059 0.399872 0.335198
0.548716 0.413987 0.349313
0.572373 0.428102 0.363428
0.596030 0.442217 0.377543
0.605253 0.447720 0.383046
0.605253 0.447720 0.383046
0.605253 0.447720 0.383046
0.605253 0.447720 0.383046
0.605253 0.447720 0.383046
0.605253 0.447720 0.383046
0.605253 0.447720 0.383046
0.605253 0.447720 0.383046
0.605253 0.447720 0.383046
0.605253 0.447720 0.383046
0.164617 0.239331 0.164617
0.179634 0.239331 0.164617
0.190356 0.239331 0.164617
0.200898 0.239331 0.164617
0.211440 0.239331 0.164617
0.221982 0.239331 0.164617
0.232525 0.239331 0.164617
0.248530 0.244794 0.170080
0.274488 0.260210 0.185496
0.300447 0.275626 0.200912
0.326405 0.291043 0.216328
0.347540 0.303594 0.228880
0.359458 0.311106 0.236392
0.383115 0.325221 0.250507
0.406773 0.339336 0.264622
0.430430 0.353452 0.278737
0.454087 0.367567 0.292852
0.477744 0.381682 0.306967
0.501402 0.395797 0.321082
0.525059 0.409912 0.335198
0.548716 0.424027 0.349313
0.572373 0.438142 0.363428
0.596030 0.452257 0.377543
0.605253 0.457760 0.383046
0.605253 0.457760 0.383046
0.605253 0.457760 0.383046
0.605253 0.457760 0.383046
0.605253 0.457760 0.383046
0.605253 0.457760 0.383046
0.605253 0.457760 0.383046
0.605253 0.457760 0.383046
0.605253 0.457760 0.383046
0.605253 0.457760 0.383046
0.179299 0.264054 0.179299
0.194317 0.264054 0.179299
0.205038 0.264054 0.179299
0.215580 0.264054 0.179299
0.226122 0.264054 0.179299
0.236665 0.264054 0.179299
0.247207 0.264054 0.179299
0.257749 0.264054 0.179299
0.274488 0.270251 0.185496
0.300447 0.285667 0.200912
0.326405 0.301083 0.216328
0.347540 0.313634 0.228880
0.359458 0.321146 0.236392
0.383115 0.335262 0.250507
0.406773 0.349377 0.264622
0.430430 0.363492 0.278737
0.454087 0.377607 0.292852
0.477744 0.391722 0.306967
0.501402 0.405837 0.321082
0.525059 0.419952 0.335198
0.548716 0.434067 0.349313
0.572373 0.448183 0.363428
0.596030 0.462298 0.377543
0.605253 0.467801 0.383046
0.605253 0.467801 0.383046
0.605253 0.467801 0.383046
0.605253 0.467801 0.383046
0.605253 0.467801 0.383046
0.605253 0.467801 0.383046
0.605253 0.467801 0.383046
0.605253 0.467801 0.383046
0.605253 0.467801 0.383046
0.605253 0.467801 0.383046
0.193981 0.288776 0.193981
0.208999 0.288776 0.193981
0.219720 0.288776 0.193981
0.230262 0.288776 0.193981
0.240804 0.288776 0.193981
0.251347 0.288776 0.193981
0.261889 0.288776 0.193981
0.272431 0.288776 0.193981
0.282973 0.288776 0.193981
0.300447 0.295707 0.200912
0.326405 0.311123 0.216328
0.347540 0.323675 0.228880
0.359458 0.331187 0.236392
0.383115 0.345302 0.250507
0.406773 0.359417 0.264622
0.430430 0.373532 0.278737
0.454087 0.387647 0.292852
0.477744 0.401762 0.306967
0.501402 0.415877 0.321082
0.525059 0.429993 0.335198
0.548716 0.444108 0.349313
0.572373 0.458223 0.363428
0.596030 0.472338 0.377543
0.605253 0.477841 0.383046
0.605253 0.477841 0.383046
0.605253 0.477841 0.383046
0.605253 0.477841 0.383046
0.605253 0.477841 0.383046
0.605253 0.477841 0.383046
0.605253 0.477841 0.383046
0.605253 0.477841 0.383046
0.605253 0.477841 0.383046
0.605253 0.477841 0.383046
0.208663 0.313498 0.208663
0.223681 0.313498 0.208663
0.234402 0.313498 0.208663
0.244944 0.313498 0.208663
0.255486 0.313498 0.208663
0.266029 0.313498 0.208663
0.276571 0.313498 0.208663
0.287113 0.313498 0.208663
0.297656 0.313498 0.208663
0.308198 0.313498 0.208663
0.326405 0.321163 0.216328
0.347540 0.333715 0.228880
0.359458 0.341227 0.236392
0.383115 0.355342 0.250507
0.406773 0.369457 0.264622
0.430430 0.383572 0.278737
0.454087 0.397687 0.292852
0.477744 0.411803 0.306967
0.501402 0.425918 0.321082
0.525059 0.440033 0.335198
0.548716 0.454148 0.349313
0.572373 0.468263 0.363428
0.596030 0.482378 0.377543
0.605253 0.487881 0.383046
0.605253 0.487881 0.383046
0.605253 0.487881 0.383046
0.605253 0.487881 0.383046
0.605253 0.487881 0.383046
0.605253 0.487881 0.383046
0.605253 0.487881 0.383046
0.605253 0.487881 0.383046
0.605253 0.487881 0.383046
0.605253 0.487881 0.383046
0.223345 0.338221 0.223345
0.238363 0.338221 0.223345
0.249084 0.338221 0.223345
0.259626 0.338221 0.223345
0.270169 0.338221 0.223345
0.280711 0.338221 0.223345
0.291253 0.338221 0.223345
0.301795 0.338221 0.223345
0.312338 0.338221 0.223345
0.322880 0.338221 0.223345
0.333422 0.338221 0.223345
0.347540 0.343755 0.228880
0.359458 0.351267 0.236392
0.383115 0.365382 0.250507
0.406773 0.379497 0.264622
0.430430 0.393613 0.278737
0.454087 0.407728 0.292852
0.477744 0.421843 0.306967
0.501402 0.435958 0.321082
0.525059 0.450073 0.335198
0.548716 0.464188 0.349313
0.572373 0.478303 0.363428
0.596030 0.492418 0.377543
0.605253 0.497921 0.383046
0.605253 0.497921 0.383046
0.605253 0.497921 0.383046
0.605253 0.497921 0.383046
0.605253 0.497921 0.383046
0.605253 0.497921 0.383046
0.605253 0.497921 0.383046
0.605253 0.497921 0.383046
0.605253 0.497921 0.383046
0.605253 0.497921 0.383046
0.235111 0.358033 0.235111
0.250129 0.358033 0.235111
0.260850 0.358033 0.235111
0.271393 0.358033 0.235111
0.281935 0.358033 0.235111
0.292477 0.358033 0.235111
0.303019 0.358033 0.235111
0.313562 0.358033 0.235111
0.324104 0.358033 0.235111
0.334646 0.358033 0.235111
0.345188 0.358033 0.235111
0.353772 0.358033 0.235111
0.359458 0.359313 0.236392
0.383115 0.373429 0.250507
0.406773 0.381924 0.264622
0.430430 0.395996 0.278737
0.454087 0.410068 0.292852
0.477744 0.424140 0.306967
0.501402 0.438212 0.321082
0.525059 0.452284 0.335198
0.548716 0.466356 0.349313
0.572373 0.480428 0.363428
0.596030 0.494500 0.377543
0.605253 0.499986 0.383046
0.605253 0.499986 0.383046
0.605253 0.499986 0.383046
0.605253 0.499986 0.383046
0.605253 0.499986 0.383046
0.605253 0.499986 0.383046
0.605253 0.499986 0.383046
0.605253 0.499986 0.383046
0.605253 0.499986 0.383046
0.605253 0.499986 0.383046
0.241472 0.367973 0.241472
0.256490 0.367973 0.241472
0.267211 0.367973 0.241472
0.277753 0.367973 0.241472
0.288296 0.367973 0.241472
0.298838 0.367973 0.241472
0.309380 0.367973 0.241472
0.319922 0.367973 0.241472
0.330465 0.367973 0.241472
0.341007 0.367973 0.241472
0.351549 0.367973 0.241472
0.360132 0.367973 0.241472
0.364523 0.367973 0.241472
0.383115 0.376980 0.250507
0.406773 0.391052 0.264622
0.430430 0.405124 0.278737
0.454087 0.419196 0.292852
0.477744 0.433268 0.306967
0.501402 0.447340 0.321082
0.525059 0.461413 0.335198
0.548716 0.475485 0.349313
0.572373 0.489557 0.363428
0.596030 0.503629 0.377543
0.605253 0.509115 0.383046
0.605253 0.509115 0.383046
0.605253 0.509115 0.383046
0.605253 0.509115 0.383046
0.605253 0.509115 0.383046
0.605253 0.509115 0.383046
0.605253 0.509115 0.383046
0.605253 0.509115 0.383046
0.605253 0.509115 0.383046
0.605253 0.509115 0.383046
0.254915 0.390504 0.254915
0.269933 0.390504 0.254915
0.280654 0.390504 0.254915
0.291196 0.390504 0.254915
0.301738 0.390504 0.254915
0.312281 0.390504 0.254915
0.322823 0.390504 0.254915
0.333365 0.390504 0.254915
0.343908 0.390504 0.254915
0.354450 0.390504 0.254915
0.364992 0.390504 0.254915
0.373575 0.390504 0.254915
0.377925 0.390504 0.254915
0.387510 0.390504 0.254915
0.406773 0.400181 0.264622
0.430430 0.414253 0.278737
0.454087 0.428325 0.292852
0.477744 0.442397 0.306967
0.501402 0.456469 0.321082
0.525059 0.470541 0.335198
0.548716 0.484613 0.349313
0.572373 0.498685 0.363428
0.596030 0.512757 0.377543
0.605253 0.518243 0.383046
0.605253 0.518243 0.383046
0.605253 0.518243 0.383046
0.605253 0.518243 0.383046
0.605253 0.518243 0.383046
0.605253 0.518243 0.383046
0.605253 0.518243 0.383046
0.605253 0.518243 0.383046
0.605253 0.518243 0.383046
0.605253 0.518243 0.383046
0.268358 0.413035 0.268358
0.283376 0.413035 0.268358
0.294097 0.413035 0.268358
0.304639 0.413035 0.268358
0.315181 0.413035 0.268358
0.325724 0.413035 0.268358
0.336266 0.413035 0.268358
0.346808 0.413035 0.268358
0.357351 0.413035 0.268358
0.367893 0.413035 0.268358
0.378435 0.413035 0.268358
0.387018 0.413035 0.268358
0.391327 0.413035 0.268358
0.400912 0.413035 0.268358
0.410497 0.413035 0.268358
0.430430 0.423382 0.278737
0.454087 0.437454 0.292852
0.477744 0.451526 0.306967
0.501402 0.465598 0.321082
0.525059 0.479670 0.335198
0.548716 0.493742 0.349313
0.572373 0.507814 0.363428
0.596030 0.521886 0.377543
0.605253 0.527372 0.383046
0.605253 0.527372 0.383046
0.605253 0.527372 0.383046
0.605253 0.527372 0.383046
0.605253 0.527372 0.383046
0.605253 0.527372 0.383046
0.605253 0.527372 0.383046
0.605253 0.527372 0.383046
0.605253 0.527372 0.383046
0.605253 0.527372 0.383046
0.281801 0.435565 0.281801
0.296819 0.435565 0.281801
0.307540 0.435565 0.281801
0.318082 0.435565 0.281801
0.328624 0.435565 0.281801
0.339167 0.435565 0.281801
0.349709 0.435565 0.281801
0.360251 0.435565 0.281801
0.370794 0.435565 0.281801
0.381336 0.435565 0.281801
0.391878 0.435565 0.281801
0.400461 0.435565 0.281801
0.404729 0.435565 0.281801
0.414314 0.435565 0.281801
0.423899 0.435565 0.281801
0.433485 0.435565 0.281801
0.454087 0.446583 0.292852
0.477744 0.460655 0.306967
0.501402 0.474727 0.321082
0.525059 0.488799 0.335198
0.548716 0.502871 0.349313
0.572373 0.516943 0.363428
0.596030 0.531015 0.377543
0.605253 0.536501 0.383046
0.605253 0.536501 0.383046
0.605253 0.536501 0.383046
0.605253 0.536501 0.383046
0.605253 0.536501 0.383046
0.605253 0.536501 0.383046
0.605253 0.536501 0.383046
0.605253 0.536501 0.383046
0.605253 0.536501 0.383046
0.605253 0.536501 0.383046
0.295244 0.458096 0.295244
0.310262 0.458096 0.295244
0.320983 0.458096 0.295244
0.331525 0.458096 0.295244
0.342067 0.458096 0.295244
0.352610 0.458096 0.295244
0.363152 0.458096 0.295244
0.373694 0.458096 0.295244
0.384237 0.458096 0.295244
0.394779 0.458096 0.295244
0.405321 0.458096 0.295244
0.413904 0.458096 0.295244
0.418131 0.458096 0.295244
0.427716 0.458096 0.295244
0.437301 0.458096 0.295244
0.446886 0.458096 0.295244
0.456472 0.458096 0.295244
0.477744 0.469783 0.306967
0.501402 0.483855 0.321082
0.525059 0.497927 0.335198
0.548716 0.512000 0.349313
0.572373 0.526072 0.363428
0.596030 0.540144 0.377543
0.605253 0.545630 0.383046
0.605253 0.545630 0.383046
0.605253 0.545630 0.383046
0.605253 0.545630 0.383046
0.605253 0.545630 0.383046
0.605253 0.545630 0.383046
0.605253 0.545630 0.383046
0.605253 0.545630 0.383046
0.605253 0.545630 0.383046
0.605253 0.545630 0.383046
0.308687 0.480627 0.308687
0.323705 0.480627 0.308687
0.334426 0.480627 0.308687
0.344968 0.480627 0.308687
0.355510 0.480627 0.308687
0.366053 0.480627 0.308687
0.376595 0.480627 0.308687
0.387137 0.480627 0.308687
0.397679 0.480627 0.308687
0.408222 0.480627 0.308687
0.418764 0.480627 0.308687
0.427347 0.480627 0.308687
0.431533 0.480627 0.308687
0.441118 0.480627 0.308687
0.450703 0.480627 0.308687
0.460288 0.480627 0.308687
0.469874 0.480627 0.308687
0.479459 0.480627 0.308687
0.501402 0.492984 0.321082
0.525059 0.507056 0.335198
0.548716 0.521128 0.349313
0.572373 0.535200 0.363428
0.596030 0.549272 0.377543
0.605253 0.554758 0.383046
0.605253 0.554758 0.383046
0.605253 0.554758 0.383046
0.605253 0.554758 0.383046
0.605253 0.554758 0.383046
0.605253 0.554758 0.383046
0.605253 0.554758 0.383046
0.605253 0.554758 0.383046
0.605253 0.554758 0.383046
0.605253 0.554758 0.383046
0.322130 0.503157 0.322130
0.337148 0.503157 0.322130
0.347869 0.503157 0.322130
0.358411 0.503157 0.322130
0.368953 0.503157 0.322130
0.379496 0.503157 0.322130
0.390038 0.503157 0.322130
0.400580 0.503157 0.322130
0.411122 0.503157 0.322130
0.421665 0.503157 0.322130
0.432207 0.503157 0.322130
0.440790 0.503157 0.322130
0.444935 0.503157 0.322130
0.454520 0.503157 0.322130
0.464105 0.503157 0.322130
0.473690 0.503157 0.322130
0.483276 0.503157 0.322130
0.492861 0.503157 0.322130
0.502446 0.503157 0.322130
0.525059 0.516185 0.335198
0.548716 0.530257 0.349313
0.572373 0.544329 0.363428
0.596030 0.558401 0.377543
0.605253 0.563887 0.383046
0.605253 0.563887 0.383046
0.605253 0.563887 0.383046
0.605253 0.563887 0.383046
0.605253 0.563887 0.383046
0.605253 0.563887 0.383046
0.605253 0.563887 0.383046
0.605253 0.563887 0.383046
0.605253 0.563887 0.383046
0.605253 0.563887 0.383046
0.335573 0.525688 0.335573
0.350591 0.525688 0.335573
0.361312 0.525688 0.335573
0.371854 0.525688 0.335573
0.382396 0.525688 0.335573
0.392939 0.525688 0.335573
0.403481 0.525688 0.335573
0.414023 0.525688 0.335573
0.424565 0.525688 0.335573
0.435108 0.525688 0.335573
0.445650 0.525688 0.335573
0.454233 0.525688 0.335573
0.458337 0.525688 0.335573
0.467922 0.525688 0.335573
0.477507 0.525688 0.335573
0.487092 0.525688 0.335573
0.496678 0.525688 0.335573
0.506263 0.525688 0.335573
0.515848 0.525688 0.335573
0.525433 0.525688 0.335573
0.548716 0.539386 0.349313
0.572373 0.553458 0.363428
0.596030 0.567530 0.377543
0.605253 0.573016 0.383046
0.605253 0.573016 0.383046
0.605253 0.573016 0.383046
0.605253 0.573016 0.383046
0.605253 0.573016 0.383046
0.605253 0.573016 0.383046
0.605253 0.573016 0.383046
0.605253 0.573016 0.383046
0.605253 0.573016 0.383046
0.605253 0.573016 0.383046
0.349016 0.548219 0.349016
0.364034 0.548219 0.349016
0.374755 0.548219 0.349016
0.385297 0.548219 0.349016
0.395839 0.548219 0.349016
0.406382 0.548219 0.349016
0.416924 0.548219 0.349016
0.427466 0.548219 0.349016
0.438008 0.548219 0.349016
0.448551 0.548219 0.349016
0.459093 0.548219 0.349016
0.467676 0.548219 0.349016
0.471739 0.548219 0.349016
0.481324 0.548219 0.349016
0.490909 0.548219 0.349016
0.500494 0.548219 0.349016
0.510079 0.548219 0.349016
0.519665 0.548219 0.349016
0.529250 0.548219 0.349016
0.538835 0.548219 0.349016
0.548716 0.548515 0.349313
0.572373 0.562587 0.363428
0.596030 0.576659 0.377543
0.605253 0.582145 0.383046
0.605253 0.582145 0.383046
0.605253 0.582145 0.383046
0.605253 0.582145 0.383046
0.605253 0.582145 0.383046
0.605253 0.582145 0.383046
0.605253 0.582145 0.383046
0.605253 0.582145 0.383046
0.605253 0.582145 0.383046
0.605253 0.582145 0.383046
0.362459 0.570749 0.362459
0.377477 0.570749 0.362459
0.388198 0.570749 0.362459
0.398740 0.570749 0.362459
0.409282 0.570749 0.362459
0.419825 0.570749 0.362459
0.430367 0.570749 0.362459
0.440909 0.570749 0.362459
0.451451 0.570749 0.362459
0.461994 0.570749 0.362459
0.472536 0.570749 0.362459
0.481119 0.570749 0.362459
0.485141 0.570749 0.362459
0.494726 0.570749 0.362459
0.504311 0.570749 0.362459
0.513896 0.570749 0.362459
0.523481 0.570749 0.362459
0.533067 0.570749 0.362459
0.542652 0.570749 0.362459
0.552237 0.570749 0.362459
0.561822 0.570749 0.362459
0.572373 0.571715 0.363428
0.596030 0.585787 0.377543
0.605253 0.591273 0.383046
0.605253 0.591273 0.383046
0.605253 0.591273 0.383046
0.605253 0.591273 0.383046
0.605253 0.591273 0.383046
0.605253 0.591273 0.383046
0.605253 0.591273 0.383046
0.605253 0.591273 0.383046
0.605253 0.591273 0.383046
0.605253 0.591273 0.383046
0.375902 0.593280 0.375902
0.390920 0.593280 0.375902
0.401641 0.593280 0.375902
0.412183 0.593280 0.375902
0.422725 0.593280 0.375902
0.433268 0.593280 0.375902
0.443810 0.593280 0.375902
0.454352 0.593280 0.375902
0.464894 0.593280 0.375902
0.475437 0.593280 0.375902
0.485979 0.593280 0.375902
0.488957 0.593280 0.375902
0.498543 0.593280 0.375902
0.508128 0.593280 0.375902
0.517713 0.593280 0.375902
0.527298 0.593280 0.375902
0.536883 0.593280 0.375902
0.546469 0.593280 0.375902
0.556054 0.593280 0.375902
0.565639 0.593280 0.375902
0.575224 0.593280 0.375902
0.584809 0.593280 0.375902
0.596030 0.594916 0.377543
0.605253 0.600402 0.383046
0.605253 0.600402 0.383046
0.605253 0.600402 0.383046
0.605253 0.600402 0.383046
0.605253 0.600402 0.383046
0.605253 0.600402 0.383046
0.605253 0.600402 0.383046
0.605253 0.600402 0.383046
0.605253 0.600402 0.383046
0.605253 0.600402 0.383046
0.383046 0.605253 0.383046
0.398064 0.605253 0.383046
0.408785 0.605253 0.383046
0.419327 0.605253 0.383046
0.429869 0.605253 0.383046
0.440411 0.605253 0.383046
0.450954 0.605253 0.383046
0.461496 0.605253 0.383046
0.472038 0.605253 0.383046
0.482581 0.605253 0.383046
0.493123 0.605253 0.383046
0.496080 0.605253 0.383046
0.505665 0.605253 0.383046
0.515250 0.605253 0.383046
0.524835 0.605253 0.383046
0.534420 0.605253 0.383046
0.544005 0.605253 0.383046
0.553591 0.605253 0.383046
0.563176 0.605253 0.383046
0.572761 0.605253 0.383046
0.582346 0.605253 0.383046
0.591931 0.605253 0.383046
0.601517 0.605253 0.383046
0.605253 0.605253 0.383046
0.605253 0.605253 0.383046
0.605253 0.605253 0.383046
0.605253 0.605253 0.383046
0.605253 0.605253 0.383046
0.605253 0.605253 0.383046
0.605253 0.605253 0.383046
0.605253 0.605253 0.383046
0.605253 0.605253 0.383046
0.605253 0.605253 0.383046
0.383046 0.605253 0.383046
0.398064 0.605253 0.383046
0.408785 0.605253 0.383046
0.419327 0.605253 0.383046
0.429869 0.605253 0.383046
0.440411 0.605253 0.383046
0.450954 0.605253 0.383046
0.461496 0.605253 0.383046
0.472038 0.605253 0.383046
0.482581 0.605253 0.383046
0.493123 0.605253 0.383046
0.496080 0.605253 0.383046
0.505665 0.605253 0.383046
0.515250 0.605253 0.383046
0.524835 0.605253 0.383046
0.534420 0.605253 0.383046
0.544005 0.605253 0.383046
0.553591 0.605253 0.383046
0.563176 0.605253 0.383046
0.572761 0.605253 0.383046
0.582346 0.605253 0.383046
0.591931 0.605253 0.383046
0.601517 0.605253 0.383046
0.605253 0.605253 0.383046
0.605253 0.605253 0.383046
0.605253 0.605253 0.383046
0.605253 0.605253 0.383046
0.605253 0.605253 0.383046
0.605253 0.605253 0.383046
0.605253 0.605253 0.383046
0.605253 0.605253 0.383046
0.605253 0.605253 0.383046
0.605253 0.605253 0.383046
0.383046 0.605253 0.383046
0.398064 0.605253 0.383046
0.408785 0.605253 0.383046
0.419327 0.605253 0.383046
0.429869 0.605253 0.383046
0.440411 0.605253 0.383046
0.450954 0.605253 0.383046
0.461496 0.605253 0.383046
0.472038 0.605253 0.383046
0.482581 0.605253 0.383046
0.493123 0.605253 0.383046
0.496080 0.605253 0.383046
0.505665 0.605253 0.383046
0.515250 0.605253 0.383046
0.524835 0.605253 0.383046
0.534420 0.605253 0.383046
0.544005 0.605253 0.383046
0.553591 0.605253 0.383046
0.563176 0.605253 0.383046
0.572761 0.605253 0.383046
0.582346 0.605253 0.383046
0.591931 0.605253 0.383046
0.601517 0.605253 0.383046
0.605253 0.605253 0.383046
0.605253 0.605253 0.383046
