docs/luts/fuji_recipes/NEGA_NZD_Fuji_Superia_800.cube
TITLE "Fujifilm Recipe: NZD Fuji Superia 800 (NEGA)"
# FilmSim=NEGA HL=0 SH=1 Col=2 WB=Auto WBR=0 WBB=0
LUT_3D_SIZE 9
DOMAIN_MIN 0.0 0.0 0.0
DOMAIN_MAX 1.0 1.0 1.0
0.015360 0.015360 0.015360
0.147468 0.001332 0.001332
0.266880 0.000000 0.000000
0.384960 0.000000 0.000000
0.502856 0.000000 0.000000
0.636269 0.000000 0.000000
0.758050 0.000000 0.000000
0.879830 0.000000 0.000000
1.000000 0.001610 0.001610
0.001332 0.147468 0.001332
0.147468 0.147468 0.001332
0.266880 0.133440 0.000000
0.384960 0.128320 0.000000
0.502856 0.125763 0.000000
0.636269 0.123590 0.000000
0.758050 0.122593 0.000000
0.879830 0.121882 0.000000
1.000000 0.122569 0.001610
0.000000 0.266880 0.000000
0.133440 0.266880 0.000000
0.266880 0.266880 0.000000
0.384960 0.256640 0.000000
0.502856 0.251526 0.000000
0.636269 0.247180 0.000000
0.758050 0.245186 0.000000
0.879830 0.243764 0.000000
1.000000 0.243529 0.001610
0.000000 0.384960 0.000000
0.128320 0.384960 0.000000
0.256640 0.384960 0.000000
0.384960 0.384960 0.000000
0.502856 0.377289 0.000000
0.636269 0.370770 0.000000
0.758050 0.367779 0.000000
0.879830 0.365646 0.000000
1.000000 0.364488 0.001610
0.000000 0.502856 0.000000
0.125763 0.502856 0.000000
0.251526 0.502856 0.000000
0.377289 0.502856 0.000000
0.502856 0.502856 0.000000
0.636269 0.494167 0.000000
0.758050 0.490181 0.000000
0.879830 0.510105 0.000000
1.000000 0.508100 0.001610
0.000000 0.636269 0.000000
0.123590 0.636269 0.000000
0.247180 0.636269 0.000000
0.370770 0.636269 0.000000
0.494167 0.636269 0.000000
0.636269 0.636269 0.000000
0.758050 0.631387 0.000000
0.879830 0.627974 0.000000
1.000000 0.625076 0.001610
0.000000 0.758050 0.000000
0.122593 0.758050 0.000000
0.245186 0.758050 0.000000
0.367779 0.758050 0.000000
0.490181 0.758050 0.000000
0.631387 0.758050 0.000000
0.758050 0.758050 0.000000
0.879830 0.753902 0.000000
1.000000 0.750051 0.001610
0.000000 0.879830 0.000000
0.121882 0.879830 0.000000
0.243764 0.879830 0.000000
0.365646 0.879830 0.000000
0.510105 0.879830 0.000000
0.627974 0.879830 0.000000
0.753902 0.879830 0.000000
0.879830 0.879830 0.000000
1.000000 0.875025 0.001610
0.001610 1.000000 0.001610
0.122569 1.000000 0.001610
0.243529 1.000000 0.001610
0.364488 1.000000 0.001610
0.508100 1.000000 0.001610
0.625076 1.000000 0.001610
0.750051 1.000000 0.001610
0.875025 1.000000 0.001610
1.000000 1.000000 0.001610
0.001332 0.001332 0.147468
0.147468 0.001332 0.147468
0.266880 0.000000 0.133440
0.384960 0.000000 0.128320
0.502856 0.000000 0.125763
0.636269 0.000000 0.123590
0.758050 0.000000 0.122593
0.879830 0.000000 0.121882
1.000000 0.001610 0.122569
0.001332 0.147468 0.147468
0.133440 0.133440 0.133440
0.265548 0.119412 0.119412
0.397656 0.105384 0.105384
0.529557 0.091378 0.091378
0.680538 0.074033 0.074033
0.817071 0.059280 0.059280
0.953604 0.044527 0.044527
1.000000 0.119912 0.119912
0.000000 0.266880 0.133440
0.119412 0.265548 0.119412
0.265548 0.265548 0.119412
0.397656 0.251520 0.105384
0.529557 0.237514 0.091378
0.680538 0.220169 0.074033
0.817071 0.205416 0.059280
0.953604 0.190663 0.044527
1.000000 0.241203 0.119912
0.000000 0.384960 0.128320
0.105384 0.397656 0.105384
0.251520 0.397656 0.105384
0.397656 0.397656 0.105384
0.529557 0.383650 0.091378
0.680538 0.366305 0.074033
0.817071 0.351552 0.059280
0.953604 0.336799 0.044527
1.000000 0.362494 0.119912
0.000000 0.502856 0.125763
0.091378 0.529557 0.091378
0.237514 0.529557 0.091378
0.383650 0.529557 0.091378
0.529557 0.529557 0.091378
0.680538 0.512212 0.074033
0.817071 0.524760 0.059280
0.953604 0.510306 0.044527
1.000000 0.506750 0.119912
0.000000 0.636269 0.123590
0.074033 0.680538 0.074033
0.220169 0.680538 0.074033
0.366305 0.680538 0.074033
0.512212 0.680538 0.074033
0.680538 0.680538 0.074033
0.817071 0.666084 0.059280
0.953604 0.651630 0.044527
1.000000 0.624047 0.119912
0.000000 0.758050 0.122593
0.059280 0.817071 0.059280
0.205416 0.817071 0.059280
0.351552 0.817071 0.059280
0.524760 0.817071 0.059280
0.666084 0.817071 0.059280
0.817071 0.817071 0.059280
0.953604 0.802617 0.044527
1.000000 0.749365 0.119912
0.000000 0.879830 0.121882
0.044527 0.953604 0.044527
0.190663 0.953604 0.044527
0.336799 0.953604 0.044527
0.510306 0.953604 0.044527
0.651630 0.953604 0.044527
0.802617 0.953604 0.044527
0.953604 0.953604 0.044527
1.000000 0.874682 0.119912
0.001610 1.000000 0.122569
0.119912 1.000000 0.119912
0.241203 1.000000 0.119912
0.362494 1.000000 0.119912
0.506750 1.000000 0.119912
0.624047 1.000000 0.119912
0.749365 1.000000 0.119912
0.874682 1.000000 0.119912
1.000000 1.000000 0.119912
0.000000 0.000000 0.266880
0.133440 0.000000 0.266880
0.266880 0.000000 0.266880
0.384960 0.000000 0.256640
0.502856 0.000000 0.251526
0.636269 0.000000 0.247180
0.758050 0.000000 0.245186
0.879830 0.000000 0.243764
1.000000 0.001610 0.243529
0.000000 0.133440 0.266880
0.119412 0.119412 0.265548
0.265548 0.119412 0.265548
0.397656 0.105384 0.251520
0.529557 0.091378 0.237514
0.680538 0.074033 0.220169
0.817071 0.059280 0.205416
0.953604 0.044527 0.190663
1.000000 0.119912 0.241203
0.000000 0.266880 0.266880
0.119412 0.265548 0.265548
0.251520 0.251520 0.251520
0.383628 0.237492 0.237492
0.515530 0.223486 0.223486
0.666771 0.206101 0.206101
0.803304 0.191348 0.191348
0.939837 0.176596 0.176596
1.000000 0.238213 0.238213
0.000000 0.384960 0.256640
0.105384 0.397656 0.251520
0.237492 0.383628 0.237492
0.383628 0.383628 0.237492
0.515530 0.369622 0.223486
0.666771 0.352237 0.206101
0.803304 0.337484 0.191348
0.939837 0.322731 0.176596
1.000000 0.359942 0.238213
0.000000 0.502856 0.251526
0.091378 0.529557 0.237514
0.223486 0.515530 0.223486
0.369622 0.515530 0.223486
0.515530 0.515530 0.223486
0.666771 0.525447 0.206101
0.803304 0.510993 0.191348
0.939837 0.496539 0.176596
1.000000 0.504970 0.238213
0.000000 0.636269 0.247180
0.074033 0.680538 0.220169
0.206101 0.666771 0.206101
0.352237 0.666771 0.206101
0.525447 0.666771 0.206101
0.666771 0.666771 0.206101
0.803304 0.652317 0.191348
0.939837 0.637863 0.176596
1.000000 0.622690 0.238213
0.000000 0.758050 0.245186
0.059280 0.817071 0.205416
0.191348 0.803304 0.191348
0.337484 0.803304 0.191348
0.510993 0.803304 0.191348
0.652317 0.803304 0.191348
0.803304 0.803304 0.191348
0.939837 0.788850 0.176596
1.000000 0.748460 0.238213
0.000000 0.879830 0.243764
0.044527 0.953604 0.190663
0.176596 0.939837 0.176596
0.322731 0.939837 0.176596
0.496539 0.939837 0.176596
0.637863 0.939837 0.176596
0.788850 0.939837 0.176596
0.939837 0.939837 0.176596
1.000000 0.874230 0.238213
0.001610 1.000000 0.243529
0.119912 1.000000 0.241203
0.238213 1.000000 0.238213
0.359942 1.000000 0.238213
0.504970 1.000000 0.238213
0.622690 1.000000 0.238213
0.748460 1.000000 0.238213
0.874230 1.000000 0.238213
1.000000 1.000000 0.238213
0.000000 0.000000 0.384960
0.128320 0.000000 0.384960
0.256640 0.000000 0.384960
0.384960 0.000000 0.384960
0.502856 0.000000 0.377289
0.636269 0.000000 0.370770
0.758050 0.000000 0.367779
0.879830 0.000000 0.365646
1.000000 0.001610 0.364488
0.000000 0.128320 0.384960
0.105384 0.105384 0.397656
0.251520 0.105384 0.397656
0.397656 0.105384 0.397656
0.529557 0.091378 0.383650
0.680538 0.074033 0.366305
0.817071 0.059280 0.351552
0.953604 0.044527 0.336799
1.000000 0.119912 0.362494
0.000000 0.256640 0.384960
0.105384 0.251520 0.397656
0.237492 0.237492 0.383628
0.383628 0.237492 0.383628
0.515530 0.223486 0.369622
0.666771 0.206101 0.352237
0.803304 0.191348 0.337484
0.939837 0.176596 0.322731
1.000000 0.238213 0.359942
0.000000 0.384960 0.384960
0.105384 0.397656 0.397656
0.237492 0.383628 0.383628
0.369600 0.369600 0.369600
0.525209 0.351978 0.351978
0.653004 0.338169 0.338169
0.789538 0.323416 0.323416
0.926071 0.308664 0.308664
1.000000 0.356515 0.356515
0.000000 0.502856 0.377289
0.091378 0.529557 0.383650
0.223486 0.515530 0.369622
0.351978 0.525209 0.351978
0.525209 0.525209 0.351978
0.653004 0.511680 0.338169
0.789538 0.497226 0.323416
0.926071 0.482772 0.308664
1.000000 0.502514 0.356515
0.000000 0.636269 0.370770
0.074033 0.680538 0.366305
0.206101 0.666771 0.352237
0.338169 0.653004 0.338169
0.511680 0.653004 0.338169
0.653004 0.653004 0.338169
0.789538 0.638550 0.323416
0.926071 0.624096 0.308664
1.000000 0.620818 0.356515
0.000000 0.758050 0.367779
0.059280 0.817071 0.351552
0.191348 0.803304 0.337484
0.323416 0.789538 0.323416
0.497226 0.789538 0.323416
0.638550 0.789538 0.323416
0.789538 0.789538 0.323416
0.926071 0.775083 0.308664
1.000000 0.747212 0.356515
0.000000 0.879830 0.365646
0.044527 0.953604 0.336799
0.176596 0.939837 0.322731
0.308664 0.926071 0.308664
0.482772 0.926071 0.308664
0.624096 0.926071 0.308664
0.775083 0.926071 0.308664
0.926071 0.926071 0.308664
1.000000 0.873606 0.356515
0.001610 1.000000 0.364488
0.119912 1.000000 0.362494
0.238213 1.000000 0.359942
0.356515 1.000000 0.356515
0.502514 1.000000 0.356515
0.620818 1.000000 0.356515
0.747212 1.000000 0.356515
0.873606 1.000000 0.356515
1.000000 1.000000 0.356515
0.000000 0.000000 0.502856
0.125763 0.000000 0.502856
0.251526 0.000000 0.502856
0.377289 0.000000 0.502856
0.502856 0.000000 0.502856
0.636269 0.000000 0.494167
0.758050 0.000000 0.490181
0.879830 0.000000 0.510105
1.000000 0.001610 0.508100
0.000000 0.125763 0.502856
0.091378 0.091378 0.529557
0.237514 0.091378 0.529557
0.383650 0.091378 0.529557
0.529557 0.091378 0.529557
0.680538 0.074033 0.512212
0.817071 0.059280 0.524760
0.953604 0.044527 0.510306
1.000000 0.119912 0.506750
0.000000 0.251526 0.502856
0.091378 0.237514 0.529557
0.223486 0.223486 0.515530
0.369622 0.223486 0.515530
0.515530 0.223486 0.515530
0.666771 0.206101 0.525447
0.803304 0.191348 0.510993
0.939837 0.176596 0.496539
1.000000 0.238213 0.504970
0.000000 0.377289 0.502856
0.091378 0.383650 0.529557
0.223486 0.369622 0.515530
0.351978 0.351978 0.525209
0.525209 0.351978 0.525209
0.653004 0.338169 0.511680
0.789538 0.323416 0.497226
0.926071 0.308664 0.482772
1.000000 0.356515 0.502514
0.000000 0.502856 0.502856
0.091378 0.529557 0.529557
0.223486 0.515530 0.515530
0.351978 0.525209 0.525209
0.507808 0.507808 0.507808
0.635566 0.494242 0.494242
0.772060 0.479748 0.479748
0.908553 0.465255 0.465255
1.000000 0.495808 0.495808
0.000000 0.636269 0.494167
0.074033 0.680538 0.512212
0.206101 0.666771 0.525447
0.338169 0.653004 0.511680
0.494242 0.635566 0.494242
0.635566 0.635566 0.494242
0.772060 0.621072 0.479748
0.908553 0.606579 0.465255
1.000000 0.615707 0.495808
0.000000 0.758050 0.490181
0.059280 0.817071 0.524760
0.191348 0.803304 0.510993
0.323416 0.789538 0.497226
0.479748 0.772060 0.479748
0.621072 0.772060 0.479748
0.772060 0.772060 0.479748
0.908553 0.757566 0.465255
1.000000 0.743805 0.495808
0.000000 0.879830 0.510105
0.044527 0.953604 0.510306
0.176596 0.939837 0.496539
0.308664 0.926071 0.482772
0.465255 0.908553 0.465255
0.606579 0.908553 0.465255
0.757566 0.908553 0.465255
0.908553 0.908553 0.465255
1.000000 0.871902 0.495808
0.001610 1.000000 0.508100
0.119912 1.000000 0.506750
0.238213 1.000000 0.504970
0.356515 1.000000 0.502514
0.495808 1.000000 0.495808
0.615707 1.000000 0.495808
0.743805 1.000000 0.495808
0.871902 1.000000 0.495808
1.000000 1.000000 0.495808
0.000000 0.000000 0.636269
0.123590 0.000000 0.636269
0.247180 0.000000 0.636269
0.370770 0.000000 0.636269
0.494167 0.000000 0.636269
0.636269 0.000000 0.636269
0.758050 0.000000 0.631387
0.879830 0.000000 0.627974
1.000000 0.001610 0.625076
0.000000 0.123590 0.636269
0.074033 0.074033 0.680538
0.220169 0.074033 0.680538
0.366305 0.074033 0.680538
0.512212 0.074033 0.680538
0.680538 0.074033 0.680538
0.817071 0.059280 0.666084
0.953604 0.044527 0.651630
1.000000 0.119912 0.624047
0.000000 0.247180 0.636269
0.074033 0.220169 0.680538
0.206101 0.206101 0.666771
0.352237 0.206101 0.666771
0.525447 0.206101 0.666771
0.666771 0.206101 0.666771
0.803304 0.191348 0.652317
0.939837 0.176596 0.637863
1.000000 0.238213 0.622690
0.000000 0.370770 0.636269
0.074033 0.366305 0.680538
0.206101 0.352237 0.666771
0.338169 0.338169 0.653004
0.511680 0.338169 0.653004
0.653004 0.338169 0.653004
0.789538 0.323416 0.638550
0.926071 0.308664 0.624096
1.000000 0.356515 0.620818
0.000000 0.494167 0.636269
0.074033 0.512212 0.680538
0.206101 0.525447 0.666771
0.338169 0.511680 0.653004
0.494242 0.494242 0.635566
0.635566 0.494242 0.635566
0.772060 0.479748 0.621072
0.908553 0.465255 0.606579
1.000000 0.495808 0.615707
0.000000 0.636269 0.636269
0.074033 0.680538 0.680538
0.206101 0.666771 0.666771
0.338169 0.653004 0.653004
0.494242 0.635566 0.635566
0.622000 0.622000 0.622000
0.758494 0.607506 0.607506
0.894987 0.593013 0.593013
1.000000 0.610000 0.610000
0.000000 0.758050 0.631387
0.059280 0.817071 0.666084
0.191348 0.803304 0.652317
0.323416 0.789538 0.638550
0.479748 0.772060 0.621072
0.607506 0.758494 0.607506
0.758494 0.758494 0.607506
0.894987 0.744000 0.593013
1.000000 0.740000 0.610000
0.000000 0.879830 0.627974
0.044527 0.953604 0.651630
0.176596 0.939837 0.637863
0.308664 0.926071 0.624096
0.465255 0.908553 0.606579
0.593013 0.894987 0.593013
0.744000 0.894987 0.593013
0.894987 0.894987 0.593013
1.000000 0.870000 0.610000
0.001610 1.000000 0.625076
0.119912 1.000000 0.624047
0.238213 1.000000 0.622690
0.356515 1.000000 0.620818
0.495808 1.000000 0.615707
0.610000 1.000000 0.610000
0.740000 1.000000 0.610000
0.870000 1.000000 0.610000
1.000000 1.000000 0.610000
0.000000 0.000000 0.758050
0.122593 0.000000 0.758050
0.245186 0.000000 0.758050
0.367779 0.000000 0.758050
0.490181 0.000000 0.758050
0.631387 0.000000 0.758050
0.758050 0.000000 0.758050
0.879830 0.000000 0.753902
1.000000 0.001610 0.750051
0.000000 0.122593 0.758050
0.059280 0.059280 0.817071
0.205416 0.059280 0.817071
0.351552 0.059280 0.817071
0.524760 0.059280 0.817071
0.666084 0.059280 0.817071
0.817071 0.059280 0.817071
0.953604 0.044527 0.802617
1.000000 0.119912 0.749365
0.000000 0.245186 0.758050
0.059280 0.205416 0.817071
0.191348 0.191348 0.803304
0.337484 0.191348 0.803304
0.510993 0.191348 0.803304
0.652317 0.191348 0.803304
0.803304 0.191348 0.803304
0.939837 0.176596 0.788850
1.000000 0.238213 0.748460
0.000000 0.367779 0.758050
0.059280 0.351552 0.817071
0.191348 0.337484 0.803304
0.323416 0.323416 0.789538
0.497226 0.323416 0.789538
0.638550 0.323416 0.789538
0.789538 0.323416 0.789538
0.926071 0.308664 0.775083
1.000000 0.356515 0.747212
0.000000 0.490181 0.758050
0.059280 0.524760 0.817071
0.191348 0.510993 0.803304
0.323416 0.497226 0.789538
0.479748 0.479748 0.772060
0.621072 0.479748 0.772060
0.772060 0.479748 0.772060
0.908553 0.465255 0.757566
1.000000 0.495808 0.743805
0.000000 0.631387 0.758050
0.059280 0.666084 0.817071
0.191348 0.652317 0.803304
0.323416 0.638550 0.789538
0.479748 0.621072 0.772060
0.607506 0.607506 0.758494
0.758494 0.607506 0.758494
0.894987 0.593013 0.744000
1.000000 0.610000 0.740000
0.000000 0.758050 0.758050
0.059280 0.817071 0.817071
0.191348 0.803304 0.803304
0.323416 0.789538 0.789538
0.479748 0.772060 0.772060
0.607506 0.758494 0.758494
0.744000 0.744000 0.744000
0.880494 0.729506 0.729506
1.000000 0.732000 0.732000
0.000000 0.879830 0.753902
0.044527 0.953604 0.802617
0.176596 0.939837 0.788850
0.308664 0.926071 0.775083
0.465255 0.908553 0.757566
0.593013 0.894987 0.744000
0.729506 0.880494 0.729506
0.880494 0.880494 0.729506
1.000000 0.866000 0.732000
0.001610 1.000000 0.750051
0.119912 1.000000 0.749365
0.238213 1.000000 0.748460
0.356515 1.000000 0.747212
0.495808 1.000000 0.743805
0.610000 1.000000 0.740000
0.732000 1.000000 0.732000
0.866000 1.000000 0.732000
1.000000 1.000000 0.732000
0.000000 0.000000 0.879830
0.121882 0.000000 0.879830
0.243764 0.000000 0.879830
0.365646 0.000000 0.879830
0.510105 0.000000 0.879830
0.627974 0.000000 0.879830
0.753902 0.000000 0.879830
0.879830 0.000000 0.879830
1.000000 0.001610 0.875025
0.000000 0.121882 0.879830
0.044527 0.044527 0.953604
0.190663 0.044527 0.953604
0.336799 0.044527 0.953604
0.510306 0.044527 0.953604
0.651630 0.044527 0.953604
0.802617 0.044527 0.953604
0.953604 0.044527 0.953604
1.000000 0.119912 0.874682
0.000000 0.243764 0.879830
0.044527 0.190663 0.953604
0.176596 0.176596 0.939837
0.322731 0.176596 0.939837
0.496539 0.176596 0.939837
0.637863 0.176596 0.939837
0.788850 0.176596 0.939837
0.939837 0.176596 0.939837
1.000000 0.238213 0.874230
0.000000 0.365646 0.879830
0.044527 0.336799 0.953604
0.176596 0.322731 0.939837
0.308664 0.308664 0.926071
0.482772 0.308664 0.926071
0.624096 0.308664 0.926071
0.775083 0.308664 0.926071
0.926071 0.308664 0.926071
1.000000 0.356515 0.873606
0.000000 0.510105 0.879830
0.044527 0.510306 0.953604
0.176596 0.496539 0.939837
0.308664 0.482772 0.926071
0.465255 0.465255 0.908553
0.606579 0.465255 0.908553
0.757566 0.465255 0.908553
0.908553 0.465255 0.908553
1.000000 0.495808 0.871902
0.000000 0.627974 0.879830
0.044527 0.651630 0.953604
0.176596 0.637863 0.939837
0.308664 0.624096 0.926071
0.465255 0.606579 0.908553
0.593013 0.593013 0.894987
0.744000 0.593013 0.894987
0.894987 0.593013 0.894987
1.000000 0.610000 0.870000
0.000000 0.753902 0.879830
0.044527 0.802617 0.953604
0.176596 0.788850 0.939837
0.308664 0.775083 0.926071
0.465255 0.757566 0.908553
0.593013 0.744000 0.894987
0.729506 0.729506 0.880494
0.880494 0.729506 0.880494
1.000000 0.732000 0.866000
0.000000 0.879830 0.879830
0.044527 0.953604 0.953604
0.176596 0.939837 0.939837
0.308664 0.926071 0.926071
0.465255 0.908553 0.908553
0.593013 0.894987 0.894987
0.729506 0.880494 0.880494
0.866000 0.866000 0.866000
1.000000 0.854000 0.854000
0.001610 1.000000 0.875025
0.119912 1.000000 0.874682
0.238213 1.000000 0.874230
0.356515 1.000000 0.873606
0.495808 1.000000 0.871902
0.610000 1.000000 0.870000
0.732000 1.000000 0.866000
0.854000 1.000000 0.854000
1.000000 1.000000 0.854000
0.001610 0.001610 1.000000
0.122569 0.001610 1.000000
0.243529 0.001610 1.000000
0.364488 0.001610 1.000000
0.508100 0.001610 1.000000
0.625076 0.001610 1.000000
0.750051 0.001610 1.000000
0.875025 0.001610 1.000000
1.000000 0.001610 1.000000
0.001610 0.122569 1.000000
0.119912 0.119912 1.000000
0.241203 0.119912 1.000000
0.362494 0.119912 1.000000
0.506750 0.119912 1.000000
0.624047 0.119912 1.000000
0.749365 0.119912 1.000000
0.874682 0.119912 1.000000
1.000000 0.119912 1.000000
0.001610 0.243529 1.000000
0.119912 0.241203 1.000000
0.238213 0.238213 1.000000
0.359942 0.238213 1.000000
0.504970 0.238213 1.000000
0.622690 0.238213 1.000000
0.748460 0.238213 1.000000
0.874230 0.238213 1.000000
1.000000 0.238213 1.000000
0.001610 0.364488 1.000000
0.119912 0.362494 1.000000
0.238213 0.359942 1.000000
0.356515 0.356515 1.000000
0.502514 0.356515 1.000000
0.620818 0.356515 1.000000
0.747212 0.356515 1.000000
0.873606 0.356515 1.000000
1.000000 0.356515 1.000000
0.001610 0.508100 1.000000
0.119912 0.506750 1.000000
0.238213 0.504970 1.000000
0.356515 0.502514 1.000000
0.495808 0.495808 1.000000
0.615707 0.495808 1.000000
0.743805 0.495808 1.000000
0.871902 0.495808 1.000000
1.000000 0.495808 1.000000
0.001610 0.625076 1.000000
0.119912 0.624047 1.000000
0.238213 0.622690 1.000000
0.356515 0.620818 1.000000
0.495808 0.615707 1.000000
0.610000 0.610000 1.000000
0.740000 0.610000 1.000000
0.870000 0.610000 1.000000
1.000000 0.610000 1.000000
0.001610 0.750051 1.000000
0.119912 0.749365 1.000000
0.238213 0.748460 1.000000
0.356515 0.747212 1.000000
0.495808 0.743805 1.000000
0.610000 0.740000 1.000000
0.732000 0.732000 1.000000
0.866000 0.732000 1.000000
1.000000 0.732000 1.000000
0.001610 0.875025 1.000000
0.119912 0.874682 1.000000
0.238213 0.874230 1.000000
0.356515 0.873606 1.000000
0.495808 0.871902 1.000000
0.610000 0.870000 1.000000
0.732000 0.866000 1.000000
0.854000 0.854000 1.000000
1.000000 0.854000 1.000000
0.001610 1.000000 1.000000
0.119912 1.000000 1.000000
0.238213 1.000000 1.000000
0.356515 1.000000 1.000000
0.495808 1.000000 1.000000
0.610000 1.000000 1.000000
0.732000 1.000000 1.000000
0.854000 1.000000 1.000000
0.988000 0.988000 0.988000
