docs/luts/fuji_recipes/NEGA_PE_Pro_Neg_LaRoque.cube
TITLE "Fujifilm Recipe: PE Pro Neg LaRoque (NEGA)"
# FilmSim=NEGA HL=-2 SH=-2 Col=-1 WB=Auto WBR=0 WBB=0
LUT_3D_SIZE 33
DOMAIN_MIN 0.0 0.0 0.0
DOMAIN_MAX 1.0 1.0 1.0
0.094720 0.094720 0.094720
0.119420 0.098310 0.098310
0.144120 0.101900 0.101900
0.168820 0.105490 0.105490
0.193520 0.109080 0.109080
0.218220 0.112670 0.112670
0.242920 0.116260 0.116260
0.267620 0.119850 0.119850
0.292320 0.123440 0.123440
0.317020 0.127030 0.127030
0.341720 0.130620 0.130620
0.366420 0.134210 0.134210
0.391120 0.137800 0.137800
0.415820 0.141390 0.141390
0.440520 0.144980 0.144980
0.465220 0.148570 0.148570
0.489766 0.152138 0.152138
0.471326 0.151160 0.151160
0.494765 0.154616 0.154616
0.518204 0.158072 0.158072
0.541643 0.161528 0.161528
0.565081 0.164984 0.164984
0.588520 0.168440 0.168440
0.611959 0.171896 0.171896
0.635398 0.175352 0.175352
0.658837 0.178808 0.178808
0.682276 0.182264 0.182264
0.705715 0.185720 0.185720
0.729154 0.189176 0.189176
0.752593 0.192632 0.192632
0.776032 0.196088 0.196088
0.799471 0.199544 0.199544
0.822910 0.203000 0.203000
0.098310 0.119420 0.098310
0.119420 0.119420 0.098310
0.144120 0.123010 0.101900
0.168820 0.126600 0.105490
0.193520 0.130190 0.109080
0.218220 0.133780 0.112670
0.242920 0.137370 0.116260
0.267620 0.140960 0.119850
0.292320 0.144550 0.123440
0.317020 0.148140 0.127030
0.341720 0.151730 0.130620
0.366420 0.155320 0.134210
0.391120 0.158910 0.137800
0.415820 0.162500 0.141390
0.440520 0.166090 0.144980
0.465220 0.169680 0.148570
0.489766 0.173248 0.152138
0.471326 0.172270 0.151160
0.494765 0.175726 0.154616
0.518204 0.179182 0.158072
0.541643 0.182638 0.161528
0.565081 0.186094 0.164984
0.588520 0.189550 0.168440
0.611959 0.193006 0.171896
0.635398 0.196462 0.175352
0.658837 0.199918 0.178808
0.682276 0.203374 0.182264
0.705715 0.206830 0.185720
0.729154 0.210286 0.189176
0.752593 0.213742 0.192632
0.776032 0.217198 0.196088
0.799471 0.220654 0.199544
0.822910 0.224110 0.203000
0.101900 0.144120 0.101900
0.123010 0.144120 0.101900
0.144120 0.144120 0.101900
0.168820 0.147710 0.105490
0.193520 0.151300 0.109080
0.218220 0.154890 0.112670
0.242920 0.158480 0.116260
0.267620 0.162070 0.119850
0.292320 0.165660 0.123440
0.317020 0.169250 0.127030
0.341720 0.172840 0.130620
0.366420 0.176430 0.134210
0.391120 0.180020 0.137800
0.415820 0.183610 0.141390
0.440520 0.187200 0.144980
0.465220 0.190790 0.148570
0.489766 0.194358 0.152138
0.471326 0.193380 0.151160
0.494765 0.196836 0.154616
0.518204 0.200292 0.158072
0.541643 0.203748 0.161528
0.565081 0.207204 0.164984
0.588520 0.210660 0.168440
0.611959 0.214116 0.171896
0.635398 0.217572 0.175352
0.658837 0.221028 0.178808
0.682276 0.224484 0.182264
0.705715 0.227940 0.185720
0.729154 0.231396 0.189176
0.752593 0.234852 0.192632
0.776032 0.238308 0.196088
0.799471 0.241764 0.199544
0.822910 0.245220 0.203000
0.105490 0.168820 0.105490
0.126600 0.168820 0.105490
0.147710 0.168820 0.105490
0.168820 0.168820 0.105490
0.193520 0.172410 0.109080
0.218220 0.176000 0.112670
0.242920 0.179590 0.116260
0.267620 0.183180 0.119850
0.292320 0.186770 0.123440
0.317020 0.190360 0.127030
0.341720 0.193950 0.130620
0.366420 0.197540 0.134210
0.391120 0.201130 0.137800
0.415820 0.204720 0.141390
0.440520 0.208310 0.144980
0.465220 0.211900 0.148570
0.489766 0.215468 0.152138
0.471326 0.214490 0.151160
0.494765 0.217946 0.154616
0.518204 0.221402 0.158072
0.541643 0.224858 0.161528
0.565081 0.228314 0.164984
0.588520 0.231770 0.168440
0.611959 0.235226 0.171896
0.635398 0.238682 0.175352
0.658837 0.242138 0.178808
0.682276 0.245594 0.182264
0.705715 0.249050 0.185720
0.729154 0.252506 0.189176
0.752593 0.255962 0.192632
0.776032 0.259418 0.196088
0.799471 0.262874 0.199544
0.822910 0.266330 0.203000
0.109080 0.193520 0.109080
0.130190 0.193520 0.109080
0.151300 0.193520 0.109080
0.172410 0.193520 0.109080
0.193520 0.193520 0.109080
0.218220 0.197110 0.112670
0.242920 0.200700 0.116260
0.267620 0.204290 0.119850
0.292320 0.207880 0.123440
0.317020 0.211470 0.127030
0.341720 0.215060 0.130620
0.366420 0.218650 0.134210
0.391120 0.222240 0.137800
0.415820 0.225830 0.141390
0.440520 0.229420 0.144980
0.465220 0.233010 0.148570
0.489766 0.236578 0.152138
0.471326 0.235600 0.151160
0.494765 0.239056 0.154616
0.518204 0.242512 0.158072
0.541643 0.245968 0.161528
0.565081 0.249424 0.164984
0.588520 0.252880 0.168440
0.611959 0.256336 0.171896
0.635398 0.259792 0.175352
0.658837 0.263248 0.178808
0.682276 0.266704 0.182264
0.705715 0.270160 0.185720
0.729154 0.273616 0.189176
0.752593 0.277072 0.192632
0.776032 0.280528 0.196088
0.799471 0.283984 0.199544
0.822910 0.287440 0.203000
0.112670 0.218220 0.112670
0.133780 0.218220 0.112670
0.154890 0.218220 0.112670
0.176000 0.218220 0.112670
0.197110 0.218220 0.112670
0.218220 0.218220 0.112670
0.242920 0.221810 0.116260
0.267620 0.225400 0.119850
0.292320 0.228990 0.123440
0.317020 0.232580 0.127030
0.341720 0.236170 0.130620
0.366420 0.239760 0.134210
0.391120 0.243350 0.137800
0.415820 0.246940 0.141390
0.440520 0.250530 0.144980
0.465220 0.254120 0.148570
0.489766 0.257688 0.152138
0.471326 0.256710 0.151160
0.494765 0.260166 0.154616
0.518204 0.263622 0.158072
0.541643 0.267078 0.161528
0.565081 0.270534 0.164984
0.588520 0.273990 0.168440
0.611959 0.277446 0.171896
0.635398 0.280902 0.175352
0.658837 0.284358 0.178808
0.682276 0.287814 0.182264
0.705715 0.291270 0.185720
0.729154 0.294726 0.189176
0.752593 0.298182 0.192632
0.776032 0.301638 0.196088
0.799471 0.305094 0.199544
0.822910 0.308550 0.203000
0.116260 0.242920 0.116260
0.137370 0.242920 0.116260
0.158480 0.242920 0.116260
0.179590 0.242920 0.116260
0.200700 0.242920 0.116260
0.221810 0.242920 0.116260
0.242920 0.242920 0.116260
0.267620 0.246510 0.119850
0.292320 0.250100 0.123440
0.317020 0.253690 0.127030
0.341720 0.257280 0.130620
0.366420 0.260870 0.134210
0.391120 0.264460 0.137800
0.415820 0.268050 0.141390
0.440520 0.271640 0.144980
0.465220 0.275230 0.148570
0.489766 0.278798 0.152138
0.471326 0.277820 0.151160
0.494765 0.281276 0.154616
0.518204 0.284732 0.158072
0.541643 0.288188 0.161528
0.565081 0.291644 0.164984
0.588520 0.295100 0.168440
0.611959 0.298556 0.171896
0.635398 0.302012 0.175352
0.658837 0.305468 0.178808
0.682276 0.308924 0.182264
0.705715 0.312380 0.185720
0.729154 0.315836 0.189176
0.752593 0.319292 0.192632
0.776032 0.322748 0.196088
0.799471 0.326204 0.199544
0.822910 0.329660 0.203000
0.119850 0.267620 0.119850
0.140960 0.267620 0.119850
0.162070 0.267620 0.119850
0.183180 0.267620 0.119850
0.204290 0.267620 0.119850
0.225400 0.267620 0.119850
0.246510 0.267620 0.119850
0.267620 0.267620 0.119850
0.292320 0.271210 0.123440
0.317020 0.274800 0.127030
0.341720 0.278390 0.130620
0.366420 0.281980 0.134210
0.391120 0.285570 0.137800
0.415820 0.289160 0.141390
0.440520 0.292750 0.144980
0.465220 0.296340 0.148570
0.489766 0.299908 0.152138
0.471326 0.298930 0.151160
0.494765 0.302386 0.154616
0.518204 0.305842 0.158072
0.541643 0.309298 0.161528
0.565081 0.312754 0.164984
0.588520 0.316210 0.168440
0.611959 0.319666 0.171896
0.635398 0.323122 0.175352
0.658837 0.326578 0.178808
0.682276 0.330034 0.182264
0.705715 0.333490 0.185720
0.729154 0.336946 0.189176
0.752593 0.340402 0.192632
0.776032 0.343858 0.196088
0.799471 0.347314 0.199544
0.822910 0.350770 0.203000
0.123440 0.292320 0.123440
0.144550 0.292320 0.123440
0.165660 0.292320 0.123440
0.186770 0.292320 0.123440
0.207880 0.292320 0.123440
0.228990 0.292320 0.123440
0.250100 0.292320 0.123440
0.271210 0.292320 0.123440
0.292320 0.292320 0.123440
0.317020 0.295910 0.127030
0.341720 0.299500 0.130620
0.366420 0.303090 0.134210
0.391120 0.306680 0.137800
0.415820 0.310270 0.141390
0.440520 0.313860 0.144980
0.465220 0.317450 0.148570
0.489766 0.321018 0.152138
0.471326 0.320040 0.151160
0.494765 0.323496 0.154616
0.518204 0.326952 0.158072
0.541643 0.330408 0.161528
0.565081 0.333864 0.164984
0.588520 0.337320 0.168440
0.611959 0.340776 0.171896
0.635398 0.344232 0.175352
0.658837 0.347688 0.178808
0.682276 0.351144 0.182264
0.705715 0.354600 0.185720
0.729154 0.358056 0.189176
0.752593 0.361512 0.192632
0.776032 0.364968 0.196088
0.799471 0.368424 0.199544
0.822910 0.371880 0.203000
0.127030 0.317020 0.127030
0.148140 0.317020 0.127030
0.169250 0.317020 0.127030
0.190360 0.317020 0.127030
0.211470 0.317020 0.127030
0.232580 0.317020 0.127030
0.253690 0.317020 0.127030
0.274800 0.317020 0.127030
0.295910 0.317020 0.127030
0.317020 0.317020 0.127030
0.341720 0.320610 0.130620
0.366420 0.324200 0.134210
0.391120 0.327790 0.137800
0.415820 0.331380 0.141390
0.440520 0.334970 0.144980
0.465220 0.338560 0.148570
0.489766 0.342128 0.152138
0.471326 0.341150 0.151160
0.494765 0.344606 0.154616
0.518204 0.348062 0.158072
0.541643 0.351518 0.161528
0.565081 0.354974 0.164984
0.588520 0.358430 0.168440
0.611959 0.361886 0.171896
0.635398 0.365342 0.175352
0.658837 0.368798 0.178808
0.682276 0.372254 0.182264
0.705715 0.375710 0.185720
0.729154 0.379166 0.189176
0.752593 0.382622 0.192632
0.776032 0.386078 0.196088
0.799471 0.389534 0.199544
0.822910 0.392990 0.203000
0.130620 0.341720 0.130620
0.151730 0.341720 0.130620
0.172840 0.341720 0.130620
0.193950 0.341720 0.130620
0.215060 0.341720 0.130620
0.236170 0.341720 0.130620
0.257280 0.341720 0.130620
0.278390 0.341720 0.130620
0.299500 0.341720 0.130620
0.320610 0.341720 0.130620
0.341720 0.341720 0.130620
0.366420 0.345310 0.134210
0.391120 0.348900 0.137800
0.415820 0.352490 0.141390
0.440520 0.356080 0.144980
0.465220 0.359670 0.148570
0.489766 0.363238 0.152138
0.471326 0.362260 0.151160
0.494765 0.365716 0.154616
0.518204 0.369172 0.158072
0.541643 0.372628 0.161528
0.565081 0.376084 0.164984
0.588520 0.379540 0.168440
0.611959 0.382996 0.171896
0.635398 0.386452 0.175352
0.658837 0.389908 0.178808
0.682276 0.393364 0.182264
0.705715 0.396820 0.185720
0.729154 0.400276 0.189176
0.752593 0.403732 0.192632
0.776032 0.407188 0.196088
0.799471 0.410644 0.199544
0.822910 0.414100 0.203000
0.134210 0.366420 0.134210
0.155320 0.366420 0.134210
0.176430 0.366420 0.134210
0.197540 0.366420 0.134210
0.218650 0.366420 0.134210
0.239760 0.366420 0.134210
0.260870 0.366420 0.134210
0.281980 0.366420 0.134210
0.303090 0.366420 0.134210
0.324200 0.366420 0.134210
0.345310 0.366420 0.134210
0.366420 0.366420 0.134210
0.391120 0.370010 0.137800
0.415820 0.373600 0.141390
0.440520 0.377190 0.144980
0.465220 0.380780 0.148570
0.489766 0.384348 0.152138
0.471326 0.383370 0.151160
0.494765 0.386826 0.154616
0.518204 0.390282 0.158072
0.541643 0.393738 0.161528
0.565081 0.397194 0.164984
0.588520 0.400650 0.168440
0.611959 0.404106 0.171896
0.635398 0.407562 0.175352
0.658837 0.411018 0.178808
0.682276 0.414474 0.182264
0.705715 0.417930 0.185720
0.729154 0.421386 0.189176
0.752593 0.424842 0.192632
0.776032 0.428298 0.196088
0.799471 0.431754 0.199544
0.822910 0.435210 0.203000
0.137800 0.391120 0.137800
0.158910 0.391120 0.137800
0.180020 0.391120 0.137800
0.201130 0.391120 0.137800
0.222240 0.391120 0.137800
0.243350 0.391120 0.137800
0.264460 0.391120 0.137800
0.285570 0.391120 0.137800
0.306680 0.391120 0.137800
0.327790 0.391120 0.137800
0.348900 0.391120 0.137800
0.370010 0.391120 0.137800
0.391120 0.391120 0.137800
0.415820 0.394710 0.141390
0.440520 0.398300 0.144980
0.465220 0.401890 0.148570
0.489766 0.405458 0.152138
0.471326 0.404480 0.151160
0.494765 0.407936 0.154616
0.518204 0.411392 0.158072
0.541643 0.414848 0.161528
0.565081 0.418304 0.164984
0.588520 0.421760 0.168440
0.611959 0.425216 0.171896
0.635398 0.428672 0.175352
0.658837 0.432128 0.178808
0.682276 0.435584 0.182264
0.705715 0.439040 0.185720
0.729154 0.442496 0.189176
0.752593 0.445952 0.192632
0.776032 0.449408 0.196088
0.799471 0.452864 0.199544
0.822910 0.456320 0.203000
0.141390 0.415820 0.141390
0.162500 0.415820 0.141390
0.183610 0.415820 0.141390
0.204720 0.415820 0.141390
0.225830 0.415820 0.141390
0.246940 0.415820 0.141390
0.268050 0.415820 0.141390
0.289160 0.415820 0.141390
0.310270 0.415820 0.141390
0.331380 0.415820 0.141390
0.352490 0.415820 0.141390
0.373600 0.415820 0.141390
0.394710 0.415820 0.141390
0.415820 0.415820 0.141390
0.440520 0.419410 0.144980
0.465220 0.423000 0.148570
0.489766 0.426568 0.152138
0.471326 0.425590 0.151160
0.494765 0.429046 0.154616
0.518204 0.432502 0.158072
0.541643 0.435958 0.161528
0.565081 0.439414 0.164984
0.588520 0.442870 0.168440
0.611959 0.446326 0.171896
0.635398 0.449782 0.175352
0.658837 0.453238 0.178808
0.682276 0.456694 0.182264
0.705715 0.460150 0.185720
0.729154 0.463606 0.189176
0.752593 0.467062 0.192632
0.776032 0.470518 0.196088
0.799471 0.473974 0.199544
0.822910 0.477430 0.203000
0.144980 0.440520 0.144980
0.166090 0.440520 0.144980
0.187200 0.440520 0.144980
0.208310 0.440520 0.144980
0.229420 0.440520 0.144980
0.250530 0.440520 0.144980
0.271640 0.440520 0.144980
0.292750 0.440520 0.144980
0.313860 0.440520 0.144980
0.334970 0.440520 0.144980
0.356080 0.440520 0.144980
0.377190 0.440520 0.144980
0.398300 0.440520 0.144980
0.419410 0.440520 0.144980
0.440520 0.440520 0.144980
0.465220 0.444110 0.148570
0.489766 0.447678 0.152138
0.471326 0.446700 0.151160
0.494765 0.450156 0.154616
0.518204 0.453612 0.158072
0.541643 0.457068 0.161528
0.565081 0.460524 0.164984
0.588520 0.463980 0.168440
0.611959 0.467436 0.171896
0.635398 0.470892 0.175352
0.658837 0.474348 0.178808
0.682276 0.477804 0.182264
0.705715 0.481260 0.185720
0.729154 0.484716 0.189176
0.752593 0.488172 0.192632
0.776032 0.491628 0.196088
0.799471 0.495084 0.199544
0.822910 0.498540 0.203000
0.148570 0.465220 0.148570
0.169680 0.465220 0.148570
0.190790 0.465220 0.148570
0.211900 0.465220 0.148570
0.233010 0.465220 0.148570
0.254120 0.465220 0.148570
0.275230 0.465220 0.148570
0.296340 0.465220 0.148570
0.317450 0.465220 0.148570
0.338560 0.465220 0.148570
0.359670 0.465220 0.148570
0.380780 0.465220 0.148570
0.401890 0.465220 0.148570
0.423000 0.465220 0.148570
0.444110 0.465220 0.148570
0.465220 0.465220 0.148570
0.489766 0.468788 0.152138
0.471326 0.467810 0.151160
0.494765 0.471266 0.154616
0.518204 0.474722 0.158072
0.541643 0.478178 0.161528
0.565081 0.481634 0.164984
0.588520 0.485090 0.168440
0.611959 0.488546 0.171896
0.635398 0.492002 0.175352
0.658837 0.495458 0.178808
0.682276 0.498914 0.182264
0.705715 0.502370 0.185720
0.729154 0.505826 0.189176
0.752593 0.509282 0.192632
0.776032 0.512738 0.196088
0.799471 0.516194 0.199544
0.822910 0.519650 0.203000
0.152138 0.489766 0.152138
0.173248 0.489766 0.152138
0.194358 0.489766 0.152138
0.215468 0.489766 0.152138
0.236578 0.489766 0.152138
0.257688 0.489766 0.152138
0.278798 0.489766 0.152138
0.299908 0.489766 0.152138
0.321018 0.489766 0.152138
0.342128 0.489766 0.152138
0.363238 0.489766 0.152138
0.384348 0.489766 0.152138
0.405458 0.489766 0.152138
0.426568 0.489766 0.152138
0.447678 0.489766 0.152138
0.468788 0.489766 0.152138
0.489766 0.489766 0.152138
0.473242 0.490705 0.153077
0.494765 0.492245 0.154616
0.518204 0.495700 0.158072
0.541643 0.499156 0.161528
0.565081 0.502612 0.164984
0.588520 0.506068 0.168440
0.611959 0.509524 0.171896
0.635398 0.512980 0.175352
0.658837 0.516436 0.178808
0.682276 0.519892 0.182264
0.705715 0.490534 0.185720
0.729154 0.493945 0.189176
0.752593 0.497356 0.192632
0.776032 0.500767 0.196088
0.799471 0.504178 0.199544
0.822910 0.507589 0.203000
0.151160 0.471326 0.151160
0.172270 0.471326 0.151160
0.193380 0.471326 0.151160
0.214490 0.471326 0.151160
0.235600 0.471326 0.151160
0.256710 0.471326 0.151160
0.277820 0.471326 0.151160
0.298930 0.471326 0.151160
0.320040 0.471326 0.151160
0.341150 0.471326 0.151160
0.362260 0.471326 0.151160
0.383370 0.471326 0.151160
0.404480 0.471326 0.151160
0.425590 0.471326 0.151160
0.446700 0.471326 0.151160
0.467810 0.471326 0.151160
0.490705 0.473242 0.153077
0.471326 0.471326 0.151160
0.494765 0.474737 0.154616
0.518204 0.478148 0.158072
0.541643 0.481559 0.161528
0.565081 0.484969 0.164984
0.588520 0.488380 0.168440
0.611959 0.491791 0.171896
0.635398 0.495202 0.175352
0.658837 0.498613 0.178808
0.682276 0.502024 0.182264
0.705715 0.505435 0.185720
0.729154 0.508846 0.189176
0.752593 0.512257 0.192632
0.776032 0.515668 0.196088
0.799471 0.519079 0.199544
0.822910 0.522490 0.203000
0.154616 0.494765 0.154616
0.175726 0.494765 0.154616
0.196836 0.494765 0.154616
0.217946 0.494765 0.154616
0.239056 0.494765 0.154616
0.260166 0.494765 0.154616
0.281276 0.494765 0.154616
0.302386 0.494765 0.154616
0.323496 0.494765 0.154616
0.344606 0.494765 0.154616
0.365716 0.494765 0.154616
0.386826 0.494765 0.154616
0.407936 0.494765 0.154616
0.429046 0.494765 0.154616
0.450156 0.494765 0.154616
0.471266 0.494765 0.154616
0.492245 0.494765 0.154616
0.474737 0.494765 0.154616
0.494765 0.494765 0.154616
0.518204 0.498176 0.158072
0.541643 0.501587 0.161528
0.565081 0.504997 0.164984
0.588520 0.508408 0.168440
0.611959 0.511819 0.171896
0.635398 0.515230 0.175352
0.658837 0.518641 0.178808
0.682276 0.522052 0.182264
0.705715 0.525463 0.185720
0.729154 0.528874 0.189176
0.752593 0.532285 0.192632
0.776032 0.535696 0.196088
0.799471 0.539107 0.199544
0.822910 0.542518 0.203000
0.158072 0.518204 0.158072
0.179182 0.518204 0.158072
0.200292 0.518204 0.158072
0.221402 0.518204 0.158072
0.242512 0.518204 0.158072
0.263622 0.518204 0.158072
0.284732 0.518204 0.158072
0.305842 0.518204 0.158072
0.326952 0.518204 0.158072
0.348062 0.518204 0.158072
0.369172 0.518204 0.158072
0.390282 0.518204 0.158072
0.411392 0.518204 0.158072
0.432502 0.518204 0.158072
0.453612 0.518204 0.158072
0.474722 0.518204 0.158072
0.495700 0.518204 0.158072
0.478148 0.518204 0.158072
0.498176 0.518204 0.158072
0.518204 0.518204 0.158072
0.541643 0.521615 0.161528
0.565081 0.525025 0.164984
0.588520 0.528436 0.168440
0.611959 0.531847 0.171896
0.635398 0.535258 0.175352
0.658837 0.538669 0.178808
0.682276 0.542080 0.182264
0.705715 0.545491 0.185720
0.729154 0.548902 0.189176
0.752593 0.552313 0.192632
0.776032 0.555724 0.196088
0.799471 0.559135 0.199544
0.822910 0.562546 0.203000
0.161528 0.541643 0.161528
0.182638 0.541643 0.161528
0.203748 0.541643 0.161528
0.224858 0.541643 0.161528
0.245968 0.541643 0.161528
0.267078 0.541643 0.161528
0.288188 0.541643 0.161528
0.309298 0.541643 0.161528
0.330408 0.541643 0.161528
0.351518 0.541643 0.161528
0.372628 0.541643 0.161528
0.393738 0.541643 0.161528
0.414848 0.541643 0.161528
0.435958 0.541643 0.161528
0.457068 0.541643 0.161528
0.478178 0.541643 0.161528
0.499156 0.541643 0.161528
0.481559 0.541643 0.161528
0.501587 0.541643 0.161528
0.521615 0.541643 0.161528
0.541643 0.541643 0.161528
0.565081 0.545053 0.164984
0.588520 0.548464 0.168440
0.611959 0.551875 0.171896
0.635398 0.555286 0.175352
0.658837 0.558697 0.178808
0.682276 0.562108 0.182264
0.705715 0.565519 0.185720
0.729154 0.568930 0.189176
0.752593 0.572341 0.192632
0.776032 0.575752 0.196088
0.799471 0.579163 0.199544
0.822910 0.582574 0.203000
0.164984 0.565081 0.164984
0.186094 0.565081 0.164984
0.207204 0.565081 0.164984
0.228314 0.565081 0.164984
0.249424 0.565081 0.164984
0.270534 0.565081 0.164984
0.291644 0.565081 0.164984
0.312754 0.565081 0.164984
0.333864 0.565081 0.164984
0.354974 0.565081 0.164984
0.376084 0.565081 0.164984
0.397194 0.565081 0.164984
0.418304 0.565081 0.164984
0.439414 0.565081 0.164984
0.460524 0.565081 0.164984
0.481634 0.565081 0.164984
0.502612 0.565081 0.164984
0.484969 0.565081 0.164984
0.504997 0.565081 0.164984
0.525025 0.565081 0.164984
0.545053 0.565081 0.164984
0.565081 0.565081 0.164984
0.588520 0.568492 0.168440
0.611959 0.571903 0.171896
0.635398 0.575314 0.175352
0.658837 0.578725 0.178808
0.682276 0.582136 0.182264
0.705715 0.585547 0.185720
0.729154 0.588958 0.189176
0.752593 0.592369 0.192632
0.776032 0.595780 0.196088
0.799471 0.599191 0.199544
0.822910 0.602602 0.203000
0.168440 0.588520 0.168440
0.189550 0.588520 0.168440
0.210660 0.588520 0.168440
0.231770 0.588520 0.168440
0.252880 0.588520 0.168440
0.273990 0.588520 0.168440
0.295100 0.588520 0.168440
0.316210 0.588520 0.168440
0.337320 0.588520 0.168440
0.358430 0.588520 0.168440
0.379540 0.588520 0.168440
0.400650 0.588520 0.168440
0.421760 0.588520 0.168440
0.442870 0.588520 0.168440
0.463980 0.588520 0.168440
0.485090 0.588520 0.168440
0.506068 0.588520 0.168440
0.488380 0.588520 0.168440
0.508408 0.588520 0.168440
0.528436 0.588520 0.168440
0.548464 0.588520 0.168440
0.568492 0.588520 0.168440
0.588520 0.588520 0.168440
0.611959 0.591931 0.171896
0.635398 0.595342 0.175352
0.658837 0.598753 0.178808
0.682276 0.602164 0.182264
0.705715 0.605575 0.185720
0.729154 0.608986 0.189176
0.752593 0.612397 0.192632
0.776032 0.615808 0.196088
0.799471 0.619219 0.199544
0.822910 0.622630 0.203000
0.171896 0.611959 0.171896
0.193006 0.611959 0.171896
0.214116 0.611959 0.171896
0.235226 0.611959 0.171896
0.256336 0.611959 0.171896
0.277446 0.611959 0.171896
0.298556 0.611959 0.171896
0.319666 0.611959 0.171896
0.340776 0.611959 0.171896
0.361886 0.611959 0.171896
0.382996 0.611959 0.171896
0.404106 0.611959 0.171896
0.425216 0.611959 0.171896
0.446326 0.611959 0.171896
0.467436 0.611959 0.171896
0.488546 0.611959 0.171896
0.509524 0.611959 0.171896
0.491791 0.611959 0.171896
0.511819 0.611959 0.171896
0.531847 0.611959 0.171896
0.551875 0.611959 0.171896
0.571903 0.611959 0.171896
0.591931 0.611959 0.171896
0.611959 0.611959 0.171896
0.635398 0.615370 0.175352
0.658837 0.618781 0.178808
0.682276 0.622192 0.182264
0.705715 0.625603 0.185720
0.729154 0.629014 0.189176
0.752593 0.632425 0.192632
0.776032 0.635836 0.196088
0.799471 0.639247 0.199544
0.822910 0.642658 0.203000
0.175352 0.635398 0.175352
0.196462 0.635398 0.175352
0.217572 0.635398 0.175352
0.238682 0.635398 0.175352
0.259792 0.635398 0.175352
0.280902 0.635398 0.175352
0.302012 0.635398 0.175352
0.323122 0.635398 0.175352
0.344232 0.635398 0.175352
0.365342 0.635398 0.175352
0.386452 0.635398 0.175352
0.407562 0.635398 0.175352
0.428672 0.635398 0.175352
0.449782 0.635398 0.175352
0.470892 0.635398 0.175352
0.492002 0.635398 0.175352
0.512980 0.635398 0.175352
0.495202 0.635398 0.175352
0.515230 0.635398 0.175352
0.535258 0.635398 0.175352
0.555286 0.635398 0.175352
0.575314 0.635398 0.175352
0.595342 0.635398 0.175352
0.615370 0.635398 0.175352
0.635398 0.635398 0.175352
0.658837 0.638809 0.178808
0.682276 0.642220 0.182264
0.705715 0.645631 0.185720
0.729154 0.649042 0.189176
0.752593 0.652453 0.192632
0.776032 0.655864 0.196088
0.799471 0.659275 0.199544
0.822910 0.662686 0.203000
0.178808 0.658837 0.178808
0.199918 0.658837 0.178808
0.221028 0.658837 0.178808
0.242138 0.658837 0.178808
0.263248 0.658837 0.178808
0.284358 0.658837 0.178808
0.305468 0.658837 0.178808
0.326578 0.658837 0.178808
0.347688 0.658837 0.178808
0.368798 0.658837 0.178808
0.389908 0.658837 0.178808
0.411018 0.658837 0.178808
0.432128 0.658837 0.178808
0.453238 0.658837 0.178808
0.474348 0.658837 0.178808
0.495458 0.658837 0.178808
0.516436 0.658837 0.178808
0.498613 0.658837 0.178808
0.518641 0.658837 0.178808
0.538669 0.658837 0.178808
0.558697 0.658837 0.178808
0.578725 0.658837 0.178808
0.598753 0.658837 0.178808
0.618781 0.658837 0.178808
0.638809 0.658837 0.178808
0.658837 0.658837 0.178808
0.682276 0.662248 0.182264
0.705715 0.665659 0.185720
0.729154 0.669070 0.189176
0.752593 0.672481 0.192632
0.776032 0.675892 0.196088
0.799471 0.679303 0.199544
0.822910 0.682714 0.203000
0.182264 0.682276 0.182264
0.203374 0.682276 0.182264
0.224484 0.682276 0.182264
0.245594 0.682276 0.182264
0.266704 0.682276 0.182264
0.287814 0.682276 0.182264
0.308924 0.682276 0.182264
0.330034 0.682276 0.182264
0.351144 0.682276 0.182264
0.372254 0.682276 0.182264
0.393364 0.682276 0.182264
0.414474 0.682276 0.182264
0.435584 0.682276 0.182264
0.456694 0.682276 0.182264
0.477804 0.682276 0.182264
0.498914 0.682276 0.182264
0.519892 0.682276 0.182264
0.502024 0.682276 0.182264
0.522052 0.682276 0.182264
0.542080 0.682276 0.182264
0.562108 0.682276 0.182264
0.582136 0.682276 0.182264
0.602164 0.682276 0.182264
0.622192 0.682276 0.182264
