docs/luts/fuji_recipes/NEGAhi_VM_Vision__Film_500_Daylight.cube
TITLE "Fujifilm Recipe: VM Vision; Film 500 Daylight (NEGAhi)"
# FilmSim=NEGAhi HL=0 SH=-2 Col=0 WB=Auto WBR=0 WBB=-3
LUT_3D_SIZE 5
DOMAIN_MIN 0.0 0.0 0.0
DOMAIN_MAX 1.0 1.0 1.0
0.080000 0.080000 0.080000
0.311166 0.080000 0.080000
0.502278 0.080000 0.080000
0.750304 0.080000 0.080000
0.994000 0.080000 0.080000
0.080000 0.310000 0.080000
0.311166 0.310000 0.080000
0.502278 0.310000 0.080000
0.750304 0.310000 0.080000
0.994000 0.310000 0.080000
0.080000 0.540000 0.080000
0.311166 0.540000 0.080000
0.502278 0.540000 0.080000
0.750304 0.540000 0.080000
0.994000 0.540000 0.080000
0.080000 0.747000 0.080000
0.311166 0.747000 0.080000
0.502278 0.747000 0.080000
0.750304 0.747000 0.080000
0.994000 0.747000 0.080000
0.080000 0.994000 0.080000
0.311166 0.994000 0.080000
0.502278 0.994000 0.080000
0.750304 0.994000 0.080000
0.994000 0.994000 0.080000
0.080000 0.080000 0.292750
0.311166 0.080000 0.292750
0.502278 0.080000 0.292750
0.750304 0.080000 0.292750
0.994000 0.080000 0.292750
0.080000 0.310000 0.292750
0.311166 0.310000 0.292750
0.502278 0.310000 0.292750
0.750304 0.310000 0.292750
0.994000 0.310000 0.292750
0.080000 0.540000 0.292750
0.311166 0.540000 0.292750
0.502278 0.540000 0.292750
0.750304 0.540000 0.292750
0.994000 0.540000 0.292750
0.080000 0.747000 0.292750
0.311166 0.747000 0.292750
0.502278 0.747000 0.292750
0.750304 0.747000 0.292750
0.994000 0.747000 0.292750
0.080000 0.994000 0.292750
0.311166 0.994000 0.292750
0.502278 0.994000 0.292750
0.750304 0.994000 0.292750
0.994000 0.994000 0.292750
0.080000 0.080000 0.505500
0.311166 0.080000 0.505500
0.502278 0.080000 0.505500
0.750304 0.080000 0.505500
0.994000 0.080000 0.505500
0.080000 0.310000 0.505500
0.311166 0.310000 0.505500
0.502278 0.310000 0.505500
0.750304 0.310000 0.505500
0.994000 0.310000 0.505500
0.080000 0.540000 0.505500
0.311166 0.540000 0.505500
0.502278 0.540000 0.505500
0.750304 0.540000 0.505500
0.994000 0.540000 0.505500
0.080000 0.747000 0.505500
0.311166 0.747000 0.505500
0.502278 0.747000 0.505500
0.750304 0.747000 0.505500
0.994000 0.747000 0.505500
0.080000 0.994000 0.505500
0.311166 0.994000 0.505500
0.502278 0.994000 0.505500
0.750304 0.994000 0.505500
0.994000 0.994000 0.505500
0.080000 0.080000 0.691425
0.311166 0.080000 0.691425
0.502278 0.080000 0.691425
0.750304 0.080000 0.691425
0.994000 0.080000 0.691425
0.080000 0.310000 0.691425
0.311166 0.310000 0.691425
0.502278 0.310000 0.691425
0.750304 0.310000 0.691425
0.994000 0.310000 0.691425
0.080000 0.540000 0.691425
0.311166 0.540000 0.691425
0.502278 0.540000 0.691425
0.750304 0.540000 0.691425
0.994000 0.540000 0.691425
0.080000 0.747000 0.691425
0.311166 0.747000 0.691425
0.502278 0.747000 0.691425
0.750304 0.747000 0.691425
0.994000 0.747000 0.691425
0.080000 0.994000 0.691425
0.311166 0.994000 0.691425
0.502278 0.994000 0.691425
0.750304 0.994000 0.691425
0.994000 0.994000 0.691425
0.080000 0.080000 0.919900
0.311166 0.080000 0.919900
0.502278 0.080000 0.919900
0.750304 0.080000 0.919900
0.994000 0.080000 0.919900
0.080000 0.310000 0.919900
0.311166 0.310000 0.919900
0.502278 0.310000 0.919900
0.750304 0.310000 0.919900
0.994000 0.310000 0.919900
0.080000 0.540000 0.919900
0.311166 0.540000 0.919900
0.502278 0.540000 0.919900
0.750304 0.540000 0.919900
0.994000 0.540000 0.919900
0.080000 0.747000 0.919900
0.311166 0.747000 0.919900
0.502278 0.747000 0.919900
0.750304 0.747000 0.919900
0.994000 0.747000 0.919900
0.080000 0.994000 0.919900
0.311166 0.994000 0.919900
0.502278 0.994000 0.919900
0.750304 0.994000 0.919900
0.994000 0.994000 0.919900
