docs/luts/fuji_recipes/NEGA_NZD_Fuji_Superia_800.cube
TITLE "Fujifilm Recipe: NZD Fuji Superia 800 (NEGA)"
# FilmSim=NEGA HL=0 SH=1 Col=2 WB=Auto WBR=0 WBB=0
LUT_3D_SIZE 33
DOMAIN_MIN 0.0 0.0 0.0
DOMAIN_MAX 1.0 1.0 1.0
0.015360 0.015360 0.015360
0.048387 0.011853 0.011853
0.081414 0.008346 0.008346
0.114441 0.004839 0.004839
0.147468 0.001332 0.001332
0.178320 0.000000 0.000000
0.207840 0.000000 0.000000
0.237360 0.000000 0.000000
0.266880 0.000000 0.000000
0.296400 0.000000 0.000000
0.325920 0.000000 0.000000
0.355440 0.000000 0.000000
0.384960 0.000000 0.000000
0.414480 0.000000 0.000000
0.444000 0.000000 0.000000
0.473520 0.000000 0.000000
0.502856 0.000000 0.000000
0.544934 0.000000 0.000000
0.575379 0.000000 0.000000
0.605824 0.000000 0.000000
0.636269 0.000000 0.000000
0.666714 0.000000 0.000000
0.697159 0.000000 0.000000
0.727604 0.000000 0.000000
0.758050 0.000000 0.000000
0.788495 0.000000 0.000000
0.818940 0.000000 0.000000
0.849385 0.000000 0.000000
0.879830 0.000000 0.000000
0.910275 0.000000 0.000000
0.940720 0.000000 0.000000
0.971165 0.000000 0.000000
1.000000 0.001610 0.001610
0.011853 0.048387 0.011853
0.048387 0.048387 0.011853
0.081414 0.044880 0.008346
0.114441 0.041373 0.004839
0.147468 0.037866 0.001332
0.178320 0.035664 0.000000
0.207840 0.034640 0.000000
0.237360 0.033909 0.000000
0.266880 0.033360 0.000000
0.296400 0.032933 0.000000
0.325920 0.032592 0.000000
0.355440 0.032313 0.000000
0.384960 0.032080 0.000000
0.414480 0.031883 0.000000
0.444000 0.031714 0.000000
0.473520 0.031568 0.000000
0.502856 0.031441 0.000000
0.544934 0.031162 0.000000
0.575379 0.031064 0.000000
0.605824 0.030976 0.000000
0.636269 0.030898 0.000000
0.666714 0.030826 0.000000
0.697159 0.030762 0.000000
0.727604 0.030702 0.000000
0.758050 0.030648 0.000000
0.788495 0.030598 0.000000
0.818940 0.030553 0.000000
0.849385 0.030510 0.000000
0.879830 0.030470 0.000000
0.910275 0.030434 0.000000
0.940720 0.030399 0.000000
0.971165 0.030367 0.000000
1.000000 0.031850 0.001610
0.008346 0.081414 0.008346
0.044880 0.081414 0.008346
0.081414 0.081414 0.008346
0.114441 0.077907 0.004839
0.147468 0.074400 0.001332
0.178320 0.071328 0.000000
0.207840 0.069280 0.000000
0.237360 0.067817 0.000000
0.266880 0.066720 0.000000
0.296400 0.065867 0.000000
0.325920 0.065184 0.000000
0.355440 0.064625 0.000000
0.384960 0.064160 0.000000
0.414480 0.063766 0.000000
0.444000 0.063429 0.000000
0.473520 0.063136 0.000000
0.502856 0.062881 0.000000
0.544934 0.062324 0.000000
0.575379 0.062128 0.000000
0.605824 0.061953 0.000000
0.636269 0.061795 0.000000
0.666714 0.061653 0.000000
0.697159 0.061523 0.000000
0.727604 0.061405 0.000000
0.758050 0.061297 0.000000
0.788495 0.061197 0.000000
0.818940 0.061105 0.000000
0.849385 0.061020 0.000000
0.879830 0.060941 0.000000
0.910275 0.060867 0.000000
0.940720 0.060799 0.000000
0.971165 0.060735 0.000000
1.000000 0.062090 0.001610
0.004839 0.114441 0.004839
0.041373 0.114441 0.004839
0.077907 0.114441 0.004839
0.114441 0.114441 0.004839
0.147468 0.110934 0.001332
0.178320 0.106992 0.000000
0.207840 0.103920 0.000000
0.237360 0.101726 0.000000
0.266880 0.100080 0.000000
0.296400 0.098800 0.000000
0.325920 0.097776 0.000000
0.355440 0.096938 0.000000
0.384960 0.096240 0.000000
0.414480 0.095649 0.000000
0.444000 0.095143 0.000000
0.473520 0.094704 0.000000
0.502856 0.094322 0.000000
0.544934 0.093486 0.000000
0.575379 0.093192 0.000000
0.605824 0.092929 0.000000
0.636269 0.092693 0.000000
0.666714 0.092479 0.000000
0.697159 0.092285 0.000000
0.727604 0.092107 0.000000
0.758050 0.091945 0.000000
0.788495 0.091795 0.000000
0.818940 0.091658 0.000000
0.849385 0.091530 0.000000
0.879830 0.091411 0.000000
0.910275 0.091301 0.000000
0.940720 0.091198 0.000000
0.971165 0.091102 0.000000
1.000000 0.092330 0.001610
0.001332 0.147468 0.001332
0.037866 0.147468 0.001332
0.074400 0.147468 0.001332
0.110934 0.147468 0.001332
0.147468 0.147468 0.001332
0.178320 0.142656 0.000000
0.207840 0.138560 0.000000
0.237360 0.135634 0.000000
0.266880 0.133440 0.000000
0.296400 0.131733 0.000000
0.325920 0.130368 0.000000
0.355440 0.129251 0.000000
0.384960 0.128320 0.000000
0.414480 0.127532 0.000000
0.444000 0.126857 0.000000
0.473520 0.126272 0.000000
0.502856 0.125763 0.000000
0.544934 0.124648 0.000000
0.575379 0.124256 0.000000
0.605824 0.123905 0.000000
0.636269 0.123590 0.000000
0.666714 0.123305 0.000000
0.697159 0.123046 0.000000
0.727604 0.122810 0.000000
0.758050 0.122593 0.000000
0.788495 0.122394 0.000000
0.818940 0.122210 0.000000
0.849385 0.122040 0.000000
0.879830 0.121882 0.000000
0.910275 0.121735 0.000000
0.940720 0.121598 0.000000
0.971165 0.121470 0.000000
1.000000 0.122569 0.001610
0.000000 0.178320 0.000000
0.035664 0.178320 0.000000
0.071328 0.178320 0.000000
0.106992 0.178320 0.000000
0.142656 0.178320 0.000000
0.178320 0.178320 0.000000
0.207840 0.173200 0.000000
0.237360 0.169543 0.000000
0.266880 0.166800 0.000000
0.296400 0.164667 0.000000
0.325920 0.162960 0.000000
0.355440 0.161564 0.000000
0.384960 0.160400 0.000000
0.414480 0.159415 0.000000
0.444000 0.158571 0.000000
0.473520 0.157840 0.000000
0.502856 0.157204 0.000000
0.544934 0.155810 0.000000
0.575379 0.155320 0.000000
0.605824 0.154882 0.000000
0.636269 0.154488 0.000000
0.666714 0.154131 0.000000
0.697159 0.153808 0.000000
0.727604 0.153512 0.000000
0.758050 0.153241 0.000000
0.788495 0.152992 0.000000
0.818940 0.152763 0.000000
0.849385 0.152550 0.000000
0.879830 0.152352 0.000000
0.910275 0.152169 0.000000
0.940720 0.151997 0.000000
0.971165 0.151837 0.000000
1.000000 0.152809 0.001610
0.000000 0.207840 0.000000
0.034640 0.207840 0.000000
0.069280 0.207840 0.000000
0.103920 0.207840 0.000000
0.138560 0.207840 0.000000
0.173200 0.207840 0.000000
0.207840 0.207840 0.000000
0.237360 0.203451 0.000000
0.266880 0.200160 0.000000
0.296400 0.197600 0.000000
0.325920 0.195552 0.000000
0.355440 0.193876 0.000000
0.384960 0.192480 0.000000
0.414480 0.191298 0.000000
0.444000 0.190286 0.000000
0.473520 0.189408 0.000000
0.502856 0.188644 0.000000
0.544934 0.186972 0.000000
0.575379 0.186384 0.000000
0.605824 0.185858 0.000000
0.636269 0.185385 0.000000
0.666714 0.184958 0.000000
0.697159 0.184569 0.000000
0.727604 0.184214 0.000000
0.758050 0.183890 0.000000
0.788495 0.183591 0.000000
0.818940 0.183315 0.000000
0.849385 0.183060 0.000000
0.879830 0.182823 0.000000
0.910275 0.182602 0.000000
0.940720 0.182397 0.000000
0.971165 0.182204 0.000000
1.000000 0.183049 0.001610
0.000000 0.237360 0.000000
0.033909 0.237360 0.000000
0.067817 0.237360 0.000000
0.101726 0.237360 0.000000
0.135634 0.237360 0.000000
0.169543 0.237360 0.000000
0.203451 0.237360 0.000000
0.237360 0.237360 0.000000
0.266880 0.233520 0.000000
0.296400 0.230533 0.000000
0.325920 0.228144 0.000000
0.355440 0.226189 0.000000
0.384960 0.224560 0.000000
0.414480 0.223182 0.000000
0.444000 0.222000 0.000000
0.473520 0.220976 0.000000
0.502856 0.220085 0.000000
0.544934 0.218134 0.000000
0.575379 0.217448 0.000000
0.605824 0.216834 0.000000
0.636269 0.216283 0.000000
0.666714 0.215784 0.000000
0.697159 0.215331 0.000000
0.727604 0.214917 0.000000
0.758050 0.214538 0.000000
0.788495 0.214189 0.000000
0.818940 0.213868 0.000000
0.849385 0.213570 0.000000
0.879830 0.213293 0.000000
0.910275 0.213036 0.000000
0.940720 0.212796 0.000000
0.971165 0.212572 0.000000
1.000000 0.213289 0.001610
0.000000 0.266880 0.000000
0.033360 0.266880 0.000000
0.066720 0.266880 0.000000
0.100080 0.266880 0.000000
0.133440 0.266880 0.000000
0.166800 0.266880 0.000000
0.200160 0.266880 0.000000
0.233520 0.266880 0.000000
0.266880 0.266880 0.000000
0.296400 0.263467 0.000000
0.325920 0.260736 0.000000
0.355440 0.258502 0.000000
0.384960 0.256640 0.000000
0.414480 0.255065 0.000000
0.444000 0.253714 0.000000
0.473520 0.252544 0.000000
0.502856 0.251526 0.000000
0.544934 0.249296 0.000000
0.575379 0.248512 0.000000
0.605824 0.247811 0.000000
0.636269 0.247180 0.000000
0.666714 0.246610 0.000000
0.697159 0.246092 0.000000
0.727604 0.245619 0.000000
0.758050 0.245186 0.000000
0.788495 0.244788 0.000000
0.818940 0.244420 0.000000
0.849385 0.244080 0.000000
0.879830 0.243764 0.000000
0.910275 0.243470 0.000000
0.940720 0.243196 0.000000
0.971165 0.242939 0.000000
1.000000 0.243529 0.001610
0.000000 0.296400 0.000000
0.032933 0.296400 0.000000
0.065867 0.296400 0.000000
0.098800 0.296400 0.000000
0.131733 0.296400 0.000000
0.164667 0.296400 0.000000
0.197600 0.296400 0.000000
0.230533 0.296400 0.000000
0.263467 0.296400 0.000000
0.296400 0.296400 0.000000
0.325920 0.293328 0.000000
0.355440 0.290815 0.000000
0.384960 0.288720 0.000000
0.414480 0.286948 0.000000
0.444000 0.285429 0.000000
0.473520 0.284112 0.000000
0.502856 0.282967 0.000000
0.544934 0.280457 0.000000
0.575379 0.279576 0.000000
0.605824 0.278787 0.000000
0.636269 0.278078 0.000000
0.666714 0.277436 0.000000
0.697159 0.276854 0.000000
0.727604 0.276322 0.000000
0.758050 0.275834 0.000000
0.788495 0.275386 0.000000
0.818940 0.274973 0.000000
0.849385 0.274590 0.000000
0.879830 0.274234 0.000000
0.910275 0.273904 0.000000
0.940720 0.273595 0.000000
0.971165 0.273306 0.000000
1.000000 0.273768 0.001610
0.000000 0.325920 0.000000
0.032592 0.325920 0.000000
0.065184 0.325920 0.000000
0.097776 0.325920 0.000000
0.130368 0.325920 0.000000
0.162960 0.325920 0.000000
0.195552 0.325920 0.000000
0.228144 0.325920 0.000000
0.260736 0.325920 0.000000
0.293328 0.325920 0.000000
0.325920 0.325920 0.000000
0.355440 0.323127 0.000000
0.384960 0.320800 0.000000
0.414480 0.318831 0.000000
0.444000 0.317143 0.000000
0.473520 0.315680 0.000000
0.502856 0.314407 0.000000
0.544934 0.311619 0.000000
0.575379 0.310640 0.000000
0.605824 0.309763 0.000000
0.636269 0.308975 0.000000
0.666714 0.308263 0.000000
0.697159 0.307615 0.000000
0.727604 0.307024 0.000000
0.758050 0.306483 0.000000
0.788495 0.305985 0.000000
0.818940 0.305525 0.000000
0.849385 0.305100 0.000000
0.879830 0.304705 0.000000
0.910275 0.304337 0.000000
0.940720 0.303995 0.000000
0.971165 0.303674 0.000000
1.000000 0.304008 0.001610
0.000000 0.355440 0.000000
0.032313 0.355440 0.000000
0.064625 0.355440 0.000000
0.096938 0.355440 0.000000
0.129251 0.355440 0.000000
0.161564 0.355440 0.000000
0.193876 0.355440 0.000000
0.226189 0.355440 0.000000
0.258502 0.355440 0.000000
0.290815 0.355440 0.000000
0.323127 0.355440 0.000000
0.355440 0.355440 0.000000
0.384960 0.352880 0.000000
0.414480 0.350714 0.000000
0.444000 0.348857 0.000000
0.473520 0.347248 0.000000
0.502856 0.345848 0.000000
0.544934 0.342781 0.000000
0.575379 0.341703 0.000000
0.605824 0.340740 0.000000
0.636269 0.339873 0.000000
0.666714 0.339089 0.000000
0.697159 0.338377 0.000000
0.727604 0.337727 0.000000
0.758050 0.337131 0.000000
0.788495 0.336583 0.000000
0.818940 0.336078 0.000000
0.849385 0.335610 0.000000
0.879830 0.335175 0.000000
0.910275 0.334771 0.000000
0.940720 0.334394 0.000000
0.971165 0.334041 0.000000
1.000000 0.334248 0.001610
0.000000 0.384960 0.000000
0.032080 0.384960 0.000000
0.064160 0.384960 0.000000
0.096240 0.384960 0.000000
0.128320 0.384960 0.000000
0.160400 0.384960 0.000000
0.192480 0.384960 0.000000
0.224560 0.384960 0.000000
0.256640 0.384960 0.000000
0.288720 0.384960 0.000000
0.320800 0.384960 0.000000
0.352880 0.384960 0.000000
0.384960 0.384960 0.000000
0.414480 0.382597 0.000000
0.444000 0.380571 0.000000
0.473520 0.378816 0.000000
0.502856 0.377289 0.000000
0.544934 0.373943 0.000000
0.575379 0.372767 0.000000
0.605824 0.371716 0.000000
0.636269 0.370770 0.000000
0.666714 0.369915 0.000000
0.697159 0.369138 0.000000
0.727604 0.368429 0.000000
0.758050 0.367779 0.000000
0.788495 0.367182 0.000000
0.818940 0.366630 0.000000
0.849385 0.366120 0.000000
0.879830 0.365646 0.000000
0.910275 0.365205 0.000000
0.940720 0.364793 0.000000
0.971165 0.364409 0.000000
1.000000 0.364488 0.001610
0.000000 0.414480 0.000000
0.031883 0.414480 0.000000
0.063766 0.414480 0.000000
0.095649 0.414480 0.000000
0.127532 0.414480 0.000000
0.159415 0.414480 0.000000
0.191298 0.414480 0.000000
0.223182 0.414480 0.000000
0.255065 0.414480 0.000000
0.286948 0.414480 0.000000
0.318831 0.414480 0.000000
0.350714 0.414480 0.000000
0.382597 0.414480 0.000000
0.414480 0.414480 0.000000
0.444000 0.412286 0.000000
0.473520 0.410384 0.000000
0.502856 0.408730 0.000000
0.544934 0.405105 0.000000
0.575379 0.403831 0.000000
0.605824 0.402692 0.000000
0.636269 0.401668 0.000000
0.666714 0.400741 0.000000
0.697159 0.399900 0.000000
0.727604 0.399131 0.000000
0.758050 0.398427 0.000000
0.788495 0.397780 0.000000
0.818940 0.397183 0.000000
0.849385 0.396630 0.000000
0.879830 0.396116 0.000000
0.910275 0.395639 0.000000
0.940720 0.395193 0.000000
0.971165 0.394776 0.000000
1.000000 0.394727 0.001610
0.000000 0.444000 0.000000
0.031714 0.444000 0.000000
0.063429 0.444000 0.000000
0.095143 0.444000 0.000000
0.126857 0.444000 0.000000
0.158571 0.444000 0.000000
0.190286 0.444000 0.000000
0.222000 0.444000 0.000000
0.253714 0.444000 0.000000
0.285429 0.444000 0.000000
0.317143 0.444000 0.000000
0.348857 0.444000 0.000000
0.380571 0.444000 0.000000
0.412286 0.444000 0.000000
0.444000 0.444000 0.000000
0.473520 0.441952 0.000000
0.502856 0.440170 0.000000
0.544934 0.436267 0.000000
0.575379 0.434895 0.000000
0.605824 0.433669 0.000000
0.636269 0.432565 0.000000
0.666714 0.431568 0.000000
0.697159 0.430661 0.000000
0.727604 0.429834 0.000000
0.758050 0.429076 0.000000
0.788495 0.428379 0.000000
0.818940 0.427735 0.000000
0.849385 0.427140 0.000000
0.879830 0.426587 0.000000
0.910275 0.426072 0.000000
0.940720 0.425592 0.000000
0.971165 0.425143 0.000000
1.000000 0.424967 0.001610
0.000000 0.473520 0.000000
0.031568 0.473520 0.000000
0.063136 0.473520 0.000000
0.094704 0.473520 0.000000
0.126272 0.473520 0.000000
0.157840 0.473520 0.000000
0.189408 0.473520 0.000000
0.220976 0.473520 0.000000
0.252544 0.473520 0.000000
0.284112 0.473520 0.000000
0.315680 0.473520 0.000000
0.347248 0.473520 0.000000
0.378816 0.473520 0.000000
0.410384 0.473520 0.000000
0.441952 0.473520 0.000000
0.473520 0.473520 0.000000
0.502856 0.471611 0.000000
0.544934 0.467429 0.000000
0.575379 0.465959 0.000000
0.605824 0.464645 0.000000
0.636269 0.463463 0.000000
0.666714 0.462394 0.000000
0.697159 0.461423 0.000000
0.727604 0.460536 0.000000
0.758050 0.459724 0.000000
0.788495 0.458977 0.000000
0.818940 0.458288 0.000000
0.849385 0.457650 0.000000
0.879830 0.457057 0.000000
0.910275 0.456506 0.000000
0.940720 0.455992 0.000000
0.971165 0.455511 0.000000
1.000000 0.455207 0.001610
0.000000 0.502856 0.000000
0.031441 0.502856 0.000000
0.062881 0.502856 0.000000
0.094322 0.502856 0.000000
0.125763 0.502856 0.000000
0.157204 0.502856 0.000000
0.188644 0.502856 0.000000
0.220085 0.502856 0.000000
0.251526 0.502856 0.000000
0.282967 0.502856 0.000000
0.314407 0.502856 0.000000
0.345848 0.502856 0.000000
0.377289 0.502856 0.000000
0.408730 0.502856 0.000000
0.440170 0.502856 0.000000
0.471611 0.502856 0.000000
0.502856 0.502856 0.000000
0.544934 0.498397 0.000000
0.575379 0.496829 0.000000
0.605824 0.495428 0.000000
0.636269 0.494167 0.000000
0.666714 0.493028 0.000000
0.697159 0.491992 0.000000
0.727604 0.491047 0.000000
0.758050 0.490181 0.000000
0.788495 0.489384 0.000000
0.818940 0.488649 0.000000
0.849385 0.510703 0.000000
0.879830 0.510105 0.000000
0.910275 0.509552 0.000000
0.940720 0.509040 0.000000
0.971165 0.508565 0.000000
1.000000 0.508100 0.001610
0.000000 0.544934 0.000000
0.031162 0.544934 0.000000
0.062324 0.544934 0.000000
0.093486 0.544934 0.000000
0.124648 0.544934 0.000000
0.155810 0.544934 0.000000
0.186972 0.544934 0.000000
0.218134 0.544934 0.000000
0.249296 0.544934 0.000000
0.280457 0.544934 0.000000
0.311619 0.544934 0.000000
0.342781 0.544934 0.000000
0.373943 0.544934 0.000000
0.405105 0.544934 0.000000
0.436267 0.544934 0.000000
0.467429 0.544934 0.000000
0.498397 0.544934 0.000000
0.544934 0.544934 0.000000
0.575379 0.543284 0.000000
0.605824 0.541815 0.000000
0.636269 0.540499 0.000000
0.666714 0.539316 0.000000
0.697159 0.538246 0.000000
0.727604 0.537275 0.000000
0.758050 0.536390 0.000000
0.788495 0.535581 0.000000
0.818940 0.534839 0.000000
0.849385 0.534156 0.000000
0.879830 0.533527 0.000000
0.910275 0.532946 0.000000
0.940720 0.532408 0.000000
0.971165 0.531908 0.000000
1.000000 0.531345 0.001610
0.000000 0.575379 0.000000
0.031064 0.575379 0.000000
0.062128 0.575379 0.000000
0.093192 0.575379 0.000000
0.124256 0.575379 0.000000
0.155320 0.575379 0.000000
0.186384 0.575379 0.000000
0.217448 0.575379 0.000000
0.248512 0.575379 0.000000
0.279576 0.575379 0.000000
0.310640 0.575379 0.000000
0.341703 0.575379 0.000000
0.372767 0.575379 0.000000
0.403831 0.575379 0.000000
0.434895 0.575379 0.000000
0.465959 0.575379 0.000000
0.496829 0.575379 0.000000
0.543284 0.575379 0.000000
0.575379 0.575379 0.000000
0.605824 0.573819 0.000000
0.636269 0.572423 0.000000
0.666714 0.571165 0.000000
0.697159 0.570029 0.000000
0.727604 0.568996 0.000000
0.758050 0.568055 0.000000
0.788495 0.567195 0.000000
0.818940 0.566405 0.000000
0.849385 0.565679 0.000000
0.879830 0.565010 0.000000
0.910275 0.564390 0.000000
0.940720 0.563816 0.000000
0.971165 0.563284 0.000000
1.000000 0.562589 0.001610
0.000000 0.605824 0.000000
0.030976 0.605824 0.000000
0.061953 0.605824 0.000000
0.092929 0.605824 0.000000
0.123905 0.605824 0.000000
0.154882 0.605824 0.000000
0.185858 0.605824 0.000000
0.216834 0.605824 0.000000
0.247811 0.605824 0.000000
0.278787 0.605824 0.000000
0.309763 0.605824 0.000000
0.340740 0.605824 0.000000
0.371716 0.605824 0.000000
0.402692 0.605824 0.000000
0.433669 0.605824 0.000000
0.464645 0.605824 0.000000
0.495428 0.605824 0.000000
0.541815 0.605824 0.000000
0.573819 0.605824 0.000000
0.605824 0.605824 0.000000
0.636269 0.604346 0.000000
0.666714 0.603015 0.000000
0.697159 0.601811 0.000000
0.727604 0.600718 0.000000
0.758050 0.599721 0.000000
0.788495 0.598809 0.000000
0.818940 0.597972 0.000000
0.849385 0.597202 0.000000
0.879830 0.596492 0.000000
0.910275 0.595834 0.000000
0.940720 0.595225 0.000000
0.971165 0.594659 0.000000
1.000000 0.593832 0.001610
0.000000 0.636269 0.000000
0.030898 0.636269 0.000000
0.061795 0.636269 0.000000
0.092693 0.636269 0.000000
0.123590 0.636269 0.000000
0.154488 0.636269 0.000000
0.185385 0.636269 0.000000
0.216283 0.636269 0.000000
0.247180 0.636269 0.000000
0.278078 0.636269 0.000000
0.308975 0.636269 0.000000
0.339873 0.636269 0.000000
0.370770 0.636269 0.000000
0.401668 0.636269 0.000000
0.432565 0.636269 0.000000
0.463463 0.636269 0.000000
0.494167 0.636269 0.000000
0.540499 0.636269 0.000000
0.572423 0.636269 0.000000
0.604346 0.636269 0.000000
0.636269 0.636269 0.000000
0.666714 0.634865 0.000000
0.697159 0.633594 0.000000
0.727604 0.632440 0.000000
0.758050 0.631387 0.000000
0.788495 0.630423 0.000000
0.818940 0.629539 0.000000
0.849385 0.628725 0.000000
0.879830 0.627974 0.000000
0.910275 0.627278 0.000000
0.940720 0.626634 0.000000
0.971165 0.626035 0.000000
1.000000 0.625076 0.001610
0.000000 0.666714 0.000000
0.030826 0.666714 0.000000
0.061653 0.666714 0.000000
0.092479 0.666714 0.000000
0.123305 0.666714 0.000000
0.154131 0.666714 0.000000
0.184958 0.666714 0.000000
0.215784 0.666714 0.000000
0.246610 0.666714 0.000000
0.277436 0.666714 0.000000
0.308263 0.666714 0.000000
0.339089 0.666714 0.000000
0.369915 0.666714 0.000000
0.400741 0.666714 0.000000
0.431568 0.666714 0.000000
0.462394 0.666714 0.000000
0.493028 0.666714 0.000000
0.539316 0.666714 0.000000
0.571165 0.666714 0.000000
0.603015 0.666714 0.000000
0.634865 0.666714 0.000000
0.666714 0.666714 0.000000
0.697159 0.665377 0.000000
0.727604 0.664161 0.000000
0.758050 0.663052 0.000000
0.788495 0.662038 0.000000
0.818940 0.661106 0.000000
0.849385 0.660248 0.000000
0.879830 0.659456 0.000000
0.910275 0.658722 0.000000
0.940720 0.658042 0.000000
0.971165 0.657410 0.000000
1.000000 0.656320 0.001610
0.000000 0.697159 0.000000
0.030762 0.697159 0.000000
0.061523 0.697159 0.000000
0.092285 0.697159 0.000000
0.123046 0.697159 0.000000
0.153808 0.697159 0.000000
0.184569 0.697159 0.000000
0.215331 0.697159 0.000000
0.246092 0.697159 0.000000
0.276854 0.697159 0.000000
0.307615 0.697159 0.000000
0.338377 0.697159 0.000000
0.369138 0.697159 0.000000
0.399900 0.697159 0.000000
0.430661 0.697159 0.000000
0.461423 0.697159 0.000000
0.491992 0.697159 0.000000
0.538246 0.697159 0.000000
0.570029 0.697159 0.000000
0.601811 0.697159 0.000000
0.633594 0.697159 0.000000
0.665377 0.697159 0.000000
0.697159 0.697159 0.000000
0.727604 0.695883 0.000000
0.758050 0.694718 0.000000
0.788495 0.693652 0.000000
0.818940 0.692673 0.000000
0.849385 0.691771 0.000000
0.879830 0.690938 0.000000
0.910275 0.690167 0.000000
0.940720 0.689451 0.000000
0.971165 0.688786 0.000000
1.000000 0.687563 0.001610
0.000000 0.727604 0.000000
0.030702 0.727604 0.000000
0.061405 0.727604 0.000000
0.092107 0.727604 0.000000
0.122810 0.727604 0.000000
0.153512 0.727604 0.000000
0.184214 0.727604 0.000000
0.214917 0.727604 0.000000
0.245619 0.727604 0.000000
0.276322 0.727604 0.000000
0.307024 0.727604 0.000000
0.337727 0.727604 0.000000
0.368429 0.727604 0.000000
0.399131 0.727604 0.000000
0.429834 0.727604 0.000000
0.460536 0.727604 0.000000
0.491047 0.727604 0.000000
0.537275 0.727604 0.000000
0.568996 0.727604 0.000000
0.600718 0.727604 0.000000
0.632440 0.727604 0.000000
0.664161 0.727604 0.000000
0.695883 0.727604 0.000000
0.727604 0.727604 0.000000
0.758050 0.726384 0.000000
0.788495 0.725266 0.000000
0.818940 0.724239 0.000000
0.849385 0.723294 0.000000
0.879830 0.722420 0.000000
0.910275 0.721611 0.000000
0.940720 0.720860 0.000000
0.971165 0.720161 0.000000
1.000000 0.718807 0.001610
0.000000 0.758050 0.000000
0.030648 0.758050 0.000000
0.061297 0.758050 0.000000
0.091945 0.758050 0.000000
0.122593 0.758050 0.000000
0.153241 0.758050 0.000000
0.183890 0.758050 0.000000
0.214538 0.758050 0.000000
0.245186 0.758050 0.000000
0.275834 0.758050 0.000000
0.306483 0.758050 0.000000
0.337131 0.758050 0.000000
0.367779 0.758050 0.000000
0.398427 0.758050 0.000000
0.429076 0.758050 0.000000
0.459724 0.758050 0.000000
0.490181 0.758050 0.000000
0.536390 0.758050 0.000000
0.568055 0.758050 0.000000
0.599721 0.758050 0.000000
0.631387 0.758050 0.000000
0.663052 0.758050 0.000000
0.694718 0.758050 0.000000
0.726384 0.758050 0.000000
0.758050 0.758050 0.000000
0.788495 0.756880 0.000000
0.818940 0.755806 0.000000
0.849385 0.754816 0.000000
0.879830 0.753902 0.000000
0.910275 0.753055 0.000000
0.940720 0.752268 0.000000
0.971165 0.751537 0.000000
1.000000 0.750051 0.001610
0.000000 0.788495 0.000000
0.030598 0.788495 0.000000
0.061197 0.788495 0.000000
0.091795 0.788495 0.000000
0.122394 0.788495 0.000000
0.152992 0.788495 0.000000
0.183591 0.788495 0.000000
0.214189 0.788495 0.000000
0.244788 0.788495 0.000000
0.275386 0.788495 0.000000
0.305985 0.788495 0.000000
0.336583 0.788495 0.000000
0.367182 0.788495 0.000000
0.397780 0.788495 0.000000
0.428379 0.788495 0.000000
0.458977 0.788495 0.000000
0.489384 0.788495 0.000000
0.535581 0.788495 0.000000
0.567195 0.788495 0.000000
0.598809 0.788495 0.000000
0.630423 0.788495 0.000000
0.662038 0.788495 0.000000
0.693652 0.788495 0.000000
0.725266 0.788495 0.000000
0.756880 0.788495 0.000000
0.788495 0.788495 0.000000
0.818940 0.787373 0.000000
0.849385 0.786339 0.000000
0.879830 0.785384 0.000000
0.910275 0.784499 0.000000
0.940720 0.783677 0.000000
0.971165 0.782912 0.000000
1.000000 0.781294 0.001610
0.000000 0.818940 0.000000
0.030553 0.818940 0.000000
0.061105 0.818940 0.000000
0.091658 0.818940 0.000000
0.122210 0.818940 0.000000
0.152763 0.818940 0.000000
0.183315 0.818940 0.000000
0.213868 0.818940 0.000000
0.244420 0.818940 0.000000
0.274973 0.818940 0.000000
0.305525 0.818940 0.000000
0.336078 0.818940 0.000000
0.366630 0.818940 0.000000
0.397183 0.818940 0.000000
0.427735 0.818940 0.000000
0.458288 0.818940 0.000000
0.488649 0.818940 0.000000
0.534839 0.818940 0.000000
0.566405 0.818940 0.000000
0.597972 0.818940 0.000000
0.629539 0.818940 0.000000
0.661106 0.818940 0.000000
0.692673 0.818940 0.000000
0.724239 0.818940 0.000000
