docs/luts/fuji_recipes/NEGA_RR_Warm_Contrast.cube
TITLE "Fujifilm Recipe: RR Warm Contrast (NEGA)"
# FilmSim=NEGA HL=1 SH=3 Col=4 WB=Auto WBR=-2 WBB=-4
LUT_3D_SIZE 33
DOMAIN_MIN 0.0 0.0 0.0
DOMAIN_MAX 1.0 1.0 1.0
0.014080 0.014080 0.014080
0.055526 0.004948 0.004948
0.089240 0.000000 0.000000
0.117517 0.000000 0.000000
0.145795 0.000000 0.000000
0.174072 0.000000 0.000000
0.202350 0.000000 0.000000
0.230628 0.000000 0.000000
0.258905 0.000000 0.000000
0.287183 0.000000 0.000000
0.315461 0.000000 0.000000
0.343738 0.000000 0.000000
0.372016 0.000000 0.000000
0.400294 0.000000 0.000000
0.428571 0.000000 0.000000
0.456782 0.000000 0.000000
0.538541 0.000000 0.000000
0.571459 0.000000 0.000000
0.604377 0.000000 0.000000
0.637294 0.000000 0.000000
0.670212 0.000000 0.000000
0.703130 0.000000 0.000000
0.736048 0.000000 0.000000
0.768966 0.000000 0.000000
0.801884 0.000000 0.000000
0.834801 0.000000 0.000000
0.867719 0.000000 0.000000
0.900637 0.000000 0.000000
0.933555 0.000000 0.000000
0.964201 0.000000 0.000000
0.964201 0.000000 0.000000
0.964201 0.000000 0.000000
0.964201 0.000000 0.000000
0.004467 0.057707 0.004467
0.055045 0.057707 0.004467
0.089240 0.049697 0.000000
0.117517 0.044734 0.000000
0.145795 0.042157 0.000000
0.174072 0.040579 0.000000
0.202350 0.039514 0.000000
0.230628 0.038746 0.000000
0.258905 0.038166 0.000000
0.287183 0.037713 0.000000
0.315461 0.037349 0.000000
0.343738 0.037050 0.000000
0.372016 0.036800 0.000000
0.400294 0.036589 0.000000
0.428571 0.036407 0.000000
0.456782 0.036250 0.000000
0.538541 0.035475 0.000000
0.571459 0.035356 0.000000
0.604377 0.035251 0.000000
0.637294 0.035158 0.000000
0.670212 0.035074 0.000000
0.703130 0.034998 0.000000
0.736048 0.034929 0.000000
0.768966 0.034867 0.000000
0.801884 0.034810 0.000000
0.834801 0.034757 0.000000
0.867719 0.034709 0.000000
0.900637 0.034664 0.000000
0.933555 0.034622 0.000000
0.964201 0.034586 0.000000
0.964201 0.034586 0.000000
0.964201 0.034586 0.000000
0.964201 0.034586 0.000000
0.000000 0.092454 0.000000
0.046467 0.092454 0.000000
0.087832 0.092454 0.000000
0.117517 0.084556 0.000000
0.145795 0.079685 0.000000
0.174072 0.076703 0.000000
0.202350 0.074688 0.000000
0.230628 0.073237 0.000000
0.258905 0.072141 0.000000
0.287183 0.071284 0.000000
0.315461 0.070596 0.000000
0.343738 0.070031 0.000000
0.372016 0.069560 0.000000
0.400294 0.069160 0.000000
0.428571 0.068816 0.000000
0.456782 0.068518 0.000000
0.538541 0.067054 0.000000
0.571459 0.066830 0.000000
0.604377 0.066631 0.000000
0.637294 0.066455 0.000000
0.670212 0.066296 0.000000
0.703130 0.066153 0.000000
0.736048 0.066023 0.000000
0.768966 0.065905 0.000000
0.801884 0.065797 0.000000
0.834801 0.065697 0.000000
0.867719 0.065606 0.000000
0.900637 0.065521 0.000000
0.933555 0.065443 0.000000
0.964201 0.065375 0.000000
0.964201 0.065375 0.000000
0.964201 0.065375 0.000000
0.964201 0.065375 0.000000
0.000000 0.122220 0.000000
0.041988 0.122220 0.000000
0.079366 0.122220 0.000000
0.116109 0.122220 0.000000
0.145795 0.116577 0.000000
0.174072 0.112213 0.000000
0.202350 0.109266 0.000000
0.230628 0.107142 0.000000
0.258905 0.105539 0.000000
0.287183 0.104286 0.000000
0.315461 0.103280 0.000000
0.343738 0.102453 0.000000
0.372016 0.101763 0.000000
0.400294 0.101178 0.000000
0.428571 0.100675 0.000000
0.456782 0.100240 0.000000
0.538541 0.098097 0.000000
0.571459 0.097769 0.000000
0.604377 0.097479 0.000000
0.637294 0.097221 0.000000
0.670212 0.096988 0.000000
0.703130 0.096779 0.000000
0.736048 0.096589 0.000000
0.768966 0.096416 0.000000
0.801884 0.096258 0.000000
0.834801 0.096113 0.000000
0.867719 0.095979 0.000000
0.900637 0.095855 0.000000
0.933555 0.095740 0.000000
0.964201 0.095641 0.000000
0.964201 0.095641 0.000000
0.964201 0.095641 0.000000
0.964201 0.095641 0.000000
0.000000 0.151986 0.000000
0.039663 0.151986 0.000000
0.074970 0.151986 0.000000
0.109678 0.151986 0.000000
0.144387 0.151986 0.000000
0.174072 0.147724 0.000000
0.202350 0.143844 0.000000
0.230628 0.141048 0.000000
0.258905 0.138938 0.000000
0.287183 0.137288 0.000000
0.315461 0.135963 0.000000
0.343738 0.134876 0.000000
0.372016 0.133967 0.000000
0.400294 0.133196 0.000000
0.428571 0.132535 0.000000
0.456782 0.131961 0.000000
0.538541 0.129140 0.000000
0.571459 0.128709 0.000000
0.604377 0.128327 0.000000
0.637294 0.127987 0.000000
0.670212 0.127681 0.000000
0.703130 0.127405 0.000000
0.736048 0.127155 0.000000
0.768966 0.126928 0.000000
0.801884 0.126719 0.000000
0.834801 0.126528 0.000000
0.867719 0.126352 0.000000
0.900637 0.126189 0.000000
0.933555 0.126038 0.000000
0.964201 0.125907 0.000000
0.964201 0.125907 0.000000
0.964201 0.125907 0.000000
0.964201 0.125907 0.000000
0.000000 0.181752 0.000000
0.038239 0.181752 0.000000
0.072278 0.181752 0.000000
0.105740 0.181752 0.000000
0.139202 0.181752 0.000000
0.172664 0.181752 0.000000
0.202350 0.178422 0.000000
0.230628 0.174954 0.000000
0.258905 0.172336 0.000000
0.287183 0.170290 0.000000
0.315461 0.168647 0.000000
0.343738 0.167298 0.000000
0.372016 0.166170 0.000000
0.400294 0.165215 0.000000
0.428571 0.164394 0.000000
0.456782 0.163683 0.000000
0.538541 0.160184 0.000000
0.571459 0.159649 0.000000
0.604377 0.159175 0.000000
0.637294 0.158753 0.000000
0.670212 0.158374 0.000000
0.703130 0.158032 0.000000
0.736048 0.157722 0.000000
0.768966 0.157439 0.000000
0.801884 0.157181 0.000000
0.834801 0.156944 0.000000
0.867719 0.156725 0.000000
0.900637 0.156523 0.000000
0.933555 0.156335 0.000000
0.964201 0.156173 0.000000
0.964201 0.156173 0.000000
0.964201 0.156173 0.000000
0.964201 0.156173 0.000000
0.000000 0.211518 0.000000
0.037277 0.211518 0.000000
0.070460 0.211518 0.000000
0.103081 0.211518 0.000000
0.135701 0.211518 0.000000
0.168322 0.211518 0.000000
0.200942 0.211518 0.000000
0.230628 0.208860 0.000000
0.258905 0.205735 0.000000
0.287183 0.203292 0.000000
0.315461 0.201330 0.000000
0.343738 0.199720 0.000000
0.372016 0.198374 0.000000
0.400294 0.197233 0.000000
0.428571 0.196253 0.000000
0.456782 0.195404 0.000000
0.538541 0.191227 0.000000
0.571459 0.190589 0.000000
0.604377 0.190023 0.000000
0.637294 0.189519 0.000000
0.670212 0.189066 0.000000
0.703130 0.188658 0.000000
0.736048 0.188288 0.000000
0.768966 0.187951 0.000000
0.801884 0.187642 0.000000
0.834801 0.187359 0.000000
0.867719 0.187098 0.000000
0.900637 0.186857 0.000000
0.933555 0.186633 0.000000
0.964201 0.186439 0.000000
0.964201 0.186439 0.000000
0.964201 0.186439 0.000000
0.964201 0.186439 0.000000
0.000000 0.241284 0.000000
0.036584 0.241284 0.000000
0.069150 0.241284 0.000000
0.101164 0.241284 0.000000
0.133178 0.241284 0.000000
0.165192 0.241284 0.000000
0.197206 0.241284 0.000000
0.229220 0.241284 0.000000
0.258905 0.239133 0.000000
0.287183 0.236294 0.000000
0.315461 0.234013 0.000000
0.343738 0.232142 0.000000
0.372016 0.230578 0.000000
0.400294 0.229251 0.000000
0.428571 0.228112 0.000000
0.456782 0.227126 0.000000
0.538541 0.222271 0.000000
0.571459 0.221528 0.000000
0.604377 0.220871 0.000000
0.637294 0.220285 0.000000
0.670212 0.219759 0.000000
0.703130 0.219284 0.000000
0.736048 0.218854 0.000000
0.768966 0.218462 0.000000
0.801884 0.218104 0.000000
0.834801 0.217774 0.000000
0.867719 0.217471 0.000000
0.900637 0.217191 0.000000
0.933555 0.216931 0.000000
0.964201 0.216705 0.000000
0.964201 0.216705 0.000000
0.964201 0.216705 0.000000
0.964201 0.216705 0.000000
0.000000 0.271050 0.000000
0.036060 0.271050 0.000000
0.068161 0.271050 0.000000
0.099717 0.271050 0.000000
0.131273 0.271050 0.000000
0.162829 0.271050 0.000000
0.194385 0.271050 0.000000
0.225941 0.271050 0.000000
0.257497 0.271050 0.000000
0.287183 0.269296 0.000000
0.315461 0.266697 0.000000
0.343738 0.264564 0.000000
0.372016 0.262781 0.000000
0.400294 0.261270 0.000000
0.428571 0.259972 0.000000
0.456782 0.258847 0.000000
0.538541 0.253314 0.000000
0.571459 0.252468 0.000000
0.604377 0.251719 0.000000
0.637294 0.251051 0.000000
0.670212 0.250451 0.000000
0.703130 0.249911 0.000000
0.736048 0.249420 0.000000
0.768966 0.248974 0.000000
0.801884 0.248565 0.000000
0.834801 0.248190 0.000000
0.867719 0.247844 0.000000
0.900637 0.247524 0.000000
0.933555 0.247228 0.000000
0.964201 0.246971 0.000000
0.964201 0.246971 0.000000
0.964201 0.246971 0.000000
0.964201 0.246971 0.000000
0.000000 0.300816 0.000000
0.035651 0.300816 0.000000
0.067388 0.300816 0.000000
0.098586 0.300816 0.000000
0.129784 0.300816 0.000000
0.160982 0.300816 0.000000
0.192181 0.300816 0.000000
0.223379 0.300816 0.000000
0.254577 0.300816 0.000000
0.285775 0.300816 0.000000
0.315461 0.299380 0.000000
0.343738 0.296986 0.000000
0.372016 0.294985 0.000000
0.400294 0.293288 0.000000
0.428571 0.291831 0.000000
0.456782 0.290569 0.000000
0.538541 0.284357 0.000000
0.571459 0.283408 0.000000
0.604377 0.282567 0.000000
0.637294 0.281817 0.000000
0.670212 0.281144 0.000000
0.703130 0.280537 0.000000
0.736048 0.279987 0.000000
0.768966 0.279485 0.000000
0.801884 0.279026 0.000000
0.834801 0.278605 0.000000
0.867719 0.278217 0.000000
0.900637 0.277858 0.000000
0.933555 0.277526 0.000000
0.964201 0.277237 0.000000
0.964201 0.277237 0.000000
0.964201 0.277237 0.000000
0.964201 0.277237 0.000000
0.000000 0.330582 0.000000
0.035323 0.330582 0.000000
0.066767 0.330582 0.000000
0.097678 0.330582 0.000000
0.128588 0.330582 0.000000
0.159499 0.330582 0.000000
0.190410 0.330582 0.000000
0.221321 0.330582 0.000000
0.252231 0.330582 0.000000
0.283142 0.330582 0.000000
0.314053 0.330582 0.000000
0.343738 0.329408 0.000000
0.372016 0.327188 0.000000
0.400294 0.325306 0.000000
0.428571 0.323690 0.000000
0.456782 0.322290 0.000000
0.538541 0.315401 0.000000
0.571459 0.314347 0.000000
0.604377 0.313415 0.000000
0.637294 0.312583 0.000000
0.670212 0.311837 0.000000
0.703130 0.311163 0.000000
0.736048 0.310553 0.000000
0.768966 0.309997 0.000000
0.801884 0.309488 0.000000
0.834801 0.309021 0.000000
0.867719 0.308590 0.000000
0.900637 0.308192 0.000000
0.933555 0.307823 0.000000
0.964201 0.307503 0.000000
0.964201 0.307503 0.000000
0.964201 0.307503 0.000000
0.964201 0.307503 0.000000
0.000000 0.360348 0.000000
0.035053 0.360348 0.000000
0.066257 0.360348 0.000000
0.096932 0.360348 0.000000
0.127607 0.360348 0.000000
0.158282 0.360348 0.000000
0.188956 0.360348 0.000000
0.219631 0.360348 0.000000
0.250306 0.360348 0.000000
0.280981 0.360348 0.000000
0.311655 0.360348 0.000000
0.342330 0.360348 0.000000
0.372016 0.359392 0.000000
0.400294 0.357325 0.000000
0.428571 0.355550 0.000000
0.456782 0.354012 0.000000
0.538541 0.346444 0.000000
0.571459 0.345287 0.000000
0.604377 0.344263 0.000000
0.637294 0.343349 0.000000
0.670212 0.342529 0.000000
0.703130 0.341790 0.000000
0.736048 0.341119 0.000000
0.768966 0.340508 0.000000
0.801884 0.339949 0.000000
0.834801 0.339436 0.000000
0.867719 0.338963 0.000000
0.900637 0.338526 0.000000
0.933555 0.338121 0.000000
0.964201 0.337769 0.000000
0.964201 0.337769 0.000000
0.964201 0.337769 0.000000
0.964201 0.337769 0.000000
0.000000 0.390114 0.000000
0.034828 0.390114 0.000000
0.065832 0.390114 0.000000
0.096309 0.390114 0.000000
0.126787 0.390114 0.000000
0.157264 0.390114 0.000000
0.187742 0.390114 0.000000
0.218220 0.390114 0.000000
0.248697 0.390114 0.000000
0.279175 0.390114 0.000000
0.309653 0.390114 0.000000
0.340130 0.390114 0.000000
0.370608 0.390114 0.000000
0.400294 0.389343 0.000000
0.428571 0.387409 0.000000
0.456782 0.385733 0.000000
0.538541 0.377488 0.000000
0.571459 0.376227 0.000000
0.604377 0.375110 0.000000
0.637294 0.374115 0.000000
0.670212 0.373222 0.000000
0.703130 0.372416 0.000000
0.736048 0.371685 0.000000
0.768966 0.371020 0.000000
0.801884 0.370411 0.000000
0.834801 0.369852 0.000000
0.867719 0.369336 0.000000
0.900637 0.368860 0.000000
0.933555 0.368418 0.000000
0.964201 0.368035 0.000000
0.964201 0.368035 0.000000
0.964201 0.368035 0.000000
0.964201 0.368035 0.000000
0.000000 0.419879 0.000000
0.034637 0.419879 0.000000
0.065470 0.419879 0.000000
0.095781 0.419879 0.000000
0.126091 0.419879 0.000000
0.156402 0.419879 0.000000
0.186712 0.419879 0.000000
0.217023 0.419879 0.000000
0.247333 0.419879 0.000000
0.277644 0.419879 0.000000
0.307954 0.419879 0.000000
0.338265 0.419879 0.000000
0.368575 0.419879 0.000000
0.398886 0.419879 0.000000
0.428571 0.419268 0.000000
0.456782 0.417455 0.000000
0.538541 0.408531 0.000000
0.571459 0.407167 0.000000
0.604377 0.405958 0.000000
0.637294 0.404881 0.000000
0.670212 0.403914 0.000000
0.703130 0.403042 0.000000
0.736048 0.402252 0.000000
0.768966 0.401531 0.000000
0.801884 0.400872 0.000000
0.834801 0.400267 0.000000
0.867719 0.399709 0.000000
0.900637 0.399194 0.000000
0.933555 0.398716 0.000000
0.964201 0.398301 0.000000
0.964201 0.398301 0.000000
0.964201 0.398301 0.000000
0.964201 0.398301 0.000000
0.000000 0.449645 0.000000
0.034473 0.449645 0.000000
0.065160 0.449645 0.000000
0.095327 0.449645 0.000000
0.125494 0.449645 0.000000
0.155661 0.449645 0.000000
0.185828 0.449645 0.000000
0.215995 0.449645 0.000000
0.246162 0.449645 0.000000
0.276329 0.449645 0.000000
0.306496 0.449645 0.000000
0.336662 0.449645 0.000000
0.366829 0.449645 0.000000
0.396996 0.449645 0.000000
0.427163 0.449645 0.000000
0.456782 0.449177 0.000000
0.538541 0.439574 0.000000
0.571459 0.438106 0.000000
0.604377 0.436806 0.000000
0.637294 0.435647 0.000000
0.670212 0.434607 0.000000
0.703130 0.433669 0.000000
0.736048 0.432818 0.000000
0.768966 0.432043 0.000000
0.801884 0.431334 0.000000
0.834801 0.430682 0.000000
0.867719 0.430082 0.000000
0.900637 0.429528 0.000000
0.933555 0.429014 0.000000
0.964201 0.428567 0.000000
0.964201 0.428567 0.000000
0.964201 0.428567 0.000000
0.964201 0.428567 0.000000
0.000000 0.472223 0.000000
0.034363 0.472223 0.000000
0.064953 0.472223 0.000000
0.095024 0.472223 0.000000
0.125095 0.472223 0.000000
0.155165 0.472223 0.000000
0.185236 0.472223 0.000000
0.215307 0.472223 0.000000
0.245378 0.472223 0.000000
0.275449 0.472223 0.000000
0.305520 0.472223 0.000000
0.335590 0.472223 0.000000
0.365661 0.472223 0.000000
0.395732 0.472223 0.000000
0.425803 0.472223 0.000000
0.455803 0.472223 0.000000
0.538541 0.463121 0.000000
0.571459 0.461574 0.000000
0.604377 0.528729 0.000000
0.637294 0.527587 0.000000
0.670212 0.526587 0.000000
0.703130 0.525710 0.000000
0.736048 0.524937 0.000000
0.768966 0.524256 0.000000
0.801884 0.523653 0.000000
0.834801 0.523121 0.000000
0.867719 0.522649 0.000000
0.900637 0.522232 0.000000
0.933555 0.521864 0.000000
0.964201 0.521560 0.000000
0.964201 0.521560 0.000000
0.964201 0.521560 0.000000
0.964201 0.521560 0.000000
0.000000 0.566538 0.000000
0.033604 0.566538 0.000000
0.063518 0.566538 0.000000
0.092925 0.566538 0.000000
0.122332 0.566538 0.000000
0.151738 0.566538 0.000000
0.181145 0.566538 0.000000
0.210552 0.566538 0.000000
0.239958 0.566538 0.000000
0.269365 0.566538 0.000000
0.298772 0.566538 0.000000
0.328179 0.566538 0.000000
0.357585 0.566538 0.000000
0.386992 0.566538 0.000000
0.416399 0.566538 0.000000
0.445736 0.566538 0.000000
0.537220 0.566538 0.000000
0.571459 0.566309 0.000000
0.604377 0.564890 0.000000
0.637294 0.563651 0.000000
0.670212 0.562566 0.000000
0.703130 0.561610 0.000000
0.736048 0.560767 0.000000
0.768966 0.560022 0.000000
0.801884 0.559361 0.000000
0.834801 0.558774 0.000000
0.867719 0.558253 0.000000
0.900637 0.557790 0.000000
0.933555 0.557379 0.000000
0.964201 0.557038 0.000000
0.964201 0.557038 0.000000
0.964201 0.557038 0.000000
0.964201 0.557038 0.000000
0.000000 0.601189 0.000000
0.033498 0.601189 0.000000
0.063317 0.601189 0.000000
0.092631 0.601189 0.000000
0.121944 0.601189 0.000000
0.151258 0.601189 0.000000
0.180571 0.601189 0.000000
0.209885 0.601189 0.000000
0.239198 0.601189 0.000000
0.268512 0.601189 0.000000
0.297825 0.601189 0.000000
0.327139 0.601189 0.000000
0.356452 0.601189 0.000000
0.385766 0.601189 0.000000
0.415079 0.601189 0.000000
0.444324 0.601189 0.000000
0.535793 0.601189 0.000000
0.570155 0.601189 0.000000
0.604377 0.601050 0.000000
0.637294 0.599715 0.000000
0.670212 0.598544 0.000000
0.703130 0.597511 0.000000
0.736048 0.596597 0.000000
0.768966 0.595787 0.000000
0.801884 0.595068 0.000000
0.834801 0.594427 0.000000
0.867719 0.593856 0.000000
0.900637 0.593348 0.000000
0.933555 0.592894 0.000000
0.964201 0.592516 0.000000
0.964201 0.592516 0.000000
0.964201 0.592516 0.000000
0.964201 0.592516 0.000000
0.000000 0.635839 0.000000
0.033404 0.635839 0.000000
0.063139 0.635839 0.000000
0.092370 0.635839 0.000000
0.121601 0.635839 0.000000
0.150832 0.635839 0.000000
0.180063 0.635839 0.000000
0.209294 0.635839 0.000000
0.238525 0.635839 0.000000
0.267756 0.635839 0.000000
0.296987 0.635839 0.000000
0.326218 0.635839 0.000000
0.355449 0.635839 0.000000
0.384680 0.635839 0.000000
0.413911 0.635839 0.000000
0.443073 0.635839 0.000000
0.534559 0.635839 0.000000
0.568824 0.635839 0.000000
0.603089 0.635839 0.000000
0.637294 0.635780 0.000000
0.670212 0.634522 0.000000
0.703130 0.633411 0.000000
0.736048 0.632427 0.000000
0.768966 0.631553 0.000000
0.801884 0.630775 0.000000
0.834801 0.630080 0.000000
0.867719 0.629460 0.000000
0.900637 0.628905 0.000000
0.933555 0.628409 0.000000
0.964201 0.627994 0.000000
0.964201 0.627994 0.000000
0.964201 0.627994 0.000000
0.964201 0.627994 0.000000
0.000000 0.670489 0.000000
0.033319 0.670489 0.000000
0.062980 0.670489 0.000000
0.092137 0.670489 0.000000
0.121295 0.670489 0.000000
0.150452 0.670489 0.000000
0.179610 0.670489 0.000000
0.208767 0.670489 0.000000
0.237924 0.670489 0.000000
0.267082 0.670489 0.000000
0.296239 0.670489 0.000000
0.325397 0.670489 0.000000
0.354554 0.670489 0.000000
0.383711 0.670489 0.000000
0.412869 0.670489 0.000000
0.441958 0.670489 0.000000
0.533487 0.670489 0.000000
0.567666 0.670489 0.000000
0.601844 0.670489 0.000000
0.636023 0.670489 0.000000
0.670202 0.670489 0.000000
0.703130 0.669312 0.000000
0.736048 0.668258 0.000000
0.768966 0.667319 0.000000
0.801884 0.666482 0.000000
0.834801 0.665734 0.000000
0.867719 0.665064 0.000000
0.900637 0.664463 0.000000
0.933555 0.663924 0.000000
0.964201 0.663472 0.000000
0.964201 0.663472 0.000000
0.964201 0.663472 0.000000
0.964201 0.663472 0.000000
0.000000 0.705140 0.000000
0.033244 0.705140 0.000000
0.062837 0.705140 0.000000
0.091929 0.705140 0.000000
0.121020 0.705140 0.000000
0.150111 0.705140 0.000000
0.179203 0.705140 0.000000
0.208294 0.705140 0.000000
0.237385 0.705140 0.000000
0.266477 0.705140 0.000000
0.295568 0.705140 0.000000
0.324660 0.705140 0.000000
0.353751 0.705140 0.000000
0.382842 0.705140 0.000000
0.411934 0.705140 0.000000
0.440957 0.705140 0.000000
0.532552 0.705140 0.000000
0.566653 0.705140 0.000000
0.600754 0.705140 0.000000
0.634855 0.705140 0.000000
0.668957 0.705140 0.000000
0.703058 0.705140 0.000000
0.736048 0.704088 0.000000
0.768966 0.703085 0.000000
0.801884 0.702189 0.000000
0.834801 0.701387 0.000000
0.867719 0.700667 0.000000
0.900637 0.700021 0.000000
0.933555 0.699439 0.000000
0.964201 0.698951 0.000000
0.964201 0.698951 0.000000
0.964201 0.698951 0.000000
0.964201 0.698951 0.000000
0.000000 0.739790 0.000000
0.033176 0.739790 0.000000
0.062709 0.739790 0.000000
0.091740 0.739790 0.000000
0.120772 0.739790 0.000000
0.149804 0.739790 0.000000
0.178836 0.739790 0.000000
0.207867 0.739790 0.000000
0.236899 0.739790 0.000000
0.265931 0.739790 0.000000
0.294963 0.739790 0.000000
0.323994 0.739790 0.000000
0.353026 0.739790 0.000000
0.382058 0.739790 0.000000
0.411090 0.739790 0.000000
0.440053 0.739790 0.000000
0.531733 0.739790 0.000000
0.565765 0.739790 0.000000
0.599796 0.739790 0.000000
0.633827 0.739790 0.000000
0.667859 0.739790 0.000000
0.701890 0.739790 0.000000
0.735921 0.739790 0.000000
0.768966 0.738851 0.000000
0.801884 0.737896 0.000000
0.834801 0.737040 0.000000
0.867719 0.736271 0.000000
0.900637 0.735578 0.000000
0.933555 0.734954 0.000000
0.964201 0.734429 0.000000
0.964201 0.734429 0.000000
0.964201 0.734429 0.000000
0.964201 0.734429 0.000000
0.000000 0.774441 0.000000
0.033114 0.774441 0.000000
0.062592 0.774441 0.000000
0.091569 0.774441 0.000000
0.120547 0.774441 0.000000
0.149525 0.774441 0.000000
0.178503 0.774441 0.000000
0.207480 0.774441 0.000000
0.236458 0.774441 0.000000
0.265436 0.774441 0.000000
0.294413 0.774441 0.000000
0.323391 0.774441 0.000000
0.352369 0.774441 0.000000
0.381347 0.774441 0.000000
0.410324 0.774441 0.000000
0.439234 0.774441 0.000000
0.531015 0.774441 0.000000
0.564983 0.774441 0.000000
0.598951 0.774441 0.000000
0.632919 0.774441 0.000000
0.666887 0.774441 0.000000
0.700855 0.774441 0.000000
0.734823 0.774441 0.000000
0.768791 0.774441 0.000000
0.801884 0.773604 0.000000
0.834801 0.772693 0.000000
0.867719 0.771874 0.000000
0.900637 0.771136 0.000000
0.933555 0.770470 0.000000
0.964201 0.769907 0.000000
0.964201 0.769907 0.000000
0.964201 0.769907 0.000000
0.964201 0.769907 0.000000
0.000000 0.809091 0.000000
0.033058 0.809091 0.000000
0.062485 0.809091 0.000000
0.091414 0.809091 0.000000
0.120342 0.809091 0.000000
0.149271 0.809091 0.000000
0.178199 0.809091 0.000000
0.207128 0.809091 0.000000
0.236056 0.809091 0.000000
0.264985 0.809091 0.000000
0.293913 0.809091 0.000000
0.322842 0.809091 0.000000
0.351770 0.809091 0.000000
0.380698 0.809091 0.000000
0.409627 0.809091 0.000000
0.438487 0.809091 0.000000
0.530384 0.809091 0.000000
0.564295 0.809091 0.000000
0.598205 0.809091 0.000000
0.632115 0.809091 0.000000
0.666025 0.809091 0.000000
0.699936 0.809091 0.000000
0.733846 0.809091 0.000000
0.767756 0.809091 0.000000
0.801666 0.809091 0.000000
0.834801 0.808347 0.000000
0.867719 0.807478 0.000000
0.900637 0.806694 0.000000
0.933555 0.805985 0.000000
0.964201 0.805385 0.000000
0.964201 0.805385 0.000000
0.964201 0.805385 0.000000
0.964201 0.805385 0.000000
0.000000 0.843741 0.000000
0.033006 0.843741 0.000000
0.062388 0.843741 0.000000
0.091271 0.843741 0.000000
0.120155 0.843741 0.000000
0.149038 0.843741 0.000000
0.177922 0.843741 0.000000
0.206805 0.843741 0.000000
0.235688 0.843741 0.000000
0.264572 0.843741 0.000000
0.293455 0.843741 0.000000
0.322339 0.843741 0.000000
0.351222 0.843741 0.000000
0.380106 0.843741 0.000000
0.408989 0.843741 0.000000
0.437804 0.843741 0.000000
0.529830 0.843741 0.000000
0.563687 0.843741 0.000000
0.597544 0.843741 0.000000
0.631402 0.843741 0.000000
0.665259 0.843741 0.000000
0.699117 0.843741 0.000000
0.732974 0.843741 0.000000
0.766831 0.843741 0.000000
0.800689 0.843741 0.000000
0.834546 0.843741 0.000000
0.867719 0.843082 0.000000
0.900637 0.842251 0.000000
0.933555 0.841500 0.000000
0.964201 0.840863 0.000000
0.964201 0.840863 0.000000
0.964201 0.840863 0.000000
0.964201 0.840863 0.000000
0.000000 0.878392 0.000000
0.032959 0.878392 0.000000
0.062299 0.878392 0.000000
0.091141 0.878392 0.000000
0.119983 0.878392 0.000000
0.148825 0.878392 0.000000
0.177667 0.878392 0.000000
0.206509 0.878392 0.000000
0.235351 0.878392 0.000000
0.264193 0.878392 0.000000
0.293035 0.878392 0.000000
0.321877 0.878392 0.000000
0.350719 0.878392 0.000000
0.379561 0.878392 0.000000
0.408403 0.878392 0.000000
0.437177 0.878392 0.000000
0.529341 0.878392 0.000000
0.563150 0.878392 0.000000
0.596959 0.878392 0.000000
0.630768 0.878392 0.000000
0.664577 0.878392 0.000000
0.698386 0.878392 0.000000
0.732195 0.878392 0.000000
0.766004 0.878392 0.000000
0.799813 0.878392 0.000000
0.833621 0.878392 0.000000
0.867430 0.878392 0.000000
0.900637 0.877809 0.000000
0.933555 0.877015 0.000000
0.964201 0.876342 0.000000
0.964201 0.876342 0.000000
0.964201 0.876342 0.000000
0.964201 0.876342 0.000000
0.000000 0.913042 0.000000
0.032915 0.913042 0.000000
0.062216 0.913042 0.000000
0.091020 0.913042 0.000000
0.119824 0.913042 0.000000
0.148628 0.913042 0.000000
0.177432 0.913042 0.000000
0.206236 0.913042 0.000000
0.235040 0.913042 0.000000
0.263844 0.913042 0.000000
0.292647 0.913042 0.000000
0.321451 0.913042 0.000000
0.350255 0.913042 0.000000
0.379059 0.913042 0.000000
0.407863 0.913042 0.000000
0.436599 0.913042 0.000000
0.528912 0.913042 0.000000
0.562676 0.913042 0.000000
0.596440 0.913042 0.000000
0.630204 0.913042 0.000000
0.663969 0.913042 0.000000
0.697733 0.913042 0.000000
0.731497 0.913042 0.000000
0.765261 0.913042 0.000000
