docs/luts/fuji_recipes/NEGAhi_NZD_Portra_400.cube
TITLE "Fujifilm Recipe: NZD Portra 400 (NEGAhi)"
# FilmSim=NEGAhi HL=-1 SH=1 Col=-2 WB=Auto WBR=0 WBB=0
LUT_3D_SIZE 9
DOMAIN_MIN 0.0 0.0 0.0
DOMAIN_MAX 1.0 1.0 1.0
0.000000 0.000000 0.000000
0.098989 0.021729 0.021729
0.197797 0.043419 0.043419
0.296606 0.065109 0.065109
0.411756 0.090385 0.090385
0.507345 0.111368 0.111368
0.602935 0.132351 0.132351
0.698524 0.153335 0.153335
0.790775 0.173585 0.173585
0.021600 0.098400 0.021600
0.098989 0.098529 0.021729
0.197797 0.120219 0.043419
0.296606 0.141909 0.065109
0.411756 0.167185 0.090385
0.507345 0.188168 0.111368
0.602935 0.209151 0.132351
0.698524 0.230135 0.153335
0.790775 0.250385 0.173585
0.043200 0.196800 0.043200
0.120459 0.196800 0.043200
0.197797 0.197019 0.043419
0.296606 0.218709 0.065109
0.411756 0.243985 0.090385
0.507345 0.264968 0.111368
0.602935 0.285951 0.132351
0.698524 0.306935 0.153335
0.790775 0.327185 0.173585
0.064800 0.295200 0.064800
0.142059 0.295200 0.064800
0.219179 0.295200 0.064800
0.296606 0.295509 0.065109
0.411756 0.320785 0.090385
0.507345 0.341768 0.111368
0.602935 0.362751 0.132351
0.698524 0.383735 0.153335
0.790775 0.403985 0.173585
0.086400 0.393600 0.086400
0.163659 0.393600 0.086400
0.240779 0.393600 0.086400
0.317898 0.393600 0.086400
0.411756 0.397585 0.090385
0.507345 0.418568 0.111368
0.602935 0.439551 0.132351
0.698524 0.460535 0.153335
0.790775 0.480785 0.173585
0.110896 0.505194 0.110896
0.188156 0.505194 0.110896
0.265275 0.505194 0.110896
0.342394 0.505194 0.110896
0.432267 0.505194 0.110896
0.507345 0.505666 0.111368
0.602935 0.526649 0.132351
0.698524 0.547632 0.153335
0.790775 0.567882 0.173585
0.131792 0.600388 0.131792
0.209052 0.600388 0.131792
0.286171 0.600388 0.131792
0.363290 0.600388 0.131792
0.453163 0.600388 0.131792
0.527769 0.600388 0.131792
0.602935 0.600947 0.132351
0.698524 0.621930 0.153335
0.790775 0.642180 0.173585
0.152689 0.695581 0.152689
0.229948 0.695581 0.152689
0.307067 0.695581 0.152689
0.384186 0.695581 0.152689
0.474059 0.695581 0.152689
0.548665 0.695581 0.152689
0.623272 0.695581 0.152689
0.698524 0.696227 0.153335
0.790775 0.716478 0.173585
0.173585 0.790775 0.173585
0.250844 0.790775 0.173585
0.327963 0.790775 0.173585
0.405082 0.790775 0.173585
0.494955 0.790775 0.173585
0.569562 0.790775 0.173585
0.644168 0.790775 0.173585
0.718774 0.790775 0.173585
0.790775 0.790775 0.173585
0.021600 0.021600 0.098400
0.098989 0.021729 0.098529
0.197797 0.043419 0.120219
0.296606 0.065109 0.141909
0.411756 0.090385 0.167185
0.507345 0.111368 0.188168
0.602935 0.132351 0.209151
0.698524 0.153335 0.230135
0.790775 0.173585 0.250385
0.021600 0.098400 0.098400
0.120589 0.120129 0.120129
0.219397 0.141819 0.141819
0.318206 0.163509 0.163509
0.433356 0.188785 0.188785
0.528945 0.209768 0.209768
0.624535 0.230751 0.230751
0.720124 0.251735 0.251735
0.812375 0.271985 0.271985
0.043200 0.196800 0.120000
0.142059 0.218400 0.141600
0.219397 0.218619 0.141819
0.318206 0.240309 0.163509
0.433356 0.265585 0.188785
0.528945 0.286568 0.209768
0.624535 0.307551 0.230751
0.720124 0.328535 0.251735
0.812375 0.348785 0.271985
0.064800 0.295200 0.141600
0.163659 0.316800 0.163200
0.240779 0.316800 0.163200
0.318206 0.317109 0.163509
0.433356 0.342385 0.188785
0.528945 0.363368 0.209768
0.624535 0.384351 0.230751
0.720124 0.405335 0.251735
0.812375 0.425585 0.271985
0.086400 0.393600 0.163200
0.185259 0.415200 0.184800
0.262379 0.415200 0.184800
0.339498 0.415200 0.184800
0.433356 0.419185 0.188785
0.528945 0.440168 0.209768
0.624535 0.461151 0.230751
0.720124 0.482135 0.251735
0.812375 0.502385 0.271985
0.110896 0.505194 0.187696
0.209756 0.526794 0.209296
0.286875 0.526794 0.209296
0.363994 0.526794 0.209296
0.453867 0.526794 0.209296
0.528945 0.527266 0.209768
0.624535 0.548249 0.230751
0.720124 0.569232 0.251735
0.812375 0.589482 0.271985
0.131792 0.600388 0.208592
0.230652 0.621988 0.230192
0.307771 0.621988 0.230192
0.384890 0.621988 0.230192
0.474763 0.621988 0.230192
0.549369 0.621988 0.230192
0.624535 0.622547 0.230751
0.720124 0.643530 0.251735
0.812375 0.663780 0.271985
0.152689 0.695581 0.229489
0.251548 0.717181 0.251089
0.328667 0.717181 0.251089
0.405786 0.717181 0.251089
0.495659 0.717181 0.251089
0.570265 0.717181 0.251089
0.644872 0.717181 0.251089
0.720124 0.717827 0.251735
0.812375 0.738078 0.271985
0.173585 0.790775 0.250385
0.272444 0.812375 0.271985
0.349563 0.812375 0.271985
0.426682 0.812375 0.271985
0.516555 0.812375 0.271985
0.591162 0.812375 0.271985
0.665768 0.812375 0.271985
0.740374 0.812375 0.271985
0.812375 0.812375 0.271985
0.043200 0.043200 0.196800
0.120459 0.043200 0.196800
0.197797 0.043419 0.197019
0.296606 0.065109 0.218709
0.411756 0.090385 0.243985
0.507345 0.111368 0.264968
0.602935 0.132351 0.285951
0.698524 0.153335 0.306935
0.790775 0.173585 0.327185
0.043200 0.120000 0.196800
0.142059 0.141600 0.218400
0.219397 0.141819 0.218619
0.318206 0.163509 0.240309
0.433356 0.188785 0.265585
0.528945 0.209768 0.286568
0.624535 0.230751 0.307551
0.720124 0.251735 0.328535
0.812375 0.271985 0.348785
0.043200 0.196800 0.196800
0.142189 0.218529 0.218529
0.240997 0.240219 0.240219
0.339806 0.261909 0.261909
0.454956 0.287185 0.287185
0.550545 0.308168 0.308168
0.646135 0.329151 0.329151
0.741724 0.350135 0.350135
0.833975 0.370385 0.370385
0.064800 0.295200 0.218400
0.163789 0.316929 0.240129
0.262379 0.338400 0.261600
0.339806 0.338709 0.261909
0.454956 0.363985 0.287185
0.550545 0.384968 0.308168
0.646135 0.405951 0.329151
0.741724 0.426935 0.350135
0.833975 0.447185 0.370385
0.086400 0.393600 0.240000
0.185389 0.415329 0.261729
0.283979 0.436800 0.283200
0.361098 0.436800 0.283200
0.454956 0.440785 0.287185
0.550545 0.461768 0.308168
0.646135 0.482751 0.329151
0.741724 0.503735 0.350135
0.833975 0.523985 0.370385
0.110896 0.505194 0.264496
0.209885 0.526923 0.286225
0.308475 0.548394 0.307696
0.385594 0.548394 0.307696
0.475467 0.548394 0.307696
0.550545 0.548866 0.308168
0.646135 0.569849 0.329151
0.741724 0.590832 0.350135
0.833975 0.611082 0.370385
0.131792 0.600388 0.285392
0.230781 0.622117 0.307122
0.329371 0.643588 0.328592
0.406490 0.643588 0.328592
0.496363 0.643588 0.328592
0.570969 0.643588 0.328592
0.646135 0.644147 0.329151
0.741724 0.665130 0.350135
0.833975 0.685380 0.370385
0.152689 0.695581 0.306289
0.251677 0.717311 0.328018
0.350267 0.738781 0.349489
0.427386 0.738781 0.349489
0.517259 0.738781 0.349489
0.591865 0.738781 0.349489
0.666472 0.738781 0.349489
0.741724 0.739427 0.350135
0.833975 0.759678 0.370385
0.173585 0.790775 0.327185
0.272573 0.812504 0.348914
0.371163 0.833975 0.370385
0.448282 0.833975 0.370385
0.538155 0.833975 0.370385
0.612762 0.833975 0.370385
0.687368 0.833975 0.370385
0.761974 0.833975 0.370385
0.833975 0.833975 0.370385
0.064800 0.064800 0.295200
0.142059 0.064800 0.295200
0.219179 0.064800 0.295200
0.296606 0.065109 0.295509
0.411756 0.090385 0.320785
0.507345 0.111368 0.341768
0.602935 0.132351 0.362751
0.698524 0.153335 0.383735
0.790775 0.173585 0.403985
0.064800 0.141600 0.295200
0.163659 0.163200 0.316800
0.240779 0.163200 0.316800
0.318206 0.163509 0.317109
0.433356 0.188785 0.342385
0.528945 0.209768 0.363368
0.624535 0.230751 0.384351
0.720124 0.251735 0.405335
0.812375 0.271985 0.425585
0.064800 0.218400 0.295200
0.163789 0.240129 0.316929
0.262379 0.261600 0.338400
0.339806 0.261909 0.338709
0.454956 0.287185 0.363985
0.550545 0.308168 0.384968
0.646135 0.329151 0.405951
0.741724 0.350135 0.426935
0.833975 0.370385 0.447185
0.064800 0.295200 0.295200
0.163789 0.316929 0.316929
0.262597 0.338619 0.338619
0.361406 0.360309 0.360309
0.476556 0.385585 0.385585
0.572145 0.406568 0.406568
0.667735 0.427551 0.427551
0.763324 0.448535 0.448535
0.855575 0.468785 0.468785
0.086400 0.393600 0.316800
0.185389 0.415329 0.338529
0.284197 0.437019 0.360219
0.382698 0.458400 0.381600
0.476556 0.462385 0.385585
0.572145 0.483368 0.406568
0.667735 0.504351 0.427551
0.763324 0.525335 0.448535
0.855575 0.545585 0.468785
0.110896 0.505194 0.341296
0.209885 0.526923 0.363025
0.308694 0.548613 0.384715
0.407194 0.569994 0.406096
0.497067 0.569994 0.406096
0.572145 0.570466 0.406568
0.667735 0.591449 0.427551
0.763324 0.612432 0.448535
0.855575 0.632682 0.468785
0.131792 0.600388 0.362192
0.230781 0.622117 0.383922
0.329590 0.643807 0.405611
0.428090 0.665188 0.426992
0.517963 0.665188 0.426992
0.592569 0.665188 0.426992
0.667735 0.665747 0.427551
0.763324 0.686730 0.448535
0.855575 0.706980 0.468785
0.152689 0.695581 0.383089
0.251677 0.717311 0.404818
0.350486 0.739000 0.426508
0.448986 0.760381 0.447889
0.538859 0.760381 0.447889
0.613465 0.760381 0.447889
0.688072 0.760381 0.447889
0.763324 0.761027 0.448535
0.855575 0.781278 0.468785
0.173585 0.790775 0.403985
0.272573 0.812504 0.425714
0.371382 0.834194 0.447404
0.469882 0.855575 0.468785
0.559755 0.855575 0.468785
0.634362 0.855575 0.468785
0.708968 0.855575 0.468785
0.783574 0.855575 0.468785
0.855575 0.855575 0.468785
0.086400 0.086400 0.393600
0.163659 0.086400 0.393600
0.240779 0.086400 0.393600
0.317898 0.086400 0.393600
0.411756 0.090385 0.397585
0.507345 0.111368 0.418568
0.602935 0.132351 0.439551
0.698524 0.153335 0.460535
0.790775 0.173585 0.480785
0.086400 0.163200 0.393600
0.185259 0.184800 0.415200
0.262379 0.184800 0.415200
0.339498 0.184800 0.415200
0.433356 0.188785 0.419185
0.528945 0.209768 0.440168
0.624535 0.230751 0.461151
0.720124 0.251735 0.482135
0.812375 0.271985 0.502385
0.086400 0.240000 0.393600
0.185389 0.261729 0.415329
0.283979 0.283200 0.436800
0.361098 0.283200 0.436800
0.454956 0.287185 0.440785
0.550545 0.308168 0.461768
0.646135 0.329151 0.482751
0.741724 0.350135 0.503735
0.833975 0.370385 0.523985
0.086400 0.316800 0.393600
0.185389 0.338529 0.415329
0.284197 0.360219 0.437019
0.382698 0.381600 0.458400
0.476556 0.385585 0.462385
0.572145 0.406568 0.483368
0.667735 0.427551 0.504351
0.763324 0.448535 0.525335
0.855575 0.468785 0.545585
0.086400 0.393600 0.393600
0.185389 0.415329 0.415329
0.284197 0.437019 0.437019
0.383006 0.458709 0.458709
0.498156 0.483985 0.483985
0.593745 0.504968 0.504968
0.689335 0.525951 0.525951
0.784924 0.546935 0.546935
0.877175 0.567185 0.567185
0.110896 0.505194 0.418096
0.209885 0.526923 0.439825
0.308694 0.548613 0.461515
0.407503 0.570303 0.483205
0.518667 0.591594 0.504496
0.593745 0.592066 0.504968
0.689335 0.613049 0.525951
0.784924 0.634032 0.546935
0.877175 0.654282 0.567185
0.131792 0.600388 0.438992
0.230781 0.622117 0.460722
0.329590 0.643807 0.482411
0.428399 0.665496 0.504101
0.539563 0.686788 0.525392
0.614169 0.686788 0.525392
0.689335 0.687347 0.525951
0.784924 0.708330 0.546935
0.877175 0.728580 0.567185
0.152689 0.695581 0.459889
0.251677 0.717311 0.481618
0.350486 0.739000 0.503308
0.449295 0.760690 0.524997
0.560459 0.781981 0.546289
0.635065 0.781981 0.546289
0.709672 0.781981 0.546289
0.784924 0.782627 0.546935
0.877175 0.802878 0.567185
0.173585 0.790775 0.480785
0.272573 0.812504 0.502514
0.371382 0.834194 0.524204
0.470191 0.855884 0.545894
0.581355 0.877175 0.567185
0.655962 0.877175 0.567185
0.730568 0.877175 0.567185
0.805174 0.877175 0.567185
0.877175 0.877175 0.567185
0.110896 0.110896 0.505194
0.188156 0.110896 0.505194
0.265275 0.110896 0.505194
0.342394 0.110896 0.505194
0.432267 0.110896 0.505194
0.507345 0.111368 0.505666
0.602935 0.132351 0.526649
0.698524 0.153335 0.547632
0.790775 0.173585 0.567882
0.110896 0.187696 0.505194
0.209756 0.209296 0.526794
0.286875 0.209296 0.526794
0.363994 0.209296 0.526794
0.453867 0.209296 0.526794
0.528945 0.209768 0.527266
0.624535 0.230751 0.548249
0.720124 0.251735 0.569232
0.812375 0.271985 0.589482
0.110896 0.264496 0.505194
0.209885 0.286225 0.526923
0.308475 0.307696 0.548394
0.385594 0.307696 0.548394
0.475467 0.307696 0.548394
0.550545 0.308168 0.548866
0.646135 0.329151 0.569849
0.741724 0.350135 0.590832
0.833975 0.370385 0.611082
0.110896 0.341296 0.505194
0.209885 0.363025 0.526923
0.308694 0.384715 0.548613
0.407194 0.406096 0.569994
0.497067 0.406096 0.569994
0.572145 0.406568 0.570466
0.667735 0.427551 0.591449
0.763324 0.448535 0.612432
0.855575 0.468785 0.632682
0.110896 0.418096 0.505194
0.209885 0.439825 0.526923
0.308694 0.461515 0.548613
0.407503 0.483205 0.570303
0.518667 0.504496 0.591594
0.593745 0.504968 0.592066
0.689335 0.525951 0.613049
0.784924 0.546935 0.634032
0.877175 0.567185 0.654282
0.110896 0.505194 0.505194
0.209885 0.526923 0.526923
0.308694 0.548613 0.548613
0.407503 0.570303 0.570303
0.522652 0.595579 0.595579
0.618241 0.616562 0.616562
0.713831 0.637545 0.637545
0.809420 0.658528 0.658528
0.901671 0.678779 0.678779
0.131792 0.600388 0.526090
0.230781 0.622117 0.547819
0.329590 0.643807 0.569509
0.428399 0.665496 0.591199
0.543548 0.690773 0.616475
0.638665 0.711284 0.636986
0.713831 0.711843 0.637545
0.809420 0.732826 0.658528
0.901671 0.753076 0.678779
0.152689 0.695581 0.546986
0.251677 0.717311 0.568715
0.350486 0.739000 0.590405
0.449295 0.760690 0.612095
0.564445 0.785967 0.637372
0.659562 0.806478 0.657882
0.734168 0.806478 0.657882
0.809420 0.807124 0.658528
0.901671 0.827374 0.678779
0.173585 0.790775 0.567882
0.272573 0.812504 0.589612
0.371382 0.834194 0.611301
0.470191 0.855884 0.632991
0.585341 0.881161 0.658268
0.680458 0.901671 0.678779
0.755064 0.901671 0.678779
0.829670 0.901671 0.678779
0.901671 0.901671 0.678779
0.131792 0.131792 0.600388
0.209052 0.131792 0.600388
0.286171 0.131792 0.600388
0.363290 0.131792 0.600388
0.453163 0.131792 0.600388
0.527769 0.131792 0.600388
0.602935 0.132351 0.600947
0.698524 0.153335 0.621930
0.790775 0.173585 0.642180
0.131792 0.208592 0.600388
0.230652 0.230192 0.621988
0.307771 0.230192 0.621988
0.384890 0.230192 0.621988
0.474763 0.230192 0.621988
0.549369 0.230192 0.621988
0.624535 0.230751 0.622547
0.720124 0.251735 0.643530
0.812375 0.271985 0.663780
0.131792 0.285392 0.600388
0.230781 0.307122 0.622117
0.329371 0.328592 0.643588
0.406490 0.328592 0.643588
0.496363 0.328592 0.643588
0.570969 0.328592 0.643588
0.646135 0.329151 0.644147
0.741724 0.350135 0.665130
0.833975 0.370385 0.685380
0.131792 0.362192 0.600388
0.230781 0.383922 0.622117
0.329590 0.405611 0.643807
0.428090 0.426992 0.665188
0.517963 0.426992 0.665188
0.592569 0.426992 0.665188
0.667735 0.427551 0.665747
0.763324 0.448535 0.686730
0.855575 0.468785 0.706980
0.131792 0.438992 0.600388
0.230781 0.460722 0.622117
0.329590 0.482411 0.643807
0.428399 0.504101 0.665496
0.539563 0.525392 0.686788
0.614169 0.525392 0.686788
0.689335 0.525951 0.687347
0.784924 0.546935 0.708330
0.877175 0.567185 0.728580
0.131792 0.526090 0.600388
0.230781 0.547819 0.622117
0.329590 0.569509 0.643807
0.428399 0.591199 0.665496
0.543548 0.616475 0.690773
0.638665 0.636986 0.711284
0.713831 0.637545 0.711843
0.809420 0.658528 0.732826
0.901671 0.678779 0.753076
0.131792 0.600388 0.600388
0.230781 0.622117 0.622117
0.329590 0.643807 0.643807
0.428399 0.665496 0.665496
0.543548 0.690773 0.690773
0.639138 0.711756 0.711756
0.734727 0.732739 0.732739
0.830316 0.753722 0.753722
0.922568 0.773972 0.773972
0.152689 0.695581 0.621284
0.251677 0.717311 0.643013
0.350486 0.739000 0.664703
0.449295 0.760690 0.686393
0.564445 0.785967 0.711669
0.660034 0.806950 0.732652
0.755064 0.827374 0.753076
0.830316 0.828020 0.753722
0.922568 0.848270 0.773972
0.173585 0.790775 0.642180
0.272573 0.812504 0.663909
0.371382 0.834194 0.685599
0.470191 0.855884 0.707289
0.585341 0.881161 0.732565
0.680930 0.902144 0.753548
0.775960 0.922568 0.773972
0.850567 0.922568 0.773972
0.922568 0.922568 0.773972
0.152689 0.152689 0.695581
0.229948 0.152689 0.695581
0.307067 0.152689 0.695581
0.384186 0.152689 0.695581
0.474059 0.152689 0.695581
0.548665 0.152689 0.695581
0.623272 0.152689 0.695581
0.698524 0.153335 0.696227
0.790775 0.173585 0.716478
0.152689 0.229489 0.695581
0.251548 0.251089 0.717181
0.328667 0.251089 0.717181
0.405786 0.251089 0.717181
0.495659 0.251089 0.717181
0.570265 0.251089 0.717181
0.644872 0.251089 0.717181
0.720124 0.251735 0.717827
0.812375 0.271985 0.738078
0.152689 0.306289 0.695581
0.251677 0.328018 0.717311
0.350267 0.349489 0.738781
0.427386 0.349489 0.738781
0.517259 0.349489 0.738781
0.591865 0.349489 0.738781
0.666472 0.349489 0.738781
0.741724 0.350135 0.739427
0.833975 0.370385 0.759678
0.152689 0.383089 0.695581
0.251677 0.404818 0.717311
0.350486 0.426508 0.739000
0.448986 0.447889 0.760381
0.538859 0.447889 0.760381
0.613465 0.447889 0.760381
0.688072 0.447889 0.760381
0.763324 0.448535 0.761027
0.855575 0.468785 0.781278
0.152689 0.459889 0.695581
0.251677 0.481618 0.717311
0.350486 0.503308 0.739000
0.449295 0.524997 0.760690
0.560459 0.546289 0.781981
0.635065 0.546289 0.781981
0.709672 0.546289 0.781981
0.784924 0.546935 0.782627
0.877175 0.567185 0.802878
0.152689 0.546986 0.695581
0.251677 0.568715 0.717311
0.350486 0.590405 0.739000
0.449295 0.612095 0.760690
0.564445 0.637372 0.785967
0.659562 0.657882 0.806478
0.734168 0.657882 0.806478
0.809420 0.658528 0.807124
0.901671 0.678779 0.827374
0.152689 0.621284 0.695581
0.251677 0.643013 0.717311
0.350486 0.664703 0.739000
0.449295 0.686393 0.760690
0.564445 0.711669 0.785967
0.660034 0.732652 0.806950
0.755064 0.753076 0.827374
0.830316 0.753722 0.828020
0.922568 0.773972 0.848270
0.152689 0.695581 0.695581
0.251677 0.717311 0.717311
0.350486 0.739000 0.739000
0.449295 0.760690 0.760690
0.564445 0.785967 0.785967
0.660034 0.806950 0.806950
0.755623 0.827933 0.827933
0.851212 0.848916 0.848916
0.943464 0.869166 0.869166
0.173585 0.790775 0.716478
0.272573 0.812504 0.738207
0.371382 0.834194 0.759897
0.470191 0.855884 0.781586
0.585341 0.881161 0.806863
0.680930 0.902144 0.827846
0.776519 0.923127 0.848829
0.871463 0.943464 0.869166
0.943464 0.943464 0.869166
0.173585 0.173585 0.790775
0.250844 0.173585 0.790775
0.327963 0.173585 0.790775
0.405082 0.173585 0.790775
0.494955 0.173585 0.790775
0.569562 0.173585 0.790775
0.644168 0.173585 0.790775
0.718774 0.173585 0.790775
0.790775 0.173585 0.790775
0.173585 0.250385 0.790775
0.272444 0.271985 0.812375
0.349563 0.271985 0.812375
0.426682 0.271985 0.812375
0.516555 0.271985 0.812375
0.591162 0.271985 0.812375
0.665768 0.271985 0.812375
0.740374 0.271985 0.812375
0.812375 0.271985 0.812375
0.173585 0.327185 0.790775
0.272573 0.348914 0.812504
0.371163 0.370385 0.833975
0.448282 0.370385 0.833975
0.538155 0.370385 0.833975
0.612762 0.370385 0.833975
0.687368 0.370385 0.833975
0.761974 0.370385 0.833975
0.833975 0.370385 0.833975
0.173585 0.403985 0.790775
0.272573 0.425714 0.812504
0.371382 0.447404 0.834194
0.469882 0.468785 0.855575
0.559755 0.468785 0.855575
0.634362 0.468785 0.855575
0.708968 0.468785 0.855575
0.783574 0.468785 0.855575
0.855575 0.468785 0.855575
0.173585 0.480785 0.790775
0.272573 0.502514 0.812504
0.371382 0.524204 0.834194
0.470191 0.545894 0.855884
0.581355 0.567185 0.877175
0.655962 0.567185 0.877175
0.730568 0.567185 0.877175
0.805174 0.567185 0.877175
0.877175 0.567185 0.877175
0.173585 0.567882 0.790775
0.272573 0.589612 0.812504
0.371382 0.611301 0.834194
0.470191 0.632991 0.855884
0.585341 0.658268 0.881161
0.680458 0.678779 0.901671
0.755064 0.678779 0.901671
0.829670 0.678779 0.901671
0.901671 0.678779 0.901671
0.173585 0.642180 0.790775
0.272573 0.663909 0.812504
0.371382 0.685599 0.834194
0.470191 0.707289 0.855884
0.585341 0.732565 0.881161
0.680930 0.753548 0.902144
0.775960 0.773972 0.922568
0.850567 0.773972 0.922568
0.922568 0.773972 0.922568
0.173585 0.716478 0.790775
0.272573 0.738207 0.812504
0.371382 0.759897 0.834194
0.470191 0.781586 0.855884
0.585341 0.806863 0.881161
0.680930 0.827846 0.902144
0.776519 0.848829 0.923127
0.871463 0.869166 0.943464
0.943464 0.869166 0.943464
0.173585 0.790775 0.790775
0.272573 0.812504 0.812504
0.371382 0.834194 0.834194
0.470191 0.855884 0.855884
0.585341 0.881161 0.881161
0.680930 0.902144 0.902144
0.776519 0.923127 0.923127
0.872109 0.944110 0.944110
0.964360 0.964360 0.964360
