docs/luts/fuji_recipes/NEGA_MT_Pro_Neg_Hich_I.cube
TITLE "Fujifilm Recipe: MT Pro Neg Hich I (NEGA)"
# FilmSim=NEGA HL=0 SH=0 Col=0 WB=Auto WBR=2 WBB=-1
LUT_3D_SIZE 33
DOMAIN_MIN 0.0 0.0 0.0
DOMAIN_MAX 1.0 1.0 1.0
0.016000 0.016000 0.016000
0.045044 0.014543 0.014543
0.073290 0.013883 0.013883
0.101339 0.013421 0.013421
0.129308 0.013038 0.013038
0.157238 0.012694 0.012694
0.185145 0.012373 0.012373
0.213039 0.012066 0.012066
0.240923 0.011769 0.011769
0.268800 0.011478 0.011478
0.296673 0.011191 0.011191
0.324542 0.010909 0.010909
0.352408 0.010629 0.010629
0.380273 0.010351 0.010351
0.408135 0.010075 0.010075
0.435990 0.009800 0.009800
0.456781 0.009596 0.009596
0.484413 0.009326 0.009326
0.512045 0.009056 0.009056
0.539676 0.008787 0.008787
0.567307 0.008519 0.008519
0.594937 0.008251 0.008251
0.622567 0.007983 0.007983
0.650196 0.007716 0.007716
0.677825 0.007450 0.007450
0.705453 0.007183 0.007183
0.733081 0.006917 0.006917
0.760709 0.006651 0.006651
0.788337 0.006386 0.006386
0.815965 0.006120 0.006120
0.843592 0.005855 0.005855
0.860166 0.002311 0.002311
0.860166 0.002311 0.002311
0.014584 0.043689 0.014584
0.045044 0.043591 0.014543
0.073290 0.042172 0.013883
0.101339 0.041331 0.013421
0.129308 0.040721 0.013038
0.157238 0.040226 0.012694
0.185145 0.039797 0.012373
0.213039 0.039410 0.012066
0.240923 0.039049 0.011769
0.268800 0.038708 0.011478
0.296673 0.038380 0.011191
0.324542 0.038063 0.010909
0.352408 0.037754 0.010629
0.380273 0.037452 0.010351
0.408135 0.037154 0.010075
0.435990 0.036861 0.009800
0.456781 0.036644 0.009596
0.484413 0.036358 0.009326
0.512045 0.036075 0.009056
0.539676 0.035794 0.008787
0.567307 0.035514 0.008519
0.594937 0.035236 0.008251
0.622567 0.034960 0.007983
0.650196 0.034685 0.007716
0.677825 0.034410 0.007450
0.705453 0.034137 0.007183
0.733081 0.033864 0.006917
0.760709 0.033592 0.006651
0.788337 0.033321 0.006386
0.815965 0.033050 0.006120
0.843592 0.032780 0.005855
0.860166 0.029450 0.002311
0.860166 0.029450 0.002311
0.013934 0.070612 0.013934
0.043690 0.070612 0.013934
0.073290 0.070461 0.013883
0.101339 0.069242 0.013421
0.129308 0.068405 0.013038
0.157238 0.067759 0.012694
0.185145 0.067222 0.012373
0.213039 0.066753 0.012066
0.240923 0.066329 0.011769
0.268800 0.065938 0.011478
0.296673 0.065569 0.011191
0.324542 0.065218 0.010909
0.352408 0.064880 0.010629
0.380273 0.064552 0.010351
0.408135 0.064233 0.010075
0.435990 0.063921 0.009800
0.456781 0.063691 0.009596
0.484413 0.063390 0.009326
0.512045 0.063094 0.009056
0.539676 0.062800 0.008787
0.567307 0.062510 0.008519
0.594937 0.062222 0.008251
0.622567 0.061936 0.007983
0.650196 0.061653 0.007716
0.677825 0.061371 0.007450
0.705453 0.061090 0.007183
0.733081 0.060811 0.006917
0.760709 0.060533 0.006651
0.788337 0.060256 0.006386
0.815965 0.059980 0.006120
0.843592 0.059705 0.005855
0.860166 0.056589 0.002311
0.860166 0.056589 0.002311
0.013481 0.097338 0.013481
0.042831 0.097338 0.013481
0.072181 0.097338 0.013481
0.101339 0.097152 0.013421
0.129308 0.096088 0.013038
0.157238 0.095291 0.012694
0.185145 0.094646 0.012373
0.213039 0.094096 0.012066
0.240923 0.093609 0.011769
0.268800 0.093167 0.011478
0.296673 0.092758 0.011191
0.324542 0.092372 0.010909
0.352408 0.092005 0.010629
0.380273 0.091653 0.010351
0.408135 0.091312 0.010075
0.435990 0.090981 0.009800
0.456781 0.090739 0.009596
0.484413 0.090423 0.009326
0.512045 0.090112 0.009056
0.539676 0.089807 0.008787
0.567307 0.089506 0.008519
0.594937 0.089208 0.008251
0.622567 0.088913 0.007983
0.650196 0.088621 0.007716
0.677825 0.088331 0.007450
0.705453 0.088044 0.007183
0.733081 0.087758 0.006917
0.760709 0.087474 0.006651
0.788337 0.087191 0.006386
0.815965 0.086910 0.006120
0.843592 0.086630 0.005855
0.860166 0.083728 0.002311
0.860166 0.083728 0.002311
0.013107 0.123984 0.013107
0.042212 0.123984 0.013107
0.071318 0.123984 0.013107
0.100423 0.123984 0.013107
0.129308 0.123771 0.013038
0.157238 0.122823 0.012694
0.185145 0.122070 0.012373
0.213039 0.121439 0.012066
0.240923 0.120890 0.011769
0.268800 0.120397 0.011478
0.296673 0.119946 0.011191
0.324542 0.119526 0.010909
0.352408 0.119130 0.010629
0.380273 0.118753 0.010351
0.408135 0.118391 0.010075
0.435990 0.118041 0.009800
0.456781 0.117786 0.009596
0.484413 0.117455 0.009326
0.512045 0.117131 0.009056
0.539676 0.116814 0.008787
0.567307 0.116501 0.008519
0.594937 0.116193 0.008251
0.622567 0.115890 0.007983
0.650196 0.115589 0.007716
0.677825 0.115292 0.007450
0.705453 0.114997 0.007183
0.733081 0.114705 0.006917
0.760709 0.114415 0.006651
0.788337 0.114126 0.006386
0.815965 0.113840 0.006120
0.843592 0.113555 0.005855
0.860166 0.110867 0.002311
0.860166 0.110867 0.002311
0.012774 0.150590 0.012774
0.041715 0.150590 0.012774
0.070657 0.150590 0.012774
0.099598 0.150590 0.012774
0.128540 0.150590 0.012774
0.157238 0.150355 0.012694
0.185145 0.149494 0.012373
0.213039 0.148782 0.012066
0.240923 0.148170 0.011769
0.268800 0.147627 0.011478
0.296673 0.147135 0.011191
0.324542 0.146681 0.010909
0.352408 0.146256 0.010629
0.380273 0.145853 0.010351
0.408135 0.145470 0.010075
0.435990 0.145101 0.009800
0.456781 0.144833 0.009596
0.484413 0.144487 0.009326
0.512045 0.144150 0.009056
0.539676 0.143820 0.008787
0.567307 0.143497 0.008519
0.594937 0.143179 0.008251
0.622567 0.142866 0.007983
0.650196 0.142557 0.007716
0.677825 0.142252 0.007450
0.705453 0.141951 0.007183
0.733081 0.141652 0.006917
0.760709 0.141355 0.006651
0.788337 0.141061 0.006386
0.815965 0.140770 0.006120
0.843592 0.140480 0.005855
0.860166 0.138006 0.002311
0.860166 0.138006 0.002311
0.012463 0.177174 0.012463
0.041288 0.177174 0.012463
0.070112 0.177174 0.012463
0.098936 0.177174 0.012463
0.127760 0.177174 0.012463
0.156585 0.177174 0.012463
0.185145 0.176918 0.012373
0.213039 0.176125 0.012066
0.240923 0.175450 0.011769
0.268800 0.174857 0.011478
0.296673 0.174324 0.011191
0.324542 0.173835 0.010909
0.352408 0.173381 0.010629
0.380273 0.172954 0.010351
0.408135 0.172549 0.010075
0.435990 0.172161 0.009800
0.456781 0.171881 0.009596
0.484413 0.171520 0.009326
0.512045 0.171169 0.009056
0.539676 0.170827 0.008787
0.567307 0.170493 0.008519
0.594937 0.170165 0.008251
0.622567 0.169843 0.007983
0.650196 0.169526 0.007716
0.677825 0.169213 0.007450
0.705453 0.168904 0.007183
0.733081 0.168599 0.006917
0.760709 0.168296 0.006651
0.788337 0.167997 0.006386
0.815965 0.167699 0.006120
0.843592 0.167405 0.005855
0.860166 0.165145 0.002311
0.860166 0.165145 0.002311
0.012167 0.203742 0.012167
0.040904 0.203742 0.012167
0.069640 0.203742 0.012167
0.098376 0.203742 0.012167
0.127112 0.203742 0.012167
0.155848 0.203742 0.012167
0.184585 0.203742 0.012167
0.213039 0.203469 0.012066
0.240923 0.202730 0.011769
0.268800 0.202087 0.011478
0.296673 0.201512 0.011191
0.324542 0.200990 0.010909
0.352408 0.200506 0.010629
0.380273 0.200054 0.010351
0.408135 0.199627 0.010075
0.435990 0.199221 0.009800
0.456781 0.198928 0.009596
0.484413 0.198552 0.009326
0.512045 0.198188 0.009056
0.539676 0.197834 0.008787
0.567307 0.197488 0.008519
0.594937 0.197151 0.008251
0.622567 0.196819 0.007983
0.650196 0.196494 0.007716
0.677825 0.196173 0.007450
0.705453 0.195857 0.007183
0.733081 0.195545 0.006917
0.760709 0.195237 0.006651
0.788337 0.194932 0.006386
0.815965 0.194629 0.006120
0.843592 0.194329 0.005855
0.860166 0.192283 0.002311
0.860166 0.192283 0.002311
0.011881 0.230301 0.011881
0.040549 0.230301 0.011881
0.069216 0.230301 0.011881
0.097884 0.230301 0.011881
0.126552 0.230301 0.011881
0.155219 0.230301 0.011881
0.183887 0.230301 0.011881
0.212555 0.230301 0.011881
0.240923 0.230011 0.011769
0.268800 0.229317 0.011478
0.296673 0.228701 0.011191
0.324542 0.228144 0.010909
0.352408 0.227632 0.010629
0.380273 0.227155 0.010351
0.408135 0.226706 0.010075
0.435990 0.226281 0.009800
0.456781 0.225976 0.009596
0.484413 0.225584 0.009326
0.512045 0.225207 0.009056
0.539676 0.224840 0.008787
0.567307 0.224484 0.008519
0.594937 0.224136 0.008251
0.622567 0.223796 0.007983
0.650196 0.223462 0.007716
0.677825 0.223134 0.007450
0.705453 0.222811 0.007183
0.733081 0.222492 0.006917
0.760709 0.222178 0.006651
0.788337 0.221867 0.006386
0.815965 0.221559 0.006120
0.843592 0.221254 0.005855
0.860166 0.219422 0.002311
0.860166 0.219422 0.002311
0.011602 0.256853 0.011602
0.040214 0.256853 0.011602
0.068827 0.256853 0.011602
0.097440 0.256853 0.011602
0.126053 0.256853 0.011602
0.154665 0.256853 0.011602
0.183278 0.256853 0.011602
0.211891 0.256853 0.011602
0.240503 0.256853 0.011602
0.268800 0.256547 0.011478
0.296673 0.255890 0.011191
0.324542 0.255298 0.010909
0.352408 0.254757 0.010629
0.380273 0.254255 0.010351
0.408135 0.253785 0.010075
0.435990 0.253341 0.009800
0.456781 0.253023 0.009596
0.484413 0.252617 0.009326
0.512045 0.252225 0.009056
0.539676 0.251847 0.008787
0.567307 0.251480 0.008519
0.594937 0.251122 0.008251
0.622567 0.250772 0.007983
0.650196 0.250430 0.007716
0.677825 0.250095 0.007450
0.705453 0.249764 0.007183
0.733081 0.249439 0.006917
0.760709 0.249119 0.006651
0.788337 0.248802 0.006386
0.815965 0.248489 0.006120
0.843592 0.248179 0.005855
0.860166 0.246561 0.002311
0.860166 0.246561 0.002311
0.011327 0.283401 0.011327
0.039895 0.283401 0.011327
0.068463 0.283401 0.011327
0.097030 0.283401 0.011327
0.125598 0.283401 0.011327
0.154166 0.283401 0.011327
0.182734 0.283401 0.011327
0.211301 0.283401 0.011327
0.239869 0.283401 0.011327
0.268437 0.283401 0.011327
0.296673 0.283079 0.011191
0.324542 0.282453 0.010909
0.352408 0.281882 0.010629
0.380273 0.281356 0.010351
0.408135 0.280864 0.010075
0.435990 0.280401 0.009800
0.456781 0.280071 0.009596
0.484413 0.279649 0.009326
0.512045 0.279244 0.009056
0.539676 0.278854 0.008787
0.567307 0.278475 0.008519
0.594937 0.278108 0.008251
0.622567 0.277749 0.007983
0.650196 0.277399 0.007716
0.677825 0.277055 0.007450
0.705453 0.276718 0.007183
0.733081 0.276386 0.006917
0.760709 0.276059 0.006651
0.788337 0.275737 0.006386
0.815965 0.275419 0.006120
0.843592 0.275104 0.005855
0.860166 0.273700 0.002311
0.860166 0.273700 0.002311
0.011056 0.309944 0.011056
0.039587 0.309944 0.011056
0.068117 0.309944 0.011056
0.096647 0.309944 0.011056
0.125177 0.309944 0.011056
0.153707 0.309944 0.011056
0.182238 0.309944 0.011056
0.210768 0.309944 0.011056
0.239298 0.309944 0.011056
0.267828 0.309944 0.011056
0.296359 0.309944 0.011056
0.324542 0.309607 0.010909
0.352408 0.309008 0.010629
0.380273 0.308456 0.010351
0.408135 0.307943 0.010075
0.435990 0.307461 0.009800
0.456781 0.307118 0.009596
0.484413 0.306681 0.009326
0.512045 0.306263 0.009056
0.539676 0.305860 0.008787
0.567307 0.305471 0.008519
0.594937 0.305093 0.008251
0.622567 0.304726 0.007983
0.650196 0.304367 0.007716
0.677825 0.304016 0.007450
0.705453 0.303671 0.007183
0.733081 0.303333 0.006917
0.760709 0.303000 0.006651
0.788337 0.302672 0.006386
0.815965 0.302349 0.006120
0.843592 0.302029 0.005855
0.860166 0.300839 0.002311
0.860166 0.300839 0.002311
0.010789 0.336485 0.010789
0.039287 0.336485 0.010789
0.067785 0.336485 0.010789
0.096284 0.336485 0.010789
0.124782 0.336485 0.010789
0.153281 0.336485 0.010789
0.181779 0.336485 0.010789
0.210278 0.336485 0.010789
0.238776 0.336485 0.010789
0.267275 0.336485 0.010789
0.295773 0.336485 0.010789
0.324271 0.336485 0.010789
0.352408 0.336133 0.010629
0.380273 0.335557 0.010351
0.408135 0.335022 0.010075
0.435990 0.334521 0.009800
0.456781 0.334166 0.009596
0.484413 0.333714 0.009326
0.512045 0.333282 0.009056
0.539676 0.332867 0.008787
0.567307 0.332467 0.008519
0.594937 0.332079 0.008251
0.622567 0.331702 0.007983
0.650196 0.331335 0.007716
0.677825 0.330976 0.007450
0.705453 0.330625 0.007183
0.733081 0.330280 0.006917
0.760709 0.329941 0.006651
0.788337 0.329607 0.006386
0.815965 0.329279 0.006120
0.843592 0.328954 0.005855
0.860166 0.327978 0.002311
0.860166 0.327978 0.002311
0.010523 0.363024 0.010523
0.038994 0.363024 0.010523
0.067465 0.363024 0.010523
0.095936 0.363024 0.010523
0.124408 0.363024 0.010523
0.152879 0.363024 0.010523
0.181350 0.363024 0.010523
0.209821 0.363024 0.010523
0.238293 0.363024 0.010523
0.266764 0.363024 0.010523
0.295235 0.363024 0.010523
0.323706 0.363024 0.010523
0.352177 0.363024 0.010523
0.380273 0.362657 0.010351
0.408135 0.362101 0.010075
0.435990 0.361581 0.009800
0.456781 0.361213 0.009596
0.484413 0.360746 0.009326
0.512045 0.360301 0.009056
0.539676 0.359874 0.008787
0.567307 0.359462 0.008519
0.594937 0.359065 0.008251
0.622567 0.358679 0.007983
0.650196 0.358303 0.007716
0.677825 0.357937 0.007450
0.705453 0.357578 0.007183
0.733081 0.357227 0.006917
0.760709 0.356882 0.006651
0.788337 0.356543 0.006386
0.815965 0.356209 0.006120
0.843592 0.355879 0.005855
0.860166 0.355117 0.002311
0.860166 0.355117 0.002311
0.010259 0.389560 0.010259
0.038706 0.389560 0.010259
0.067154 0.389560 0.010259
0.095602 0.389560 0.010259
0.124049 0.389560 0.010259
0.152497 0.389560 0.010259
0.180945 0.389560 0.010259
0.209392 0.389560 0.010259
0.237840 0.389560 0.010259
0.266287 0.389560 0.010259
0.294735 0.389560 0.010259
0.323183 0.389560 0.010259
0.351630 0.389560 0.010259
0.380078 0.389560 0.010259
0.408135 0.389180 0.010075
0.435990 0.388641 0.009800
0.456781 0.388261 0.009596
0.484413 0.387778 0.009326
0.512045 0.387319 0.009056
0.539676 0.386880 0.008787
0.567307 0.386458 0.008519
0.594937 0.386050 0.008251
0.622567 0.385655 0.007983
0.650196 0.385271 0.007716
0.677825 0.384897 0.007450
0.705453 0.384532 0.007183
0.733081 0.384174 0.006917
0.760709 0.383823 0.006651
0.788337 0.383478 0.006386
0.815965 0.383138 0.006120
0.843592 0.382804 0.005855
0.860166 0.382256 0.002311
0.860166 0.382256 0.002311
0.009996 0.416096 0.009996
0.038423 0.416096 0.009996
0.066850 0.416096 0.009996
0.095277 0.416096 0.009996
0.123704 0.416096 0.009996
0.152131 0.416096 0.009996
0.180558 0.416096 0.009996
0.208985 0.416096 0.009996
0.237412 0.416096 0.009996
0.265839 0.416096 0.009996
0.294266 0.416096 0.009996
0.322693 0.416096 0.009996
0.351120 0.416096 0.009996
0.379547 0.416096 0.009996
0.407974 0.416096 0.009996
0.435990 0.415701 0.009800
0.456781 0.415308 0.009596
0.484413 0.414811 0.009326
0.512045 0.414338 0.009056
0.539676 0.413887 0.008787
0.567307 0.413454 0.008519
0.594937 0.413036 0.008251
0.622567 0.412632 0.007983
0.650196 0.412240 0.007716
0.677825 0.411858 0.007450
0.705453 0.411485 0.007183
0.733081 0.411121 0.006917
0.760709 0.410764 0.006651
0.788337 0.410413 0.006386
0.815965 0.410068 0.006120
0.843592 0.409729 0.005855
0.860166 0.409395 0.002311
0.860166 0.409395 0.002311
0.009737 0.442464 0.009737
0.038146 0.442464 0.009737
0.066554 0.442464 0.009737
0.094963 0.442464 0.009737
0.123372 0.442464 0.009737
0.151781 0.442464 0.009737
0.180190 0.442464 0.009737
0.208598 0.442464 0.009737
0.237007 0.442464 0.009737
0.265416 0.442464 0.009737
0.293825 0.442464 0.009737
0.322234 0.442464 0.009737
0.350642 0.442464 0.009737
0.379051 0.442464 0.009737
0.407460 0.442464 0.009737
0.435862 0.442464 0.009737
0.456781 0.442187 0.009596
0.484413 0.441674 0.009326
0.512045 0.441188 0.009056
0.539676 0.440725 0.008787
0.567307 0.440281 0.008519
0.594937 0.439853 0.008251
0.622567 0.439440 0.007983
0.650196 0.439039 0.007716
0.677825 0.438650 0.007450
0.705453 0.438270 0.007183
0.733081 0.437899 0.006917
0.760709 0.437536 0.006651
0.788337 0.437180 0.006386
0.815965 0.436830 0.006120
0.843592 0.436486 0.005855
0.860166 0.436364 0.002311
0.860166 0.436364 0.002311
0.009545 0.462044 0.009545
0.037941 0.462044 0.009545
0.066338 0.462044 0.009545
0.094735 0.462044 0.009545
0.123131 0.462044 0.009545
0.151528 0.462044 0.009545
0.179925 0.462044 0.009545
0.208321 0.462044 0.009545
0.236718 0.462044 0.009545
0.265115 0.462044 0.009545
0.293511 0.462044 0.009545
0.321908 0.462044 0.009545
0.350304 0.462044 0.009545
0.378701 0.462044 0.009545
0.407098 0.462044 0.009545
0.435488 0.462044 0.009545
0.456679 0.462044 0.009545
0.484413 0.461623 0.009326
0.512045 0.461127 0.009056
0.539676 0.460655 0.008787
0.567307 0.460202 0.008519
0.594937 0.459767 0.008251
0.622567 0.459347 0.007983
0.650196 0.458941 0.007716
0.677825 0.458546 0.007450
0.705453 0.458161 0.007183
0.733081 0.457785 0.006917
0.760709 0.457417 0.006651
0.788337 0.457057 0.006386
0.815965 0.456703 0.006120
0.843592 0.456355 0.005855
0.860166 0.456392 0.002311
0.860166 0.456392 0.002311
0.009287 0.488361 0.009287
0.037669 0.488361 0.009287
0.066051 0.488361 0.009287
0.094433 0.488361 0.009287
0.122814 0.488361 0.009287
0.151196 0.488361 0.009287
0.179578 0.488361 0.009287
0.207960 0.488361 0.009287
0.236342 0.488361 0.009287
0.264724 0.488361 0.009287
0.293105 0.488361 0.009287
0.321487 0.488361 0.009287
0.349869 0.488361 0.009287
0.378251 0.488361 0.009287
0.406633 0.488361 0.009287
0.435008 0.488361 0.009287
0.456188 0.488361 0.009287
0.484339 0.488361 0.009287
0.512045 0.487926 0.009056
0.539676 0.487442 0.008787
0.567307 0.486978 0.008519
0.594937 0.486534 0.008251
0.622567 0.486105 0.007983
0.650196 0.485690 0.007716
0.677825 0.485287 0.007450
0.705453 0.484895 0.007183
0.733081 0.484513 0.006917
0.760709 0.484139 0.006651
0.788337 0.483773 0.006386
0.815965 0.483414 0.006120
0.843592 0.483061 0.005855
0.860166 0.483310 0.002311
0.860166 0.483310 0.002311
0.009030 0.514677 0.009030
0.037399 0.514677 0.009030
0.065767 0.514677 0.009030
0.094136 0.514677 0.009030
0.122504 0.514677 0.009030
0.150873 0.514677 0.009030
0.179241 0.514677 0.009030
0.207610 0.514677 0.009030
0.235978 0.514677 0.009030
0.264347 0.514677 0.009030
0.292715 0.514677 0.009030
0.321084 0.514677 0.009030
0.349452 0.514677 0.009030
0.377821 0.514677 0.009030
0.406189 0.514677 0.009030
0.434551 0.514677 0.009030
0.455721 0.514677 0.009030
0.483859 0.514677 0.009030
0.511997 0.514677 0.009030
0.539676 0.514229 0.008787
0.567307 0.513755 0.008519
0.594937 0.513300 0.008251
0.622567 0.512862 0.007983
0.650196 0.512439 0.007716
0.677825 0.512028 0.007450
0.705453 0.511629 0.007183
0.733081 0.511240 0.006917
0.760709 0.510861 0.006651
0.788337 0.510489 0.006386
0.815965 0.510125 0.006120
0.843592 0.509767 0.005855
0.860166 0.510228 0.002311
0.860166 0.510228 0.002311
0.008774 0.540992 0.008774
0.037131 0.540992 0.008774
0.065487 0.540992 0.008774
0.093843 0.540992 0.008774
0.122200 0.540992 0.008774
0.150556 0.540992 0.008774
0.178913 0.540992 0.008774
0.207269 0.540992 0.008774
0.235626 0.540992 0.008774
0.263982 0.540992 0.008774
0.292338 0.540992 0.008774
0.320695 0.540992 0.008774
0.349051 0.540992 0.008774
0.377408 0.540992 0.008774
0.405764 0.540992 0.008774
0.434114 0.540992 0.008774
0.455275 0.540992 0.008774
0.483401 0.540992 0.008774
0.511527 0.540992 0.008774
0.539653 0.540992 0.008774
0.567307 0.540531 0.008519
0.594937 0.540066 0.008251
0.622567 0.539619 0.007983
0.650196 0.539188 0.007716
0.677825 0.538770 0.007450
0.705453 0.538364 0.007183
0.733081 0.537968 0.006917
0.760709 0.537583 0.006651
0.788337 0.537205 0.006386
0.815965 0.536836 0.006120
0.843592 0.536473 0.005855
0.860166 0.537146 0.002311
0.860166 0.537146 0.002311
0.008519 0.567307 0.008519
0.036864 0.567307 0.008519
0.065210 0.567307 0.008519
0.093555 0.567307 0.008519
0.121900 0.567307 0.008519
0.150246 0.567307 0.008519
0.178591 0.567307 0.008519
0.206937 0.567307 0.008519
0.235282 0.567307 0.008519
0.263628 0.567307 0.008519
0.291973 0.567307 0.008519
0.320319 0.567307 0.008519
0.348664 0.567307 0.008519
0.377009 0.567307 0.008519
0.405355 0.567307 0.008519
0.433694 0.567307 0.008519
0.454847 0.567307 0.008519
0.482962 0.567307 0.008519
0.511077 0.567307 0.008519
0.539192 0.567307 0.008519
0.567307 0.567307 0.008519
0.594937 0.566832 0.008251
0.622567 0.566376 0.007983
0.650196 0.565937 0.007716
0.677825 0.565511 0.007450
0.705453 0.565098 0.007183
0.733081 0.564696 0.006917
0.760709 0.564304 0.006651
0.788337 0.563921 0.006386
0.815965 0.563547 0.006120
0.843592 0.563179 0.005855
0.860166 0.564065 0.002311
0.860166 0.564065 0.002311
0.008263 0.593621 0.008263
0.036599 0.593621 0.008263
0.064934 0.593621 0.008263
0.093270 0.593621 0.008263
0.121605 0.593621 0.008263
0.149941 0.593621 0.008263
0.178276 0.593621 0.008263
0.206612 0.593621 0.008263
0.234947 0.593621 0.008263
0.263282 0.593621 0.008263
0.291618 0.593621 0.008263
0.319953 0.593621 0.008263
0.348289 0.593621 0.008263
0.376624 0.593621 0.008263
0.404960 0.593621 0.008263
0.433289 0.593621 0.008263
0.454434 0.593621 0.008263
0.482539 0.593621 0.008263
0.510644 0.593621 0.008263
0.538750 0.593621 0.008263
0.566855 0.593621 0.008263
0.594937 0.593599 0.008251
0.622567 0.593134 0.007983
0.650196 0.592686 0.007716
0.677825 0.592252 0.007450
0.705453 0.591832 0.007183
0.733081 0.591424 0.006917
0.760709 0.591026 0.006651
0.788337 0.590638 0.006386
0.815965 0.590257 0.006120
0.843592 0.589885 0.005855
0.860166 0.590983 0.002311
0.860166 0.590983 0.002311
0.008009 0.619935 0.008009
0.036335 0.619935 0.008009
0.064661 0.619935 0.008009
0.092988 0.619935 0.008009
0.121314 0.619935 0.008009
0.149640 0.619935 0.008009
0.177966 0.619935 0.008009
0.206293 0.619935 0.008009
0.234619 0.619935 0.008009
0.262945 0.619935 0.008009
0.291272 0.619935 0.008009
0.319598 0.619935 0.008009
0.347924 0.619935 0.008009
0.376250 0.619935 0.008009
0.404577 0.619935 0.008009
0.432896 0.619935 0.008009
0.454035 0.619935 0.008009
0.482131 0.619935 0.008009
0.510227 0.619935 0.008009
0.538323 0.619935 0.008009
0.566419 0.619935 0.008009
0.594515 0.619935 0.008009
0.622567 0.619891 0.007983
0.650196 0.619434 0.007716
0.677825 0.618994 0.007450
0.705453 0.618567 0.007183
0.733081 0.618152 0.006917
0.760709 0.617748 0.006651
0.788337 0.617354 0.006386
0.815965 0.616968 0.006120
0.843592 0.616591 0.005855
0.860166 0.617901 0.002311
0.860166 0.617901 0.002311
0.007754 0.646249 0.007754
0.036072 0.646249 0.007754
0.064390 0.646249 0.007754
0.092708 0.646249 0.007754
0.121026 0.646249 0.007754
0.149344 0.646249 0.007754
0.177661 0.646249 0.007754
0.205979 0.646249 0.007754
0.234297 0.646249 0.007754
0.262615 0.646249 0.007754
0.290933 0.646249 0.007754
0.319251 0.646249 0.007754
0.347568 0.646249 0.007754
0.375886 0.646249 0.007754
0.404204 0.646249 0.007754
0.432515 0.646249 0.007754
0.453648 0.646249 0.007754
0.481736 0.646249 0.007754
0.509823 0.646249 0.007754
0.537911 0.646249 0.007754
0.565998 0.646249 0.007754
0.594086 0.646249 0.007754
0.622174 0.646249 0.007754
0.650196 0.646183 0.007716
0.677825 0.645735 0.007450
0.705453 0.645301 0.007183
0.733081 0.644880 0.006917
0.760709 0.644470 0.006651
0.788337 0.644070 0.006386
0.815965 0.643679 0.006120
0.843592 0.643297 0.005855
0.860166 0.644820 0.002311
0.860166 0.644820 0.002311
0.007500 0.672562 0.007500
0.035810 0.672562 0.007500
0.064120 0.672562 0.007500
0.092431 0.672562 0.007500
0.120741 0.672562 0.007500
0.149051 0.672562 0.007500
0.177361 0.672562 0.007500
0.205671 0.672562 0.007500
0.233981 0.672562 0.007500
0.262291 0.672562 0.007500
0.290601 0.672562 0.007500
0.318911 0.672562 0.007500
0.347221 0.672562 0.007500
0.375531 0.672562 0.007500
0.403841 0.672562 0.007500
0.432145 0.672562 0.007500
0.453271 0.672562 0.007500
0.481351 0.672562 0.007500
0.509431 0.672562 0.007500
0.537511 0.672562 0.007500
0.565591 0.672562 0.007500
0.593671 0.672562 0.007500
0.621751 0.672562 0.007500
0.649831 0.672562 0.007500
0.677825 0.672476 0.007450
0.705453 0.672035 0.007183
0.733081 0.671607 0.006917
0.760709 0.671191 0.006651
0.788337 0.670786 0.006386
0.815965 0.670390 0.006120
0.843592 0.670003 0.005855
0.860166 0.671738 0.002311
0.860166 0.671738 0.002311
0.007247 0.698875 0.007247
0.035549 0.698875 0.007247
0.063852 0.698875 0.007247
0.092155 0.698875 0.007247
0.120458 0.698875 0.007247
0.148761 0.698875 0.007247
0.177064 0.698875 0.007247
0.205367 0.698875 0.007247
0.233669 0.698875 0.007247
0.261972 0.698875 0.007247
0.290275 0.698875 0.007247
0.318578 0.698875 0.007247
0.346881 0.698875 0.007247
0.375184 0.698875 0.007247
0.403487 0.698875 0.007247
0.431783 0.698875 0.007247
0.452904 0.698875 0.007247
0.480977 0.698875 0.007247
0.509050 0.698875 0.007247
0.537122 0.698875 0.007247
0.565195 0.698875 0.007247
0.593268 0.698875 0.007247
0.621341 0.698875 0.007247
0.649413 0.698875 0.007247
