docs/luts/fuji_recipes/NEGAhi_VM_Pro_Neg_High.cube
TITLE "Fujifilm Recipe: VM Pro Neg High (NEGAhi)"
# FilmSim=NEGAhi HL=0 SH=-1 Col=2 WB=Auto WBR=0 WBB=-1
LUT_3D_SIZE 5
DOMAIN_MIN 0.0 0.0 0.0
DOMAIN_MAX 1.0 1.0 1.0
0.040000 0.040000 0.040000
0.321216 0.000000 0.000000
0.542278 0.000000 0.000000
0.790304 0.000000 0.000000
1.000000 0.034000 0.034000
0.000000 0.320000 0.000000
0.321216 0.319597 0.000000
0.542278 0.281533 0.000000
0.790304 0.267031 0.000000
1.000000 0.277019 0.034000
0.000000 0.560000 0.000000
0.281419 0.560000 0.000000
0.539324 0.560000 0.000000
0.790304 0.534061 0.000000
1.000000 0.520038 0.034000
0.000000 0.787000 0.000000
0.268511 0.787000 0.000000
0.514587 0.787000 0.000000
0.790304 0.786628 0.000000
1.000000 0.749893 0.034000
0.034000 1.000000 0.034000
0.278251 1.000000 0.034000
0.502093 1.000000 0.034000
0.753239 1.000000 0.034000
1.000000 1.000000 0.034000
0.000000 0.000000 0.314000
0.321216 0.000000 0.311607
0.542278 0.000000 0.274495
0.790304 0.000000 0.260355
1.000000 0.034000 0.270943
0.000000 0.320000 0.312000
0.282515 0.280861 0.272701
0.543368 0.241070 0.232910
0.836039 0.196425 0.188265
1.000000 0.274100 0.268000
0.000000 0.560000 0.273000
0.239534 0.564280 0.229720
0.540178 0.564280 0.229720
0.836039 0.522825 0.188265
1.000000 0.518100 0.268000
0.000000 0.787000 0.260478
0.198674 0.832140 0.188860
0.499318 0.832140 0.188860
0.836039 0.831545 0.188265
1.000000 0.748883 0.268000
0.034000 1.000000 0.270943
0.275337 1.000000 0.268000
0.500083 1.000000 0.268000
0.752243 1.000000 0.268000
1.000000 1.000000 0.268000
0.000000 0.000000 0.548000
0.282450 0.000000 0.548000
0.541300 0.000000 0.548000
0.790304 0.000000 0.520710
1.000000 0.034000 0.507887
0.000000 0.281026 0.548000
0.240614 0.238960 0.549040
0.541258 0.238960 0.549040
0.834959 0.195345 0.505425
1.000000 0.274000 0.505832
0.000000 0.560000 0.546000
0.238235 0.562981 0.546661
0.499088 0.523190 0.506870
0.793919 0.480705 0.464385
1.000000 0.514296 0.502000
0.000000 0.787000 0.520956
0.197375 0.830841 0.505801
0.458228 0.791050 0.466010
0.793919 0.789425 0.464385
1.000000 0.746901 0.502000
0.034000 1.000000 0.507887
0.275216 1.000000 0.505818
0.496278 1.000000 0.502140
0.750287 1.000000 0.502000
1.000000 1.000000 0.502000
0.000000 0.000000 0.768475
0.269246 0.000000 0.768475
0.515994 0.000000 0.768475
0.790304 0.000000 0.766016
1.000000 0.034000 0.731135
0.000000 0.267888 0.768475
0.200929 0.199275 0.809200
0.501573 0.199275 0.809200
0.834959 0.195345 0.805271
1.000000 0.274000 0.730012
0.000000 0.535775 0.768475
0.200710 0.525456 0.808982
0.461563 0.485664 0.769190
0.791759 0.478545 0.762071
1.000000 0.514000 0.727753
0.000000 0.787000 0.766379
0.197375 0.830841 0.805647
0.458228 0.791050 0.765856
0.754234 0.749740 0.724546
1.000000 0.741837 0.722475
0.034000 1.000000 0.731135
0.275216 1.000000 0.730005
0.496278 1.000000 0.727995
0.745291 1.000000 0.722475
1.000000 1.000000 0.722475
0.009300 0.009300 1.000000
0.266454 0.009300 1.000000
0.502121 0.009300 1.000000
0.766535 0.009300 1.000000
1.000000 0.034000 0.974989
0.009300 0.265157 1.000000
0.250625 0.249300 1.000000
0.491378 0.249300 1.000000
0.761497 0.249300 1.000000
1.000000 0.274000 0.974885
0.009300 0.521014 1.000000
0.250516 0.510607 1.000000
0.471578 0.491630 1.000000
0.751077 0.489300 1.000000
1.000000 0.514000 0.974675
0.009300 0.763012 1.000000
0.250516 0.757863 1.000000
0.471578 0.748474 1.000000
0.720517 0.716300 1.000000
1.000000 0.741000 0.974100
0.034000 1.000000 0.974989
0.275216 1.000000 0.974884
0.496278 1.000000 0.974697
0.744304 1.000000 0.974084
0.998446 0.998446 0.964854
