docs/luts/fuji_recipes/NEGA_JP_Soft_Portrait.cube
TITLE "Fujifilm Recipe: JP Soft Portrait (NEGA)"
# FilmSim=NEGA HL=0 SH=0 Col=-1 WB=Auto WBR=0 WBB=0
LUT_3D_SIZE 5
DOMAIN_MIN 0.0 0.0 0.0
DOMAIN_MAX 1.0 1.0 1.0
0.016000 0.016000 0.016000
0.230783 0.047217 0.047217
0.445398 0.078410 0.078410
0.651617 0.108383 0.108383
0.864653 0.139347 0.139347
0.047217 0.230783 0.047217
0.230783 0.230783 0.047217
0.445398 0.261976 0.078410
0.651617 0.291948 0.108383
0.864653 0.322912 0.139347
0.078410 0.445398 0.078410
0.261976 0.445398 0.078410
0.445398 0.445398 0.078410
0.651617 0.475370 0.108383
0.864653 0.506334 0.139347
0.108383 0.651617 0.108383
0.291948 0.651617 0.108383
0.475370 0.651617 0.108383
0.651617 0.651617 0.108383
0.864653 0.682580 0.139347
0.139347 0.864653 0.139347
0.322912 0.864653 0.139347
0.506334 0.864653 0.139347
0.682580 0.864653 0.139347
0.864653 0.864653 0.139347
0.047217 0.047217 0.230783
0.230783 0.047217 0.230783
0.445398 0.078410 0.261976
0.651617 0.108383 0.291948
0.864653 0.139347 0.322912
0.047217 0.230783 0.230783
0.262000 0.262000 0.262000
0.476615 0.293193 0.293193
0.682834 0.323166 0.323166
0.895871 0.354129 0.354129
0.078410 0.445398 0.261976
0.293193 0.476615 0.293193
0.476615 0.476615 0.293193
0.682834 0.506588 0.323166
0.895871 0.537551 0.354129
0.108383 0.651617 0.291948
0.323166 0.682834 0.323166
0.506588 0.682834 0.323166
0.682834 0.682834 0.323166
0.895871 0.713798 0.354129
0.139347 0.864653 0.322912
0.354129 0.895871 0.354129
0.537551 0.895871 0.354129
0.713798 0.895871 0.354129
0.895871 0.895871 0.354129
0.078410 0.078410 0.445398
0.261976 0.078410 0.445398
0.445398 0.078410 0.445398
0.651617 0.108383 0.475370
0.864653 0.139347 0.506334
0.078410 0.261976 0.445398
0.293193 0.293193 0.476615
0.476615 0.293193 0.476615
0.682834 0.323166 0.506588
0.895871 0.354129 0.537551
0.078410 0.445398 0.445398
0.293193 0.476615 0.476615
0.507808 0.507808 0.507808
0.714027 0.537781 0.537781
0.927064 0.568744 0.568744
0.108383 0.651617 0.475370
0.323166 0.682834 0.506588
0.537781 0.714027 0.537781
0.714027 0.714027 0.537781
0.927064 0.744991 0.568744
0.139347 0.864653 0.506334
0.354129 0.895871 0.537551
0.568744 0.927064 0.568744
0.744991 0.927064 0.568744
0.927064 0.927064 0.568744
0.108383 0.108383 0.651617
0.291948 0.108383 0.651617
0.475370 0.108383 0.651617
0.651617 0.108383 0.651617
0.864653 0.139347 0.682580
0.108383 0.291948 0.651617
0.323166 0.323166 0.682834
0.506588 0.323166 0.682834
0.682834 0.323166 0.682834
0.895871 0.354129 0.713798
0.108383 0.475370 0.651617
0.323166 0.506588 0.682834
0.537781 0.537781 0.714027
0.714027 0.537781 0.714027
0.927064 0.568744 0.744991
0.108383 0.651617 0.651617
0.323166 0.682834 0.682834
0.537781 0.714027 0.714027
0.744000 0.744000 0.744000
0.957036 0.774964 0.774964
0.139347 0.864653 0.682580
0.354129 0.895871 0.713798
0.568744 0.927064 0.744991
0.774964 0.957036 0.774964
0.957036 0.957036 0.774964
0.139347 0.139347 0.864653
0.322912 0.139347 0.864653
0.506334 0.139347 0.864653
0.682580 0.139347 0.864653
0.864653 0.139347 0.864653
0.139347 0.322912 0.864653
0.354129 0.354129 0.895871
0.537551 0.354129 0.895871
0.713798 0.354129 0.895871
0.895871 0.354129 0.895871
0.139347 0.506334 0.864653
0.354129 0.537551 0.895871
0.568744 0.568744 0.927064
0.744991 0.568744 0.927064
0.927064 0.568744 0.927064
0.139347 0.682580 0.864653
0.354129 0.713798 0.895871
0.568744 0.744991 0.927064
0.774964 0.774964 0.957036
0.957036 0.774964 0.957036
0.139347 0.864653 0.864653
0.354129 0.895871 0.895871
0.568744 0.927064 0.927064
0.774964 0.957036 0.957036
0.988000 0.988000 0.988000
