docs/luts/fuji_recipes/NEGA_RR_Superia_800.cube
TITLE "Fujifilm Recipe: RR Superia 800 (NEGA)"
# FilmSim=NEGA HL=1 SH=2 Col=4 WB=Auto WBR=-2 WBB=-3
LUT_3D_SIZE 5
DOMAIN_MIN 0.0 0.0 0.0
DOMAIN_MAX 1.0 1.0 1.0
0.014720 0.014720 0.014720
0.300444 0.000000 0.000000
0.600526 0.000000 0.000000
0.891547 0.000000 0.000000
0.966503 0.000000 0.000000
0.000000 0.314708 0.000000
0.298972 0.314708 0.000000
0.600526 0.297543 0.000000
0.891547 0.292346 0.000000
0.966503 0.291531 0.000000
0.000000 0.631753 0.000000
0.281907 0.631753 0.000000
0.599101 0.631753 0.000000
0.891547 0.623917 0.000000
0.966503 0.622618 0.000000
0.000000 0.938090 0.000000
0.277233 0.938090 0.000000
0.590966 0.938090 0.000000
0.890229 0.938090 0.000000
0.966503 0.937315 0.000000
0.016991 1.000000 0.016991
0.284252 1.000000 0.016991
0.587145 1.000000 0.016991
0.875643 1.000000 0.016991
0.949949 1.000000 0.016991
0.000000 0.000000 0.293313
0.300444 0.000000 0.292538
0.600526 0.000000 0.275227
0.891547 0.000000 0.270420
0.966503 0.000000 0.269666
0.000000 0.314708 0.291105
0.283709 0.306034 0.272547
0.678383 0.221052 0.187565
1.000000 0.186644 0.156968
1.000000 0.255964 0.231924
0.000000 0.631753 0.274488
0.189635 0.718702 0.178472
0.669571 0.718702 0.178472
1.000000 0.637774 0.156968
1.000000 0.621903 0.231924
0.000000 0.938090 0.269937
0.212186 1.000000 0.203512
0.587277 1.000000 0.203512
0.943094 1.000000 0.203512
1.000000 0.967908 0.231924
0.016991 1.000000 0.277218
0.289379 1.000000 0.282413
0.591062 1.000000 0.282413
0.876823 1.000000 0.282413
0.950424 1.000000 0.282413
0.000000 0.000000 0.584913
0.283077 0.000000 0.584913
0.600526 0.000000 0.584156
0.891547 0.000000 0.575665
0.966503 0.000000 0.574500
0.000000 0.297976 0.584913
0.201243 0.223568 0.656265
0.672508 0.214961 0.647942
1.000000 0.178489 0.568281
1.000000 0.253445 0.567628
0.000000 0.631753 0.582775
0.187605 0.716744 0.643047
0.584446 0.633577 0.559881
0.968528 0.559776 0.486080
1.000000 0.587652 0.529955
0.000000 0.938090 0.574910
0.210685 1.000000 0.567396
0.523436 1.000000 0.501394
0.934291 1.000000 0.501394
1.000000 0.965001 0.529955
0.016991 1.000000 0.571667
0.289586 1.000000 0.575881
0.595858 1.000000 0.580707
0.878267 1.000000 0.580707
0.951005 1.000000 0.580707
0.000000 0.000000 0.868275
0.277997 0.000000 0.868275
0.592184 0.000000 0.868275
0.891547 0.000000 0.867573
0.966503 0.000000 0.865595
0.000000 0.292629 0.868275
0.140870 0.162101 1.000000
0.596150 0.155217 1.000000
1.000000 0.178489 0.967235
1.000000 0.253445 0.888700
0.000000 0.624384 0.868275
0.140870 0.646099 1.000000
0.512821 0.561952 0.934088
0.955222 0.546470 0.918607
1.000000 0.577039 0.875888
0.000000 0.938090 0.866298
0.210685 1.000000 0.914484
0.517089 1.000000 0.900124
0.874810 0.948040 0.838195
0.984672 0.939969 0.830124
0.016991 1.000000 0.852573
0.289586 1.000000 0.854023
0.596402 1.000000 0.855878
0.886043 1.000000 0.864755
0.954609 1.000000 0.864755
0.000000 0.000000 0.941258
0.277201 0.000000 0.941258
0.590916 0.000000 0.941258
0.890145 0.000000 0.941258
0.966503 0.000000 0.940570
0.000000 0.291791 0.941258
0.213854 0.231079 1.000000
0.584872 0.228201 1.000000
0.939434 0.228201 1.000000
1.000000 0.253445 0.971396
0.000000 0.623024 0.941258
0.213854 0.624268 1.000000
0.520274 0.564238 1.000000
0.927990 0.551663 1.000000
1.000000 0.577039 0.968104
0.000000 0.938001 0.941258
0.213854 0.996154 1.000000
0.520274 0.995539 1.000000
0.867299 0.940529 0.945514
0.964839 0.920136 0.925121
0.016991 1.000000 0.924924
0.289586 1.000000 0.925662
0.596402 1.000000 0.926607
0.887095 1.000000 0.932569
0.957910 1.000000 0.934818
