docs/luts/fuji_recipes/NEGA_JP_Hard_Portrait.cube
TITLE "Fujifilm Recipe: JP Hard Portrait (NEGA)"
# FilmSim=NEGA HL=0 SH=0 Col=-4 WB=Auto WBR=0 WBB=0
LUT_3D_SIZE 9
DOMAIN_MIN 0.0 0.0 0.0
DOMAIN_MAX 1.0 1.0 1.0
0.016000 0.016000 0.016000
0.093170 0.061830 0.061830
0.170340 0.107660 0.107660
0.247511 0.153489 0.153489
0.324560 0.199248 0.199248
0.396204 0.241796 0.241796
0.472747 0.287253 0.287253
0.549290 0.332710 0.332710
0.625833 0.378167 0.378167
0.061830 0.093170 0.061830
0.093170 0.093170 0.061830
0.170340 0.139000 0.107660
0.247511 0.184830 0.153489
0.324560 0.230588 0.199248
0.396204 0.273136 0.241796
0.472747 0.318593 0.287253
0.549290 0.364050 0.332710
0.625833 0.409508 0.378167
0.107660 0.170340 0.107660
0.139000 0.170340 0.107660
0.170340 0.170340 0.107660
0.247511 0.216170 0.153489
0.324560 0.261928 0.199248
0.396204 0.304476 0.241796
0.472747 0.349934 0.287253
0.549290 0.395391 0.332710
0.625833 0.440848 0.378167
0.153489 0.247511 0.153489
0.184830 0.247511 0.153489
0.216170 0.247511 0.153489
0.247511 0.247511 0.153489
0.324560 0.293269 0.199248
0.396204 0.335817 0.241796
0.472747 0.381274 0.287253
0.549290 0.426731 0.332710
0.625833 0.472188 0.378167
0.199248 0.324560 0.199248
0.230588 0.324560 0.199248
0.261928 0.324560 0.199248
0.293269 0.324560 0.199248
0.324560 0.324560 0.199248
0.396204 0.367108 0.241796
0.472747 0.412565 0.287253
0.549290 0.458023 0.332710
0.625833 0.503480 0.378167
0.241796 0.396204 0.241796
0.273136 0.396204 0.241796
0.304476 0.396204 0.241796
0.335817 0.396204 0.241796
0.367108 0.396204 0.241796
0.396204 0.396204 0.241796
0.472747 0.441662 0.287253
0.549290 0.487119 0.332710
0.625833 0.532576 0.378167
0.287253 0.472747 0.287253
0.318593 0.472747 0.287253
0.349934 0.472747 0.287253
0.381274 0.472747 0.287253
0.412565 0.472747 0.287253
0.441662 0.472747 0.287253
0.472747 0.472747 0.287253
0.549290 0.518204 0.332710
0.625833 0.563662 0.378167
0.332710 0.549290 0.332710
0.364050 0.549290 0.332710
0.395391 0.549290 0.332710
0.426731 0.549290 0.332710
0.458023 0.549290 0.332710
0.487119 0.549290 0.332710
0.518204 0.549290 0.332710
0.549290 0.549290 0.332710
0.625833 0.594747 0.378167
0.378167 0.625833 0.378167
0.409508 0.625833 0.378167
0.440848 0.625833 0.378167
0.472188 0.625833 0.378167
0.503480 0.625833 0.378167
0.532576 0.625833 0.378167
0.563662 0.625833 0.378167
0.594747 0.625833 0.378167
0.625833 0.625833 0.378167
0.061830 0.061830 0.093170
0.093170 0.061830 0.093170
0.170340 0.107660 0.139000
0.247511 0.153489 0.184830
0.324560 0.199248 0.230588
0.396204 0.241796 0.273136
0.472747 0.287253 0.318593
0.549290 0.332710 0.364050
0.625833 0.378167 0.409508
0.061830 0.093170 0.093170
0.139000 0.139000 0.139000
0.216170 0.184830 0.184830
0.293340 0.230660 0.230660
0.370390 0.276418 0.276418
0.442034 0.318966 0.318966
0.518577 0.364423 0.364423
0.595120 0.409880 0.409880
0.671663 0.455337 0.455337
0.107660 0.170340 0.139000
0.184830 0.216170 0.184830
0.216170 0.216170 0.184830
0.293340 0.262000 0.230660
0.370390 0.307758 0.276418
0.442034 0.350306 0.318966
0.518577 0.395763 0.364423
0.595120 0.441221 0.409880
0.671663 0.486678 0.455337
0.153489 0.247511 0.184830
0.230660 0.293340 0.230660
0.262000 0.293340 0.230660
0.293340 0.293340 0.230660
0.370390 0.339099 0.276418
0.442034 0.381647 0.318966
0.518577 0.427104 0.364423
0.595120 0.472561 0.409880
0.671663 0.518018 0.455337
0.199248 0.324560 0.230588
0.276418 0.370390 0.276418
0.307758 0.370390 0.276418
0.339099 0.370390 0.276418
0.370390 0.370390 0.276418
0.442034 0.412938 0.318966
0.518577 0.458395 0.364423
0.595120 0.503852 0.409880
0.671663 0.549310 0.455337
0.241796 0.396204 0.273136
0.318966 0.442034 0.318966
0.350306 0.442034 0.318966
0.381647 0.442034 0.318966
0.412938 0.442034 0.318966
0.442034 0.442034 0.318966
0.518577 0.487491 0.364423
0.595120 0.532949 0.409880
0.671663 0.578406 0.455337
0.287253 0.472747 0.318593
0.364423 0.518577 0.364423
0.395763 0.518577 0.364423
0.427104 0.518577 0.364423
0.458395 0.518577 0.364423
0.487491 0.518577 0.364423
0.518577 0.518577 0.364423
0.595120 0.564034 0.409880
0.671663 0.609491 0.455337
0.332710 0.549290 0.364050
0.409880 0.595120 0.409880
0.441221 0.595120 0.409880
0.472561 0.595120 0.409880
0.503852 0.595120 0.409880
0.532949 0.595120 0.409880
0.564034 0.595120 0.409880
0.595120 0.595120 0.409880
0.671663 0.640577 0.455337
0.378167 0.625833 0.409508
0.455337 0.671663 0.455337
0.486678 0.671663 0.455337
0.518018 0.671663 0.455337
0.549310 0.671663 0.455337
0.578406 0.671663 0.455337
0.609491 0.671663 0.455337
0.640577 0.671663 0.455337
0.671663 0.671663 0.455337
0.107660 0.107660 0.170340
0.139000 0.107660 0.170340
0.170340 0.107660 0.170340
0.247511 0.153489 0.216170
0.324560 0.199248 0.261928
0.396204 0.241796 0.304476
0.472747 0.287253 0.349934
0.549290 0.332710 0.395391
0.625833 0.378167 0.440848
0.107660 0.139000 0.170340
0.184830 0.184830 0.216170
0.216170 0.184830 0.216170
0.293340 0.230660 0.262000
0.370390 0.276418 0.307758
0.442034 0.318966 0.350306
0.518577 0.364423 0.395763
0.595120 0.409880 0.441221
0.671663 0.455337 0.486678
0.107660 0.170340 0.170340
0.184830 0.216170 0.216170
0.262000 0.262000 0.262000
0.339170 0.307830 0.307830
0.416220 0.353588 0.353588
0.487864 0.396136 0.396136
0.564407 0.441593 0.441593
0.640950 0.487050 0.487050
0.717492 0.532508 0.532508
0.153489 0.247511 0.216170
0.230660 0.293340 0.262000
0.307830 0.339170 0.307830
0.339170 0.339170 0.307830
0.416220 0.384928 0.353588
0.487864 0.427476 0.396136
0.564407 0.472934 0.441593
0.640950 0.518391 0.487050
0.717492 0.563848 0.532508
0.199248 0.324560 0.261928
0.276418 0.370390 0.307758
0.353588 0.416220 0.353588
0.384928 0.416220 0.353588
0.416220 0.416220 0.353588
0.487864 0.458768 0.396136
0.564407 0.504225 0.441593
0.640950 0.549682 0.487050
0.717492 0.595139 0.532508
0.241796 0.396204 0.304476
0.318966 0.442034 0.350306
0.396136 0.487864 0.396136
0.427476 0.487864 0.396136
0.458768 0.487864 0.396136
0.487864 0.487864 0.396136
0.564407 0.533321 0.441593
0.640950 0.578778 0.487050
0.717492 0.624236 0.532508
0.287253 0.472747 0.349934
0.364423 0.518577 0.395763
0.441593 0.564407 0.441593
0.472934 0.564407 0.441593
0.504225 0.564407 0.441593
0.533321 0.564407 0.441593
0.564407 0.564407 0.441593
0.640950 0.609864 0.487050
0.717492 0.655321 0.532508
0.332710 0.549290 0.395391
0.409880 0.595120 0.441221
0.487050 0.640950 0.487050
0.518391 0.640950 0.487050
0.549682 0.640950 0.487050
0.578778 0.640950 0.487050
0.609864 0.640950 0.487050
0.640950 0.640950 0.487050
0.717492 0.686407 0.532508
0.378167 0.625833 0.440848
0.455337 0.671663 0.486678
0.532508 0.717492 0.532508
0.563848 0.717492 0.532508
0.595139 0.717492 0.532508
0.624236 0.717492 0.532508
0.655321 0.717492 0.532508
0.686407 0.717492 0.532508
0.717492 0.717492 0.532508
0.153489 0.153489 0.247511
0.184830 0.153489 0.247511
0.216170 0.153489 0.247511
0.247511 0.153489 0.247511
0.324560 0.199248 0.293269
0.396204 0.241796 0.335817
0.472747 0.287253 0.381274
0.549290 0.332710 0.426731
0.625833 0.378167 0.472188
0.153489 0.184830 0.247511
0.230660 0.230660 0.293340
0.262000 0.230660 0.293340
0.293340 0.230660 0.293340
0.370390 0.276418 0.339099
0.442034 0.318966 0.381647
0.518577 0.364423 0.427104
0.595120 0.409880 0.472561
0.671663 0.455337 0.518018
0.153489 0.216170 0.247511
0.230660 0.262000 0.293340
0.307830 0.307830 0.339170
0.339170 0.307830 0.339170
0.416220 0.353588 0.384928
0.487864 0.396136 0.427476
0.564407 0.441593 0.472934
0.640950 0.487050 0.518391
0.717492 0.532508 0.563848
0.153489 0.247511 0.247511
0.230660 0.293340 0.293340
0.307830 0.339170 0.339170
0.385000 0.385000 0.385000
0.462050 0.430758 0.430758
0.533694 0.473306 0.473306
0.610237 0.518763 0.518763
0.686779 0.564221 0.564221
0.763322 0.609678 0.609678
0.199248 0.324560 0.293269
0.276418 0.370390 0.339099
0.353588 0.416220 0.384928
0.430758 0.462050 0.430758
0.462050 0.462050 0.430758
0.533694 0.504598 0.473306
0.610237 0.550055 0.518763
0.686779 0.595512 0.564221
0.763322 0.640969 0.609678
0.241796 0.396204 0.335817
0.318966 0.442034 0.381647
0.396136 0.487864 0.427476
0.473306 0.533694 0.473306
0.504598 0.533694 0.473306
0.533694 0.533694 0.473306
0.610237 0.579151 0.518763
0.686779 0.624608 0.564221
0.763322 0.670065 0.609678
0.287253 0.472747 0.381274
0.364423 0.518577 0.427104
0.441593 0.564407 0.472934
0.518763 0.610237 0.518763
0.550055 0.610237 0.518763
0.579151 0.610237 0.518763
0.610237 0.610237 0.518763
0.686779 0.655694 0.564221
0.763322 0.701151 0.609678
0.332710 0.549290 0.426731
0.409880 0.595120 0.472561
0.487050 0.640950 0.518391
0.564221 0.686779 0.564221
0.595512 0.686779 0.564221
0.624608 0.686779 0.564221
0.655694 0.686779 0.564221
0.686779 0.686779 0.564221
0.763322 0.732237 0.609678
0.378167 0.625833 0.472188
0.455337 0.671663 0.518018
0.532508 0.717492 0.563848
0.609678 0.763322 0.609678
0.640969 0.763322 0.609678
0.670065 0.763322 0.609678
0.701151 0.763322 0.609678
0.732237 0.763322 0.609678
0.763322 0.763322 0.609678
0.199248 0.199248 0.324560
0.230588 0.199248 0.324560
0.261928 0.199248 0.324560
0.293269 0.199248 0.324560
0.324560 0.199248 0.324560
0.396204 0.241796 0.367108
0.472747 0.287253 0.412565
0.549290 0.332710 0.458023
0.625833 0.378167 0.503480
0.199248 0.230588 0.324560
0.276418 0.276418 0.370390
0.307758 0.276418 0.370390
0.339099 0.276418 0.370390
0.370390 0.276418 0.370390
0.442034 0.318966 0.412938
0.518577 0.364423 0.458395
0.595120 0.409880 0.503852
0.671663 0.455337 0.549310
0.199248 0.261928 0.324560
0.276418 0.307758 0.370390
0.353588 0.353588 0.416220
0.384928 0.353588 0.416220
0.416220 0.353588 0.416220
0.487864 0.396136 0.458768
0.564407 0.441593 0.504225
0.640950 0.487050 0.549682
0.717492 0.532508 0.595139
0.199248 0.293269 0.324560
0.276418 0.339099 0.370390
0.353588 0.384928 0.416220
0.430758 0.430758 0.462050
0.462050 0.430758 0.462050
0.533694 0.473306 0.504598
0.610237 0.518763 0.550055
0.686779 0.564221 0.595512
0.763322 0.609678 0.640969
0.199248 0.324560 0.324560
0.276418 0.370390 0.370390
0.353588 0.416220 0.416220
0.430758 0.462050 0.462050
0.507808 0.507808 0.507808
0.579452 0.550356 0.550356
0.655995 0.595813 0.595813
0.732538 0.641270 0.641270
0.809080 0.686728 0.686728
0.241796 0.396204 0.367108
0.318966 0.442034 0.412938
0.396136 0.487864 0.458768
0.473306 0.533694 0.504598
0.550356 0.579452 0.550356
0.579452 0.579452 0.550356
0.655995 0.624909 0.595813
0.732538 0.670366 0.641270
0.809080 0.715824 0.686728
0.287253 0.472747 0.412565
0.364423 0.518577 0.458395
0.441593 0.564407 0.504225
0.518763 0.610237 0.550055
0.595813 0.655995 0.595813
0.624909 0.655995 0.595813
0.655995 0.655995 0.595813
0.732538 0.701452 0.641270
0.809080 0.746909 0.686728
0.332710 0.549290 0.458023
0.409880 0.595120 0.503852
0.487050 0.640950 0.549682
0.564221 0.686779 0.595512
0.641270 0.732538 0.641270
0.670366 0.732538 0.641270
0.701452 0.732538 0.641270
0.732538 0.732538 0.641270
0.809080 0.777995 0.686728
0.378167 0.625833 0.503480
0.455337 0.671663 0.549310
0.532508 0.717492 0.595139
0.609678 0.763322 0.640969
0.686728 0.809080 0.686728
0.715824 0.809080 0.686728
0.746909 0.809080 0.686728
0.777995 0.809080 0.686728
0.809080 0.809080 0.686728
0.241796 0.241796 0.396204
0.273136 0.241796 0.396204
0.304476 0.241796 0.396204
0.335817 0.241796 0.396204
0.367108 0.241796 0.396204
0.396204 0.241796 0.396204
0.472747 0.287253 0.441662
0.549290 0.332710 0.487119
0.625833 0.378167 0.532576
0.241796 0.273136 0.396204
0.318966 0.318966 0.442034
0.350306 0.318966 0.442034
0.381647 0.318966 0.442034
0.412938 0.318966 0.442034
0.442034 0.318966 0.442034
0.518577 0.364423 0.487491
0.595120 0.409880 0.532949
0.671663 0.455337 0.578406
0.241796 0.304476 0.396204
0.318966 0.350306 0.442034
0.396136 0.396136 0.487864
0.427476 0.396136 0.487864
0.458768 0.396136 0.487864
0.487864 0.396136 0.487864
0.564407 0.441593 0.533321
0.640950 0.487050 0.578778
0.717492 0.532508 0.624236
0.241796 0.335817 0.396204
0.318966 0.381647 0.442034
0.396136 0.427476 0.487864
0.473306 0.473306 0.533694
0.504598 0.473306 0.533694
0.533694 0.473306 0.533694
0.610237 0.518763 0.579151
0.686779 0.564221 0.624608
0.763322 0.609678 0.670065
0.241796 0.367108 0.396204
0.318966 0.412938 0.442034
0.396136 0.458768 0.487864
0.473306 0.504598 0.533694
0.550356 0.550356 0.579452
0.579452 0.550356 0.579452
0.655995 0.595813 0.624909
0.732538 0.641270 0.670366
0.809080 0.686728 0.715824
0.241796 0.396204 0.396204
0.318966 0.442034 0.442034
0.396136 0.487864 0.487864
0.473306 0.533694 0.533694
0.550356 0.579452 0.579452
0.622000 0.622000 0.622000
0.698543 0.667457 0.667457
0.775086 0.712914 0.712914
0.851628 0.758372 0.758372
0.287253 0.472747 0.441662
0.364423 0.518577 0.487491
0.441593 0.564407 0.533321
0.518763 0.610237 0.579151
0.595813 0.655995 0.624909
0.667457 0.698543 0.667457
0.698543 0.698543 0.667457
0.775086 0.744000 0.712914
0.851628 0.789457 0.758372
0.332710 0.549290 0.487119
0.409880 0.595120 0.532949
0.487050 0.640950 0.578778
0.564221 0.686779 0.624608
0.641270 0.732538 0.670366
0.712914 0.775086 0.712914
0.744000 0.775086 0.712914
0.775086 0.775086 0.712914
0.851628 0.820543 0.758372
0.378167 0.625833 0.532576
0.455337 0.671663 0.578406
0.532508 0.717492 0.624236
0.609678 0.763322 0.670065
0.686728 0.809080 0.715824
0.758372 0.851628 0.758372
0.789457 0.851628 0.758372
0.820543 0.851628 0.758372
0.851628 0.851628 0.758372
0.287253 0.287253 0.472747
0.318593 0.287253 0.472747
0.349934 0.287253 0.472747
0.381274 0.287253 0.472747
0.412565 0.287253 0.472747
0.441662 0.287253 0.472747
0.472747 0.287253 0.472747
0.549290 0.332710 0.518204
0.625833 0.378167 0.563662
0.287253 0.318593 0.472747
0.364423 0.364423 0.518577
0.395763 0.364423 0.518577
0.427104 0.364423 0.518577
0.458395 0.364423 0.518577
0.487491 0.364423 0.518577
0.518577 0.364423 0.518577
0.595120 0.409880 0.564034
0.671663 0.455337 0.609491
0.287253 0.349934 0.472747
0.364423 0.395763 0.518577
0.441593 0.441593 0.564407
0.472934 0.441593 0.564407
0.504225 0.441593 0.564407
0.533321 0.441593 0.564407
0.564407 0.441593 0.564407
0.640950 0.487050 0.609864
0.717492 0.532508 0.655321
0.287253 0.381274 0.472747
0.364423 0.427104 0.518577
0.441593 0.472934 0.564407
0.518763 0.518763 0.610237
0.550055 0.518763 0.610237
0.579151 0.518763 0.610237
0.610237 0.518763 0.610237
0.686779 0.564221 0.655694
0.763322 0.609678 0.701151
0.287253 0.412565 0.472747
0.364423 0.458395 0.518577
0.441593 0.504225 0.564407
0.518763 0.550055 0.610237
0.595813 0.595813 0.655995
0.624909 0.595813 0.655995
0.655995 0.595813 0.655995
0.732538 0.641270 0.701452
0.809080 0.686728 0.746909
0.287253 0.441662 0.472747
0.364423 0.487491 0.518577
0.441593 0.533321 0.564407
0.518763 0.579151 0.610237
0.595813 0.624909 0.655995
0.667457 0.667457 0.698543
0.698543 0.667457 0.698543
0.775086 0.712914 0.744000
0.851628 0.758372 0.789457
0.287253 0.472747 0.472747
0.364423 0.518577 0.518577
0.441593 0.564407 0.564407
0.518763 0.610237 0.610237
0.595813 0.655995 0.655995
0.667457 0.698543 0.698543
0.744000 0.744000 0.744000
0.820543 0.789457 0.789457
0.897086 0.834914 0.834914
0.332710 0.549290 0.518204
0.409880 0.595120 0.564034
0.487050 0.640950 0.609864
0.564221 0.686779 0.655694
0.641270 0.732538 0.701452
0.712914 0.775086 0.744000
0.789457 0.820543 0.789457
0.820543 0.820543 0.789457
0.897086 0.866000 0.834914
0.378167 0.625833 0.563662
0.455337 0.671663 0.609491
0.532508 0.717492 0.655321
0.609678 0.763322 0.701151
0.686728 0.809080 0.746909
0.758372 0.851628 0.789457
0.834914 0.897086 0.834914
0.866000 0.897086 0.834914
0.897086 0.897086 0.834914
0.332710 0.332710 0.549290
0.364050 0.332710 0.549290
0.395391 0.332710 0.549290
0.426731 0.332710 0.549290
0.458023 0.332710 0.549290
0.487119 0.332710 0.549290
0.518204 0.332710 0.549290
0.549290 0.332710 0.549290
0.625833 0.378167 0.594747
0.332710 0.364050 0.549290
0.409880 0.409880 0.595120
0.441221 0.409880 0.595120
0.472561 0.409880 0.595120
0.503852 0.409880 0.595120
0.532949 0.409880 0.595120
0.564034 0.409880 0.595120
0.595120 0.409880 0.595120
0.671663 0.455337 0.640577
0.332710 0.395391 0.549290
0.409880 0.441221 0.595120
0.487050 0.487050 0.640950
0.518391 0.487050 0.640950
0.549682 0.487050 0.640950
0.578778 0.487050 0.640950
0.609864 0.487050 0.640950
0.640950 0.487050 0.640950
0.717492 0.532508 0.686407
0.332710 0.426731 0.549290
0.409880 0.472561 0.595120
0.487050 0.518391 0.640950
0.564221 0.564221 0.686779
0.595512 0.564221 0.686779
0.624608 0.564221 0.686779
0.655694 0.564221 0.686779
0.686779 0.564221 0.686779
0.763322 0.609678 0.732237
0.332710 0.458023 0.549290
0.409880 0.503852 0.595120
0.487050 0.549682 0.640950
0.564221 0.595512 0.686779
0.641270 0.641270 0.732538
0.670366 0.641270 0.732538
0.701452 0.641270 0.732538
0.732538 0.641270 0.732538
0.809080 0.686728 0.777995
0.332710 0.487119 0.549290
0.409880 0.532949 0.595120
0.487050 0.578778 0.640950
0.564221 0.624608 0.686779
0.641270 0.670366 0.732538
0.712914 0.712914 0.775086
0.744000 0.712914 0.775086
0.775086 0.712914 0.775086
0.851628 0.758372 0.820543
0.332710 0.518204 0.549290
0.409880 0.564034 0.595120
0.487050 0.609864 0.640950
0.564221 0.655694 0.686779
0.641270 0.701452 0.732538
0.712914 0.744000 0.775086
0.789457 0.789457 0.820543
0.820543 0.789457 0.820543
0.897086 0.834914 0.866000
0.332710 0.549290 0.549290
0.409880 0.595120 0.595120
0.487050 0.640950 0.640950
0.564221 0.686779 0.686779
0.641270 0.732538 0.732538
0.712914 0.775086 0.775086
0.789457 0.820543 0.820543
0.866000 0.866000 0.866000
0.942543 0.911457 0.911457
0.378167 0.625833 0.594747
0.455337 0.671663 0.640577
0.532508 0.717492 0.686407
0.609678 0.763322 0.732237
0.686728 0.809080 0.777995
0.758372 0.851628 0.820543
0.834914 0.897086 0.866000
0.911457 0.942543 0.911457
0.942543 0.942543 0.911457
0.378167 0.378167 0.625833
0.409508 0.378167 0.625833
0.440848 0.378167 0.625833
0.472188 0.378167 0.625833
0.503480 0.378167 0.625833
0.532576 0.378167 0.625833
0.563662 0.378167 0.625833
0.594747 0.378167 0.625833
0.625833 0.378167 0.625833
0.378167 0.409508 0.625833
0.455337 0.455337 0.671663
0.486678 0.455337 0.671663
0.518018 0.455337 0.671663
0.549310 0.455337 0.671663
0.578406 0.455337 0.671663
0.609491 0.455337 0.671663
0.640577 0.455337 0.671663
0.671663 0.455337 0.671663
0.378167 0.440848 0.625833
0.455337 0.486678 0.671663
0.532508 0.532508 0.717492
0.563848 0.532508 0.717492
0.595139 0.532508 0.717492
0.624236 0.532508 0.717492
0.655321 0.532508 0.717492
0.686407 0.532508 0.717492
0.717492 0.532508 0.717492
0.378167 0.472188 0.625833
0.455337 0.518018 0.671663
0.532508 0.563848 0.717492
0.609678 0.609678 0.763322
0.640969 0.609678 0.763322
0.670065 0.609678 0.763322
0.701151 0.609678 0.763322
0.732237 0.609678 0.763322
0.763322 0.609678 0.763322
0.378167 0.503480 0.625833
0.455337 0.549310 0.671663
0.532508 0.595139 0.717492
0.609678 0.640969 0.763322
0.686728 0.686728 0.809080
0.715824 0.686728 0.809080
0.746909 0.686728 0.809080
0.777995 0.686728 0.809080
0.809080 0.686728 0.809080
0.378167 0.532576 0.625833
0.455337 0.578406 0.671663
0.532508 0.624236 0.717492
0.609678 0.670065 0.763322
0.686728 0.715824 0.809080
0.758372 0.758372 0.851628
0.789457 0.758372 0.851628
0.820543 0.758372 0.851628
0.851628 0.758372 0.851628
0.378167 0.563662 0.625833
0.455337 0.609491 0.671663
0.532508 0.655321 0.717492
0.609678 0.701151 0.763322
0.686728 0.746909 0.809080
0.758372 0.789457 0.851628
0.834914 0.834914 0.897086
0.866000 0.834914 0.897086
0.897086 0.834914 0.897086
0.378167 0.594747 0.625833
0.455337 0.640577 0.671663
0.532508 0.686407 0.717492
0.609678 0.732237 0.763322
0.686728 0.777995 0.809080
0.758372 0.820543 0.851628
0.834914 0.866000 0.897086
0.911457 0.911457 0.942543
0.942543 0.911457 0.942543
0.378167 0.625833 0.625833
0.455337 0.671663 0.671663
0.532508 0.717492 0.717492
0.609678 0.763322 0.763322
0.686728 0.809080 0.809080
0.758372 0.851628 0.851628
0.834914 0.897086 0.897086
0.911457 0.942543 0.942543
0.988000 0.988000 0.988000
