docs/luts/fuji_recipes/NEGAhi_VM_VintageK.cube
TITLE "Fujifilm Recipe: VM VintageK (NEGAhi)"
# FilmSim=NEGAhi HL=1 SH=0 Col=-4 WB=Auto WBR=3 WBB=-2
LUT_3D_SIZE 5
DOMAIN_MIN 0.0 0.0 0.0
DOMAIN_MAX 1.0 1.0 1.0
0.000000 0.000000 0.000000
0.172861 0.097234 0.097234
0.346279 0.194782 0.194782
0.523747 0.294608 0.294608
0.640000 0.360000 0.360000
0.090000 0.160000 0.090000
0.172861 0.167234 0.097234
0.346279 0.264782 0.194782
0.523747 0.364608 0.294608
0.640000 0.430000 0.360000
0.180000 0.320000 0.180000
0.255627 0.320000 0.180000
0.346279 0.334782 0.194782
0.523747 0.434608 0.294608
0.640000 0.500000 0.360000
0.272477 0.484403 0.272477
0.348103 0.484403 0.272477
0.423974 0.484403 0.272477
0.523747 0.506534 0.294608
0.640000 0.571926 0.360000
0.360000 0.640000 0.360000
0.435627 0.640000 0.360000
0.511497 0.640000 0.360000
0.589139 0.640000 0.360000
0.640000 0.640000 0.360000
0.085500 0.085500 0.152000
0.172861 0.097234 0.163734
0.346279 0.194782 0.261282
0.523747 0.294608 0.361108
0.640000 0.360000 0.426500
0.090000 0.160000 0.156500
0.258361 0.252734 0.249234
0.431779 0.350282 0.346782
0.609247 0.450108 0.446608
0.725500 0.515500 0.512000
0.180000 0.320000 0.246500
0.341127 0.405500 0.332000
0.431779 0.420282 0.346782
0.609247 0.520108 0.446608
0.725500 0.585500 0.512000
0.272477 0.484403 0.338977
0.433603 0.569903 0.424477
0.509474 0.569903 0.424477
0.609247 0.592034 0.446608
0.725500 0.657426 0.512000
0.360000 0.640000 0.426500
0.521127 0.725500 0.512000
0.596997 0.725500 0.512000
0.674639 0.725500 0.512000
0.725500 0.725500 0.512000
0.171000 0.171000 0.304000
0.246627 0.171000 0.304000
0.346279 0.194782 0.327782
0.523747 0.294608 0.427608
0.640000 0.360000 0.493000
0.171000 0.241000 0.304000
0.336627 0.331000 0.394000
0.436279 0.354782 0.417782
0.613747 0.454608 0.517608
0.730000 0.520000 0.583000
0.180000 0.320000 0.313000
0.352861 0.417234 0.410234
0.517279 0.505782 0.498782
0.694747 0.605608 0.598608
0.811000 0.671000 0.664000
0.272477 0.484403 0.405477
0.445338 0.581637 0.502711
0.594974 0.655403 0.576477
0.694747 0.677534 0.598608
0.811000 0.742926 0.664000
0.360000 0.640000 0.493000
0.532861 0.737234 0.590234
0.682497 0.811000 0.664000
0.760139 0.811000 0.664000
0.811000 0.811000 0.664000
0.258605 0.258605 0.459743
0.334232 0.258605 0.459743
0.410102 0.258605 0.459743
0.523747 0.294608 0.495745
0.640000 0.360000 0.561137
0.258605 0.328605 0.459743
0.424232 0.418605 0.549743
0.500102 0.418605 0.549743
0.613747 0.454608 0.585745
0.730000 0.520000 0.651137
0.258605 0.398605 0.459743
0.431466 0.495839 0.556977
0.590102 0.578605 0.639743
0.703747 0.614608 0.675745
0.820000 0.680000 0.741137
0.272477 0.484403 0.473614
0.445338 0.581637 0.570848
0.618756 0.679185 0.668396
0.782352 0.765139 0.754350
0.898605 0.830532 0.819743
0.360000 0.640000 0.561137
0.532861 0.737234 0.658372
0.706279 0.834782 0.755920
0.847745 0.898605 0.819743
0.898605 0.898605 0.819743
0.346458 0.346458 0.615926
0.422085 0.346458 0.615926
0.497955 0.346458 0.615926
0.575598 0.346458 0.615926
0.640000 0.360000 0.629468
0.346458 0.416458 0.615926
0.512085 0.506458 0.705926
0.587955 0.506458 0.705926
0.665598 0.506458 0.705926
0.730000 0.520000 0.719468
0.346458 0.486458 0.615926
0.519319 0.583692 0.713160
0.677955 0.666458 0.795926
0.755598 0.666458 0.795926
0.820000 0.680000 0.809468
0.346458 0.558385 0.615926
0.519319 0.655619 0.713160
0.692737 0.753167 0.810708
0.848074 0.830861 0.888403
0.912477 0.844403 0.901944
0.360000 0.640000 0.629468
0.532861 0.737234 0.726702
0.706279 0.834782 0.824250
0.883747 0.934608 0.924075
0.986458 0.986458 0.975926
