docs/luts/fuji_recipes/NEGA_RR_Superia_800.cube
TITLE "Fujifilm Recipe: RR Superia 800 (NEGA)"
# FilmSim=NEGA HL=1 SH=2 Col=4 WB=Auto WBR=-2 WBB=-3
LUT_3D_SIZE 9
DOMAIN_MIN 0.0 0.0 0.0
DOMAIN_MAX 1.0 1.0 1.0
0.014720 0.014720 0.014720
0.169991 0.000000 0.000000
0.300444 0.000000 0.000000
0.430897 0.000000 0.000000
0.600526 0.000000 0.000000
0.746037 0.000000 0.000000
0.891547 0.000000 0.000000
0.966503 0.000000 0.000000
0.966503 0.000000 0.000000
0.000000 0.177389 0.000000
0.168519 0.177389 0.000000
0.300444 0.164021 0.000000
0.430897 0.158798 0.000000
0.600526 0.154315 0.000000
0.746037 0.152693 0.000000
0.891547 0.151620 0.000000
0.966503 0.151197 0.000000
0.966503 0.151197 0.000000
0.000000 0.314708 0.000000
0.155057 0.314708 0.000000
0.298972 0.314708 0.000000
0.430897 0.306187 0.000000
0.600526 0.297543 0.000000
0.746037 0.294415 0.000000
0.891547 0.292346 0.000000
0.966503 0.291531 0.000000
0.966503 0.291531 0.000000
0.000000 0.452027 0.000000
0.150343 0.452027 0.000000
0.289884 0.452027 0.000000
0.429425 0.452027 0.000000
0.600526 0.440770 0.000000
0.746037 0.436138 0.000000
0.891547 0.433072 0.000000
0.966503 0.431865 0.000000
0.966503 0.431865 0.000000
0.000000 0.631753 0.000000
0.146206 0.631753 0.000000
0.281907 0.631753 0.000000
0.417608 0.631753 0.000000
0.599101 0.631753 0.000000
0.746037 0.627473 0.000000
0.891547 0.623917 0.000000
0.966503 0.622618 0.000000
0.966503 0.622618 0.000000
0.000000 0.784922 0.000000
0.144747 0.784922 0.000000
0.279095 0.784922 0.000000
0.413443 0.784922 0.000000
0.594030 0.784922 0.000000
0.744667 0.784922 0.000000
0.891547 0.781706 0.000000
0.966503 0.779966 0.000000
0.966503 0.779966 0.000000
0.000000 0.938090 0.000000
0.143782 0.938090 0.000000
0.277233 0.938090 0.000000
0.410684 0.938090 0.000000
0.590966 0.938090 0.000000
0.740597 0.938090 0.000000
0.890229 0.938090 0.000000
0.966503 0.937315 0.000000
0.966503 0.937315 0.000000
0.016991 1.000000 0.016991
0.155601 1.000000 0.016991
0.284252 1.000000 0.016991
0.412902 1.000000 0.016991
0.587145 1.000000 0.016991
0.731394 1.000000 0.016991
0.875643 1.000000 0.016991
0.949949 1.000000 0.016991
0.949949 1.000000 0.016991
0.016991 1.000000 0.016991
0.155601 1.000000 0.016991
0.284252 1.000000 0.016991
0.412902 1.000000 0.016991
0.587145 1.000000 0.016991
0.731394 1.000000 0.016991
0.875643 1.000000 0.016991
0.949949 1.000000 0.016991
0.949949 1.000000 0.016991
0.000000 0.000000 0.166293
0.169991 0.000000 0.165518
0.300444 0.000000 0.151719
0.430897 0.000000 0.146889
0.600526 0.000000 0.142741
0.746037 0.000000 0.141241
0.891547 0.000000 0.140248
0.966503 0.000000 0.139857
0.966503 0.000000 0.139857
0.000000 0.177389 0.164085
0.154226 0.165805 0.148437
0.323636 0.131029 0.113661
0.490955 0.094163 0.076795
0.713265 0.042285 0.024917
0.883693 0.016708 0.000000
1.000000 0.043879 0.029203
1.000000 0.116434 0.104159
1.000000 0.116434 0.104159
0.000000 0.314708 0.150976
0.115420 0.341930 0.109631
0.319605 0.341930 0.109631
0.490955 0.309095 0.076795
0.713265 0.257217 0.024917
0.883693 0.223473 0.000000
1.000000 0.225501 0.029203
1.000000 0.268349 0.104159
1.000000 0.268349 0.104159
0.000000 0.452027 0.146387
0.076614 0.518055 0.070824
0.280799 0.518055 0.070824
0.484984 0.518055 0.070824
0.713265 0.472148 0.024917
0.883693 0.430238 0.000000
1.000000 0.407123 0.029203
1.000000 0.420264 0.104159
1.000000 0.420264 0.104159
0.000000 0.631753 0.142358
0.021614 0.753584 0.015825
0.225799 0.753584 0.015825
0.429984 0.753584 0.015825
0.704453 0.753584 0.015825
0.883693 0.710714 0.000000
1.000000 0.654596 0.029203
1.000000 0.627736 0.104159
1.000000 0.627736 0.104159
0.000000 0.784922 0.140938
0.005449 0.922578 0.000000
0.197646 0.922578 0.000000
0.389842 0.922578 0.000000
0.649490 0.922578 0.000000
0.864989 0.922578 0.000000
1.000000 0.858238 0.029203
1.000000 0.798070 0.104159
1.000000 0.798070 0.104159
0.000000 0.938090 0.139998
0.080123 1.000000 0.075746
0.234496 1.000000 0.075746
0.388868 1.000000 0.075746
0.598457 1.000000 0.075746
0.771546 1.000000 0.075746
0.944635 1.000000 0.075746
1.000000 0.968403 0.104159
1.000000 0.968403 0.104159
0.016991 1.000000 0.151953
0.158279 1.000000 0.154647
0.286390 1.000000 0.154647
0.414501 1.000000 0.154647
0.588879 1.000000 0.154647
0.732522 1.000000 0.154647
0.876165 1.000000 0.154647
0.950159 1.000000 0.154647
0.950159 1.000000 0.154647
0.016991 1.000000 0.151953
0.158279 1.000000 0.154647
0.286390 1.000000 0.154647
0.414501 1.000000 0.154647
0.588879 1.000000 0.154647
0.732522 1.000000 0.154647
0.876165 1.000000 0.154647
0.950159 1.000000 0.154647
0.950159 1.000000 0.154647
0.000000 0.000000 0.293313
0.156233 0.000000 0.293313
0.300444 0.000000 0.292538
0.430897 0.000000 0.283223
0.600526 0.000000 0.275227
0.746037 0.000000 0.272334
0.891547 0.000000 0.270420
0.966503 0.000000 0.269666
0.966503 0.000000 0.269666
0.000000 0.164455 0.293313
0.120421 0.131999 0.313443
0.320500 0.127893 0.309337
0.487819 0.091027 0.272471
0.710218 0.039126 0.220570
0.894854 0.000000 0.180138
1.000000 0.040364 0.194237
1.000000 0.115320 0.243716
1.000000 0.115320 0.243716
0.000000 0.314708 0.291105
0.114375 0.340885 0.307397
0.283709 0.306034 0.272547
0.455059 0.273199 0.239711
0.678383 0.221052 0.187565
0.866262 0.178684 0.145196
1.000000 0.186644 0.156968
1.000000 0.255964 0.231924
1.000000 0.255964 0.231924
0.000000 0.452027 0.282256
0.075568 0.517010 0.268591
0.244903 0.482159 0.233740
0.449088 0.482159 0.233740
0.678383 0.435984 0.187565
0.866262 0.393615 0.145196
1.000000 0.377112 0.156968
1.000000 0.410260 0.231924
1.000000 0.410260 0.231924
0.000000 0.631753 0.274488
0.020561 0.752568 0.213584
0.189635 0.718702 0.178472
0.393820 0.718702 0.178472
0.669571 0.718702 0.178472
0.866262 0.686452 0.145196
1.000000 0.637774 0.156968
1.000000 0.621903 0.231924
1.000000 0.621903 0.231924
0.000000 0.784922 0.271750
0.000000 0.926298 0.183499
0.145036 0.916469 0.133874
0.349221 0.916469 0.133874
0.626348 0.916469 0.133874
0.855289 0.916469 0.133874
1.000000 0.851334 0.156968
1.000000 0.794905 0.231924
1.000000 0.794905 0.231924
0.000000 0.938090 0.269937
0.079467 1.000000 0.225499
0.212186 1.000000 0.203512
0.370856 1.000000 0.203512
0.587277 1.000000 0.203512
0.765185 1.000000 0.203512
0.943094 1.000000 0.203512
1.000000 0.967908 0.231924
1.000000 0.967908 0.231924
0.016991 1.000000 0.277218
0.158368 1.000000 0.279458
0.289379 1.000000 0.282413
0.416809 1.000000 0.282413
0.591062 1.000000 0.282413
0.733942 1.000000 0.282413
0.876823 1.000000 0.282413
0.950424 1.000000 0.282413
0.950424 1.000000 0.282413
0.016991 1.000000 0.277218
0.158368 1.000000 0.279458
0.289379 1.000000 0.282413
0.416809 1.000000 0.282413
0.591062 1.000000 0.282413
0.733942 1.000000 0.282413
0.876823 1.000000 0.282413
0.950424 1.000000 0.282413
0.950424 1.000000 0.282413
0.000000 0.000000 0.420333
0.151137 0.000000 0.420333
0.291415 0.000000 0.420333
0.430897 0.000000 0.419558
0.600526 0.000000 0.407712
0.746037 0.000000 0.403427
0.891547 0.000000 0.400592
0.966503 0.000000 0.399475
0.966503 0.000000 0.399475
0.000000 0.159092 0.420333
0.084525 0.096103 0.476359
0.286620 0.094013 0.474269
0.487819 0.091027 0.471283
0.710218 0.039126 0.419382
0.894854 0.000000 0.377520
1.000000 0.040364 0.362838
1.000000 0.115320 0.384402
1.000000 0.115320 0.384402
0.000000 0.306753 0.420333
0.084525 0.311035 0.476359
0.251844 0.274169 0.439493
0.449013 0.267153 0.432477
0.672508 0.214961 0.380285
0.860387 0.172592 0.337916
1.000000 0.178489 0.326430
1.000000 0.253445 0.372505
1.000000 0.253445 0.372505
0.000000 0.452027 0.418125
0.075568 0.517010 0.467403
0.242887 0.480144 0.430537
0.413192 0.446264 0.396656
0.643501 0.399820 0.350212
0.831380 0.357451 0.307844
1.000000 0.331807 0.284734
1.000000 0.396100 0.359690
1.000000 0.396100 0.359690
0.000000 0.631753 0.406618
0.020561 0.752568 0.412395
0.187605 0.716744 0.375254
0.357656 0.683820 0.341120
0.634689 0.683820 0.341120
0.831380 0.651570 0.307844
1.000000 0.612135 0.284734
1.000000 0.613428 0.359690
1.000000 0.613428 0.359690
0.000000 0.784922 0.402562
0.000000 0.926298 0.372501
0.143006 0.914511 0.330655
0.313057 0.881587 0.296521
0.591466 0.881587 0.296521
0.820407 0.881587 0.296521
1.000000 0.840812 0.284734
1.000000 0.790309 0.359690
1.000000 0.790309 0.359690
0.000000 0.938090 0.399877
0.079467 1.000000 0.375912
0.210685 1.000000 0.356773
0.344642 1.000000 0.331277
0.570760 1.000000 0.331277
0.755788 1.000000 0.331277
0.940816 1.000000 0.331277
1.000000 0.967189 0.359690
1.000000 0.967189 0.359690
0.016991 1.000000 0.402484
0.158368 1.000000 0.404181
0.289586 1.000000 0.406655
0.420420 1.000000 0.410178
0.594151 1.000000 0.410178
0.735952 1.000000 0.410178
0.877753 1.000000 0.410178
0.950798 1.000000 0.410178
0.950798 1.000000 0.410178
0.016991 1.000000 0.402484
0.158368 1.000000 0.404181
0.289586 1.000000 0.406655
0.420420 1.000000 0.410178
0.594151 1.000000 0.410178
0.735952 1.000000 0.410178
0.877753 1.000000 0.410178
0.950798 1.000000 0.410178
0.950798 1.000000 0.410178
0.000000 0.000000 0.584913
0.146813 0.000000 0.584913
0.283077 0.000000 0.584913
0.419341 0.000000 0.584913
0.600526 0.000000 0.584156
0.746037 0.000000 0.578879
0.891547 0.000000 0.575665
0.966503 0.000000 0.574500
0.966503 0.000000 0.574500
0.000000 0.154540 0.584913
0.034200 0.045778 0.692090
0.236279 0.043672 0.690058
0.440464 0.043672 0.690058
0.710218 0.039126 0.685652
0.894854 0.000000 0.643171
1.000000 0.040364 0.590863
1.000000 0.115320 0.575149
1.000000 0.115320 0.575149
0.000000 0.297976 0.584913
0.034200 0.260710 0.692090
0.201243 0.223568 0.656265
0.401367 0.219507 0.652348
0.672508 0.214961 0.647942
0.860387 0.172592 0.606880
1.000000 0.178489 0.568281
1.000000 0.253445 0.567628
1.000000 0.253445 0.567628
0.000000 0.441412 0.584913
0.034200 0.475641 0.692090
0.201243 0.438500 0.656265
0.368286 0.401358 0.620441
0.634798 0.390796 0.610232
0.822676 0.348427 0.569170
1.000000 0.316614 0.532009
1.000000 0.391570 0.556204
1.000000 0.391570 0.556204
0.000000 0.631753 0.582775
0.020561 0.752568 0.678872
0.187605 0.716744 0.643047
0.354648 0.680919 0.607223
0.584446 0.633577 0.559881
0.780922 0.601112 0.527416
0.968528 0.559776 0.486080
1.000000 0.587652 0.529955
1.000000 0.587652 0.529955
0.000000 0.784922 0.577867
0.000000 0.926298 0.627137
0.143006 0.914511 0.599824
0.310049 0.878686 0.563999
0.540935 0.831057 0.516369
0.769876 0.831057 0.516369
0.968528 0.800767 0.486080
1.000000 0.776327 0.529955
1.000000 0.776327 0.529955
0.000000 0.938090 0.574910
0.079467 1.000000 0.579597
0.210685 1.000000 0.567396
0.341904 1.000000 0.549090
0.523436 1.000000 0.501394
0.728864 1.000000 0.501394
0.934291 1.000000 0.501394
1.000000 0.965001 0.529955
1.000000 0.965001 0.529955
0.016991 1.000000 0.571667
0.158368 1.000000 0.573522
0.289586 1.000000 0.575881
0.420805 1.000000 0.579263
0.595858 1.000000 0.580707
0.737063 1.000000 0.580707
0.878267 1.000000 0.580707
0.951005 1.000000 0.580707
0.951005 1.000000 0.580707
0.016991 1.000000 0.571667
0.158368 1.000000 0.573522
0.289586 1.000000 0.575881
0.420805 1.000000 0.579263
0.595858 1.000000 0.580707
0.737063 1.000000 0.580707
0.878267 1.000000 0.580707
0.951005 1.000000 0.580707
0.951005 1.000000 0.580707
0.000000 0.000000 0.726594
0.145227 0.000000 0.726594
0.280020 0.000000 0.726594
0.414812 0.000000 0.726594
0.595653 0.000000 0.726594
0.746037 0.000000 0.725866
0.891547 0.000000 0.721619
0.966503 0.000000 0.720047
0.966503 0.000000 0.720047
0.000000 0.152871 0.726594
0.000000 0.011393 0.867971
0.195025 0.002418 0.872993
0.399210 0.002418 0.872993
0.674642 0.002418 0.872993
0.894854 0.000000 0.864484
1.000000 0.040364 0.779906
1.000000 0.115320 0.732893
1.000000 0.115320 0.732893
0.000000 0.294758 0.726594
0.000000 0.222887 0.867971
0.159989 0.182314 0.839200
0.360113 0.178253 0.835283
0.636932 0.178253 0.835283
0.860387 0.172592 0.829796
1.000000 0.178489 0.767758
1.000000 0.253445 0.728164
1.000000 0.253445 0.728164
0.000000 0.436645 0.726594
0.000000 0.434381 0.867971
0.159989 0.397246 0.839200
0.327033 0.360104 0.803375
0.599222 0.354089 0.797573
0.822676 0.348427 0.792086
1.000000 0.316614 0.748246
1.000000 0.391570 0.720981
1.000000 0.391570 0.720981
0.000000 0.628087 0.726594
0.000000 0.721137 0.867971
0.159989 0.689980 0.839200
0.327033 0.654155 0.803375
0.553069 0.602200 0.751420
0.767616 0.587806 0.737026
0.955222 0.546470 0.695690
1.000000 0.577039 0.696872
1.000000 0.577039 0.696872
0.000000 0.784922 0.724539
0.000000 0.926298 0.839055
0.143006 0.914511 0.822740
0.310049 0.878686 0.786916
0.536499 0.826621 0.734851
0.729628 0.790809 0.699038
0.928280 0.760519 0.668748
1.000000 0.752029 0.672375
1.000000 0.752029 0.672375
0.000000 0.938090 0.720604
0.079467 1.000000 0.748247
0.210685 1.000000 0.740940
0.341904 1.000000 0.729978
0.517089 1.000000 0.697438
0.686117 0.988288 0.655526
0.915058 0.988288 0.655526
1.000000 0.961199 0.672375
1.000000 0.961199 0.672375
0.016991 1.000000 0.712120
0.158368 1.000000 0.713367
0.289586 1.000000 0.714952
0.420805 1.000000 0.717225
0.596402 1.000000 0.718575
0.741664 1.000000 0.723127
0.880398 1.000000 0.723127
0.951863 1.000000 0.723127
0.951863 1.000000 0.723127
0.016991 1.000000 0.712120
0.158368 1.000000 0.713367
0.289586 1.000000 0.714952
0.420805 1.000000 0.717225
0.596402 1.000000 0.718575
0.741664 1.000000 0.723127
0.880398 1.000000 0.723127
0.951863 1.000000 0.723127
0.951863 1.000000 0.723127
0.000000 0.000000 0.868275
0.144178 0.000000 0.868275
0.277997 0.000000 0.868275
0.411816 0.000000 0.868275
0.592184 0.000000 0.868275
0.742228 0.000000 0.868275
0.891547 0.000000 0.867573
0.966503 0.000000 0.865595
0.966503 0.000000 0.865595
0.000000 0.151766 0.868275
0.009652 0.020017 1.000000
0.190020 0.017092 1.000000
0.373342 0.017092 1.000000
0.621775 0.017092 1.000000
0.827324 0.017092 1.000000
1.000000 0.040364 0.968949
1.000000 0.115320 0.890636
1.000000 0.115320 0.890636
0.000000 0.292629 0.868275
0.009652 0.212427 1.000000
0.140870 0.162101 1.000000
0.329558 0.155217 1.000000
0.596150 0.155217 1.000000
0.815626 0.155217 1.000000
1.000000 0.178489 0.967235
1.000000 0.253445 0.888700
1.000000 0.253445 0.888700
0.000000 0.433491 0.868275
0.009652 0.404837 1.000000
0.140870 0.366501 1.000000
0.285779 0.318851 0.986310
0.559240 0.312835 0.980508
0.788181 0.312835 0.980508
1.000000 0.316614 0.964482
1.000000 0.391570 0.885759
1.000000 0.391570 0.885759
0.000000 0.624384 0.868275
0.009652 0.666857 1.000000
0.140870 0.646099 1.000000
0.285779 0.614173 0.986310
0.512821 0.561952 0.934088
0.732891 0.553081 0.925218
0.955222 0.546470 0.918607
1.000000 0.577039 0.875888
1.000000 0.577039 0.875888
0.000000 0.782325 0.868275
0.009652 0.882596 1.000000
0.140870 0.875281 1.000000
0.285779 0.855164 0.986310
0.512821 0.802943 0.934088
0.700426 0.761607 0.892753
0.911710 0.743950 0.875095
1.000000 0.731007 0.854486
1.000000 0.731007 0.854486
0.000000 0.938090 0.866298
0.079467 1.000000 0.916896
0.210685 1.000000 0.914484
0.341904 1.000000 0.910865
0.517089 1.000000 0.900124
0.680594 0.982765 0.872920
0.874810 0.948040 0.838195
0.984672 0.939969 0.830124
0.984672 0.939969 0.830124
0.016991 1.000000 0.852573
0.158368 1.000000 0.853212
0.289586 1.000000 0.854023
0.420805 1.000000 0.855187
0.596402 1.000000 0.855878
0.742671 1.000000 0.858763
0.886043 1.000000 0.864755
0.954609 1.000000 0.864755
0.954609 1.000000 0.864755
0.016991 1.000000 0.852573
0.158368 1.000000 0.853212
0.289586 1.000000 0.854023
0.420805 1.000000 0.855187
0.596402 1.000000 0.855878
0.742671 1.000000 0.858763
0.886043 1.000000 0.864755
0.954609 1.000000 0.864755
0.954609 1.000000 0.864755
0.000000 0.000000 0.941258
0.143765 0.000000 0.941258
0.277201 0.000000 0.941258
0.410637 0.000000 0.941258
0.590916 0.000000 0.941258
0.740531 0.000000 0.941258
0.890145 0.000000 0.941258
0.966503 0.000000 0.940570
0.966503 0.000000 0.940570
0.000000 0.151332 0.941258
0.082635 0.091329 1.000000
0.234887 0.090076 1.000000
0.388403 0.090076 1.000000
0.596936 0.090076 1.000000
0.769065 0.090076 1.000000
0.941194 0.090076 1.000000
1.000000 0.115320 0.971894
1.000000 0.115320 0.971894
0.000000 0.291791 0.941258
0.082635 0.252712 1.000000
0.213854 0.231079 1.000000
0.369024 0.228201 1.000000
0.584872 0.228201 1.000000
0.762153 0.228201 1.000000
0.939434 0.228201 1.000000
1.000000 0.253445 0.971396
1.000000 0.253445 0.971396
0.000000 0.432249 0.941258
0.082635 0.414096 1.000000
0.213854 0.396915 1.000000
0.345072 0.371615 1.000000
0.566229 0.366326 1.000000
0.751472 0.366326 1.000000
0.936714 0.366326 1.000000
1.000000 0.391570 0.970640
1.000000 0.391570 0.970640
0.000000 0.623024 0.941258
0.082635 0.634356 1.000000
0.213854 0.624268 1.000000
0.345072 0.609165 1.000000
0.520274 0.564238 1.000000
0.717210 0.551663 1.000000
0.927990 0.551663 1.000000
1.000000 0.577039 0.968104
1.000000 0.577039 0.968104
0.000000 0.780512 0.941258
0.082635 0.815307 1.000000
0.213854 0.810211 1.000000
0.345072 0.802582 1.000000
0.520274 0.779889 1.000000
0.679694 0.740874 0.986850
0.897589 0.729828 0.975803
1.000000 0.731007 0.962603
1.000000 0.731007 0.962603
0.000000 0.938001 0.941258
0.082635 0.996257 1.000000
0.213854 0.996154 1.000000
0.345072 0.995999 1.000000
0.520274 0.995539 1.000000
0.679694 0.981865 0.986850
0.867299 0.940529 0.945514
0.964839 0.920136 0.925121
0.964839 0.920136 0.925121
0.016991 1.000000 0.924924
0.158368 1.000000 0.925249
0.289586 1.000000 0.925662
0.420805 1.000000 0.926255
0.596402 1.000000 0.926607
0.742671 1.000000 0.928076
0.887095 1.000000 0.932569
0.957910 1.000000 0.934818
0.957910 1.000000 0.934818
0.016991 1.000000 0.924924
0.158368 1.000000 0.925249
0.289586 1.000000 0.925662
0.420805 1.000000 0.926255
0.596402 1.000000 0.926607
0.742671 1.000000 0.928076
0.887095 1.000000 0.932569
0.957910 1.000000 0.934818
0.957910 1.000000 0.934818
0.000000 0.000000 0.941258
0.143765 0.000000 0.941258
0.277201 0.000000 0.941258
0.410637 0.000000 0.941258
0.590916 0.000000 0.941258
0.740531 0.000000 0.941258
0.890145 0.000000 0.941258
0.966503 0.000000 0.940570
0.966503 0.000000 0.940570
0.000000 0.151332 0.941258
0.082635 0.091329 1.000000
0.234887 0.090076 1.000000
0.388403 0.090076 1.000000
0.596936 0.090076 1.000000
0.769065 0.090076 1.000000
0.941194 0.090076 1.000000
1.000000 0.115320 0.971894
1.000000 0.115320 0.971894
0.000000 0.291791 0.941258
0.082635 0.252712 1.000000
0.213854 0.231079 1.000000
0.369024 0.228201 1.000000
0.584872 0.228201 1.000000
0.762153 0.228201 1.000000
0.939434 0.228201 1.000000
1.000000 0.253445 0.971396
1.000000 0.253445 0.971396
0.000000 0.432249 0.941258
0.082635 0.414096 1.000000
0.213854 0.396915 1.000000
0.345072 0.371615 1.000000
0.566229 0.366326 1.000000
0.751472 0.366326 1.000000
0.936714 0.366326 1.000000
1.000000 0.391570 0.970640
1.000000 0.391570 0.970640
0.000000 0.623024 0.941258
0.082635 0.634356 1.000000
0.213854 0.624268 1.000000
0.345072 0.609165 1.000000
0.520274 0.564238 1.000000
0.717210 0.551663 1.000000
0.927990 0.551663 1.000000
1.000000 0.577039 0.968104
1.000000 0.577039 0.968104
0.000000 0.780512 0.941258
0.082635 0.815307 1.000000
0.213854 0.810211 1.000000
0.345072 0.802582 1.000000
0.520274 0.779889 1.000000
0.679694 0.740874 0.986850
0.897589 0.729828 0.975803
1.000000 0.731007 0.962603
1.000000 0.731007 0.962603
0.000000 0.938001 0.941258
0.082635 0.996257 1.000000
0.213854 0.996154 1.000000
0.345072 0.995999 1.000000
0.520274 0.995539 1.000000
0.679694 0.981865 0.986850
0.867299 0.940529 0.945514
0.964839 0.920136 0.925121
0.964839 0.920136 0.925121
0.016991 1.000000 0.924924
0.158368 1.000000 0.925249
0.289586 1.000000 0.925662
0.420805 1.000000 0.926255
0.596402 1.000000 0.926607
0.742671 1.000000 0.928076
0.887095 1.000000 0.932569
0.957910 1.000000 0.934818
0.957910 1.000000 0.934818
0.016991 1.000000 0.924924
0.158368 1.000000 0.925249
0.289586 1.000000 0.925662
0.420805 1.000000 0.926255
0.596402 1.000000 0.926607
0.742671 1.000000 0.928076
0.887095 1.000000 0.932569
0.957910 1.000000 0.934818
0.957910 1.000000 0.934818
