docs/luts/fuji_recipes/NEGA_RR_CineStill_800T.cube
TITLE "Fujifilm Recipe: RR CineStill 800T (NEGA)"
# FilmSim=NEGA HL=3 SH=1 Col=-1 WB=3200K WBR=0 WBB=0
LUT_3D_SIZE 9
DOMAIN_MIN 0.0 0.0 0.0
DOMAIN_MAX 1.0 1.0 1.0
0.015360 0.015360 0.015360
0.115877 0.029970 0.029970
0.217181 0.044694 0.044694
0.318486 0.059418 0.059418
0.419790 0.074142 0.074142
0.544020 0.090786 0.090786
0.661170 0.107039 0.107039
0.778321 0.123292 0.123292
0.805587 0.127075 0.127075
0.032502 0.133301 0.032502
0.118409 0.133301 0.032502
0.217181 0.145493 0.044694
0.318486 0.160217 0.059418
0.419790 0.174941 0.074142
0.544020 0.191585 0.090786
0.661170 0.207838 0.107039
0.778321 0.224091 0.123292
0.805587 0.227874 0.127075
0.048985 0.246706 0.048985
0.134892 0.246706 0.048985
0.221472 0.246706 0.048985
0.318486 0.257139 0.059418
0.419790 0.271863 0.074142
0.544020 0.288507 0.090786
0.661170 0.304760 0.107039
0.778321 0.321013 0.123292
0.805587 0.324796 0.127075
0.065468 0.360111 0.065468
0.151375 0.360111 0.065468
0.237955 0.360111 0.065468
0.324536 0.360111 0.065468
0.419790 0.368785 0.074142
0.544020 0.385430 0.090786
0.661170 0.401683 0.107039
0.778321 0.417936 0.123292
0.805587 0.421718 0.127075
0.083153 0.488999 0.083153
0.169060 0.488999 0.083153
0.255641 0.488999 0.083153
0.342221 0.488999 0.083153
0.428802 0.488999 0.083153
0.544020 0.496965 0.090786
0.661170 0.513925 0.107039
0.778321 0.530886 0.123292
0.805587 0.534834 0.127075
0.101347 0.620142 0.101347
0.187254 0.620142 0.101347
0.273835 0.620142 0.101347
0.360415 0.620142 0.101347
0.446996 0.620142 0.101347
0.555041 0.620142 0.101347
0.661170 0.626082 0.107039
0.778321 0.643043 0.123292
0.805587 0.646990 0.127075
0.119541 0.751285 0.119541
0.205448 0.751285 0.119541
0.292029 0.751285 0.119541
0.378610 0.751285 0.119541
0.465190 0.751285 0.119541
0.574028 0.751285 0.119541
0.674217 0.751285 0.119541
0.778321 0.755199 0.123292
0.805587 0.759147 0.127075
0.137736 0.882428 0.137736
0.223643 0.882428 0.137736
0.310223 0.882428 0.137736
0.396804 0.882428 0.137736
0.483385 0.882428 0.137736
0.593014 0.882428 0.137736
0.693204 0.882428 0.137736
0.793393 0.882428 0.137736
0.816712 0.882428 0.137736
0.141970 0.912951 0.141970
0.227877 0.912951 0.141970
0.314458 0.912951 0.141970
0.401039 0.912951 0.141970
0.487619 0.912951 0.141970
0.597433 0.912951 0.141970
0.697623 0.912951 0.141970
0.797812 0.912951 0.141970
0.821131 0.912951 0.141970
0.035244 0.035244 0.152165
0.121151 0.035244 0.152165
0.217181 0.044694 0.161615
0.318486 0.059418 0.176339
0.419790 0.074142 0.191063
0.544020 0.090786 0.207708
0.661170 0.107039 0.223961
0.778321 0.123292 0.240214
0.805587 0.127075 0.243996
0.035244 0.136043 0.152165
0.135760 0.150652 0.166775
0.234323 0.162635 0.178757
0.335628 0.177359 0.193481
0.436933 0.192083 0.208205
0.562084 0.208819 0.224941
0.679234 0.225071 0.241194
0.796385 0.241324 0.257447
0.823651 0.245107 0.261230
0.048985 0.246706 0.165906
0.149501 0.261315 0.180516
0.241356 0.266590 0.185790
0.338370 0.277023 0.196223
0.439674 0.291747 0.210947
0.564974 0.308497 0.227697
0.682124 0.324750 0.243950
0.799274 0.341003 0.260203
0.826540 0.344786 0.263986
0.065468 0.360111 0.182389
0.165984 0.374720 0.196999
0.257839 0.379995 0.202273
0.344420 0.379995 0.202273
0.439674 0.388669 0.210947
0.564974 0.405419 0.227697
0.682124 0.421672 0.243950
0.799274 0.437925 0.260203
0.826540 0.441708 0.263986
0.083153 0.488999 0.200074
0.183747 0.504394 0.214762
0.275630 0.509952 0.220064
0.362211 0.509952 0.220064
0.448791 0.509952 0.220064
0.564974 0.517918 0.227697
0.682124 0.534879 0.243950
0.799274 0.551839 0.260203
0.826540 0.555787 0.263986
0.101347 0.620142 0.218269
0.201941 0.635537 0.232956
0.293824 0.641095 0.238258
0.380405 0.641095 0.238258
0.466986 0.641095 0.238258
0.575994 0.641095 0.238258
0.682124 0.647035 0.243950
0.799274 0.663996 0.260203
0.826540 0.667944 0.263986
0.119541 0.751285 0.236463
0.220136 0.766680 0.251150
0.312019 0.772238 0.256453
0.398599 0.772238 0.256453
0.485180 0.772238 0.256453
0.594981 0.772238 0.256453
0.695170 0.772238 0.256453
0.799274 0.776153 0.260203
0.826540 0.780100 0.263986
0.137736 0.882428 0.254657
0.238330 0.897824 0.269344
0.330213 0.903382 0.274647
0.416794 0.903382 0.274647
0.520399 0.903382 0.274647
0.613967 0.903382 0.274647
0.714157 0.903382 0.274647
0.814346 0.903382 0.274647
0.837665 0.903382 0.274647
0.141970 0.912951 0.258892
0.242239 0.925057 0.273254
0.333926 0.928629 0.278360
0.420506 0.928629 0.278360
0.524297 0.928629 0.278360
0.617865 0.928629 0.278360
0.718054 0.928629 0.278360
0.818244 0.928629 0.278360
0.841562 0.928629 0.278360
0.053631 0.053631 0.278671
0.139538 0.053631 0.278671
0.226118 0.053631 0.278671
0.318486 0.059418 0.284458
0.419790 0.074142 0.299182
0.544020 0.090786 0.315826
0.661170 0.107039 0.332079
0.778321 0.123292 0.348332
0.805587 0.127075 0.352115
0.053631 0.154430 0.278671
0.154147 0.169039 0.293280
0.243260 0.171572 0.295813
0.335628 0.177359 0.301600
0.436933 0.192083 0.316324
0.562084 0.208819 0.333059
0.679234 0.225071 0.349312
0.796385 0.241324 0.365565
0.823651 0.245107 0.369348
0.053631 0.251352 0.278671
0.154147 0.265961 0.293280
0.255452 0.280685 0.308004
0.352111 0.290764 0.318082
0.453415 0.305488 0.332806
0.579453 0.322311 0.349630
0.696604 0.338564 0.365883
0.813754 0.354817 0.382136
0.841020 0.358600 0.385919
0.065468 0.360111 0.290507
0.165984 0.374720 0.305117
0.267289 0.389444 0.319841
0.362806 0.398382 0.328778
0.458061 0.407056 0.337452
0.584349 0.423904 0.354300
0.701499 0.440157 0.370553
0.818650 0.456410 0.386806
0.845916 0.460193 0.390589
0.083153 0.488999 0.308193
0.183747 0.504394 0.322880
0.285130 0.519910 0.337682
0.380695 0.529328 0.346667
0.467276 0.529328 0.346667
0.584349 0.537294 0.354300
0.701499 0.554254 0.370553
0.818650 0.571215 0.386806
0.845916 0.575163 0.390589
0.101347 0.620142 0.326387
0.201941 0.635537 0.341074
0.303324 0.651053 0.355877
0.398890 0.660471 0.364861
0.485470 0.660471 0.364861
0.595370 0.660471 0.364861
0.701499 0.666411 0.370553
0.818650 0.683372 0.386806
0.845916 0.687319 0.390589
0.119541 0.751285 0.344581
0.220136 0.766680 0.359269
0.321519 0.782196 0.374071
0.417084 0.791614 0.383056
0.520789 0.791614 0.383056
0.614356 0.791614 0.383056
0.714546 0.791614 0.383056
0.818650 0.795528 0.386806
0.845916 0.799476 0.390589
0.137736 0.882428 0.362776
0.238330 0.897824 0.377463
0.339713 0.913339 0.392265
0.435278 0.922757 0.401250
0.539775 0.922757 0.401250
0.633343 0.922757 0.401250
0.733533 0.922757 0.401250
0.833722 0.922757 0.401250
0.857041 0.922757 0.401250
0.141970 0.912951 0.367010
0.242239 0.925057 0.381372
0.343074 0.935029 0.395626
0.438306 0.941082 0.404278
0.542988 0.941082 0.404278
0.636556 0.941082 0.404278
0.736745 0.941082 0.404278
0.836935 0.941082 0.404278
0.860253 0.941082 0.404278
0.072017 0.072017 0.405176
0.157925 0.072017 0.405176
0.244505 0.072017 0.405176
0.331086 0.072017 0.405176
0.419790 0.074142 0.407300
0.544020 0.090786 0.423945
0.661170 0.107039 0.440198
0.778321 0.123292 0.456450
0.805587 0.127075 0.460233
0.072017 0.172816 0.405176
0.172534 0.187426 0.419785
0.261647 0.189958 0.422318
0.348228 0.189958 0.422318
0.436933 0.192083 0.424442
0.562084 0.208819 0.441178
0.679234 0.225071 0.457431
0.796385 0.241324 0.473684
0.823651 0.245107 0.477467
0.072017 0.269739 0.405176
0.172534 0.284348 0.419785
0.273839 0.299072 0.434509
0.364711 0.303363 0.438801
0.453415 0.305488 0.440925
0.579453 0.322311 0.457748
0.696604 0.338564 0.474001
0.813754 0.354817 0.490254
0.841020 0.358600 0.494037
0.072017 0.366661 0.405176
0.172534 0.381270 0.419785
0.273839 0.395994 0.434509
0.375143 0.410718 0.449233
0.469898 0.418893 0.457407
0.596823 0.435804 0.474319
0.713973 0.452057 0.490572
0.831123 0.468310 0.506825
0.858389 0.472092 0.510607
0.083153 0.488999 0.416311
0.183747 0.504394 0.430998
0.285130 0.519910 0.445801
0.386513 0.535426 0.460603
0.502191 0.548703 0.473270
0.603725 0.556669 0.480903
0.720875 0.573630 0.497156
0.838025 0.590591 0.513409
0.865291 0.594538 0.517192
0.101347 0.620142 0.434505
0.201941 0.635537 0.449193
0.303324 0.651053 0.463995
0.404707 0.666569 0.478797
0.521178 0.679847 0.491464
0.614746 0.679847 0.491464
0.720875 0.685787 0.497156
0.838025 0.702747 0.513409
0.865291 0.706695 0.517192
0.119541 0.751285 0.452700
0.220136 0.766680 0.467387
0.321519 0.782196 0.482189
0.422902 0.797712 0.496992
0.540164 0.810990 0.509659
0.633732 0.810990 0.509659
0.733922 0.810990 0.509659
0.838025 0.814904 0.513409
0.865291 0.818851 0.517192
0.137736 0.882428 0.470894
0.238330 0.897824 0.485581
0.339713 0.913339 0.500384
0.441096 0.928855 0.515186
0.560987 0.943969 0.546414
0.654554 0.943969 0.546414
0.754744 0.943969 0.546414
0.854933 0.943969 0.546414
0.878252 0.943969 0.546414
0.141970 0.912951 0.475129
0.242239 0.925057 0.489490
0.343074 0.935029 0.503745
0.443909 0.945002 0.517999
0.563535 0.955392 0.548962
0.657103 0.955392 0.548962
0.757292 0.955392 0.548962
0.857482 0.955392 0.548962
0.880800 0.955392 0.548962
0.092485 0.092485 0.556262
0.178392 0.092485 0.556262
0.264972 0.092485 0.556262
0.351553 0.092485 0.556262
0.438134 0.092485 0.556262
0.545793 0.092485 0.556262
0.661170 0.107039 0.571450
0.778321 0.123292 0.588411
0.805587 0.127075 0.592359
0.092485 0.193284 0.556262
0.193079 0.207971 0.571657
0.282206 0.210517 0.574326
0.368786 0.210517 0.574326
0.455367 0.210517 0.574326
0.563857 0.210517 0.574326
0.679234 0.225071 0.589514
0.796385 0.241324 0.606475
0.823651 0.245107 0.610423
0.092485 0.290206 0.556262
0.193079 0.304893 0.571657
0.294462 0.319695 0.587173
0.385357 0.324009 0.591695
0.471937 0.324009 0.591695
0.581226 0.324009 0.591695
0.696604 0.338564 0.606883
0.813754 0.354817 0.623844
0.841020 0.358600 0.627792
0.092485 0.387128 0.556262
0.193079 0.401815 0.571657
0.294462 0.416618 0.587173
0.395845 0.431420 0.602689
0.505027 0.437502 0.609064
0.598595 0.437502 0.609064
0.713973 0.452057 0.624253
0.831123 0.468310 0.641213
0.858389 0.472092 0.645161
0.092485 0.498737 0.556262
0.193079 0.514132 0.571657
0.294462 0.529648 0.587173
0.395845 0.545164 0.602689
0.516027 0.562539 0.620064
0.617505 0.570449 0.627974
0.732952 0.585707 0.643232
0.850180 0.602746 0.660271
0.877464 0.606711 0.664236
0.101347 0.620142 0.565510
0.201941 0.635537 0.580906
0.303324 0.651053 0.596421
0.404707 0.666569 0.611937
0.525318 0.683987 0.629355
0.634798 0.699899 0.645267
0.742735 0.707647 0.653015
0.859963 0.724685 0.670053
0.887247 0.728651 0.674019
0.119541 0.751285 0.584497
0.220136 0.766680 0.599892
0.321519 0.782196 0.615408
0.422902 0.797712 0.630924
0.544391 0.815217 0.648428
0.653871 0.831129 0.664341
0.755841 0.832910 0.666121
0.859963 0.836842 0.670053
0.887247 0.840807 0.674019
0.137736 0.882428 0.603483
0.238330 0.897824 0.618879
0.339713 0.913339 0.634395
0.441096 0.928855 0.649911
0.563465 0.946447 0.667502
0.672945 0.962359 0.683414
0.774915 0.964140 0.685195
0.875104 0.964140 0.685195
0.898423 0.964140 0.685195
0.141970 0.912951 0.607902
0.242239 0.925057 0.622972
0.343074 0.935029 0.637940
0.443909 0.945002 0.652908
0.565934 0.957070 0.669971
0.674906 0.967848 0.685376
0.776819 0.969054 0.687099
0.877009 0.969054 0.687099
0.900328 0.969054 0.687099
0.112781 0.112781 0.702554
0.198688 0.112781 0.702554
0.285268 0.112781 0.702554
0.371849 0.112781 0.702554
0.458430 0.112781 0.702554
0.566972 0.112781 0.702554
0.667162 0.112781 0.702554
0.778321 0.123292 0.713524
0.805587 0.127075 0.717471
0.112781 0.213580 0.702554
0.213375 0.228267 0.717950
0.302502 0.230813 0.720618
0.389082 0.230813 0.720618
0.475663 0.230813 0.720618
0.585036 0.230813 0.720618
0.685226 0.230813 0.720618
0.796385 0.241324 0.731588
0.823651 0.245107 0.735535
0.112781 0.310502 0.702554
0.213375 0.325189 0.717950
0.314758 0.339991 0.733466
0.405653 0.344305 0.737988
0.508838 0.344305 0.737988
0.602406 0.344305 0.737988
0.702595 0.344305 0.737988
0.813754 0.354817 0.748957
0.841020 0.358600 0.752904
0.112781 0.407424 0.702554
0.213375 0.422111 0.717950
0.314758 0.436914 0.733466
0.416141 0.451716 0.748981
0.526207 0.457798 0.755357
0.619775 0.457798 0.755357
0.719964 0.457798 0.755357
0.831123 0.468310 0.766326
0.858389 0.472092 0.770274
0.112781 0.519917 0.702554
0.213375 0.535312 0.717950
0.314758 0.550828 0.733466
0.416141 0.566344 0.748981
0.537304 0.583816 0.766454
0.638782 0.591726 0.774364
0.738971 0.591726 0.774364
0.850180 0.602746 0.785383
0.877464 0.606711 0.789349
0.112781 0.632073 0.702554
0.213375 0.647469 0.717950
0.314758 0.662985 0.733466
0.416141 0.678501 0.748981
0.537304 0.695973 0.766454
0.646784 0.711885 0.782366
0.758045 0.722956 0.793437
0.869254 0.733976 0.804457
0.896538 0.737941 0.808422
0.119541 0.751285 0.709609
0.220136 0.766680 0.725005
0.321519 0.782196 0.740521
0.422902 0.797712 0.756037
0.544391 0.815217 0.773541
0.653871 0.831129 0.789453
0.771099 0.848167 0.806492
0.881240 0.858118 0.816443
0.908524 0.862084 0.820408
0.137736 0.882428 0.728596
0.238330 0.897824 0.743991
0.339713 0.913339 0.759507
0.441096 0.928855 0.775023
0.563465 0.946447 0.792615
0.672945 0.962359 0.808527
0.790158 0.979246 0.825550
0.896174 0.983323 0.831377
0.919493 0.983323 0.831377
0.141970 0.912951 0.733015
0.242239 0.925057 0.748085
0.343074 0.935029 0.763053
0.443909 0.945002 0.778020
0.565934 0.957070 0.795084
0.674906 0.967848 0.810488
0.791590 0.979388 0.826983
0.897607 0.983465 0.832810
0.920925 0.983465 0.832810
0.133077 0.133077 0.848847
0.218984 0.133077 0.848847
0.305564 0.133077 0.848847
0.392145 0.133077 0.848847
0.478726 0.133077 0.848847
0.588152 0.133077 0.848847
0.688342 0.133077 0.848847
0.788531 0.133077 0.848847
0.811850 0.133077 0.848847
0.133077 0.233876 0.848847
0.233671 0.248563 0.864242
0.322798 0.251109 0.866911
0.409378 0.251109 0.866911
0.512648 0.251109 0.866911
0.606216 0.251109 0.866911
0.706406 0.251109 0.866911
0.806595 0.251109 0.866911
0.829914 0.251109 0.866911
0.133077 0.330798 0.848847
0.233671 0.345485 0.864242
0.335054 0.360287 0.879758
0.425949 0.364601 0.884280
0.530018 0.364601 0.884280
0.623585 0.364601 0.884280
0.723775 0.364601 0.884280
0.823964 0.364601 0.884280
0.847283 0.364601 0.884280
0.133077 0.427720 0.848847
0.233671 0.442407 0.864242
0.335054 0.457210 0.879758
0.436437 0.472012 0.895274
0.547387 0.478094 0.901649
0.640955 0.478094 0.901649
0.741144 0.478094 0.901649
0.841334 0.478094 0.901649
0.864652 0.478094 0.901649
0.133077 0.541097 0.848847
0.233671 0.556492 0.864242
0.335054 0.572008 0.879758
0.436437 0.587524 0.895274
0.558581 0.605093 0.912843
0.660059 0.613003 0.920753
0.760248 0.613003 0.920753
0.860437 0.613003 0.920753
0.883756 0.613003 0.920753
0.133077 0.653253 0.848847
0.233671 0.668649 0.864242
0.335054 0.684164 0.879758
0.436437 0.699680 0.895274
0.558581 0.717250 0.912843
0.668061 0.733162 0.928755
0.779322 0.744233 0.939827
0.879511 0.744233 0.939827
0.902830 0.744233 0.939827
0.133077 0.765410 0.848847
0.233671 0.780805 0.864242
0.335054 0.796321 0.879758
0.436437 0.811837 0.895274
0.558581 0.829406 0.912843
0.668061 0.845319 0.928755
0.785289 0.862357 0.945794
0.898585 0.875463 0.958900
0.921903 0.875463 0.958900
0.137736 0.882428 0.853709
0.238330 0.897824 0.869104
0.339713 0.913339 0.884620
0.441096 0.928855 0.900136
0.563465 0.946447 0.917727
0.672945 0.962359 0.933640
0.790158 0.979246 0.950663
0.906842 0.990787 0.967158
0.934000 0.993473 0.970997
0.141970 0.912951 0.858128
0.242239 0.925057 0.873198
0.343074 0.935029 0.888165
0.443909 0.945002 0.903133
0.565934 0.957070 0.920196
0.674906 0.967848 0.935601
0.791590 0.979388 0.952096
0.908275 0.990928 0.968590
0.935432 0.993614 0.972429
0.141970 0.141970 0.912951
0.227877 0.141970 0.912951
0.314458 0.141970 0.912951
0.401039 0.141970 0.912951
0.487619 0.141970 0.912951
0.597433 0.141970 0.912951
0.697623 0.141970 0.912951
0.797812 0.141970 0.912951
0.821131 0.141970 0.912951
0.141970 0.242769 0.912951
0.242239 0.257131 0.925057
0.331271 0.259583 0.926772
0.417852 0.259583 0.926772
0.521509 0.259583 0.926772
0.615077 0.259583 0.926772
0.715267 0.259583 0.926772
0.815456 0.259583 0.926772
0.838775 0.259583 0.926772
0.141970 0.339691 0.912951
0.242239 0.354053 0.925057
0.343074 0.368307 0.935029
0.433809 0.372462 0.937936
0.538265 0.372462 0.937936
0.631833 0.372462 0.937936
0.732022 0.372462 0.937936
0.832212 0.372462 0.937936
0.855531 0.372462 0.937936
0.141970 0.436614 0.912951
0.242239 0.450975 0.925057
0.343074 0.465230 0.935029
0.443909 0.479484 0.945002
0.555021 0.485341 0.949100
0.648588 0.485341 0.949100
0.748778 0.485341 0.949100
0.848967 0.485341 0.949100
0.872286 0.485341 0.949100
0.141970 0.550378 0.912951
0.242239 0.565447 0.925057
0.343074 0.580415 0.935029
0.443909 0.595383 0.945002
0.565934 0.612446 0.957070
0.667159 0.620104 0.962428
0.767349 0.620104 0.962428
0.867538 0.620104 0.962428
0.890857 0.620104 0.962428
0.141970 0.662534 0.912951
0.242239 0.677604 0.925057
0.343074 0.692572 0.935029
0.443909 0.707539 0.945002
0.565934 0.724603 0.957070
0.674906 0.740007 0.967848
0.785814 0.750725 0.975346
0.886003 0.750725 0.975346
0.909322 0.750725 0.975346
0.141970 0.774691 0.912951
0.242239 0.789761 0.925057
0.343074 0.804728 0.935029
0.443909 0.819696 0.945002
0.565934 0.836759 0.957070
0.674906 0.852164 0.967848
0.791590 0.868659 0.979388
0.904468 0.881347 0.988265
0.927787 0.881347 0.988265
0.141970 0.886847 0.912951
0.242239 0.901917 0.925057
0.343074 0.916885 0.935029
0.443909 0.931853 0.945002
0.565934 0.948916 0.957070
0.674906 0.964321 0.967848
0.791590 0.979388 0.979388
0.908275 0.990928 0.990928
0.935432 0.993614 0.993614
0.141970 0.912951 0.912951
0.242239 0.925057 0.925057
0.343074 0.935029 0.935029
0.443909 0.945002 0.945002
0.565934 0.957070 0.957070
0.674906 0.967848 0.967848
0.791590 0.979388 0.979388
0.908275 0.990928 0.990928
0.935432 0.993614 0.993614
0.141970 0.141970 0.912951
0.227877 0.141970 0.912951
0.314458 0.141970 0.912951
0.401039 0.141970 0.912951
0.487619 0.141970 0.912951
0.597433 0.141970 0.912951
0.697623 0.141970 0.912951
0.797812 0.141970 0.912951
0.821131 0.141970 0.912951
0.141970 0.242769 0.912951
0.242239 0.257131 0.925057
0.331271 0.259583 0.926772
0.417852 0.259583 0.926772
0.521509 0.259583 0.926772
0.615077 0.259583 0.926772
0.715267 0.259583 0.926772
0.815456 0.259583 0.926772
0.838775 0.259583 0.926772
0.141970 0.339691 0.912951
0.242239 0.354053 0.925057
0.343074 0.368307 0.935029
0.433809 0.372462 0.937936
0.538265 0.372462 0.937936
0.631833 0.372462 0.937936
0.732022 0.372462 0.937936
0.832212 0.372462 0.937936
0.855531 0.372462 0.937936
0.141970 0.436614 0.912951
0.242239 0.450975 0.925057
0.343074 0.465230 0.935029
0.443909 0.479484 0.945002
0.555021 0.485341 0.949100
0.648588 0.485341 0.949100
0.748778 0.485341 0.949100
0.848967 0.485341 0.949100
0.872286 0.485341 0.949100
0.141970 0.550378 0.912951
0.242239 0.565447 0.925057
0.343074 0.580415 0.935029
0.443909 0.595383 0.945002
0.565934 0.612446 0.957070
0.667159 0.620104 0.962428
0.767349 0.620104 0.962428
0.867538 0.620104 0.962428
0.890857 0.620104 0.962428
0.141970 0.662534 0.912951
0.242239 0.677604 0.925057
0.343074 0.692572 0.935029
0.443909 0.707539 0.945002
0.565934 0.724603 0.957070
0.674906 0.740007 0.967848
0.785814 0.750725 0.975346
0.886003 0.750725 0.975346
0.909322 0.750725 0.975346
0.141970 0.774691 0.912951
0.242239 0.789761 0.925057
0.343074 0.804728 0.935029
0.443909 0.819696 0.945002
0.565934 0.836759 0.957070
0.674906 0.852164 0.967848
0.791590 0.868659 0.979388
0.904468 0.881347 0.988265
0.927787 0.881347 0.988265
0.141970 0.886847 0.912951
0.242239 0.901917 0.925057
0.343074 0.916885 0.935029
0.443909 0.931853 0.945002
0.565934 0.948916 0.957070
0.674906 0.964321 0.967848
0.791590 0.979388 0.979388
0.908275 0.990928 0.990928
0.935432 0.993614 0.993614
0.141970 0.912951 0.912951
0.242239 0.925057 0.925057
0.343074 0.935029 0.935029
0.443909 0.945002 0.945002
0.565934 0.957070 0.957070
0.674906 0.967848 0.967848
0.791590 0.979388 0.979388
0.908275 0.990928 0.990928
0.935432 0.993614 0.993614
