docs/luts/fuji_recipes/NEGAhi_VM_VintageK.cube
TITLE "Fujifilm Recipe: VM VintageK (NEGAhi)"
# FilmSim=NEGAhi HL=1 SH=0 Col=-4 WB=Auto WBR=3 WBB=-2
LUT_3D_SIZE 33
DOMAIN_MIN 0.0 0.0 0.0
DOMAIN_MAX 1.0 1.0 1.0
0.000000 0.000000 0.000000
0.021715 0.012215 0.012215
0.043325 0.024370 0.024370
0.064914 0.036514 0.036514
0.086504 0.048658 0.048658
0.108093 0.060802 0.060802
0.129682 0.072946 0.072946
0.151272 0.085090 0.085090
0.172861 0.097234 0.097234
0.194450 0.109378 0.109378
0.216039 0.121522 0.121522
0.237629 0.133666 0.133666
0.259218 0.145810 0.145810
0.280807 0.157954 0.157954
0.302397 0.170098 0.170098
0.324096 0.182304 0.182304
0.346279 0.194782 0.194782
0.368463 0.207260 0.207260
0.390646 0.219738 0.219738
0.412830 0.232217 0.232217
0.435013 0.244695 0.244695
0.457197 0.257173 0.257173
0.479380 0.269651 0.269651
0.501563 0.282129 0.282129
0.523747 0.294608 0.294608
0.545930 0.307086 0.307086
0.568114 0.319564 0.319564
0.590297 0.332042 0.332042
0.612481 0.344520 0.344520
0.634664 0.356999 0.356999
0.640000 0.360000 0.360000
0.640000 0.360000 0.360000
0.640000 0.360000 0.360000
0.011250 0.020000 0.011250
0.021715 0.020965 0.012215
0.043325 0.033120 0.024370
0.064914 0.045264 0.036514
0.086504 0.057408 0.048658
0.108093 0.069552 0.060802
0.129682 0.081696 0.072946
0.151272 0.093840 0.085090
0.172861 0.105984 0.097234
0.194450 0.118128 0.109378
0.216039 0.130272 0.121522
0.237629 0.142416 0.133666
0.259218 0.154560 0.145810
0.280807 0.166704 0.157954
0.302397 0.178848 0.170098
0.324096 0.191054 0.182304
0.346279 0.203532 0.194782
0.368463 0.216010 0.207260
0.390646 0.228488 0.219738
0.412830 0.240967 0.232217
0.435013 0.253445 0.244695
0.457197 0.265923 0.257173
0.479380 0.278401 0.269651
0.501563 0.290879 0.282129
0.523747 0.303358 0.294608
0.545930 0.315836 0.307086
0.568114 0.328314 0.319564
0.590297 0.340792 0.332042
0.612481 0.353270 0.344520
0.634664 0.365749 0.356999
0.640000 0.368750 0.360000
0.640000 0.368750 0.360000
0.640000 0.368750 0.360000
0.022500 0.040000 0.022500
0.032000 0.040000 0.022500
0.043325 0.041870 0.024370
0.064914 0.054014 0.036514
0.086504 0.066158 0.048658
0.108093 0.078302 0.060802
0.129682 0.090446 0.072946
0.151272 0.102590 0.085090
0.172861 0.114734 0.097234
0.194450 0.126878 0.109378
0.216039 0.139022 0.121522
0.237629 0.151166 0.133666
0.259218 0.163310 0.145810
0.280807 0.175454 0.157954
0.302397 0.187598 0.170098
0.324096 0.199804 0.182304
0.346279 0.212282 0.194782
0.368463 0.224760 0.207260
0.390646 0.237238 0.219738
0.412830 0.249717 0.232217
0.435013 0.262195 0.244695
0.457197 0.274673 0.257173
0.479380 0.287151 0.269651
0.501563 0.299629 0.282129
0.523747 0.312108 0.294608
0.545930 0.324586 0.307086
0.568114 0.337064 0.319564
0.590297 0.349542 0.332042
0.612481 0.362020 0.344520
0.634664 0.374499 0.356999
0.640000 0.377500 0.360000
0.640000 0.377500 0.360000
0.640000 0.377500 0.360000
0.033750 0.060000 0.033750
0.043250 0.060000 0.033750
0.052705 0.060000 0.033750
0.064914 0.062764 0.036514
0.086504 0.074908 0.048658
0.108093 0.087052 0.060802
0.129682 0.099196 0.072946
0.151272 0.111340 0.085090
0.172861 0.123484 0.097234
0.194450 0.135628 0.109378
0.216039 0.147772 0.121522
0.237629 0.159916 0.133666
0.259218 0.172060 0.145810
0.280807 0.184204 0.157954
0.302397 0.196348 0.170098
0.324096 0.208554 0.182304
0.346279 0.221032 0.194782
0.368463 0.233510 0.207260
0.390646 0.245988 0.219738
0.412830 0.258467 0.232217
0.435013 0.270945 0.244695
0.457197 0.283423 0.257173
0.479380 0.295901 0.269651
0.501563 0.308379 0.282129
0.523747 0.320858 0.294608
0.545930 0.333336 0.307086
0.568114 0.345814 0.319564
0.590297 0.358292 0.332042
0.612481 0.370770 0.344520
0.634664 0.383249 0.356999
0.640000 0.386250 0.360000
0.640000 0.386250 0.360000
0.640000 0.386250 0.360000
0.045000 0.080000 0.045000
0.054500 0.080000 0.045000
0.063955 0.080000 0.045000
0.073400 0.080000 0.045000
0.086504 0.083658 0.048658
0.108093 0.095802 0.060802
0.129682 0.107946 0.072946
0.151272 0.120090 0.085090
0.172861 0.132234 0.097234
0.194450 0.144378 0.109378
0.216039 0.156522 0.121522
0.237629 0.168666 0.133666
0.259218 0.180810 0.145810
0.280807 0.192954 0.157954
0.302397 0.205098 0.170098
0.324096 0.217304 0.182304
0.346279 0.229782 0.194782
0.368463 0.242260 0.207260
0.390646 0.254738 0.219738
0.412830 0.267217 0.232217
0.435013 0.279695 0.244695
0.457197 0.292173 0.257173
0.479380 0.304651 0.269651
0.501563 0.317129 0.282129
0.523747 0.329608 0.294608
0.545930 0.342086 0.307086
0.568114 0.354564 0.319564
0.590297 0.367042 0.332042
0.612481 0.379520 0.344520
0.634664 0.391999 0.356999
0.640000 0.395000 0.360000
0.640000 0.395000 0.360000
0.640000 0.395000 0.360000
0.056250 0.100000 0.056250
0.065750 0.100000 0.056250
0.075205 0.100000 0.056250
0.084650 0.100000 0.056250
0.094095 0.100000 0.056250
0.108093 0.104552 0.060802
0.129682 0.116696 0.072946
0.151272 0.128840 0.085090
0.172861 0.140984 0.097234
0.194450 0.153128 0.109378
0.216039 0.165272 0.121522
0.237629 0.177416 0.133666
0.259218 0.189560 0.145810
0.280807 0.201704 0.157954
0.302397 0.213848 0.170098
0.324096 0.226054 0.182304
0.346279 0.238532 0.194782
0.368463 0.251010 0.207260
0.390646 0.263488 0.219738
0.412830 0.275967 0.232217
0.435013 0.288445 0.244695
0.457197 0.300923 0.257173
0.479380 0.313401 0.269651
0.501563 0.325879 0.282129
0.523747 0.338358 0.294608
0.545930 0.350836 0.307086
0.568114 0.363314 0.319564
0.590297 0.375792 0.332042
0.612481 0.388270 0.344520
0.634664 0.400749 0.356999
0.640000 0.403750 0.360000
0.640000 0.403750 0.360000
0.640000 0.403750 0.360000
0.067500 0.120000 0.067500
0.077000 0.120000 0.067500
0.086455 0.120000 0.067500
0.095900 0.120000 0.067500
0.105345 0.120000 0.067500
0.114791 0.120000 0.067500
0.129682 0.125446 0.072946
0.151272 0.137590 0.085090
0.172861 0.149734 0.097234
0.194450 0.161878 0.109378
0.216039 0.174022 0.121522
0.237629 0.186166 0.133666
0.259218 0.198310 0.145810
0.280807 0.210454 0.157954
0.302397 0.222598 0.170098
0.324096 0.234804 0.182304
0.346279 0.247282 0.194782
0.368463 0.259760 0.207260
0.390646 0.272238 0.219738
0.412830 0.284717 0.232217
0.435013 0.297195 0.244695
0.457197 0.309673 0.257173
0.479380 0.322151 0.269651
0.501563 0.334629 0.282129
0.523747 0.347108 0.294608
0.545930 0.359586 0.307086
0.568114 0.372064 0.319564
0.590297 0.384542 0.332042
0.612481 0.397020 0.344520
0.634664 0.409499 0.356999
0.640000 0.412500 0.360000
0.640000 0.412500 0.360000
0.640000 0.412500 0.360000
0.078750 0.140000 0.078750
0.088250 0.140000 0.078750
0.097705 0.140000 0.078750
0.107150 0.140000 0.078750
0.116595 0.140000 0.078750
0.126041 0.140000 0.078750
0.135486 0.140000 0.078750
0.151272 0.146340 0.085090
0.172861 0.158484 0.097234
0.194450 0.170628 0.109378
0.216039 0.182772 0.121522
0.237629 0.194916 0.133666
0.259218 0.207060 0.145810
0.280807 0.219204 0.157954
0.302397 0.231348 0.170098
0.324096 0.243554 0.182304
0.346279 0.256032 0.194782
0.368463 0.268510 0.207260
0.390646 0.280988 0.219738
0.412830 0.293467 0.232217
0.435013 0.305945 0.244695
0.457197 0.318423 0.257173
0.479380 0.330901 0.269651
0.501563 0.343379 0.282129
0.523747 0.355858 0.294608
0.545930 0.368336 0.307086
0.568114 0.380814 0.319564
0.590297 0.393292 0.332042
0.612481 0.405770 0.344520
0.634664 0.418249 0.356999
0.640000 0.421250 0.360000
0.640000 0.421250 0.360000
0.640000 0.421250 0.360000
0.090000 0.160000 0.090000
0.099500 0.160000 0.090000
0.108955 0.160000 0.090000
0.118400 0.160000 0.090000
0.127845 0.160000 0.090000
0.137291 0.160000 0.090000
0.146736 0.160000 0.090000
0.156181 0.160000 0.090000
0.172861 0.167234 0.097234
0.194450 0.179378 0.109378
0.216039 0.191522 0.121522
0.237629 0.203666 0.133666
0.259218 0.215810 0.145810
0.280807 0.227954 0.157954
0.302397 0.240098 0.170098
0.324096 0.252304 0.182304
0.346279 0.264782 0.194782
0.368463 0.277260 0.207260
0.390646 0.289738 0.219738
0.412830 0.302217 0.232217
0.435013 0.314695 0.244695
0.457197 0.327173 0.257173
0.479380 0.339651 0.269651
0.501563 0.352129 0.282129
0.523747 0.364608 0.294608
0.545930 0.377086 0.307086
0.568114 0.389564 0.319564
0.590297 0.402042 0.332042
0.612481 0.414520 0.344520
0.634664 0.426999 0.356999
0.640000 0.430000 0.360000
0.640000 0.430000 0.360000
0.640000 0.430000 0.360000
0.101250 0.180000 0.101250
0.110750 0.180000 0.101250
0.120205 0.180000 0.101250
0.129650 0.180000 0.101250
0.139095 0.180000 0.101250
0.148541 0.180000 0.101250
0.157986 0.180000 0.101250
0.167431 0.180000 0.101250
0.176877 0.180000 0.101250
0.194450 0.188128 0.109378
0.216039 0.200272 0.121522
0.237629 0.212416 0.133666
0.259218 0.224560 0.145810
0.280807 0.236704 0.157954
0.302397 0.248848 0.170098
0.324096 0.261054 0.182304
0.346279 0.273532 0.194782
0.368463 0.286010 0.207260
0.390646 0.298488 0.219738
0.412830 0.310967 0.232217
0.435013 0.323445 0.244695
0.457197 0.335923 0.257173
0.479380 0.348401 0.269651
0.501563 0.360879 0.282129
0.523747 0.373358 0.294608
0.545930 0.385836 0.307086
0.568114 0.398314 0.319564
0.590297 0.410792 0.332042
0.612481 0.423270 0.344520
0.634664 0.435749 0.356999
0.640000 0.438750 0.360000
0.640000 0.438750 0.360000
0.640000 0.438750 0.360000
0.112500 0.200000 0.112500
0.122000 0.200000 0.112500
0.131455 0.200000 0.112500
0.140900 0.200000 0.112500
0.150345 0.200000 0.112500
0.159791 0.200000 0.112500
0.169236 0.200000 0.112500
0.178681 0.200000 0.112500
0.188127 0.200000 0.112500
0.197572 0.200000 0.112500
0.216039 0.209022 0.121522
0.237629 0.221166 0.133666
0.259218 0.233310 0.145810
0.280807 0.245454 0.157954
0.302397 0.257598 0.170098
0.324096 0.269804 0.182304
0.346279 0.282282 0.194782
0.368463 0.294760 0.207260
0.390646 0.307238 0.219738
0.412830 0.319717 0.232217
0.435013 0.332195 0.244695
0.457197 0.344673 0.257173
0.479380 0.357151 0.269651
0.501563 0.369629 0.282129
0.523747 0.382108 0.294608
0.545930 0.394586 0.307086
0.568114 0.407064 0.319564
0.590297 0.419542 0.332042
0.612481 0.432020 0.344520
0.634664 0.444499 0.356999
0.640000 0.447500 0.360000
0.640000 0.447500 0.360000
0.640000 0.447500 0.360000
0.123750 0.220000 0.123750
0.133250 0.220000 0.123750
0.142705 0.220000 0.123750
0.152150 0.220000 0.123750
0.161595 0.220000 0.123750
0.171041 0.220000 0.123750
0.180486 0.220000 0.123750
0.189931 0.220000 0.123750
0.199377 0.220000 0.123750
0.208822 0.220000 0.123750
0.218267 0.220000 0.123750
0.237629 0.229916 0.133666
0.259218 0.242060 0.145810
0.280807 0.254204 0.157954
0.302397 0.266348 0.170098
0.324096 0.278554 0.182304
0.346279 0.291032 0.194782
0.368463 0.303510 0.207260
0.390646 0.315988 0.219738
0.412830 0.328467 0.232217
0.435013 0.340945 0.244695
0.457197 0.353423 0.257173
0.479380 0.365901 0.269651
0.501563 0.378379 0.282129
0.523747 0.390858 0.294608
0.545930 0.403336 0.307086
0.568114 0.415814 0.319564
0.590297 0.428292 0.332042
0.612481 0.440770 0.344520
0.634664 0.453249 0.356999
0.640000 0.456250 0.360000
0.640000 0.456250 0.360000
0.640000 0.456250 0.360000
0.135000 0.240000 0.135000
0.144500 0.240000 0.135000
0.153955 0.240000 0.135000
0.163400 0.240000 0.135000
0.172845 0.240000 0.135000
0.182291 0.240000 0.135000
0.191736 0.240000 0.135000
0.201181 0.240000 0.135000
0.210627 0.240000 0.135000
0.220072 0.240000 0.135000
0.229517 0.240000 0.135000
0.238963 0.240000 0.135000
0.259218 0.250810 0.145810
0.280807 0.262954 0.157954
0.302397 0.275098 0.170098
0.324096 0.287304 0.182304
0.346279 0.299782 0.194782
0.368463 0.312260 0.207260
0.390646 0.324738 0.219738
0.412830 0.337217 0.232217
0.435013 0.349695 0.244695
0.457197 0.362173 0.257173
0.479380 0.374651 0.269651
0.501563 0.387129 0.282129
0.523747 0.399608 0.294608
0.545930 0.412086 0.307086
0.568114 0.424564 0.319564
0.590297 0.437042 0.332042
0.612481 0.449520 0.344520
0.634664 0.461999 0.356999
0.640000 0.465000 0.360000
0.640000 0.465000 0.360000
0.640000 0.465000 0.360000
0.146250 0.260000 0.146250
0.155750 0.260000 0.146250
0.165205 0.260000 0.146250
0.174650 0.260000 0.146250
0.184095 0.260000 0.146250
0.193541 0.260000 0.146250
0.202986 0.260000 0.146250
0.212431 0.260000 0.146250
0.221877 0.260000 0.146250
0.231322 0.260000 0.146250
0.240767 0.260000 0.146250
0.250213 0.260000 0.146250
0.259658 0.260000 0.146250
0.280807 0.271704 0.157954
0.302397 0.283848 0.170098
0.324096 0.296054 0.182304
0.346279 0.308532 0.194782
0.368463 0.321010 0.207260
0.390646 0.333488 0.219738
0.412830 0.345967 0.232217
0.435013 0.358445 0.244695
0.457197 0.370923 0.257173
0.479380 0.383401 0.269651
0.501563 0.395879 0.282129
0.523747 0.408358 0.294608
0.545930 0.420836 0.307086
0.568114 0.433314 0.319564
0.590297 0.445792 0.332042
0.612481 0.458270 0.344520
0.634664 0.470749 0.356999
0.640000 0.473750 0.360000
0.640000 0.473750 0.360000
0.640000 0.473750 0.360000
0.157500 0.280000 0.157500
0.167000 0.280000 0.157500
0.176455 0.280000 0.157500
0.185900 0.280000 0.157500
0.195345 0.280000 0.157500
0.204791 0.280000 0.157500
0.214236 0.280000 0.157500
0.223681 0.280000 0.157500
0.233127 0.280000 0.157500
0.242572 0.280000 0.157500
0.252017 0.280000 0.157500
0.261463 0.280000 0.157500
0.270908 0.280000 0.157500
0.280807 0.280454 0.157954
0.302397 0.292598 0.170098
0.324096 0.304804 0.182304
0.346279 0.317282 0.194782
0.368463 0.329760 0.207260
0.390646 0.342238 0.219738
0.412830 0.354717 0.232217
0.435013 0.367195 0.244695
0.457197 0.379673 0.257173
0.479380 0.392151 0.269651
0.501563 0.404629 0.282129
0.523747 0.417108 0.294608
0.545930 0.429586 0.307086
0.568114 0.442064 0.319564
0.590297 0.454542 0.332042
0.612481 0.467020 0.344520
0.634664 0.479499 0.356999
0.640000 0.482500 0.360000
0.640000 0.482500 0.360000
0.640000 0.482500 0.360000
0.168750 0.300000 0.168750
0.178250 0.300000 0.168750
0.187705 0.300000 0.168750
0.197150 0.300000 0.168750
0.206595 0.300000 0.168750
0.216041 0.300000 0.168750
0.225486 0.300000 0.168750
0.234931 0.300000 0.168750
0.244377 0.300000 0.168750
0.253822 0.300000 0.168750
0.263267 0.300000 0.168750
0.272713 0.300000 0.168750
0.282158 0.300000 0.168750
0.291603 0.300000 0.168750
0.302397 0.301348 0.170098
0.324096 0.313554 0.182304
0.346279 0.326032 0.194782
0.368463 0.338510 0.207260
0.390646 0.350988 0.219738
0.412830 0.363467 0.232217
0.435013 0.375945 0.244695
0.457197 0.388423 0.257173
0.479380 0.400901 0.269651
0.501563 0.413379 0.282129
0.523747 0.425858 0.294608
0.545930 0.438336 0.307086
0.568114 0.450814 0.319564
0.590297 0.463292 0.332042
0.612481 0.475770 0.344520
0.634664 0.488249 0.356999
0.640000 0.491250 0.360000
0.640000 0.491250 0.360000
0.640000 0.491250 0.360000
0.180000 0.320000 0.180000
0.189500 0.320000 0.180000
0.198955 0.320000 0.180000
0.208400 0.320000 0.180000
0.217845 0.320000 0.180000
0.227291 0.320000 0.180000
0.236736 0.320000 0.180000
0.246181 0.320000 0.180000
0.255627 0.320000 0.180000
0.265072 0.320000 0.180000
0.274517 0.320000 0.180000
0.283963 0.320000 0.180000
0.293408 0.320000 0.180000
0.302853 0.320000 0.180000
0.312299 0.320000 0.180000
0.324096 0.322304 0.182304
0.346279 0.334782 0.194782
0.368463 0.347260 0.207260
0.390646 0.359738 0.219738
0.412830 0.372217 0.232217
0.435013 0.384695 0.244695
0.457197 0.397173 0.257173
0.479380 0.409651 0.269651
0.501563 0.422129 0.282129
0.523747 0.434608 0.294608
0.545930 0.447086 0.307086
0.568114 0.459564 0.319564
0.590297 0.472042 0.332042
0.612481 0.484520 0.344520
0.634664 0.496999 0.356999
0.640000 0.500000 0.360000
0.640000 0.500000 0.360000
0.640000 0.500000 0.360000
0.191560 0.340550 0.191560
0.201060 0.340550 0.191560
0.210514 0.340550 0.191560
0.219960 0.340550 0.191560
0.229405 0.340550 0.191560
0.238850 0.340550 0.191560
0.248296 0.340550 0.191560
0.257741 0.340550 0.191560
0.267186 0.340550 0.191560
0.276632 0.340550 0.191560
0.286077 0.340550 0.191560
0.295522 0.340550 0.191560
0.304968 0.340550 0.191560
0.314413 0.340550 0.191560
0.323858 0.340550 0.191560
0.333352 0.340550 0.191560
0.346279 0.343773 0.194782
0.368463 0.356251 0.207260
0.390646 0.368729 0.219738
0.412830 0.381207 0.232217
0.435013 0.393686 0.244695
0.457197 0.406164 0.257173
0.479380 0.418642 0.269651
0.501563 0.431120 0.282129
0.523747 0.443598 0.294608
0.545930 0.456077 0.307086
0.568114 0.468555 0.319564
0.590297 0.481033 0.332042
0.612481 0.493511 0.344520
0.634664 0.505989 0.356999
0.640000 0.508991 0.360000
0.640000 0.508991 0.360000
0.640000 0.508991 0.360000
0.203119 0.361101 0.203119
0.212620 0.361101 0.203119
0.222074 0.361101 0.203119
0.231519 0.361101 0.203119
0.240964 0.361101 0.203119
0.250410 0.361101 0.203119
0.259855 0.361101 0.203119
0.269300 0.361101 0.203119
0.278746 0.361101 0.203119
0.288191 0.361101 0.203119
0.297636 0.361101 0.203119
0.307082 0.361101 0.203119
0.316527 0.361101 0.203119
0.325972 0.361101 0.203119
0.335418 0.361101 0.203119
0.344911 0.361101 0.203119
0.354616 0.361101 0.203119
0.368463 0.365242 0.207260
0.390646 0.377720 0.219738
0.412830 0.390198 0.232217
0.435013 0.402676 0.244695
0.457197 0.415155 0.257173
0.479380 0.427633 0.269651
0.501563 0.440111 0.282129
0.523747 0.452589 0.294608
0.545930 0.465067 0.307086
0.568114 0.477546 0.319564
0.590297 0.490024 0.332042
0.612481 0.502502 0.344520
0.634664 0.514980 0.356999
0.640000 0.517982 0.360000
0.640000 0.517982 0.360000
0.640000 0.517982 0.360000
0.214679 0.381651 0.214679
0.224179 0.381651 0.214679
0.233633 0.381651 0.214679
0.243079 0.381651 0.214679
0.252524 0.381651 0.214679
0.261969 0.381651 0.214679
0.271415 0.381651 0.214679
0.280860 0.381651 0.214679
0.290305 0.381651 0.214679
0.299751 0.381651 0.214679
0.309196 0.381651 0.214679
0.318641 0.381651 0.214679
0.328087 0.381651 0.214679
0.337532 0.381651 0.214679
0.346977 0.381651 0.214679
0.356471 0.381651 0.214679
0.366176 0.381651 0.214679
0.375881 0.381651 0.214679
0.390646 0.386711 0.219738
0.412830 0.399189 0.232217
0.435013 0.411667 0.244695
0.457197 0.424145 0.257173
0.479380 0.436624 0.269651
0.501563 0.449102 0.282129
0.523747 0.461580 0.294608
0.545930 0.474058 0.307086
0.568114 0.486536 0.319564
0.590297 0.499015 0.332042
0.612481 0.511493 0.344520
0.634664 0.523971 0.356999
0.640000 0.526972 0.360000
0.640000 0.526972 0.360000
0.640000 0.526972 0.360000
0.226238 0.402202 0.226238
0.235739 0.402202 0.226238
0.245193 0.402202 0.226238
0.254638 0.402202 0.226238
0.264084 0.402202 0.226238
0.273529 0.402202 0.226238
0.282974 0.402202 0.226238
0.292420 0.402202 0.226238
0.301865 0.402202 0.226238
0.311310 0.402202 0.226238
0.320756 0.402202 0.226238
0.330201 0.402202 0.226238
0.339646 0.402202 0.226238
0.349092 0.402202 0.226238
0.358537 0.402202 0.226238
0.368030 0.402202 0.226238
0.377736 0.402202 0.226238
0.387441 0.402202 0.226238
0.397146 0.402202 0.226238
0.412830 0.408180 0.232217
0.435013 0.420658 0.244695
0.457197 0.433136 0.257173
0.479380 0.445614 0.269651
0.501563 0.458093 0.282129
0.523747 0.470571 0.294608
0.545930 0.483049 0.307086
0.568114 0.495527 0.319564
0.590297 0.508005 0.332042
0.612481 0.520484 0.344520
0.634664 0.532962 0.356999
0.640000 0.535963 0.360000
0.640000 0.535963 0.360000
0.640000 0.535963 0.360000
0.237798 0.422752 0.237798
0.247298 0.422752 0.237798
0.256753 0.422752 0.237798
0.266198 0.422752 0.237798
0.275643 0.422752 0.237798
0.285089 0.422752 0.237798
0.294534 0.422752 0.237798
0.303979 0.422752 0.237798
0.313425 0.422752 0.237798
0.322870 0.422752 0.237798
0.332315 0.422752 0.237798
0.341761 0.422752 0.237798
0.351206 0.422752 0.237798
0.360651 0.422752 0.237798
0.370097 0.422752 0.237798
0.379590 0.422752 0.237798
0.389295 0.422752 0.237798
0.399000 0.422752 0.237798
0.408706 0.422752 0.237798
0.418411 0.422752 0.237798
0.435013 0.429649 0.244695
0.457197 0.442127 0.257173
0.479380 0.454605 0.269651
0.501563 0.467083 0.282129
0.523747 0.479562 0.294608
0.545930 0.492040 0.307086
0.568114 0.504518 0.319564
0.590297 0.516996 0.332042
0.612481 0.529474 0.344520
0.634664 0.541953 0.356999
0.640000 0.544954 0.360000
0.640000 0.544954 0.360000
0.640000 0.544954 0.360000
0.249358 0.443302 0.249358
0.258858 0.443302 0.249358
0.268312 0.443302 0.249358
0.277758 0.443302 0.249358
0.287203 0.443302 0.249358
0.296648 0.443302 0.249358
0.306094 0.443302 0.249358
0.315539 0.443302 0.249358
0.324984 0.443302 0.249358
0.334430 0.443302 0.249358
0.343875 0.443302 0.249358
0.353320 0.443302 0.249358
0.362766 0.443302 0.249358
0.372211 0.443302 0.249358
0.381656 0.443302 0.249358
0.391150 0.443302 0.249358
0.400855 0.443302 0.249358
0.410560 0.443302 0.249358
0.420265 0.443302 0.249358
0.429971 0.443302 0.249358
0.439676 0.443302 0.249358
0.457197 0.451118 0.257173
0.479380 0.463596 0.269651
0.501563 0.476074 0.282129
0.523747 0.488552 0.294608
0.545930 0.501031 0.307086
0.568114 0.513509 0.319564
0.590297 0.525987 0.332042
0.612481 0.538465 0.344520
0.634664 0.550943 0.356999
0.640000 0.553945 0.360000
0.640000 0.553945 0.360000
0.640000 0.553945 0.360000
0.260917 0.463853 0.260917
0.270418 0.463853 0.260917
0.279872 0.463853 0.260917
0.289317 0.463853 0.260917
0.298762 0.463853 0.260917
0.308208 0.463853 0.260917
0.317653 0.463853 0.260917
0.327098 0.463853 0.260917
0.336544 0.463853 0.260917
0.345989 0.463853 0.260917
0.355434 0.463853 0.260917
0.364880 0.463853 0.260917
0.374325 0.463853 0.260917
0.383770 0.463853 0.260917
0.393216 0.463853 0.260917
0.402709 0.463853 0.260917
0.412414 0.463853 0.260917
0.422120 0.463853 0.260917
0.431825 0.463853 0.260917
0.441530 0.463853 0.260917
0.451235 0.463853 0.260917
0.460941 0.463853 0.260917
0.479380 0.472587 0.269651
0.501563 0.485065 0.282129
0.523747 0.497543 0.294608
0.545930 0.510021 0.307086
0.568114 0.522500 0.319564
0.590297 0.534978 0.332042
0.612481 0.547456 0.344520
0.634664 0.559934 0.356999
0.640000 0.562936 0.360000
0.640000 0.562936 0.360000
0.640000 0.562936 0.360000
0.272477 0.484403 0.272477
0.281977 0.484403 0.272477
0.291431 0.484403 0.272477
0.300877 0.484403 0.272477
0.310322 0.484403 0.272477
0.319767 0.484403 0.272477
0.329213 0.484403 0.272477
0.338658 0.484403 0.272477
0.348103 0.484403 0.272477
0.357549 0.484403 0.272477
0.366994 0.484403 0.272477
0.376439 0.484403 0.272477
0.385885 0.484403 0.272477
0.395330 0.484403 0.272477
0.404775 0.484403 0.272477
0.414269 0.484403 0.272477
0.423974 0.484403 0.272477
0.433679 0.484403 0.272477
0.443385 0.484403 0.272477
0.453090 0.484403 0.272477
0.462795 0.484403 0.272477
0.472500 0.484403 0.272477
0.482206 0.484403 0.272477
0.501563 0.494056 0.282129
0.523747 0.506534 0.294608
0.545930 0.519012 0.307086
0.568114 0.531490 0.319564
0.590297 0.543969 0.332042
0.612481 0.556447 0.344520
0.634664 0.568925 0.356999
0.640000 0.571926 0.360000
0.640000 0.571926 0.360000
0.640000 0.571926 0.360000
0.284036 0.504954 0.284036
0.293537 0.504954 0.284036
0.302991 0.504954 0.284036
0.312436 0.504954 0.284036
0.321882 0.504954 0.284036
0.331327 0.504954 0.284036
0.340772 0.504954 0.284036
0.350218 0.504954 0.284036
0.359663 0.504954 0.284036
0.369108 0.504954 0.284036
0.378554 0.504954 0.284036
0.387999 0.504954 0.284036
0.397444 0.504954 0.284036
0.406890 0.504954 0.284036
0.416335 0.504954 0.284036
0.425828 0.504954 0.284036
0.435534 0.504954 0.284036
0.445239 0.504954 0.284036
0.454944 0.504954 0.284036
0.464649 0.504954 0.284036
0.474355 0.504954 0.284036
0.484060 0.504954 0.284036
0.493765 0.504954 0.284036
0.503470 0.504954 0.284036
0.523747 0.515525 0.294608
0.545930 0.528003 0.307086
0.568114 0.540481 0.319564
0.590297 0.552959 0.332042
0.612481 0.565438 0.344520
0.634664 0.577916 0.356999
0.640000 0.580917 0.360000
0.640000 0.580917 0.360000
0.640000 0.580917 0.360000
0.295596 0.525504 0.295596
0.305096 0.525504 0.295596
0.314551 0.525504 0.295596
0.323996 0.525504 0.295596
0.333441 0.525504 0.295596
0.342887 0.525504 0.295596
0.352332 0.525504 0.295596
0.361777 0.525504 0.295596
0.371223 0.525504 0.295596
0.380668 0.525504 0.295596
0.390113 0.525504 0.295596
0.399559 0.525504 0.295596
0.409004 0.525504 0.295596
0.418449 0.525504 0.295596
0.427895 0.525504 0.295596
0.437388 0.525504 0.295596
0.447093 0.525504 0.295596
0.456798 0.525504 0.295596
0.466504 0.525504 0.295596
0.476209 0.525504 0.295596
0.485914 0.525504 0.295596
0.495619 0.525504 0.295596
0.505325 0.525504 0.295596
0.515030 0.525504 0.295596
