docs/luts/fuji_recipes/NEGA_GB_Big_Softy.cube
TITLE "Fujifilm Recipe: GB Big Softy (NEGA)"
# FilmSim=NEGA HL=-1 SH=0 Col=-2 WB=Auto WBR=0 WBB=0
LUT_3D_SIZE 9
DOMAIN_MIN 0.0 0.0 0.0
DOMAIN_MAX 1.0 1.0 1.0
0.016000 0.016000 0.016000
0.113318 0.041682 0.041682
0.210635 0.067365 0.067365
0.307953 0.093047 0.093047
0.405118 0.118690 0.118690
0.490806 0.141510 0.141510
0.581601 0.165725 0.165725
0.672395 0.189940 0.189940
0.763189 0.214156 0.214156
0.041682 0.113318 0.041682
0.113318 0.113318 0.041682
0.210635 0.139000 0.067365
0.307953 0.164682 0.093047
0.405118 0.190325 0.118690
0.490806 0.213145 0.141510
0.581601 0.237360 0.165725
0.672395 0.261576 0.189940
0.763189 0.285791 0.214156
0.067365 0.210635 0.067365
0.139000 0.210635 0.067365
0.210635 0.210635 0.067365
0.307953 0.236318 0.093047
0.405118 0.261960 0.118690
0.490806 0.284780 0.141510
0.581601 0.308995 0.165725
0.672395 0.333211 0.189940
0.763189 0.357426 0.214156
0.093047 0.307953 0.093047
0.164682 0.307953 0.093047
0.236318 0.307953 0.093047
0.307953 0.307953 0.093047
0.405118 0.333595 0.118690
0.490806 0.356415 0.141510
0.581601 0.380631 0.165725
0.672395 0.404846 0.189940
0.763189 0.429061 0.214156
0.118690 0.405118 0.118690
0.190325 0.405118 0.118690
0.261960 0.405118 0.118690
0.333595 0.405118 0.118690
0.405118 0.405118 0.118690
0.490806 0.427939 0.141510
0.581601 0.452154 0.165725
0.672395 0.476300 0.189940
0.763189 0.500305 0.214156
0.141510 0.490806 0.141510
0.213145 0.490806 0.141510
0.284780 0.490806 0.141510
0.356415 0.490806 0.141510
0.427939 0.490806 0.141510
0.490806 0.490806 0.141510
0.581601 0.514811 0.165725
0.672395 0.538815 0.189940
0.763189 0.562820 0.214156
0.165725 0.581601 0.165725
0.237360 0.581601 0.165725
0.308995 0.581601 0.165725
0.380631 0.581601 0.165725
0.452154 0.581601 0.165725
0.514811 0.581601 0.165725
0.581601 0.581601 0.165725
0.672395 0.605605 0.189940
0.763189 0.629610 0.214156
0.189940 0.672395 0.189940
0.261575 0.672395 0.189940
0.333211 0.672395 0.189940
0.404846 0.672395 0.189940
0.476300 0.672395 0.189940
0.538815 0.672395 0.189940
0.605605 0.672395 0.189940
0.672395 0.672395 0.189940
0.763189 0.696399 0.214156
0.214156 0.763189 0.214156
0.285791 0.763189 0.214156
0.357426 0.763189 0.214156
0.429061 0.763189 0.214156
0.500305 0.763189 0.214156
0.562820 0.763189 0.214156
0.629610 0.763189 0.214156
0.696399 0.763189 0.214156
0.763189 0.763189 0.214156
0.041682 0.041682 0.113318
0.113318 0.041682 0.113318
0.210635 0.067365 0.139000
0.307953 0.093047 0.164682
0.405118 0.118690 0.190325
0.490806 0.141510 0.213145
0.581601 0.165725 0.237360
0.672395 0.189940 0.261575
0.763189 0.214156 0.285791
0.041682 0.113318 0.113318
0.139000 0.139000 0.139000
0.236318 0.164682 0.164682
0.333635 0.190365 0.190365
0.430801 0.216007 0.216007
0.516217 0.238768 0.238768
0.607011 0.262983 0.262983
0.697805 0.287198 0.287198
0.788599 0.311413 0.311413
0.067365 0.210635 0.139000
0.164682 0.236318 0.164682
0.236318 0.236318 0.164682
0.333635 0.262000 0.190365
0.430801 0.287642 0.216007
0.516217 0.310403 0.238768
0.607011 0.334618 0.262983
0.697805 0.358833 0.287198
0.788599 0.383049 0.311413
0.093047 0.307953 0.164682
0.190365 0.333635 0.190365
0.262000 0.333635 0.190365
0.333635 0.333635 0.190365
0.430801 0.359278 0.216007
0.516217 0.382038 0.238768
0.607011 0.406253 0.262983
0.697805 0.430469 0.287198
0.788599 0.454684 0.311413
0.118690 0.405118 0.190325
0.216007 0.430801 0.216007
0.287642 0.430801 0.216007
0.359278 0.430801 0.216007
0.430801 0.430801 0.216007
0.516217 0.453561 0.238768
0.607011 0.477706 0.262983
0.697805 0.501710 0.287198
0.788599 0.525715 0.311413
0.141510 0.490806 0.213145
0.238768 0.516217 0.238768
0.310403 0.516217 0.238768
0.382038 0.516217 0.238768
0.453561 0.516217 0.238768
0.516217 0.516217 0.238768
0.607011 0.540221 0.262983
0.697805 0.564226 0.287198
0.788599 0.588230 0.311413
0.165725 0.581601 0.237360
0.262983 0.607011 0.262983
0.334618 0.607011 0.262983
0.406253 0.607011 0.262983
0.477706 0.607011 0.262983
0.540221 0.607011 0.262983
0.607011 0.607011 0.262983
0.697805 0.631015 0.287198
0.788599 0.655020 0.311413
0.189940 0.672395 0.261576
0.287198 0.697805 0.287198
0.358833 0.697805 0.287198
0.430469 0.697805 0.287198
0.501710 0.697805 0.287198
0.564226 0.697805 0.287198
0.631015 0.697805 0.287198
0.697805 0.697805 0.287198
0.788599 0.721809 0.311413
0.214156 0.763189 0.285791
0.311413 0.788599 0.311413
0.383049 0.788599 0.311413
0.454684 0.788599 0.311413
0.525715 0.788599 0.311413
0.588230 0.788599 0.311413
0.655020 0.788599 0.311413
0.721809 0.788599 0.311413
0.788599 0.788599 0.311413
0.067365 0.067365 0.210635
0.139000 0.067365 0.210635
0.210635 0.067365 0.210635
0.307953 0.093047 0.236318
0.405118 0.118690 0.261960
0.490806 0.141510 0.284780
0.581601 0.165725 0.308995
0.672395 0.189940 0.333211
0.763189 0.214156 0.357426
0.067365 0.139000 0.210635
0.164682 0.164682 0.236318
0.236318 0.164682 0.236318
0.333635 0.190365 0.262000
0.430801 0.216007 0.287642
0.516217 0.238768 0.310403
0.607011 0.262983 0.334618
0.697805 0.287198 0.358833
0.788599 0.311413 0.383049
0.067365 0.210635 0.210635
0.164682 0.236318 0.236318
0.262000 0.262000 0.262000
0.359318 0.287682 0.287682
0.456483 0.313325 0.313325
0.541627 0.336025 0.336025
0.632421 0.360241 0.360241
0.723215 0.384456 0.384456
0.814009 0.408671 0.408671
0.093047 0.307953 0.236318
0.190365 0.333635 0.262000
0.287682 0.359318 0.287682
0.359318 0.359318 0.287682
0.456483 0.384960 0.313325
0.541627 0.407661 0.336025
0.632421 0.431876 0.360241
0.723215 0.456091 0.384456
0.814009 0.480306 0.408671
0.118690 0.405118 0.261960
0.216007 0.430801 0.287642
0.313325 0.456483 0.313325
0.384960 0.456483 0.313325
0.456483 0.456483 0.313325
0.541627 0.479112 0.336025
0.632421 0.503116 0.360241
0.723215 0.527120 0.384456
0.814009 0.551125 0.408671
0.141510 0.490806 0.284780
0.238768 0.516217 0.310403
0.336025 0.541627 0.336025
0.407661 0.541627 0.336025
0.479112 0.541627 0.336025
0.541627 0.541627 0.336025
0.632421 0.565631 0.360241
0.723215 0.589636 0.384456
0.814009 0.613640 0.408671
0.165725 0.581601 0.308995
0.262983 0.607011 0.334618
0.360241 0.632421 0.360241
0.431876 0.632421 0.360241
0.503116 0.632421 0.360241
0.565631 0.632421 0.360241
0.632421 0.632421 0.360241
0.723215 0.656425 0.384456
0.814009 0.680430 0.408671
0.189940 0.672395 0.333211
0.287198 0.697805 0.358833
0.384456 0.723215 0.384456
0.456091 0.723215 0.384456
0.527120 0.723215 0.384456
0.589636 0.723215 0.384456
0.656425 0.723215 0.384456
0.723215 0.723215 0.384456
0.814009 0.747219 0.408671
0.214156 0.763189 0.357426
0.311413 0.788599 0.383049
0.408671 0.814009 0.408671
0.480306 0.814009 0.408671
0.551125 0.814009 0.408671
0.613640 0.814009 0.408671
0.680430 0.814009 0.408671
0.747219 0.814009 0.408671
0.814009 0.814009 0.408671
0.093047 0.093047 0.307953
0.164682 0.093047 0.307953
0.236318 0.093047 0.307953
0.307953 0.093047 0.307953
0.405118 0.118690 0.333595
0.490806 0.141510 0.356415
0.581601 0.165725 0.380631
0.672395 0.189940 0.404846
0.763189 0.214156 0.429061
0.093047 0.164682 0.307953
0.190365 0.190365 0.333635
0.262000 0.190365 0.333635
0.333635 0.190365 0.333635
0.430801 0.216007 0.359278
0.516217 0.238768 0.382038
0.607011 0.262983 0.406253
0.697805 0.287198 0.430469
0.788599 0.311413 0.454684
0.093047 0.236318 0.307953
0.190365 0.262000 0.333635
0.287682 0.287682 0.359318
0.359318 0.287682 0.359318
0.456483 0.313325 0.384960
0.541627 0.336025 0.407661
0.632421 0.360241 0.431876
0.723215 0.384456 0.456091
0.814009 0.408671 0.480306
0.093047 0.307953 0.307953
0.190365 0.333635 0.333635
0.287682 0.359318 0.359318
0.385000 0.385000 0.385000
0.482053 0.410618 0.410618
0.567037 0.433283 0.433283
0.657831 0.457498 0.457498
0.748625 0.481714 0.481714
0.839419 0.505929 0.505929
0.118690 0.405118 0.333595
0.216007 0.430801 0.359278
0.313325 0.456483 0.384960
0.410618 0.482053 0.410618
0.482053 0.482053 0.410618
0.567037 0.504522 0.433283
0.657831 0.528526 0.457498
0.748625 0.552531 0.481714
0.839419 0.576535 0.505929
0.141510 0.490806 0.356415
0.238768 0.516217 0.382038
0.336025 0.541627 0.407661
0.433283 0.567037 0.433283
0.504522 0.567037 0.433283
0.567037 0.567037 0.433283
0.657831 0.591041 0.457498
0.748625 0.615046 0.481714
0.839419 0.639050 0.505929
0.165725 0.581601 0.380631
0.262983 0.607011 0.406253
0.360241 0.632421 0.431876
0.457498 0.657831 0.457498
0.528526 0.657831 0.457498
0.591041 0.657831 0.457498
0.657831 0.657831 0.457498
0.748625 0.681835 0.481714
0.839419 0.705840 0.505929
0.189940 0.672395 0.404846
0.287198 0.697805 0.430469
0.384456 0.723215 0.456091
0.481714 0.748625 0.481714
0.552531 0.748625 0.481714
0.615046 0.748625 0.481714
0.681835 0.748625 0.481714
0.748625 0.748625 0.481714
0.839419 0.772629 0.505929
0.214156 0.763189 0.429061
0.311413 0.788599 0.454684
0.408671 0.814009 0.480306
0.505929 0.839419 0.505929
0.576535 0.839419 0.505929
0.639050 0.839419 0.505929
0.705840 0.839419 0.505929
0.772629 0.839419 0.505929
0.839419 0.839419 0.505929
0.118690 0.118690 0.405118
0.190325 0.118690 0.405118
0.261960 0.118690 0.405118
0.333595 0.118690 0.405118
0.405118 0.118690 0.405118
0.490806 0.141510 0.427939
0.581601 0.165725 0.452154
0.672395 0.189940 0.476300
0.763189 0.214156 0.500305
0.118690 0.190325 0.405118
0.216007 0.216007 0.430801
0.287642 0.216007 0.430801
0.359278 0.216007 0.430801
0.430801 0.216007 0.430801
0.516217 0.238768 0.453561
0.607011 0.262983 0.477706
0.697805 0.287198 0.501710
0.788599 0.311413 0.525715
0.118690 0.261960 0.405118
0.216007 0.287642 0.430801
0.313325 0.313325 0.456483
0.384960 0.313325 0.456483
0.456483 0.313325 0.456483
0.541627 0.336025 0.479112
0.632421 0.360241 0.503116
0.723215 0.384456 0.527120
0.814009 0.408671 0.551125
0.118690 0.333595 0.405118
0.216007 0.359278 0.430801
0.313325 0.384960 0.456483
0.410618 0.410618 0.482053
0.482053 0.410618 0.482053
0.567037 0.433283 0.504522
0.657831 0.457498 0.528526
0.748625 0.481714 0.552531
0.839419 0.505929 0.576535
0.118690 0.405118 0.405118
0.216007 0.430801 0.430801
0.313325 0.456483 0.456483
0.410618 0.482053 0.482053
0.507340 0.507340 0.507340
0.592267 0.529752 0.529752
0.683002 0.553697 0.553697
0.773737 0.577643 0.577643
0.864472 0.601588 0.601588
0.141510 0.490806 0.427939
0.238768 0.516217 0.453561
0.336025 0.541627 0.479112
0.433283 0.567037 0.504522
0.529752 0.592267 0.529752
0.592267 0.592267 0.529752
0.683002 0.616212 0.553697
0.773737 0.640158 0.577643
0.864472 0.664103 0.601588
0.165725 0.581601 0.452154
0.262983 0.607011 0.477706
0.360241 0.632421 0.503116
0.457498 0.657831 0.528526
0.553697 0.683002 0.553697
0.616212 0.683002 0.553697
0.683002 0.683002 0.553697
0.773737 0.706947 0.577643
0.864472 0.730892 0.601588
0.189940 0.672395 0.476300
0.287198 0.697805 0.501710
0.384456 0.723215 0.527120
0.481714 0.748625 0.552531
0.577643 0.773737 0.577643
0.640158 0.773737 0.577643
0.706947 0.773737 0.577643
0.773737 0.773737 0.577643
0.864472 0.797682 0.601588
0.214156 0.763189 0.500305
0.311413 0.788599 0.525715
0.408671 0.814009 0.551125
0.505929 0.839419 0.576535
0.601588 0.864472 0.601588
0.664103 0.864472 0.601588
0.730892 0.864472 0.601588
0.797682 0.864472 0.601588
0.864472 0.864472 0.601588
0.141510 0.141510 0.490806
0.213145 0.141510 0.490806
0.284780 0.141510 0.490806
0.356415 0.141510 0.490806
0.427939 0.141510 0.490806
0.490806 0.141510 0.490806
0.581601 0.165725 0.514811
0.672395 0.189940 0.538815
0.763189 0.214156 0.562820
0.141510 0.213145 0.490806
0.238768 0.238768 0.516217
0.310403 0.238768 0.516217
0.382038 0.238768 0.516217
0.453561 0.238768 0.516217
0.516217 0.238768 0.516217
0.607011 0.262983 0.540221
0.697805 0.287198 0.564226
0.788599 0.311413 0.588230
0.141510 0.284780 0.490806
0.238768 0.310403 0.516217
0.336025 0.336025 0.541627
0.407661 0.336025 0.541627
0.479112 0.336025 0.541627
0.541627 0.336025 0.541627
0.632421 0.360241 0.565631
0.723215 0.384456 0.589636
0.814009 0.408671 0.613640
0.141510 0.356415 0.490806
0.238768 0.382038 0.516217
0.336025 0.407661 0.541627
0.433283 0.433283 0.567037
0.504522 0.433283 0.567037
0.567037 0.433283 0.567037
0.657831 0.457498 0.591041
0.748625 0.481714 0.615046
0.839419 0.505929 0.639050
0.141510 0.427939 0.490806
0.238768 0.453561 0.516217
0.336025 0.479112 0.541627
0.433283 0.504522 0.567037
0.529752 0.529752 0.592267
0.592267 0.529752 0.592267
0.683002 0.553697 0.616212
0.773737 0.577643 0.640158
0.864472 0.601588 0.664103
0.141510 0.490806 0.490806
0.238768 0.516217 0.516217
0.336025 0.541627 0.541627
0.433283 0.567037 0.567037
0.529752 0.592267 0.592267
0.614680 0.614680 0.614680
0.705415 0.638625 0.638625
0.796150 0.662570 0.662570
0.886884 0.686516 0.686516
0.165725 0.581601 0.514811
0.262983 0.607011 0.540221
0.360241 0.632421 0.565631
0.457498 0.657831 0.591041
0.553697 0.683002 0.616212
0.638625 0.705415 0.638625
0.705415 0.705415 0.638625
0.796150 0.729360 0.662570
0.886884 0.753305 0.686516
0.189940 0.672395 0.538815
0.287198 0.697805 0.564226
0.384456 0.723215 0.589636
0.481714 0.748625 0.615046
0.577643 0.773737 0.640158
0.662570 0.796150 0.662570
0.729360 0.796150 0.662570
0.796150 0.796150 0.662570
0.886884 0.820095 0.686516
0.214156 0.763189 0.562820
0.311413 0.788599 0.588230
0.408671 0.814009 0.613640
0.505929 0.839419 0.639050
0.601588 0.864472 0.664103
0.686516 0.886884 0.686516
0.753305 0.886884 0.686516
0.820095 0.886884 0.686516
0.886884 0.886884 0.686516
0.165725 0.165725 0.581601
0.237360 0.165725 0.581601
0.308995 0.165725 0.581601
0.380631 0.165725 0.581601
0.452154 0.165725 0.581601
0.514811 0.165725 0.581601
0.581601 0.165725 0.581601
0.672395 0.189940 0.605605
0.763189 0.214156 0.629610
0.165725 0.237360 0.581601
0.262983 0.262983 0.607011
0.334618 0.262983 0.607011
0.406253 0.262983 0.607011
0.477706 0.262983 0.607011
0.540221 0.262983 0.607011
0.607011 0.262983 0.607011
0.697805 0.287198 0.631015
0.788599 0.311413 0.655020
0.165725 0.308995 0.581601
0.262983 0.334618 0.607011
0.360241 0.360241 0.632421
0.431876 0.360241 0.632421
0.503116 0.360241 0.632421
0.565631 0.360241 0.632421
0.632421 0.360241 0.632421
0.723215 0.384456 0.656425
0.814009 0.408671 0.680430
0.165725 0.380631 0.581601
0.262983 0.406253 0.607011
0.360241 0.431876 0.632421
0.457498 0.457498 0.657831
0.528526 0.457498 0.657831
0.591041 0.457498 0.657831
0.657831 0.457498 0.657831
0.748625 0.481714 0.681835
0.839419 0.505929 0.705840
0.165725 0.452154 0.581601
0.262983 0.477706 0.607011
0.360241 0.503116 0.632421
0.457498 0.528526 0.657831
0.553697 0.553697 0.683002
0.616212 0.553697 0.683002
0.683002 0.553697 0.683002
0.773737 0.577643 0.706947
0.864472 0.601588 0.730892
0.165725 0.514811 0.581601
0.262983 0.540221 0.607011
0.360241 0.565631 0.632421
0.457498 0.591041 0.657831
0.553697 0.616212 0.683002
0.638625 0.638625 0.705415
0.705415 0.638625 0.705415
0.796150 0.662570 0.729360
0.886884 0.686516 0.753305
0.165725 0.581601 0.581601
0.262983 0.607011 0.607011
0.360241 0.632421 0.632421
0.457498 0.657831 0.657831
0.553697 0.683002 0.683002
0.638625 0.705415 0.705415
0.729360 0.729360 0.729360
0.820095 0.753305 0.753305
0.910830 0.777250 0.777250
0.189940 0.672395 0.605605
0.287198 0.697805 0.631015
0.384456 0.723215 0.656425
0.481714 0.748625 0.681835
0.577643 0.773737 0.706947
0.662570 0.796150 0.729360
0.753305 0.820095 0.753305
0.820095 0.820095 0.753305
0.910830 0.844040 0.777250
0.214156 0.763189 0.629610
0.311413 0.788599 0.655020
0.408671 0.814009 0.680430
0.505929 0.839419 0.705840
0.601588 0.864472 0.730892
0.686516 0.886884 0.753305
0.777250 0.910830 0.777250
0.844040 0.910830 0.777250
0.910830 0.910830 0.777250
0.189940 0.189940 0.672395
0.261576 0.189940 0.672395
0.333211 0.189940 0.672395
0.404846 0.189940 0.672395
0.476300 0.189940 0.672395
0.538815 0.189940 0.672395
0.605605 0.189940 0.672395
0.672395 0.189940 0.672395
0.763189 0.214156 0.696399
0.189940 0.261575 0.672395
0.287198 0.287198 0.697805
0.358833 0.287198 0.697805
0.430469 0.287198 0.697805
0.501710 0.287198 0.697805
0.564226 0.287198 0.697805
0.631015 0.287198 0.697805
0.697805 0.287198 0.697805
0.788599 0.311413 0.721809
0.189940 0.333211 0.672395
0.287198 0.358833 0.697805
0.384456 0.384456 0.723215
0.456091 0.384456 0.723215
0.527120 0.384456 0.723215
0.589636 0.384456 0.723215
0.656425 0.384456 0.723215
0.723215 0.384456 0.723215
0.814009 0.408671 0.747219
0.189940 0.404846 0.672395
0.287198 0.430469 0.697805
0.384456 0.456091 0.723215
0.481714 0.481714 0.748625
0.552531 0.481714 0.748625
0.615046 0.481714 0.748625
0.681835 0.481714 0.748625
0.748625 0.481714 0.748625
0.839419 0.505929 0.772629
0.189940 0.476300 0.672395
0.287198 0.501710 0.697805
0.384456 0.527120 0.723215
0.481714 0.552531 0.748625
0.577643 0.577643 0.773737
0.640158 0.577643 0.773737
0.706947 0.577643 0.773737
0.773737 0.577643 0.773737
0.864472 0.601588 0.797682
0.189940 0.538815 0.672395
0.287198 0.564226 0.697805
0.384456 0.589636 0.723215
0.481714 0.615046 0.748625
0.577643 0.640158 0.773737
0.662570 0.662570 0.796150
0.729360 0.662570 0.796150
0.796150 0.662570 0.796150
0.886884 0.686516 0.820095
0.189940 0.605605 0.672395
0.287198 0.631015 0.697805
0.384456 0.656425 0.723215
0.481714 0.681835 0.748625
0.577643 0.706947 0.773737
0.662570 0.729360 0.796150
0.753305 0.753305 0.820095
0.820095 0.753305 0.820095
0.910830 0.777250 0.844040
0.189940 0.672395 0.672395
0.287198 0.697805 0.697805
0.384456 0.723215 0.723215
0.481714 0.748625 0.748625
0.577643 0.773737 0.773737
0.662570 0.796150 0.796150
0.753305 0.820095 0.820095
0.844040 0.844040 0.844040
0.934775 0.867985 0.867985
0.214156 0.763189 0.696399
0.311413 0.788599 0.721809
0.408671 0.814009 0.747219
0.505929 0.839419 0.772629
0.601588 0.864472 0.797682
0.686516 0.886884 0.820095
0.777250 0.910830 0.844040
0.867985 0.934775 0.867985
0.934775 0.934775 0.867985
0.214156 0.214156 0.763189
0.285791 0.214156 0.763189
0.357426 0.214156 0.763189
0.429061 0.214156 0.763189
0.500305 0.214156 0.763189
0.562820 0.214156 0.763189
0.629610 0.214156 0.763189
0.696399 0.214156 0.763189
0.763189 0.214156 0.763189
0.214156 0.285791 0.763189
0.311413 0.311413 0.788599
0.383049 0.311413 0.788599
0.454684 0.311413 0.788599
0.525715 0.311413 0.788599
0.588230 0.311413 0.788599
0.655020 0.311413 0.788599
0.721809 0.311413 0.788599
0.788599 0.311413 0.788599
0.214156 0.357426 0.763189
0.311413 0.383049 0.788599
0.408671 0.408671 0.814009
0.480306 0.408671 0.814009
0.551125 0.408671 0.814009
0.613640 0.408671 0.814009
0.680430 0.408671 0.814009
0.747219 0.408671 0.814009
0.814009 0.408671 0.814009
0.214156 0.429061 0.763189
0.311413 0.454684 0.788599
0.408671 0.480306 0.814009
0.505929 0.505929 0.839419
0.576535 0.505929 0.839419
0.639050 0.505929 0.839419
0.705840 0.505929 0.839419
0.772629 0.505929 0.839419
0.839419 0.505929 0.839419
0.214156 0.500305 0.763189
0.311413 0.525715 0.788599
0.408671 0.551125 0.814009
0.505929 0.576535 0.839419
0.601588 0.601588 0.864472
0.664103 0.601588 0.864472
0.730892 0.601588 0.864472
0.797682 0.601588 0.864472
0.864472 0.601588 0.864472
0.214156 0.562820 0.763189
0.311413 0.588230 0.788599
0.408671 0.613640 0.814009
0.505929 0.639050 0.839419
0.601588 0.664103 0.864472
0.686516 0.686516 0.886884
0.753305 0.686516 0.886884
0.820095 0.686516 0.886884
0.886884 0.686516 0.886884
0.214156 0.629610 0.763189
0.311413 0.655020 0.788599
0.408671 0.680430 0.814009
0.505929 0.705840 0.839419
0.601588 0.730892 0.864472
0.686516 0.753305 0.886884
0.777250 0.777250 0.910830
0.844040 0.777250 0.910830
0.910830 0.777250 0.910830
0.214156 0.696399 0.763189
0.311413 0.721809 0.788599
0.408671 0.747219 0.814009
0.505929 0.772629 0.839419
0.601588 0.797682 0.864472
0.686516 0.820095 0.886884
0.777250 0.844040 0.910830
0.867985 0.867985 0.934775
0.934775 0.867985 0.934775
0.214156 0.763189 0.763189
0.311413 0.788599 0.788599
0.408671 0.814009 0.814009
0.505929 0.839419 0.839419
0.601588 0.864472 0.864472
0.686516 0.886884 0.886884
0.777250 0.910830 0.910830
0.867985 0.934775 0.934775
0.958720 0.958720 0.958720
