docs/luts/fuji_recipes/NEGA_PS_Pro_400H.cube
TITLE "Fujifilm Recipe: PS Pro 400H (NEGA)"
# FilmSim=NEGA HL=-2 SH=0 Col=1 WB=Auto WBR=1 WBB=-3
LUT_3D_SIZE 9
DOMAIN_MIN 0.0 0.0 0.0
DOMAIN_MAX 1.0 1.0 1.0
0.016000 0.016000 0.016000
0.209760 0.009105 0.009105
0.384260 0.002895 0.002895
0.546228 0.000000 0.000000
0.694021 0.000000 0.000000
0.841813 0.000000 0.000000
0.950689 0.000000 0.000000
0.950689 0.000000 0.000000
0.950689 0.000000 0.000000
0.009273 0.205034 0.009273
0.209760 0.204866 0.009105
0.384260 0.198656 0.002895
0.546228 0.193687 0.000000
0.694021 0.191694 0.000000
0.841813 0.190423 0.000000
0.950689 0.189746 0.000000
0.950689 0.189746 0.000000
0.950689 0.189746 0.000000
0.003214 0.375278 0.003214
0.203870 0.375278 0.003214
0.384260 0.374958 0.002895
0.546228 0.368122 0.000000
0.694021 0.364334 0.000000
0.841813 0.361917 0.000000
0.950689 0.360631 0.000000
0.950689 0.360631 0.000000
0.950689 0.360631 0.000000
0.000000 0.534526 0.000000
0.198764 0.534526 0.000000
0.377770 0.534526 0.000000
0.546228 0.533896 0.000000
0.694021 0.527848 0.000000
0.841813 0.523313 0.000000
0.950689 0.520693 0.000000
0.950689 0.520693 0.000000
0.950689 0.520693 0.000000
0.000000 0.679204 0.000000
0.196650 0.679204 0.000000
0.373752 0.679204 0.000000
0.540118 0.679204 0.000000
0.694021 0.678536 0.000000
0.841813 0.673001 0.000000
0.950689 0.669849 0.000000
0.950689 0.669849 0.000000
0.950689 0.669849 0.000000
0.000000 0.823392 0.000000
0.195320 0.823392 0.000000
0.371224 0.823392 0.000000
0.535454 0.823392 0.000000
0.688992 0.823392 0.000000
0.841813 0.822689 0.000000
0.950689 0.819005 0.000000
0.950689 0.819005 0.000000
0.950689 0.819005 0.000000
0.000000 0.950689 0.000000
0.194490 0.950689 0.000000
0.369647 0.950689 0.000000
0.532291 0.950689 0.000000
0.685176 0.950689 0.000000
0.838061 0.950689 0.000000
0.950689 0.950689 0.000000
0.950689 0.950689 0.000000
0.950689 0.950689 0.000000
0.000000 0.950689 0.000000
0.194490 0.950689 0.000000
0.369647 0.950689 0.000000
0.532291 0.950689 0.000000
0.685176 0.950689 0.000000
0.838061 0.950689 0.000000
0.950689 0.950689 0.000000
0.950689 0.950689 0.000000
0.950689 0.950689 0.000000
0.000000 0.950689 0.000000
0.194490 0.950689 0.000000
0.369647 0.950689 0.000000
0.532291 0.950689 0.000000
0.685176 0.950689 0.000000
0.838061 0.950689 0.000000
0.950689 0.950689 0.000000
0.950689 0.950689 0.000000
0.950689 0.950689 0.000000
0.009777 0.009777 0.190856
0.209760 0.009105 0.190184
0.384260 0.002895 0.183974
0.546228 0.000000 0.179161
0.694021 0.000000 0.177317
0.841813 0.000000 0.176141
0.950689 0.000000 0.175515
0.950689 0.000000 0.175515
0.950689 0.000000 0.175515
0.009273 0.205034 0.190352
0.203537 0.198643 0.183961
0.378037 0.192433 0.177751
0.541937 0.186696 0.172014
0.694167 0.182259 0.167577
0.846397 0.177821 0.163139
0.958542 0.174552 0.159870
0.958542 0.174552 0.159870
0.958542 0.174552 0.159870
0.003214 0.375278 0.184293
0.197647 0.369055 0.178071
0.378037 0.368735 0.177751
0.541937 0.362999 0.172014
0.694167 0.358561 0.167577
0.846397 0.354123 0.163139
0.958542 0.350854 0.159870
0.958542 0.350854 0.159870
0.958542 0.350854 0.159870
0.000000 0.534526 0.179372
0.191927 0.530388 0.172351
0.372637 0.530388 0.172351
0.541937 0.529971 0.172014
0.694167 0.524470 0.167577
0.846397 0.518968 0.163139
0.958542 0.514915 0.159870
0.958542 0.514915 0.159870
0.958542 0.514915 0.159870
0.000000 0.679204 0.177464
0.187598 0.678906 0.168021
0.368307 0.678906 0.168021
0.536987 0.678906 0.168021
0.694167 0.678354 0.167577
0.846397 0.672853 0.163139
0.958542 0.668800 0.159870
0.958542 0.668800 0.159870
0.958542 0.668800 0.159870
0.000000 0.823392 0.176264
0.183268 0.827423 0.163692
0.363978 0.827423 0.163692
0.531620 0.827423 0.163692
0.689352 0.827423 0.163692
0.846397 0.826737 0.163139
0.958542 0.822685 0.159870
0.958542 0.822685 0.159870
0.958542 0.822685 0.159870
0.000000 0.950689 0.175515
0.179446 0.958542 0.159870
0.360155 0.958542 0.159870
0.526881 0.958542 0.159870
0.684613 0.958542 0.159870
0.842345 0.958542 0.159870
0.958542 0.958542 0.159870
0.958542 0.958542 0.159870
0.958542 0.958542 0.159870
0.000000 0.950689 0.175515
0.179446 0.958542 0.159870
0.360155 0.958542 0.159870
0.526881 0.958542 0.159870
0.684613 0.958542 0.159870
0.842345 0.958542 0.159870
0.958542 0.958542 0.159870
0.958542 0.958542 0.159870
0.958542 0.958542 0.159870
0.000000 0.950689 0.175515
0.179446 0.958542 0.159870
0.360155 0.958542 0.159870
0.526881 0.958542 0.159870
0.684613 0.958542 0.159870
0.842345 0.958542 0.159870
0.958542 0.958542 0.159870
0.958542 0.958542 0.159870
0.958542 0.958542 0.159870
0.004173 0.004173 0.348332
0.204828 0.004173 0.348332
0.384260 0.002895 0.347053
0.546228 0.000000 0.340513
0.694021 0.000000 0.337009
0.841813 0.000000 0.334774
0.950689 0.000000 0.333584
0.950689 0.000000 0.333584
0.950689 0.000000 0.333584
0.004173 0.199934 0.348332
0.198101 0.193207 0.341605
0.377533 0.191929 0.340326
0.541352 0.186199 0.334596
0.693582 0.181761 0.330158
0.845812 0.177323 0.325720
0.957957 0.174054 0.322451
0.957957 0.174054 0.322451
0.957957 0.174054 0.322451
0.003214 0.375278 0.347373
0.196974 0.368382 0.340478
0.372433 0.363131 0.335227
0.535439 0.357468 0.329564
0.687669 0.353031 0.325126
0.839900 0.348593 0.320688
0.952044 0.345324 0.317419
0.952044 0.345324 0.317419
0.952044 0.345324 0.317419
0.000000 0.534526 0.340914
0.191263 0.529608 0.334767
0.367107 0.523890 0.329900
0.535439 0.523473 0.329564
0.687669 0.517972 0.325126
0.839900 0.512470 0.320688
0.952044 0.508417 0.317419
0.952044 0.508417 0.317419
0.952044 0.508417 0.317419
0.000000 0.679204 0.337289
0.186934 0.678126 0.330437
0.362777 0.672408 0.325571
0.530489 0.672408 0.325571
0.687669 0.671856 0.325126
0.839900 0.666355 0.320688
0.952044 0.662302 0.317419
0.952044 0.662302 0.317419
0.952044 0.662302 0.317419
0.000000 0.823392 0.335007
0.182604 0.826643 0.326108
0.358448 0.820925 0.321241
0.525122 0.820925 0.321241
0.682854 0.820925 0.321241
0.839900 0.820239 0.320688
0.952044 0.816187 0.317419
0.952044 0.816187 0.317419
0.952044 0.816187 0.317419
0.000000 0.950689 0.333584
0.178782 0.957762 0.322285
0.354625 0.952044 0.317419
0.520383 0.952044 0.317419
0.678115 0.952044 0.317419
0.835847 0.952044 0.317419
0.952044 0.952044 0.317419
0.952044 0.952044 0.317419
0.952044 0.952044 0.317419
0.000000 0.950689 0.333584
0.178782 0.957762 0.322285
0.354625 0.952044 0.317419
0.520383 0.952044 0.317419
0.678115 0.952044 0.317419
0.835847 0.952044 0.317419
0.952044 0.952044 0.317419
0.952044 0.952044 0.317419
0.952044 0.952044 0.317419
0.000000 0.950689 0.333584
0.178782 0.957762 0.322285
0.354625 0.952044 0.317419
0.520383 0.952044 0.317419
0.678115 0.952044 0.317419
0.835847 0.952044 0.317419
0.952044 0.952044 0.317419
0.952044 0.952044 0.317419
0.952044 0.952044 0.317419
0.000000 0.000000 0.504377
0.199523 0.000000 0.504377
0.379214 0.000000 0.504377
0.546228 0.000000 0.501865
0.694021 0.000000 0.496701
0.841813 0.000000 0.493406
0.950689 0.000000 0.491652
0.950689 0.000000 0.491652
0.950689 0.000000 0.491652
0.000000 0.194657 0.504377
0.192497 0.187603 0.499080
0.373207 0.187603 0.499080
0.541352 0.186199 0.497675
0.693582 0.181761 0.493238
0.845812 0.177323 0.488800
0.957957 0.174054 0.485531
0.957957 0.174054 0.485531
0.957957 0.174054 0.485531
0.000000 0.369964 0.504377
0.192329 0.363737 0.498912
0.367149 0.357847 0.493022
0.534327 0.356522 0.491697
0.686557 0.352084 0.487259
0.838788 0.347647 0.482821
0.950933 0.344377 0.478816
0.950933 0.344377 0.478816
0.950933 0.344377 0.478816
0.000000 0.534526 0.502457
0.191263 0.529608 0.497846
0.365845 0.522408 0.491718
0.528941 0.516975 0.487113
0.681171 0.511474 0.482675
0.833459 0.506030 0.477541
0.945664 0.502037 0.473548
0.945664 0.502037 0.473548
0.945664 0.502037 0.473548
0.000000 0.679204 0.497113
0.186934 0.678126 0.493517
0.361515 0.670925 0.487389
0.523991 0.665910 0.483120
0.681171 0.665358 0.482675
0.833459 0.659914 0.477541
0.945664 0.655921 0.473548
0.945664 0.655921 0.473548
0.945664 0.655921 0.473548
0.000000 0.823392 0.493750
0.182604 0.826643 0.489187
0.357186 0.819443 0.483059
0.518671 0.814474 0.478216
0.676403 0.814474 0.478216
0.833459 0.813799 0.477541
0.945664 0.809806 0.473548
0.945664 0.809806 0.473548
0.945664 0.809806 0.473548
0.000000 0.950689 0.491652
0.178782 0.957762 0.485365
0.353363 0.950562 0.478446
0.514003 0.945664 0.473548
0.671734 0.945664 0.473548
0.829466 0.945664 0.473548
0.945664 0.945664 0.473548
0.945664 0.945664 0.473548
0.945664 0.945664 0.473548
0.000000 0.950689 0.491652
0.178782 0.957762 0.485365
0.353363 0.950562 0.478446
0.514003 0.945664 0.473548
0.671734 0.945664 0.473548
0.829466 0.945664 0.473548
0.945664 0.945664 0.473548
0.945664 0.945664 0.473548
0.945664 0.945664 0.473548
0.000000 0.950689 0.491652
0.178782 0.957762 0.485365
0.353363 0.950562 0.478446
0.514003 0.945664 0.473548
0.671734 0.945664 0.473548
0.829466 0.945664 0.473548
0.945664 0.945664 0.473548
0.945664 0.945664 0.473548
0.945664 0.945664 0.473548
0.000000 0.000000 0.634754
0.197187 0.000000 0.634754
0.374773 0.000000 0.634754
0.541908 0.000000 0.634754
0.694021 0.000000 0.632082
0.841813 0.000000 0.626855
0.950689 0.000000 0.623868
0.950689 0.000000 0.623868
0.950689 0.000000 0.623868
0.000000 0.192377 0.634754
0.188434 0.183540 0.632536
0.369144 0.183540 0.632536
0.538057 0.183540 0.632536
0.693582 0.181761 0.630330
0.845812 0.177323 0.624829
0.957957 0.174054 0.620776
0.957957 0.174054 0.620776
0.957957 0.174054 0.620776
0.000000 0.365632 0.634754
0.188268 0.359677 0.632341
0.363165 0.353864 0.625511
0.531032 0.353864 0.625511
0.686557 0.352084 0.623305
0.838788 0.347647 0.617804
0.950933 0.344377 0.613751
0.950933 0.344377 0.613751
0.950933 0.344377 0.613751
0.000000 0.530149 0.634754
0.188268 0.525896 0.632341
0.362850 0.518695 0.625141
0.524611 0.512645 0.619090
0.680169 0.510471 0.616916
0.832480 0.505051 0.611496
0.944685 0.501058 0.607503
0.944685 0.501058 0.607503
0.944685 0.501058 0.607503
0.000000 0.679204 0.632712
0.186934 0.678126 0.630686
0.361515 0.670925 0.623486
0.522569 0.664488 0.617049
0.676511 0.660698 0.613259
0.828822 0.655277 0.607838
0.941027 0.651284 0.603845
0.941027 0.651284 0.603845
0.941027 0.651284 0.603845
0.000000 0.823392 0.627421
0.182604 0.826643 0.625319
0.357186 0.819443 0.618119
0.517281 0.813084 0.611761
0.671766 0.809838 0.608514
0.828822 0.809162 0.607838
0.941027 0.805169 0.603845
0.941027 0.805169 0.603845
0.941027 0.805169 0.603845
0.000000 0.950689 0.623868
0.178782 0.957762 0.620581
0.353363 0.950562 0.613380
0.512613 0.944274 0.607092
0.667098 0.941027 0.603845
0.824829 0.941027 0.603845
0.941027 0.941027 0.603845
0.941027 0.941027 0.603845
0.941027 0.941027 0.603845
0.000000 0.950689 0.623868
0.178782 0.957762 0.620581
0.353363 0.950562 0.613380
0.512613 0.944274 0.607092
0.667098 0.941027 0.603845
0.824829 0.941027 0.603845
0.941027 0.941027 0.603845
0.941027 0.941027 0.603845
0.941027 0.941027 0.603845
0.000000 0.950689 0.623868
0.178782 0.957762 0.620581
0.353363 0.950562 0.613380
0.512613 0.944274 0.607092
0.667098 0.941027 0.603845
0.824829 0.941027 0.603845
0.941027 0.941027 0.603845
0.941027 0.941027 0.603845
0.941027 0.941027 0.603845
0.000000 0.000000 0.768128
0.195768 0.000000 0.768128
0.372077 0.000000 0.768128
0.537073 0.000000 0.768128
0.690963 0.000000 0.768128
0.841813 0.000000 0.765317
0.950689 0.000000 0.761837
0.950689 0.000000 0.761837
0.950689 0.000000 0.761837
0.000000 0.190993 0.768128
0.184430 0.179536 0.769915
0.365139 0.179536 0.769915
0.533092 0.179536 0.769915
0.690824 0.179536 0.769915
0.845812 0.177323 0.767172
0.957957 0.174054 0.763119
0.957957 0.174054 0.763119
0.957957 0.174054 0.763119
0.000000 0.363002 0.768128
0.184264 0.355672 0.769720
0.359161 0.349859 0.762890
0.526067 0.349859 0.762890
0.683799 0.349859 0.762890
0.838788 0.347647 0.760147
0.950933 0.344377 0.756094
0.950933 0.344377 0.756094
0.950933 0.344377 0.756094
0.000000 0.525398 0.768128
0.184264 0.520931 0.769720
0.358845 0.513731 0.762519
0.519719 0.507753 0.756542
0.677451 0.507753 0.756542
0.832480 0.505051 0.753839
0.944685 0.501058 0.749846
0.944685 0.501058 0.749846
0.944685 0.501058 0.749846
0.000000 0.675535 0.768128
0.184264 0.674816 0.769720
0.358845 0.667615 0.762519
0.519308 0.661227 0.756131
0.672163 0.656350 0.751254
0.827192 0.653647 0.748551
0.939397 0.649654 0.744558
0.939397 0.649654 0.744558
0.939397 0.649654 0.744558
0.000000 0.823392 0.765980
0.182604 0.826643 0.767662
0.357186 0.819443 0.760462
0.517281 0.813084 0.754104
0.669593 0.807664 0.748683
0.823931 0.804271 0.745290
0.936135 0.800278 0.741297
0.936135 0.800278 0.741297
0.936135 0.800278 0.741297
0.000000 0.950689 0.761837
0.178782 0.957762 0.762924
0.353363 0.950562 0.755724
0.512613 0.944274 0.749435
0.664924 0.938853 0.744015
0.819938 0.936135 0.741297
0.936135 0.936135 0.741297
0.936135 0.936135 0.741297
0.936135 0.936135 0.741297
0.000000 0.950689 0.761837
0.178782 0.957762 0.762924
0.353363 0.950562 0.755724
0.512613 0.944274 0.749435
0.664924 0.938853 0.744015
0.819938 0.936135 0.741297
0.936135 0.936135 0.741297
0.936135 0.936135 0.741297
0.936135 0.936135 0.741297
0.000000 0.950689 0.761837
0.178782 0.957762 0.762924
0.353363 0.950562 0.755724
0.512613 0.944274 0.749435
0.664924 0.938853 0.744015
0.819938 0.936135 0.741297
0.936135 0.936135 0.741297
0.936135 0.936135 0.741297
0.936135 0.936135 0.741297
0.000000 0.000000 0.885878
0.194881 0.000000 0.885878
0.370391 0.000000 0.885878
0.533817 0.000000 0.885878
0.687010 0.000000 0.885878
0.840203 0.000000 0.885878
0.950689 0.000000 0.883644
0.950689 0.000000 0.883644
0.950689 0.000000 0.883644
0.000000 0.190128 0.885878
0.180894 0.176000 0.891200
0.361604 0.176000 0.891200
0.528709 0.176000 0.891200
0.686441 0.176000 0.891200
0.844172 0.176000 0.891200
0.957957 0.174054 0.888788
0.957957 0.174054 0.888788
0.957957 0.174054 0.888788
0.000000 0.361358 0.885878
0.180728 0.352136 0.891005
0.355625 0.346323 0.884175
0.521684 0.346323 0.884175
0.679416 0.346323 0.884175
0.837147 0.346323 0.884175
0.950933 0.344377 0.881763
0.950933 0.344377 0.881763
0.950933 0.344377 0.881763
0.000000 0.522195 0.885878
0.180728 0.516548 0.891005
0.355310 0.509347 0.883805
0.515401 0.503435 0.877892
0.673132 0.503435 0.877892
0.830864 0.503435 0.877892
0.944685 0.501058 0.875515
0.944685 0.501058 0.875515
0.944685 0.501058 0.875515
0.000000 0.671652 0.885878
0.180728 0.670432 0.891005
0.355310 0.663232 0.883805
0.514989 0.656908 0.877481
0.667844 0.652031 0.872604
0.825576 0.652031 0.872604
0.939397 0.649654 0.870227
0.939397 0.649654 0.870227
0.939397 0.649654 0.870227
0.000000 0.821108 0.885878
0.180728 0.824317 0.891005
0.355310 0.817117 0.883805
0.514989 0.810793 0.877481
0.667301 0.805372 0.872060
0.820288 0.800628 0.867316
0.934109 0.798251 0.864939
0.934109 0.798251 0.864939
0.934109 0.798251 0.864939
0.000000 0.950689 0.883644
0.178782 0.957762 0.888593
0.353363 0.950562 0.881392
0.512613 0.944274 0.875104
0.664924 0.938853 0.869683
0.817235 0.933433 0.864263
0.931817 0.931817 0.862647
0.931817 0.931817 0.862647
0.931817 0.931817 0.862647
0.000000 0.950689 0.883644
0.178782 0.957762 0.888593
0.353363 0.950562 0.881392
0.512613 0.944274 0.875104
0.664924 0.938853 0.869683
0.817235 0.933433 0.864263
0.931817 0.931817 0.862647
0.931817 0.931817 0.862647
0.931817 0.931817 0.862647
0.000000 0.950689 0.883644
0.178782 0.957762 0.888593
0.353363 0.950562 0.881392
0.512613 0.944274 0.875104
0.664924 0.938853 0.869683
0.817235 0.933433 0.864263
0.931817 0.931817 0.862647
0.931817 0.931817 0.862647
0.931817 0.931817 0.862647
0.000000 0.000000 0.885878
0.194881 0.000000 0.885878
0.370391 0.000000 0.885878
0.533817 0.000000 0.885878
0.687010 0.000000 0.885878
0.840203 0.000000 0.885878
0.950689 0.000000 0.883644
0.950689 0.000000 0.883644
0.950689 0.000000 0.883644
0.000000 0.190128 0.885878
0.180894 0.176000 0.891200
0.361604 0.176000 0.891200
0.528709 0.176000 0.891200
0.686441 0.176000 0.891200
0.844172 0.176000 0.891200
0.957957 0.174054 0.888788
0.957957 0.174054 0.888788
0.957957 0.174054 0.888788
0.000000 0.361358 0.885878
0.180728 0.352136 0.891005
0.355625 0.346323 0.884175
0.521684 0.346323 0.884175
0.679416 0.346323 0.884175
0.837147 0.346323 0.884175
0.950933 0.344377 0.881763
0.950933 0.344377 0.881763
0.950933 0.344377 0.881763
0.000000 0.522195 0.885878
0.180728 0.516548 0.891005
0.355310 0.509347 0.883805
0.515401 0.503435 0.877892
0.673132 0.503435 0.877892
0.830864 0.503435 0.877892
0.944685 0.501058 0.875515
0.944685 0.501058 0.875515
0.944685 0.501058 0.875515
0.000000 0.671652 0.885878
0.180728 0.670432 0.891005
0.355310 0.663232 0.883805
0.514989 0.656908 0.877481
0.667844 0.652031 0.872604
0.825576 0.652031 0.872604
0.939397 0.649654 0.870227
0.939397 0.649654 0.870227
0.939397 0.649654 0.870227
0.000000 0.821108 0.885878
0.180728 0.824317 0.891005
0.355310 0.817117 0.883805
0.514989 0.810793 0.877481
0.667301 0.805372 0.872060
0.820288 0.800628 0.867316
0.934109 0.798251 0.864939
0.934109 0.798251 0.864939
0.934109 0.798251 0.864939
0.000000 0.950689 0.883644
0.178782 0.957762 0.888593
0.353363 0.950562 0.881392
0.512613 0.944274 0.875104
0.664924 0.938853 0.869683
0.817235 0.933433 0.864263
0.931817 0.931817 0.862647
0.931817 0.931817 0.862647
0.931817 0.931817 0.862647
0.000000 0.950689 0.883644
0.178782 0.957762 0.888593
0.353363 0.950562 0.881392
0.512613 0.944274 0.875104
0.664924 0.938853 0.869683
0.817235 0.933433 0.864263
0.931817 0.931817 0.862647
0.931817 0.931817 0.862647
0.931817 0.931817 0.862647
0.000000 0.950689 0.883644
0.178782 0.957762 0.888593
0.353363 0.950562 0.881392
0.512613 0.944274 0.875104
0.664924 0.938853 0.869683
0.817235 0.933433 0.864263
0.931817 0.931817 0.862647
0.931817 0.931817 0.862647
0.931817 0.931817 0.862647
0.000000 0.000000 0.885878
0.194881 0.000000 0.885878
0.370391 0.000000 0.885878
0.533817 0.000000 0.885878
0.687010 0.000000 0.885878
0.840203 0.000000 0.885878
0.950689 0.000000 0.883644
0.950689 0.000000 0.883644
0.950689 0.000000 0.883644
0.000000 0.190128 0.885878
0.180894 0.176000 0.891200
0.361604 0.176000 0.891200
0.528709 0.176000 0.891200
0.686441 0.176000 0.891200
0.844172 0.176000 0.891200
0.957957 0.174054 0.888788
0.957957 0.174054 0.888788
0.957957 0.174054 0.888788
0.000000 0.361358 0.885878
0.180728 0.352136 0.891005
0.355625 0.346323 0.884175
0.521684 0.346323 0.884175
0.679416 0.346323 0.884175
0.837147 0.346323 0.884175
0.950933 0.344377 0.881763
0.950933 0.344377 0.881763
0.950933 0.344377 0.881763
0.000000 0.522195 0.885878
0.180728 0.516548 0.891005
0.355310 0.509347 0.883805
0.515401 0.503435 0.877892
0.673132 0.503435 0.877892
0.830864 0.503435 0.877892
0.944685 0.501058 0.875515
0.944685 0.501058 0.875515
0.944685 0.501058 0.875515
0.000000 0.671652 0.885878
0.180728 0.670432 0.891005
0.355310 0.663232 0.883805
0.514989 0.656908 0.877481
0.667844 0.652031 0.872604
0.825576 0.652031 0.872604
0.939397 0.649654 0.870227
0.939397 0.649654 0.870227
0.939397 0.649654 0.870227
0.000000 0.821108 0.885878
0.180728 0.824317 0.891005
0.355310 0.817117 0.883805
0.514989 0.810793 0.877481
0.667301 0.805372 0.872060
0.820288 0.800628 0.867316
0.934109 0.798251 0.864939
0.934109 0.798251 0.864939
0.934109 0.798251 0.864939
0.000000 0.950689 0.883644
0.178782 0.957762 0.888593
0.353363 0.950562 0.881392
0.512613 0.944274 0.875104
0.664924 0.938853 0.869683
0.817235 0.933433 0.864263
0.931817 0.931817 0.862647
0.931817 0.931817 0.862647
0.931817 0.931817 0.862647
0.000000 0.950689 0.883644
0.178782 0.957762 0.888593
0.353363 0.950562 0.881392
0.512613 0.944274 0.875104
0.664924 0.938853 0.869683
0.817235 0.933433 0.864263
0.931817 0.931817 0.862647
0.931817 0.931817 0.862647
0.931817 0.931817 0.862647
0.000000 0.950689 0.883644
0.178782 0.957762 0.888593
0.353363 0.950562 0.881392
0.512613 0.944274 0.875104
0.664924 0.938853 0.869683
0.817235 0.933433 0.864263
0.931817 0.931817 0.862647
0.931817 0.931817 0.862647
0.931817 0.931817 0.862647
