docs/luts/fuji_recipes/NEGA_RR_Fujicolor_100_Industrial.cube
TITLE "Fujifilm Recipe: RR Fujicolor 100 Industrial (NEGA)"
# FilmSim=NEGA HL=1 SH=2 Col=1 WB=3200K WBR=8 WBB=-8
LUT_3D_SIZE 33
DOMAIN_MIN 0.0 0.0 0.0
DOMAIN_MAX 1.0 1.0 1.0
0.014720 0.014720 0.014720
0.047286 0.011908 0.011908
0.079900 0.009577 0.009577
0.112615 0.007354 0.007354
0.145284 0.005178 0.005178
0.177928 0.003026 0.003026
0.210560 0.000887 0.000887
0.241940 0.000000 0.000000
0.272432 0.000000 0.000000
0.302925 0.000000 0.000000
0.333418 0.000000 0.000000
0.363910 0.000000 0.000000
0.394405 0.000000 0.000000
0.425094 0.000000 0.000000
0.448913 0.000000 0.000000
0.519056 0.000000 0.000000
0.553288 0.000000 0.000000
0.587520 0.000000 0.000000
0.621752 0.000000 0.000000
0.655984 0.000000 0.000000
0.690216 0.000000 0.000000
0.724448 0.000000 0.000000
0.758679 0.000000 0.000000
0.792911 0.000000 0.000000
0.827143 0.000000 0.000000
0.861375 0.000000 0.000000
0.895607 0.000000 0.000000
0.931550 0.000000 0.000000
0.938350 0.000000 0.000000
0.938350 0.000000 0.000000
0.938350 0.000000 0.000000
0.938350 0.000000 0.000000
0.938350 0.000000 0.000000
0.011686 0.050260 0.011686
0.046994 0.050260 0.011686
0.079900 0.047652 0.009577
0.112615 0.045150 0.007354
0.145284 0.042810 0.005178
0.177928 0.040550 0.003026
0.210560 0.038334 0.000887
0.241940 0.037010 0.000000
0.272432 0.036444 0.000000
0.302925 0.036005 0.000000
0.333418 0.035654 0.000000
0.363910 0.035367 0.000000
0.394405 0.035128 0.000000
0.425094 0.034942 0.000000
0.448913 0.034817 0.000000
0.519056 0.034244 0.000000
0.553288 0.034121 0.000000
0.587520 0.034013 0.000000
0.621752 0.033918 0.000000
0.655984 0.033833 0.000000
0.690216 0.033757 0.000000
0.724448 0.033688 0.000000
0.758679 0.033626 0.000000
0.792911 0.033569 0.000000
0.827143 0.033518 0.000000
0.861375 0.033470 0.000000
0.895607 0.033426 0.000000
0.931550 0.033447 0.000000
0.938350 0.033476 0.000000
0.938350 0.033476 0.000000
0.938350 0.033476 0.000000
0.938350 0.033476 0.000000
0.938350 0.033476 0.000000
0.009473 0.081410 0.009473
0.044308 0.081410 0.009473
0.079764 0.081410 0.009473
0.112615 0.078795 0.007354
0.145284 0.076309 0.005178
0.177928 0.073953 0.003026
0.210560 0.071669 0.000887
0.241940 0.069955 0.000000
0.272432 0.068887 0.000000
0.302925 0.068057 0.000000
0.333418 0.067393 0.000000
0.363910 0.066851 0.000000
0.394405 0.066399 0.000000
0.425094 0.066048 0.000000
0.448913 0.065810 0.000000
0.519056 0.064727 0.000000
0.553288 0.064495 0.000000
0.587520 0.064291 0.000000
0.621752 0.064111 0.000000
0.655984 0.063951 0.000000
0.690216 0.063807 0.000000
0.724448 0.063677 0.000000
0.758679 0.063560 0.000000
0.792911 0.063453 0.000000
0.827143 0.063355 0.000000
0.861375 0.063265 0.000000
0.895607 0.063182 0.000000
0.931550 0.063222 0.000000
0.938350 0.063277 0.000000
0.938350 0.063277 0.000000
0.938350 0.063277 0.000000
0.938350 0.063277 0.000000
0.938350 0.063277 0.000000
0.007400 0.111928 0.007400
0.041999 0.111928 0.007400
0.077215 0.111928 0.007400
0.112615 0.111870 0.007354
0.145284 0.109241 0.005178
0.177928 0.106790 0.003026
0.210560 0.104439 0.000887
0.241940 0.102341 0.000000
0.272432 0.100779 0.000000
0.302925 0.099565 0.000000
0.333418 0.098594 0.000000
0.363910 0.097800 0.000000
0.394405 0.097140 0.000000
0.425094 0.096625 0.000000
0.448913 0.096278 0.000000
0.519056 0.094694 0.000000
0.553288 0.094354 0.000000
0.587520 0.094056 0.000000
0.621752 0.093793 0.000000
0.655984 0.093558 0.000000
0.690216 0.093347 0.000000
0.724448 0.093157 0.000000
0.758679 0.092985 0.000000
0.792911 0.092829 0.000000
0.827143 0.092686 0.000000
0.861375 0.092554 0.000000
0.895607 0.092433 0.000000
0.931550 0.092491 0.000000
0.938350 0.092571 0.000000
0.938350 0.092571 0.000000
0.938350 0.092571 0.000000
0.938350 0.092571 0.000000
0.938350 0.092571 0.000000
0.005369 0.142405 0.005369
0.039825 0.142405 0.005369
0.074894 0.142405 0.005369
0.110206 0.142405 0.005369
0.145284 0.142172 0.005178
0.177928 0.139626 0.003026
0.210560 0.137208 0.000887
0.241940 0.134728 0.000000
0.272432 0.132671 0.000000
0.302925 0.131072 0.000000
0.333418 0.129794 0.000000
0.363910 0.128750 0.000000
0.394405 0.127880 0.000000
0.425094 0.127203 0.000000
0.448913 0.126745 0.000000
0.519056 0.124660 0.000000
0.553288 0.124213 0.000000
0.587520 0.123821 0.000000
0.621752 0.123474 0.000000
0.655984 0.123165 0.000000
0.690216 0.122888 0.000000
0.724448 0.122638 0.000000
0.758679 0.122411 0.000000
0.792911 0.122205 0.000000
0.827143 0.122017 0.000000
0.861375 0.121844 0.000000
0.895607 0.121684 0.000000
0.931550 0.121761 0.000000
0.938350 0.121866 0.000000
0.938350 0.121866 0.000000
0.938350 0.121866 0.000000
0.938350 0.121866 0.000000
0.938350 0.121866 0.000000
0.003359 0.172860 0.003359
0.037719 0.172860 0.003359
0.072689 0.172860 0.003359
0.107902 0.172860 0.003359
0.143115 0.172860 0.003359
0.177928 0.172463 0.003026
0.210560 0.169978 0.000887
0.241940 0.167115 0.000000
0.272432 0.164563 0.000000
0.302925 0.162580 0.000000
0.333418 0.160995 0.000000
0.363910 0.159699 0.000000
0.394405 0.158621 0.000000
0.425094 0.157781 0.000000
0.448913 0.157213 0.000000
0.519056 0.154626 0.000000
0.553288 0.154072 0.000000
0.587520 0.153585 0.000000
0.621752 0.153155 0.000000
0.655984 0.152772 0.000000
0.690216 0.152428 0.000000
0.724448 0.152118 0.000000
0.758679 0.151837 0.000000
0.792911 0.151581 0.000000
0.827143 0.151347 0.000000
0.861375 0.151133 0.000000
0.895607 0.150935 0.000000
0.931550 0.151030 0.000000
0.938350 0.151161 0.000000
0.938350 0.151161 0.000000
0.938350 0.151161 0.000000
0.938350 0.151161 0.000000
0.938350 0.151161 0.000000
0.001362 0.203304 0.001362
0.035652 0.203304 0.001362
0.070552 0.203304 0.001362
0.105694 0.203304 0.001362
0.140836 0.203304 0.001362
0.175977 0.203304 0.001362
0.210560 0.202748 0.000887
0.241940 0.199501 0.000000
0.272432 0.196455 0.000000
0.302925 0.194088 0.000000
0.333418 0.192196 0.000000
0.363910 0.190649 0.000000
0.394405 0.189361 0.000000
0.425094 0.188358 0.000000
0.448913 0.187681 0.000000
0.519056 0.184593 0.000000
0.553288 0.183931 0.000000
0.587520 0.183350 0.000000
0.621752 0.182836 0.000000
0.655984 0.182378 0.000000
0.690216 0.181968 0.000000
0.724448 0.181598 0.000000
0.758679 0.181263 0.000000
0.792911 0.180957 0.000000
0.827143 0.180678 0.000000
0.861375 0.180422 0.000000
0.895607 0.180186 0.000000
0.931550 0.180299 0.000000
0.938350 0.180456 0.000000
0.938350 0.180456 0.000000
0.938350 0.180456 0.000000
0.938350 0.180456 0.000000
0.938350 0.180456 0.000000
0.000000 0.233111 0.000000
0.034054 0.233111 0.000000
0.068715 0.233111 0.000000
0.103615 0.233111 0.000000
0.138515 0.233111 0.000000
0.173415 0.233111 0.000000
0.208316 0.233111 0.000000
0.241940 0.231888 0.000000
0.272432 0.228347 0.000000
0.302925 0.225596 0.000000
0.333418 0.223396 0.000000
0.363910 0.221598 0.000000
0.394405 0.220101 0.000000
0.425094 0.218936 0.000000
0.448913 0.218148 0.000000
0.519056 0.214559 0.000000
0.553288 0.213790 0.000000
0.587520 0.213115 0.000000
0.621752 0.212517 0.000000
0.655984 0.211985 0.000000
0.690216 0.211508 0.000000
0.724448 0.211078 0.000000
0.758679 0.210689 0.000000
0.792911 0.210334 0.000000
0.827143 0.210009 0.000000
0.861375 0.209712 0.000000
0.895607 0.209437 0.000000
0.931550 0.209569 0.000000
0.938350 0.209751 0.000000
0.938350 0.209751 0.000000
0.938350 0.209751 0.000000
0.938350 0.209751 0.000000
0.938350 0.209751 0.000000
0.000000 0.261557 0.000000
0.033527 0.261557 0.000000
0.067651 0.261557 0.000000
0.102011 0.261557 0.000000
0.136371 0.261557 0.000000
0.170731 0.261557 0.000000
0.205091 0.261557 0.000000
0.239452 0.261557 0.000000
0.272432 0.260239 0.000000
0.302925 0.257103 0.000000
0.333418 0.254597 0.000000
0.363910 0.252548 0.000000
0.394405 0.250842 0.000000
0.425094 0.249514 0.000000
0.448913 0.248616 0.000000
0.519056 0.244526 0.000000
0.553288 0.243649 0.000000
0.587520 0.242879 0.000000
0.621752 0.242199 0.000000
0.655984 0.241592 0.000000
0.690216 0.241049 0.000000
0.724448 0.240559 0.000000
0.758679 0.240114 0.000000
0.792911 0.239710 0.000000
0.827143 0.239340 0.000000
0.861375 0.239001 0.000000
0.895607 0.238688 0.000000
0.931550 0.238838 0.000000
0.938350 0.239045 0.000000
0.938350 0.239045 0.000000
0.938350 0.239045 0.000000
0.938350 0.239045 0.000000
0.938350 0.239045 0.000000
0.000000 0.290002 0.000000
0.033115 0.290002 0.000000
0.066820 0.290002 0.000000
0.100758 0.290002 0.000000
0.134696 0.290002 0.000000
0.168633 0.290002 0.000000
0.202571 0.290002 0.000000
0.236509 0.290002 0.000000
0.270447 0.290002 0.000000
0.302925 0.288611 0.000000
0.333418 0.285798 0.000000
0.363910 0.283497 0.000000
0.394405 0.281582 0.000000
0.425094 0.280091 0.000000
0.448913 0.279084 0.000000
0.519056 0.274492 0.000000
0.553288 0.273508 0.000000
0.587520 0.272644 0.000000
0.621752 0.271880 0.000000
0.655984 0.271199 0.000000
0.690216 0.270589 0.000000
0.724448 0.270039 0.000000
0.758679 0.269540 0.000000
0.792911 0.269086 0.000000
0.827143 0.268671 0.000000
0.861375 0.268290 0.000000
0.895607 0.267939 0.000000
0.931550 0.268108 0.000000
0.938350 0.268340 0.000000
0.938350 0.268340 0.000000
0.938350 0.268340 0.000000
0.938350 0.268340 0.000000
0.938350 0.268340 0.000000
0.000000 0.318448 0.000000
0.032784 0.318448 0.000000
0.066152 0.318448 0.000000
0.099751 0.318448 0.000000
0.133350 0.318448 0.000000
0.166948 0.318448 0.000000
0.200547 0.318448 0.000000
0.234146 0.318448 0.000000
0.267745 0.318448 0.000000
0.301344 0.318448 0.000000
0.333418 0.316998 0.000000
0.363910 0.314446 0.000000
0.394405 0.312323 0.000000
0.425094 0.310669 0.000000
0.448913 0.309551 0.000000
0.519056 0.304458 0.000000
0.553288 0.303367 0.000000
0.587520 0.302409 0.000000
0.621752 0.301561 0.000000
0.655984 0.300806 0.000000
0.690216 0.300129 0.000000
0.724448 0.299519 0.000000
0.758679 0.298966 0.000000
0.792911 0.298462 0.000000
0.827143 0.298002 0.000000
0.861375 0.297580 0.000000
0.895607 0.297190 0.000000
0.931550 0.297377 0.000000
0.938350 0.297635 0.000000
0.938350 0.297635 0.000000
0.938350 0.297635 0.000000
0.938350 0.297635 0.000000
0.938350 0.297635 0.000000
0.000000 0.346894 0.000000
0.032513 0.346894 0.000000
0.065604 0.346894 0.000000
0.098925 0.346894 0.000000
0.132245 0.346894 0.000000
0.165566 0.346894 0.000000
0.198886 0.346894 0.000000
0.232206 0.346894 0.000000
0.265527 0.346894 0.000000
0.298847 0.346894 0.000000
0.332168 0.346894 0.000000
0.363910 0.345396 0.000000
0.394405 0.343063 0.000000
0.425094 0.341247 0.000000
0.448913 0.340019 0.000000
0.519056 0.334425 0.000000
0.553288 0.333226 0.000000
0.587520 0.332173 0.000000
0.621752 0.331242 0.000000
0.655984 0.330413 0.000000
0.690216 0.329670 0.000000
0.724448 0.328999 0.000000
0.758679 0.328392 0.000000
0.792911 0.327839 0.000000
0.827143 0.327333 0.000000
0.861375 0.326869 0.000000
0.895607 0.326441 0.000000
0.931550 0.326646 0.000000
0.938350 0.326930 0.000000
0.938350 0.326930 0.000000
0.938350 0.326930 0.000000
0.938350 0.326930 0.000000
0.938350 0.326930 0.000000
0.000000 0.375339 0.000000
0.032286 0.375339 0.000000
0.065146 0.375339 0.000000
0.098234 0.375339 0.000000
0.131322 0.375339 0.000000
0.164410 0.375339 0.000000
0.197498 0.375339 0.000000
0.230586 0.375339 0.000000
0.263674 0.375339 0.000000
0.296762 0.375339 0.000000
0.329850 0.375339 0.000000
0.362937 0.375339 0.000000
0.394405 0.373804 0.000000
0.425094 0.371824 0.000000
0.448913 0.370487 0.000000
0.519056 0.364391 0.000000
0.553288 0.363084 0.000000
0.587520 0.361938 0.000000
0.621752 0.360924 0.000000
0.655984 0.360020 0.000000
0.690216 0.359210 0.000000
0.724448 0.358479 0.000000
0.758679 0.357818 0.000000
0.792911 0.357215 0.000000
0.827143 0.356664 0.000000
0.861375 0.356158 0.000000
0.895607 0.355693 0.000000
0.931550 0.355916 0.000000
0.938350 0.356225 0.000000
0.938350 0.356225 0.000000
0.938350 0.356225 0.000000
0.938350 0.356225 0.000000
0.938350 0.356225 0.000000
0.000000 0.403848 0.000000
0.032099 0.403848 0.000000
0.064768 0.403848 0.000000
0.097664 0.403848 0.000000
0.130560 0.403848 0.000000
0.163455 0.403848 0.000000
0.196351 0.403848 0.000000
0.229247 0.403848 0.000000
0.262143 0.403848 0.000000
0.295039 0.403848 0.000000
0.327934 0.403848 0.000000
0.360830 0.403848 0.000000
0.393726 0.403848 0.000000
0.425094 0.402402 0.000000
0.448913 0.400954 0.000000
0.519056 0.394357 0.000000
0.553288 0.392943 0.000000
0.587520 0.391702 0.000000
0.621752 0.390605 0.000000
0.655984 0.389627 0.000000
0.690216 0.388750 0.000000
0.724448 0.387960 0.000000
0.758679 0.387243 0.000000
0.792911 0.386591 0.000000
0.827143 0.385995 0.000000
0.861375 0.385448 0.000000
0.895607 0.384944 0.000000
0.931550 0.385185 0.000000
0.938350 0.385519 0.000000
0.938350 0.385519 0.000000
0.938350 0.385519 0.000000
0.938350 0.385519 0.000000
0.938350 0.385519 0.000000
0.000000 0.432477 0.000000
0.031946 0.432477 0.000000
0.064461 0.432477 0.000000
0.097201 0.432477 0.000000
0.129941 0.432477 0.000000
0.162681 0.432477 0.000000
0.195421 0.432477 0.000000
0.228161 0.432477 0.000000
0.260901 0.432477 0.000000
0.293641 0.432477 0.000000
0.326381 0.432477 0.000000
0.359121 0.432477 0.000000
0.391861 0.432477 0.000000
0.424601 0.432477 0.000000
0.448913 0.431422 0.000000
0.519056 0.424324 0.000000
0.553288 0.422802 0.000000
0.587520 0.421467 0.000000
0.621752 0.420286 0.000000
0.655984 0.419234 0.000000
0.690216 0.418290 0.000000
0.724448 0.417440 0.000000
0.758679 0.416669 0.000000
0.792911 0.415967 0.000000
0.827143 0.415326 0.000000
0.861375 0.414737 0.000000
0.895607 0.414195 0.000000
0.931550 0.414455 0.000000
0.938350 0.414814 0.000000
0.938350 0.414814 0.000000
0.938350 0.414814 0.000000
0.938350 0.414814 0.000000
0.938350 0.414814 0.000000
0.000000 0.454192 0.000000
0.031845 0.454192 0.000000
0.064256 0.454192 0.000000
0.096892 0.454192 0.000000
0.129527 0.454192 0.000000
0.162163 0.454192 0.000000
0.194799 0.454192 0.000000
0.227435 0.454192 0.000000
0.260070 0.454192 0.000000
0.292706 0.454192 0.000000
0.325342 0.454192 0.000000
0.357978 0.454192 0.000000
0.390613 0.454192 0.000000
0.423249 0.454192 0.000000
0.448578 0.454192 0.000000
0.519056 0.447053 0.000000
0.553288 0.487736 0.000000
0.587520 0.486400 0.000000
0.621752 0.485240 0.000000
0.655984 0.484228 0.000000
0.690216 0.483341 0.000000
0.724448 0.482561 0.000000
0.758679 0.481872 0.000000
0.792911 0.481261 0.000000
0.827143 0.480720 0.000000
0.861375 0.480240 0.000000
0.895607 0.479812 0.000000
0.931550 0.480314 0.000000
0.938350 0.480765 0.000000
0.938350 0.480765 0.000000
0.938350 0.480765 0.000000
0.938350 0.480765 0.000000
0.938350 0.480765 0.000000
0.000000 0.522695 0.000000
0.031332 0.522695 0.000000
0.063220 0.522695 0.000000
0.095330 0.522695 0.000000
0.127440 0.522695 0.000000
0.159550 0.522695 0.000000
0.191659 0.522695 0.000000
0.223769 0.522695 0.000000
0.255879 0.522695 0.000000
0.287989 0.522695 0.000000
0.320099 0.522695 0.000000
0.352208 0.522695 0.000000
0.384318 0.522695 0.000000
0.416428 0.522695 0.000000
0.441349 0.522695 0.000000
0.518868 0.522695 0.000000
0.553288 0.521215 0.000000
0.587520 0.519773 0.000000
0.621752 0.518520 0.000000
0.655984 0.517425 0.000000
0.690216 0.516463 0.000000
0.724448 0.515615 0.000000
0.758679 0.514865 0.000000
0.792911 0.514199 0.000000
0.827143 0.513607 0.000000
0.861375 0.513080 0.000000
0.895607 0.512610 0.000000
0.931550 0.513132 0.000000
0.938350 0.513611 0.000000
0.938350 0.513611 0.000000
0.938350 0.513611 0.000000
0.938350 0.513611 0.000000
0.938350 0.513611 0.000000
0.000000 0.554629 0.000000
0.031228 0.554629 0.000000
0.063011 0.554629 0.000000
0.095014 0.554629 0.000000
0.127018 0.554629 0.000000
0.159021 0.554629 0.000000
0.191024 0.554629 0.000000
0.223028 0.554629 0.000000
0.255031 0.554629 0.000000
0.287035 0.554629 0.000000
0.319038 0.554629 0.000000
0.351041 0.554629 0.000000
0.383045 0.554629 0.000000
0.415048 0.554629 0.000000
0.439886 0.554629 0.000000
0.517340 0.554629 0.000000
0.553224 0.554629 0.000000
0.587520 0.553147 0.000000
0.621752 0.551800 0.000000
0.655984 0.550622 0.000000
0.690216 0.549585 0.000000
0.724448 0.548670 0.000000
0.758679 0.547859 0.000000
0.792911 0.547137 0.000000
0.827143 0.546495 0.000000
0.861375 0.545921 0.000000
0.895607 0.545407 0.000000
0.931550 0.545951 0.000000
0.938350 0.546458 0.000000
0.938350 0.546458 0.000000
0.938350 0.546458 0.000000
0.938350 0.546458 0.000000
0.938350 0.546458 0.000000
0.000000 0.586563 0.000000
0.031136 0.586563 0.000000
0.062825 0.586563 0.000000
0.094735 0.586563 0.000000
0.126644 0.586563 0.000000
0.158553 0.586563 0.000000
0.190462 0.586563 0.000000
0.222371 0.586563 0.000000
0.254280 0.586563 0.000000
0.286190 0.586563 0.000000
0.318099 0.586563 0.000000
0.350008 0.586563 0.000000
0.381917 0.586563 0.000000
0.413826 0.586563 0.000000
0.438591 0.586563 0.000000
0.516007 0.586563 0.000000
0.551785 0.586563 0.000000
0.587520 0.586520 0.000000
0.621752 0.585080 0.000000
0.655984 0.583818 0.000000
0.690216 0.582707 0.000000
0.724448 0.581724 0.000000
0.758679 0.580852 0.000000
0.792911 0.580075 0.000000
0.827143 0.579382 0.000000
0.861375 0.578761 0.000000
0.895607 0.578205 0.000000
0.931550 0.578769 0.000000
0.938350 0.579305 0.000000
0.938350 0.579305 0.000000
0.938350 0.579305 0.000000
0.938350 0.579305 0.000000
0.938350 0.579305 0.000000
0.000000 0.618497 0.000000
0.031054 0.618497 0.000000
0.062660 0.618497 0.000000
0.094485 0.618497 0.000000
0.126310 0.618497 0.000000
0.158135 0.618497 0.000000
0.189961 0.618497 0.000000
0.221786 0.618497 0.000000
0.253611 0.618497 0.000000
0.285436 0.618497 0.000000
0.317261 0.618497 0.000000
0.349086 0.618497 0.000000
0.380911 0.618497 0.000000
0.412737 0.618497 0.000000
0.437437 0.618497 0.000000
0.514839 0.618497 0.000000
0.550523 0.618497 0.000000
0.586206 0.618497 0.000000
0.621752 0.618360 0.000000
0.655984 0.617015 0.000000
0.690216 0.615829 0.000000
0.724448 0.614779 0.000000
0.758679 0.613846 0.000000
0.792911 0.613013 0.000000
0.827143 0.612269 0.000000
0.861375 0.611602 0.000000
0.895607 0.611002 0.000000
0.931550 0.611587 0.000000
0.938350 0.612151 0.000000
0.938350 0.612151 0.000000
0.938350 0.612151 0.000000
0.938350 0.612151 0.000000
0.938350 0.612151 0.000000
0.000000 0.650431 0.000000
0.030980 0.650431 0.000000
0.062512 0.650431 0.000000
0.094261 0.650431 0.000000
0.126011 0.650431 0.000000
0.157761 0.650431 0.000000
0.189511 0.650431 0.000000
0.221260 0.650431 0.000000
0.253010 0.650431 0.000000
0.284760 0.650431 0.000000
0.316510 0.650431 0.000000
0.348259 0.650431 0.000000
0.380009 0.650431 0.000000
0.411759 0.650431 0.000000
0.436400 0.650431 0.000000
0.513809 0.650431 0.000000
0.549408 0.650431 0.000000
0.585007 0.650431 0.000000
0.620606 0.650431 0.000000
0.655984 0.650211 0.000000
0.690216 0.648951 0.000000
0.724448 0.647833 0.000000
0.758679 0.646839 0.000000
0.792911 0.645951 0.000000
0.827143 0.645156 0.000000
0.861375 0.644442 0.000000
0.895607 0.643800 0.000000
0.931550 0.644405 0.000000
0.938350 0.644998 0.000000
0.938350 0.644998 0.000000
0.938350 0.644998 0.000000
0.938350 0.644998 0.000000
0.938350 0.644998 0.000000
0.000000 0.682365 0.000000
0.030914 0.682365 0.000000
0.062378 0.682365 0.000000
0.094059 0.682365 0.000000
0.125741 0.682365 0.000000
0.157423 0.682365 0.000000
0.189105 0.682365 0.000000
0.220786 0.682365 0.000000
0.252468 0.682365 0.000000
0.284150 0.682365 0.000000
0.315832 0.682365 0.000000
0.347513 0.682365 0.000000
0.379195 0.682365 0.000000
0.410877 0.682365 0.000000
0.477374 0.682365 0.000000
0.512897 0.682365 0.000000
0.548420 0.682365 0.000000
0.583943 0.682365 0.000000
0.619466 0.682365 0.000000
0.654989 0.682365 0.000000
0.690216 0.682073 0.000000
0.724448 0.680888 0.000000
0.758679 0.679833 0.000000
0.792911 0.678889 0.000000
0.827143 0.678043 0.000000
0.861375 0.677283 0.000000
0.895607 0.676597 0.000000
0.931550 0.677223 0.000000
0.938350 0.677844 0.000000
0.938350 0.677844 0.000000
0.938350 0.677844 0.000000
0.938350 0.677844 0.000000
0.938350 0.677844 0.000000
0.000000 0.714299 0.000000
0.030854 0.714299 0.000000
0.062256 0.714299 0.000000
0.093876 0.714299 0.000000
0.125496 0.714299 0.000000
0.157116 0.714299 0.000000
0.188736 0.714299 0.000000
0.220356 0.714299 0.000000
0.251976 0.714299 0.000000
0.283597 0.714299 0.000000
0.315217 0.714299 0.000000
0.346837 0.714299 0.000000
0.378457 0.714299 0.000000
0.410077 0.714299 0.000000
0.476633 0.714299 0.000000
0.512087 0.714299 0.000000
0.547541 0.714299 0.000000
0.582995 0.714299 0.000000
0.618448 0.714299 0.000000
0.653902 0.714299 0.000000
0.689356 0.714299 0.000000
0.724448 0.713942 0.000000
0.758679 0.712826 0.000000
0.792911 0.711827 0.000000
0.827143 0.710930 0.000000
0.861375 0.710123 0.000000
0.895607 0.709395 0.000000
0.931550 0.710041 0.000000
0.938350 0.710691 0.000000
0.938350 0.710691 0.000000
0.938350 0.710691 0.000000
0.938350 0.710691 0.000000
0.938350 0.710691 0.000000
0.000000 0.746233 0.000000
0.030799 0.746233 0.000000
0.062146 0.746233 0.000000
0.093709 0.746233 0.000000
0.125273 0.746233 0.000000
0.156837 0.746233 0.000000
0.188401 0.746233 0.000000
0.219965 0.746233 0.000000
0.251529 0.746233 0.000000
0.283093 0.746233 0.000000
0.314656 0.746233 0.000000
0.346220 0.746233 0.000000
0.377784 0.746233 0.000000
0.409348 0.746233 0.000000
0.475975 0.746233 0.000000
0.511365 0.746233 0.000000
0.546756 0.746233 0.000000
0.582147 0.746233 0.000000
0.617538 0.746233 0.000000
0.652928 0.746233 0.000000
0.688319 0.746233 0.000000
0.723710 0.746233 0.000000
0.758679 0.745820 0.000000
0.792911 0.744765 0.000000
0.827143 0.743817 0.000000
0.861375 0.742964 0.000000
0.895607 0.742193 0.000000
0.931550 0.742859 0.000000
0.938350 0.743538 0.000000
0.938350 0.743538 0.000000
0.938350 0.743538 0.000000
0.938350 0.743538 0.000000
0.938350 0.743538 0.000000
0.000000 0.778166 0.000000
0.030749 0.778166 0.000000
0.062044 0.778166 0.000000
0.093557 0.778166 0.000000
0.125069 0.778166 0.000000
0.156582 0.778166 0.000000
0.188094 0.778166 0.000000
0.219607 0.778166 0.000000
0.251119 0.778166 0.000000
0.282631 0.778166 0.000000
0.314144 0.778166 0.000000
0.345656 0.778166 0.000000
0.377169 0.778166 0.000000
0.408681 0.778166 0.000000
0.475387 0.778166 0.000000
0.510720 0.778166 0.000000
0.546054 0.778166 0.000000
0.581387 0.778166 0.000000
0.616720 0.778166 0.000000
0.652053 0.778166 0.000000
0.687386 0.778166 0.000000
0.722719 0.778166 0.000000
0.758052 0.778166 0.000000
0.792911 0.777703 0.000000
0.827143 0.776704 0.000000
0.861375 0.775804 0.000000
0.895607 0.774990 0.000000
0.931550 0.775678 0.000000
0.938350 0.776384 0.000000
0.938350 0.776384 0.000000
0.938350 0.776384 0.000000
0.938350 0.776384 0.000000
0.938350 0.776384 0.000000
0.000000 0.810100 0.000000
0.030703 0.810100 0.000000
0.061951 0.810100 0.000000
0.093417 0.810100 0.000000
0.124882 0.810100 0.000000
0.156347 0.810100 0.000000
0.187812 0.810100 0.000000
0.219278 0.810100 0.000000
0.250743 0.810100 0.000000
0.282208 0.810100 0.000000
0.313673 0.810100 0.000000
0.345138 0.810100 0.000000
0.376604 0.810100 0.000000
0.408069 0.810100 0.000000
0.474863 0.810100 0.000000
0.510143 0.810100 0.000000
0.545423 0.810100 0.000000
0.580704 0.810100 0.000000
0.615984 0.810100 0.000000
0.651264 0.810100 0.000000
0.686544 0.810100 0.000000
0.721824 0.810100 0.000000
0.757105 0.810100 0.000000
0.792385 0.810100 0.000000
0.827143 0.809592 0.000000
0.861375 0.808645 0.000000
0.895607 0.807788 0.000000
0.931550 0.808496 0.000000
0.938350 0.809231 0.000000
0.938350 0.809231 0.000000
0.938350 0.809231 0.000000
0.938350 0.809231 0.000000
0.938350 0.809231 0.000000
0.000000 0.842034 0.000000
0.030660 0.842034 0.000000
0.061866 0.842034 0.000000
0.093287 0.842034 0.000000
0.124709 0.842034 0.000000
0.156131 0.842034 0.000000
0.187553 0.842034 0.000000
0.218974 0.842034 0.000000
0.250396 0.842034 0.000000
0.281818 0.842034 0.000000
0.313240 0.842034 0.000000
0.344661 0.842034 0.000000
0.376083 0.842034 0.000000
0.407505 0.842034 0.000000
0.474394 0.842034 0.000000
0.509625 0.842034 0.000000
0.544857 0.842034 0.000000
0.580088 0.842034 0.000000
0.615320 0.842034 0.000000
0.650551 0.842034 0.000000
0.685783 0.842034 0.000000
0.721014 0.842034 0.000000
0.756245 0.842034 0.000000
0.791477 0.842034 0.000000
