docs/luts/fuji_recipes/NEGAhi_JC_Pro_Port.cube
TITLE "Fujifilm Recipe: JC Pro Port (NEGAhi)"
# FilmSim=NEGAhi HL=-2 SH=2 Col=-3 WB=Auto WBR=1 WBB=0
LUT_3D_SIZE 9
DOMAIN_MIN 0.0 0.0 0.0
DOMAIN_MAX 1.0 1.0 1.0
0.000000 0.000000 0.000000
0.086560 0.032015 0.032015
0.172966 0.063974 0.063974
0.259372 0.095932 0.095932
0.374430 0.138488 0.138488
0.456088 0.168690 0.168690
0.537745 0.198892 0.198892
0.619403 0.229094 0.229094
0.682346 0.252374 0.252374
0.031050 0.083950 0.031050
0.086560 0.084915 0.032015
0.172966 0.116874 0.063974
0.259372 0.148832 0.095932
0.374430 0.191388 0.138488
0.456088 0.221590 0.168690
0.537745 0.251792 0.198892
0.619403 0.281994 0.229094
0.682346 0.305274 0.252374
0.062100 0.167900 0.062100
0.116644 0.167900 0.062100
0.172966 0.169774 0.063974
0.259372 0.201732 0.095932
0.374430 0.244288 0.138488
0.456088 0.274490 0.168690
0.537745 0.304692 0.198892
0.619403 0.334894 0.229094
0.682346 0.358174 0.252374
0.093150 0.251850 0.093150
0.147694 0.251850 0.093150
0.202142 0.251850 0.093150
0.259372 0.254632 0.095932
0.374430 0.297188 0.138488
0.456088 0.327390 0.168690
0.537745 0.357592 0.198892
0.619403 0.387794 0.229094
0.682346 0.411074 0.252374
0.124200 0.335800 0.124200
0.178744 0.335800 0.124200
0.233192 0.335800 0.124200
0.287640 0.335800 0.124200
0.374430 0.350088 0.138488
0.456088 0.380290 0.168690
0.537745 0.410492 0.198892
0.619403 0.440694 0.229094
0.682346 0.463974 0.252374
0.164344 0.444336 0.164344
0.218888 0.444336 0.164344
0.273336 0.444336 0.164344
0.327784 0.444336 0.164344
0.400286 0.444336 0.164344
0.456088 0.448683 0.168690
0.537745 0.478885 0.198892
0.619403 0.509087 0.229094
0.682346 0.532367 0.252374
0.193687 0.523673 0.193687
0.248232 0.523673 0.193687
0.302679 0.523673 0.193687
0.357127 0.523673 0.193687
0.429629 0.523673 0.193687
0.481085 0.523673 0.193687
0.537745 0.528878 0.198892
0.619403 0.559080 0.229094
0.682346 0.582360 0.252374
0.223031 0.603009 0.223031
0.277575 0.603009 0.223031
0.332023 0.603009 0.223031
0.386471 0.603009 0.223031
0.458973 0.603009 0.223031
0.510429 0.603009 0.223031
0.561884 0.603009 0.223031
0.619403 0.609073 0.229094
0.682346 0.632353 0.252374
0.252374 0.682346 0.252374
0.306919 0.682346 0.252374
0.361367 0.682346 0.252374
0.415814 0.682346 0.252374
0.488317 0.682346 0.252374
0.539772 0.682346 0.252374
0.591228 0.682346 0.252374
0.642683 0.682346 0.252374
0.682346 0.682346 0.252374
0.031050 0.031050 0.083950
0.086560 0.032015 0.084915
0.172966 0.063974 0.116874
0.259372 0.095932 0.148832
0.374430 0.138488 0.191388
0.456088 0.168690 0.221590
0.537745 0.198892 0.251792
0.619403 0.229094 0.281994
0.682346 0.252374 0.305274
0.031050 0.083950 0.083950
0.117610 0.115965 0.115965
0.204016 0.147924 0.147924
0.290422 0.179882 0.179882
0.405480 0.222438 0.222438
0.487138 0.252640 0.252640
0.568795 0.282842 0.282842
0.650453 0.313044 0.313044
0.713396 0.336324 0.336324
0.062100 0.167900 0.115000
0.147694 0.198950 0.146050
0.204016 0.200824 0.147924
0.290422 0.232782 0.179882
0.405480 0.275338 0.222438
0.487138 0.305540 0.252640
0.568795 0.335742 0.282842
0.650453 0.365944 0.313044
0.713396 0.389224 0.336324
0.093150 0.251850 0.146050
0.178744 0.282900 0.177100
0.233192 0.282900 0.177100
0.290422 0.285682 0.179882
0.405480 0.328238 0.222438
0.487138 0.358440 0.252640
0.568795 0.388642 0.282842
0.650453 0.418844 0.313044
0.713396 0.442124 0.336324
0.124200 0.335800 0.177100
0.209794 0.366850 0.208150
0.264242 0.366850 0.208150
0.318690 0.366850 0.208150
0.405480 0.381138 0.222438
0.487138 0.411340 0.252640
0.568795 0.441542 0.282842
0.650453 0.471744 0.313044
0.713396 0.495024 0.336324
0.164344 0.444336 0.217244
0.249938 0.475386 0.248294
0.304386 0.475386 0.248294
0.358834 0.475386 0.248294
0.431336 0.475386 0.248294
0.487138 0.479733 0.252640
0.568795 0.509935 0.282842
0.650453 0.540137 0.313044
0.713396 0.563417 0.336324
0.193687 0.523673 0.246587
0.279282 0.554723 0.277637
0.333729 0.554723 0.277637
0.388177 0.554723 0.277637
0.460679 0.554723 0.277637
0.512135 0.554723 0.277637
0.568795 0.559928 0.282842
0.650453 0.590130 0.313044
0.713396 0.613410 0.336324
0.223031 0.603009 0.275931
0.308625 0.634059 0.306981
0.363073 0.634059 0.306981
0.417521 0.634059 0.306981
0.490023 0.634059 0.306981
0.541479 0.634059 0.306981
0.592934 0.634059 0.306981
0.650453 0.640123 0.313044
0.713396 0.663403 0.336324
0.252374 0.682346 0.305274
0.337969 0.713396 0.336324
0.392417 0.713396 0.336324
0.446864 0.713396 0.336324
0.519367 0.713396 0.336324
0.570822 0.713396 0.336324
0.622278 0.713396 0.336324
0.673733 0.713396 0.336324
0.713396 0.713396 0.336324
0.062100 0.062100 0.167900
0.116644 0.062100 0.167900
0.172966 0.063974 0.169774
0.259372 0.095932 0.201732
0.374430 0.138488 0.244288
0.456088 0.168690 0.274490
0.537745 0.198892 0.304692
0.619403 0.229094 0.334894
0.682346 0.252374 0.358174
0.062100 0.115000 0.167900
0.147694 0.146050 0.198950
0.204016 0.147924 0.200824
0.290422 0.179882 0.232782
0.405480 0.222438 0.275338
0.487138 0.252640 0.305540
0.568795 0.282842 0.335742
0.650453 0.313044 0.365944
0.713396 0.336324 0.389224
0.062100 0.167900 0.167900
0.148660 0.199915 0.199915
0.235066 0.231874 0.231874
0.321472 0.263832 0.263832
0.436530 0.306388 0.306388
0.518188 0.336590 0.336590
0.599845 0.366792 0.366792
0.681503 0.396994 0.396994
0.744446 0.420274 0.420274
0.093150 0.251850 0.198950
0.179710 0.283865 0.230965
0.264242 0.313950 0.261050
0.321472 0.316732 0.263832
0.436530 0.359288 0.306388
0.518188 0.389490 0.336590
0.599845 0.419692 0.366792
0.681503 0.449894 0.396994
0.744446 0.473174 0.420274
0.124200 0.335800 0.230000
0.210760 0.367815 0.262015
0.295292 0.397900 0.292100
0.349740 0.397900 0.292100
0.436530 0.412188 0.306388
0.518188 0.442390 0.336590
0.599845 0.472592 0.366792
0.681503 0.502794 0.396994
0.744446 0.526074 0.420274
0.164344 0.444336 0.270144
0.250903 0.476352 0.302159
0.335436 0.506436 0.332244
0.389884 0.506436 0.332244
0.462386 0.506436 0.332244
0.518188 0.510783 0.336590
0.599845 0.540985 0.366792
0.681503 0.571187 0.396994
0.744446 0.594467 0.420274
0.193687 0.523673 0.299487
0.280247 0.555688 0.331502
0.364779 0.585773 0.361587
0.419227 0.585773 0.361587
0.491729 0.585773 0.361587
0.543185 0.585773 0.361587
0.599845 0.590978 0.366792
0.681503 0.621180 0.396994
0.744446 0.644460 0.420274
0.223031 0.603009 0.328831
0.309591 0.635024 0.360846
0.394123 0.665109 0.390931
0.448571 0.665109 0.390931
0.521073 0.665109 0.390931
0.572529 0.665109 0.390931
0.623984 0.665109 0.390931
0.681503 0.671173 0.396994
0.744446 0.694453 0.420274
0.252374 0.682346 0.358174
0.338934 0.714361 0.390190
0.423467 0.744446 0.420274
0.477914 0.744446 0.420274
0.550417 0.744446 0.420274
0.601872 0.744446 0.420274
0.653328 0.744446 0.420274
0.704783 0.744446 0.420274
0.744446 0.744446 0.420274
0.093150 0.093150 0.251850
0.147694 0.093150 0.251850
0.202142 0.093150 0.251850
0.259372 0.095932 0.254632
0.374430 0.138488 0.297188
0.456088 0.168690 0.327390
0.537745 0.198892 0.357592
0.619403 0.229094 0.387794
0.682346 0.252374 0.411074
0.093150 0.146050 0.251850
0.178744 0.177100 0.282900
0.233192 0.177100 0.282900
0.290422 0.179882 0.285682
0.405480 0.222438 0.328238
0.487138 0.252640 0.358440
0.568795 0.282842 0.388642
0.650453 0.313044 0.418844
0.713396 0.336324 0.442124
0.093150 0.198950 0.251850
0.179710 0.230965 0.283865
0.264242 0.261050 0.313950
0.321472 0.263832 0.316732
0.436530 0.306388 0.359288
0.518188 0.336590 0.389490
0.599845 0.366792 0.419692
0.681503 0.396994 0.449894
0.744446 0.420274 0.473174
0.093150 0.251850 0.251850
0.179710 0.283865 0.283865
0.266116 0.315824 0.315824
0.352522 0.347782 0.347782
0.467580 0.390338 0.390338
0.549238 0.420540 0.420540
0.630895 0.450742 0.450742
0.712553 0.480944 0.480944
0.775496 0.504224 0.504224
0.124200 0.335800 0.282900
0.210760 0.367815 0.314915
0.297166 0.399774 0.346874
0.380790 0.428950 0.376050
0.467580 0.443238 0.390338
0.549238 0.473440 0.420540
0.630895 0.503642 0.450742
0.712553 0.533844 0.480944
0.775496 0.557124 0.504224
0.164344 0.444336 0.323044
0.250903 0.476352 0.355059
0.337310 0.508310 0.387017
0.420934 0.537486 0.416194
0.493436 0.537486 0.416194
0.549238 0.541833 0.420540
0.630895 0.572035 0.450742
0.712553 0.602237 0.480944
0.775496 0.625517 0.504224
0.193687 0.523673 0.352387
0.280247 0.555688 0.384402
0.366653 0.587647 0.416361
0.450277 0.616823 0.445537
0.522779 0.616823 0.445537
0.574235 0.616823 0.445537
0.630895 0.622028 0.450742
0.712553 0.652230 0.480944
0.775496 0.675510 0.504224
0.223031 0.603009 0.381731
0.309591 0.635024 0.413746
0.395997 0.666983 0.445705
0.479621 0.696159 0.474881
0.552123 0.696159 0.474881
0.603579 0.696159 0.474881
0.655034 0.696159 0.474881
0.712553 0.702223 0.480944
0.775496 0.725503 0.504224
0.252374 0.682346 0.411074
0.338934 0.714361 0.443090
0.425340 0.746319 0.475048
0.508964 0.775496 0.504224
0.581467 0.775496 0.504224
0.632922 0.775496 0.504224
0.684378 0.775496 0.504224
0.735833 0.775496 0.504224
0.775496 0.775496 0.504224
0.124200 0.124200 0.335800
0.178744 0.124200 0.335800
0.233192 0.124200 0.335800
0.287640 0.124200 0.335800
0.374430 0.138488 0.350088
0.456088 0.168690 0.380290
0.537745 0.198892 0.410492
0.619403 0.229094 0.440694
0.682346 0.252374 0.463974
0.124200 0.177100 0.335800
0.209794 0.208150 0.366850
0.264242 0.208150 0.366850
0.318690 0.208150 0.366850
0.405480 0.222438 0.381138
0.487138 0.252640 0.411340
0.568795 0.282842 0.441542
0.650453 0.313044 0.471744
0.713396 0.336324 0.495024
0.124200 0.230000 0.335800
0.210760 0.262015 0.367815
0.295292 0.292100 0.397900
0.349740 0.292100 0.397900
0.436530 0.306388 0.412188
0.518188 0.336590 0.442390
0.599845 0.366792 0.472592
0.681503 0.396994 0.502794
0.744446 0.420274 0.526074
0.124200 0.282900 0.335800
0.210760 0.314915 0.367815
0.297166 0.346874 0.399774
0.380790 0.376050 0.428950
0.467580 0.390338 0.443238
0.549238 0.420540 0.473440
0.630895 0.450742 0.503642
0.712553 0.480944 0.533844
0.775496 0.504224 0.557124
0.124200 0.335800 0.335800
0.210760 0.367815 0.367815
0.297166 0.399774 0.399774
0.383572 0.431732 0.431732
0.498630 0.474288 0.474288
0.580288 0.504490 0.504490
0.661945 0.534692 0.534692
0.743603 0.564894 0.564894
0.806546 0.588174 0.588174
0.164344 0.444336 0.375944
0.250903 0.476352 0.407959
0.337310 0.508310 0.439917
0.423716 0.540269 0.471876
0.524486 0.568536 0.500144
0.580288 0.572883 0.504490
0.661945 0.603085 0.534692
0.743603 0.633287 0.564894
0.806546 0.656567 0.588174
0.193687 0.523673 0.405287
0.280247 0.555688 0.437302
0.366653 0.587647 0.469261
0.453059 0.619605 0.501219
0.553829 0.647873 0.529487
0.605285 0.647873 0.529487
0.661945 0.653078 0.534692
0.743603 0.683280 0.564894
0.806546 0.706560 0.588174
0.223031 0.603009 0.434631
0.309591 0.635024 0.466646
0.395997 0.666983 0.498605
0.482403 0.698941 0.530563
0.583173 0.727209 0.558831
0.634629 0.727209 0.558831
0.686084 0.727209 0.558831
0.743603 0.733273 0.564894
0.806546 0.756553 0.588174
0.252374 0.682346 0.463974
0.338934 0.714361 0.495990
0.425340 0.746319 0.527948
0.511747 0.778278 0.559907
0.612517 0.806546 0.588174
0.663972 0.806546 0.588174
0.715428 0.806546 0.588174
0.766883 0.806546 0.588174
0.806546 0.806546 0.588174
0.164344 0.164344 0.444336
0.218888 0.164344 0.444336
0.273336 0.164344 0.444336
0.327784 0.164344 0.444336
0.400286 0.164344 0.444336
0.456088 0.168690 0.448683
0.537745 0.198892 0.478885
0.619403 0.229094 0.509087
0.682346 0.252374 0.532367
0.164344 0.217244 0.444336
0.249938 0.248294 0.475386
0.304386 0.248294 0.475386
0.358834 0.248294 0.475386
0.431336 0.248294 0.475386
0.487138 0.252640 0.479733
0.568795 0.282842 0.509935
0.650453 0.313044 0.540137
0.713396 0.336324 0.563417
0.164344 0.270144 0.444336
0.250903 0.302159 0.476352
0.335436 0.332244 0.506436
0.389884 0.332244 0.506436
0.462386 0.332244 0.506436
0.518188 0.336590 0.510783
0.599845 0.366792 0.540985
0.681503 0.396994 0.571187
0.744446 0.420274 0.594467
0.164344 0.323044 0.444336
0.250903 0.355059 0.476352
0.337310 0.387017 0.508310
0.420934 0.416194 0.537486
0.493436 0.416194 0.537486
0.549238 0.420540 0.541833
0.630895 0.450742 0.572035
0.712553 0.480944 0.602237
0.775496 0.504224 0.625517
0.164344 0.375944 0.444336
0.250903 0.407959 0.476352
0.337310 0.439917 0.508310
0.423716 0.471876 0.540269
0.524486 0.500144 0.568536
0.580288 0.504490 0.572883
0.661945 0.534692 0.603085
0.743603 0.564894 0.633287
0.806546 0.588174 0.656567
0.164344 0.444336 0.444336
0.250903 0.476352 0.476352
0.337310 0.508310 0.508310
0.423716 0.540269 0.540269
0.538774 0.582824 0.582824
0.620431 0.613026 0.613026
0.702089 0.643229 0.643229
0.783747 0.673431 0.673431
0.846689 0.696711 0.696711
0.193687 0.523673 0.473680
0.280247 0.555688 0.505695
0.366653 0.587647 0.537654
0.453059 0.619605 0.569612
0.568117 0.662161 0.612168
0.645429 0.688016 0.638024
0.702089 0.693221 0.643229
0.783747 0.723423 0.673431
0.846689 0.746704 0.696711
0.223031 0.603009 0.503024
0.309591 0.635024 0.535039
0.395997 0.666983 0.566997
0.482403 0.698941 0.598956
0.597461 0.741497 0.641511
0.674772 0.767353 0.667367
0.726228 0.767353 0.667367
0.783747 0.773416 0.673431
0.846689 0.796696 0.696711
0.252374 0.682346 0.532367
0.338934 0.714361 0.564382
0.425340 0.746319 0.596341
0.511747 0.778278 0.628299
0.626804 0.820833 0.670855
0.704116 0.846689 0.696711
0.755571 0.846689 0.696711
0.807027 0.846689 0.696711
0.846689 0.846689 0.696711
0.193687 0.193687 0.523673
0.248232 0.193687 0.523673
0.302679 0.193687 0.523673
0.357127 0.193687 0.523673
0.429629 0.193687 0.523673
0.481085 0.193687 0.523673
0.537745 0.198892 0.528878
0.619403 0.229094 0.559080
0.682346 0.252374 0.582360
0.193687 0.246587 0.523673
0.279282 0.277637 0.554723
0.333729 0.277637 0.554723
0.388177 0.277637 0.554723
0.460679 0.277637 0.554723
0.512135 0.277637 0.554723
0.568795 0.282842 0.559928
0.650453 0.313044 0.590130
0.713396 0.336324 0.613410
0.193687 0.299487 0.523673
0.280247 0.331502 0.555688
0.364779 0.361587 0.585773
0.419227 0.361587 0.585773
0.491729 0.361587 0.585773
0.543185 0.361587 0.585773
0.599845 0.366792 0.590978
0.681503 0.396994 0.621180
0.744446 0.420274 0.644460
0.193687 0.352387 0.523673
0.280247 0.384402 0.555688
0.366653 0.416361 0.587647
0.450277 0.445537 0.616823
0.522779 0.445537 0.616823
0.574235 0.445537 0.616823
0.630895 0.450742 0.622028
0.712553 0.480944 0.652230
0.775496 0.504224 0.675510
0.193687 0.405287 0.523673
0.280247 0.437302 0.555688
0.366653 0.469261 0.587647
0.453059 0.501219 0.619605
0.553829 0.529487 0.647873
0.605285 0.529487 0.647873
0.661945 0.534692 0.653078
0.743603 0.564894 0.683280
0.806546 0.588174 0.706560
0.193687 0.473680 0.523673
0.280247 0.505695 0.555688
0.366653 0.537654 0.587647
0.453059 0.569612 0.619605
0.568117 0.612168 0.662161
0.645429 0.638024 0.688016
0.702089 0.643229 0.693221
0.783747 0.673431 0.723423
0.846689 0.696711 0.746704
0.193687 0.523673 0.523673
0.280247 0.555688 0.555688
0.366653 0.587647 0.587647
0.453059 0.619605 0.619605
0.568117 0.662161 0.662161
0.649775 0.692363 0.692363
0.731433 0.722565 0.722565
0.813090 0.752767 0.752767
0.876033 0.776047 0.776047
0.223031 0.603009 0.553016
0.309591 0.635024 0.585032
0.395997 0.666983 0.616990
0.482403 0.698941 0.648949
0.597461 0.741497 0.691504
0.679119 0.771699 0.721706
0.755571 0.796696 0.746704
0.813090 0.802760 0.752767
0.876033 0.826040 0.776047
0.252374 0.682346 0.582360
0.338934 0.714361 0.614375
0.425340 0.746319 0.646334
0.511747 0.778278 0.678292
0.626804 0.820833 0.720848
0.708462 0.851036 0.751050
0.784915 0.876033 0.776047
0.836370 0.876033 0.776047
0.876033 0.876033 0.776047
0.223031 0.223031 0.603009
0.277575 0.223031 0.603009
0.332023 0.223031 0.603009
0.386471 0.223031 0.603009
0.458973 0.223031 0.603009
0.510429 0.223031 0.603009
0.561884 0.223031 0.603009
0.619403 0.229094 0.609073
0.682346 0.252374 0.632353
0.223031 0.275931 0.603009
0.308625 0.306981 0.634059
0.363073 0.306981 0.634059
0.417521 0.306981 0.634059
0.490023 0.306981 0.634059
0.541479 0.306981 0.634059
0.592934 0.306981 0.634059
0.650453 0.313044 0.640123
0.713396 0.336324 0.663403
0.223031 0.328831 0.603009
0.309591 0.360846 0.635024
0.394123 0.390931 0.665109
0.448571 0.390931 0.665109
0.521073 0.390931 0.665109
0.572529 0.390931 0.665109
0.623984 0.390931 0.665109
0.681503 0.396994 0.671173
0.744446 0.420274 0.694453
0.223031 0.381731 0.603009
0.309591 0.413746 0.635024
0.395997 0.445705 0.666983
0.479621 0.474881 0.696159
0.552123 0.474881 0.696159
0.603579 0.474881 0.696159
0.655034 0.474881 0.696159
0.712553 0.480944 0.702223
0.775496 0.504224 0.725503
0.223031 0.434631 0.603009
0.309591 0.466646 0.635024
0.395997 0.498605 0.666983
0.482403 0.530563 0.698941
0.583173 0.558831 0.727209
0.634629 0.558831 0.727209
0.686084 0.558831 0.727209
0.743603 0.564894 0.733273
0.806546 0.588174 0.756553
0.223031 0.503024 0.603009
0.309591 0.535039 0.635024
0.395997 0.566997 0.666983
0.482403 0.598956 0.698941
0.597461 0.641511 0.741497
0.674772 0.667367 0.767353
0.726228 0.667367 0.767353
0.783747 0.673431 0.773416
0.846689 0.696711 0.796696
0.223031 0.553016 0.603009
0.309591 0.585032 0.635024
0.395997 0.616990 0.666983
0.482403 0.648949 0.698941
0.597461 0.691504 0.741497
0.679119 0.721706 0.771699
0.755571 0.746704 0.796696
0.813090 0.752767 0.802760
0.876033 0.776047 0.826040
0.223031 0.603009 0.603009
0.309591 0.635024 0.635024
0.395997 0.666983 0.666983
0.482403 0.698941 0.698941
0.597461 0.741497 0.741497
0.679119 0.771699 0.771699
0.760776 0.801901 0.801901
0.842434 0.832103 0.832103
0.905376 0.855384 0.855384
0.252374 0.682346 0.632353
0.338934 0.714361 0.664368
0.425340 0.746319 0.696327
0.511747 0.778278 0.728285
0.626804 0.820833 0.770841
0.708462 0.851036 0.801043
0.790120 0.881238 0.831245
0.865714 0.905376 0.855384
0.905376 0.905376 0.855384
0.252374 0.252374 0.682346
0.306919 0.252374 0.682346
0.361367 0.252374 0.682346
0.415814 0.252374 0.682346
0.488317 0.252374 0.682346
0.539772 0.252374 0.682346
0.591228 0.252374 0.682346
0.642683 0.252374 0.682346
0.682346 0.252374 0.682346
0.252374 0.305274 0.682346
0.337969 0.336324 0.713396
0.392417 0.336324 0.713396
0.446864 0.336324 0.713396
0.519367 0.336324 0.713396
0.570822 0.336324 0.713396
0.622278 0.336324 0.713396
0.673733 0.336324 0.713396
0.713396 0.336324 0.713396
0.252374 0.358174 0.682346
0.338934 0.390190 0.714361
0.423467 0.420274 0.744446
0.477914 0.420274 0.744446
0.550417 0.420274 0.744446
0.601872 0.420274 0.744446
0.653328 0.420274 0.744446
0.704783 0.420274 0.744446
0.744446 0.420274 0.744446
0.252374 0.411074 0.682346
0.338934 0.443090 0.714361
0.425340 0.475048 0.746319
0.508964 0.504224 0.775496
0.581467 0.504224 0.775496
0.632922 0.504224 0.775496
0.684378 0.504224 0.775496
0.735833 0.504224 0.775496
0.775496 0.504224 0.775496
0.252374 0.463974 0.682346
0.338934 0.495990 0.714361
0.425340 0.527948 0.746319
0.511747 0.559907 0.778278
0.612517 0.588174 0.806546
0.663972 0.588174 0.806546
0.715428 0.588174 0.806546
0.766883 0.588174 0.806546
0.806546 0.588174 0.806546
0.252374 0.532367 0.682346
0.338934 0.564382 0.714361
0.425340 0.596341 0.746319
0.511747 0.628299 0.778278
0.626804 0.670855 0.820833
0.704116 0.696711 0.846689
0.755571 0.696711 0.846689
0.807027 0.696711 0.846689
0.846689 0.696711 0.846689
0.252374 0.582360 0.682346
0.338934 0.614375 0.714361
0.425340 0.646334 0.746319
0.511747 0.678292 0.778278
0.626804 0.720848 0.820833
0.708462 0.751050 0.851036
0.784915 0.776047 0.876033
0.836370 0.776047 0.876033
0.876033 0.776047 0.876033
0.252374 0.632353 0.682346
0.338934 0.664368 0.714361
0.425340 0.696327 0.746319
0.511747 0.728285 0.778278
0.626804 0.770841 0.820833
0.708462 0.801043 0.851036
0.790120 0.831245 0.881238
0.865714 0.855384 0.905376
0.905376 0.855384 0.905376
0.252374 0.682346 0.682346
0.338934 0.714361 0.714361
0.425340 0.746319 0.746319
0.511747 0.778278 0.778278
0.626804 0.820833 0.820833
0.708462 0.851036 0.851036
0.790120 0.881238 0.881238
0.871777 0.911440 0.911440
0.934720 0.934720 0.934720
