docs/luts/fuji_recipes/NEGA_RR_Analog_Color.cube
TITLE "Fujifilm Recipe: RR Analog Color (NEGA)"
# FilmSim=NEGA HL=3 SH=0 Col=-1 WB=Daylight WBR=-3 WBB=1
LUT_3D_SIZE 9
DOMAIN_MIN 0.0 0.0 0.0
DOMAIN_MAX 1.0 1.0 1.0
0.016000 0.016000 0.016000
0.137549 0.025444 0.025444
0.249267 0.035307 0.035307
0.360912 0.045244 0.045244
0.470149 0.054771 0.054771
0.593947 0.065200 0.065200
0.717737 0.075638 0.075638
0.781503 0.081016 0.081016
0.781503 0.081016 0.081016
0.026299 0.147315 0.026299
0.138239 0.147315 0.026299
0.249267 0.155271 0.035307
0.360912 0.164721 0.045244
0.470149 0.173977 0.054771
0.593947 0.184198 0.065200
0.717737 0.194498 0.075638
0.781503 0.199823 0.081016
0.781503 0.199823 0.081016
0.036978 0.268075 0.036978
0.147843 0.268075 0.036978
0.250743 0.268075 0.036978
0.360912 0.275614 0.045244
0.470149 0.284619 0.054771
0.593947 0.294646 0.065200
0.717737 0.304818 0.075638
0.781503 0.310093 0.081016
0.781503 0.310093 0.081016
0.047728 0.388765 0.047728
0.158171 0.388765 0.047728
0.260679 0.388765 0.047728
0.363187 0.388765 0.047728
0.470149 0.395260 0.054771
0.593947 0.405094 0.065200
0.717737 0.415139 0.075638
0.781503 0.420363 0.081016
0.781503 0.420363 0.081016
0.058218 0.511078 0.058218
0.168410 0.511078 0.058218
0.270684 0.511078 0.058218
0.372959 0.511078 0.058218
0.473517 0.511078 0.058218
0.593947 0.517975 0.065200
0.717737 0.528490 0.075638
0.781503 0.533972 0.081016
0.781503 0.533972 0.081016
0.069496 0.644910 0.069496
0.179511 0.644910 0.069496
0.281622 0.644910 0.069496
0.383732 0.644910 0.069496
0.484778 0.644910 0.069496
0.598212 0.644910 0.069496
0.717737 0.651044 0.075638
0.781503 0.656470 0.081016
0.781503 0.656470 0.081016
0.080783 0.778735 0.080783
0.190681 0.778735 0.080783
0.292682 0.778735 0.080783
0.394684 0.778735 0.080783
0.496272 0.778735 0.080783
0.609585 0.778735 0.080783
0.722898 0.778735 0.080783
0.781503 0.778969 0.081016
0.781503 0.778969 0.081016
0.040329 0.893939 0.040329
0.163538 0.893939 0.040329
0.277894 0.893939 0.040329
0.392251 0.893939 0.040329
0.506517 0.893939 0.040329
0.633555 0.893939 0.040329
0.760593 0.893939 0.040329
0.826033 0.893939 0.040329
0.826033 0.893939 0.040329
0.040329 0.893939 0.040329
0.163538 0.893939 0.040329
0.277894 0.893939 0.040329
0.392251 0.893939 0.040329
0.506517 0.893939 0.040329
0.633555 0.893939 0.040329
0.760593 0.893939 0.040329
0.826033 0.893939 0.040329
0.826033 0.893939 0.040329
0.026584 0.026584 0.150570
0.138474 0.026584 0.150570
0.249267 0.035307 0.158270
0.360912 0.045244 0.167708
0.470149 0.054771 0.176957
0.593947 0.065200 0.187173
0.717737 0.075638 0.197470
0.781503 0.081016 0.202793
0.781503 0.081016 0.202793
0.026584 0.147546 0.150570
0.166794 0.175794 0.178794
0.283296 0.181292 0.184547
0.397800 0.188370 0.191558
0.509583 0.196106 0.199253
0.634807 0.205109 0.208223
0.793654 0.180490 0.183967
0.886996 0.156291 0.160018
0.886996 0.156291 0.160018
0.036978 0.268075 0.159829
0.171017 0.300549 0.183930
0.284628 0.303399 0.186169
0.398576 0.307416 0.192094
0.510439 0.313567 0.199769
0.635714 0.321336 0.208721
0.796920 0.308498 0.181743
0.887390 0.295039 0.160417
0.887390 0.295039 0.160417
0.047728 0.388765 0.170111
0.179238 0.423767 0.191900
0.290519 0.426972 0.194035
0.399723 0.426972 0.194035
0.510439 0.430515 0.199769
0.635714 0.437068 0.208721
0.796920 0.438763 0.181743
0.887390 0.433387 0.160417
0.887390 0.433387 0.160417
0.058218 0.511078 0.180322
0.188117 0.548389 0.200618
0.297872 0.551918 0.202666
0.405630 0.551918 0.202666
0.512342 0.551918 0.202666
0.635714 0.556107 0.208721
0.796920 0.573460 0.181743
0.887390 0.576830 0.160417
0.887390 0.576830 0.160417
0.069496 0.644910 0.191405
0.198189 0.683429 0.210572
0.306808 0.687151 0.212543
0.413499 0.687151 0.212543
0.519834 0.687151 0.212543
0.638357 0.687151 0.212543
0.796920 0.718170 0.181743
0.887390 0.730521 0.160417
0.887390 0.730521 0.160417
0.080783 0.778735 0.202562
0.144309 0.882419 0.159205
0.273784 0.883995 0.160811
0.401652 0.883995 0.160811
0.529905 0.883995 0.160811
0.671952 0.883995 0.160811
0.813999 0.883995 0.160811
0.887390 0.884211 0.160417
0.887390 0.884211 0.160417
0.040329 0.893939 0.176858
0.133914 0.963161 0.149118
0.265901 0.963869 0.150578
0.396427 0.963869 0.150578
0.527775 0.963869 0.150578
0.672776 0.963869 0.150578
0.817776 0.963869 0.150578
0.892470 0.963869 0.150578
0.892470 0.963869 0.150578
0.040329 0.893939 0.176858
0.133914 0.963161 0.149118
0.265901 0.963869 0.150578
0.396427 0.963869 0.150578
0.527775 0.963869 0.150578
0.672776 0.963869 0.150578
0.817776 0.963869 0.150578
0.892470 0.963869 0.150578
0.892470 0.963869 0.150578
0.037536 0.037536 0.274344
0.148370 0.037536 0.274344
0.251241 0.037536 0.274344
0.360912 0.045244 0.281373
0.470149 0.054771 0.290365
0.593947 0.065200 0.300382
0.717737 0.075638 0.310548
0.781503 0.081016 0.315820
0.781503 0.081016 0.315820
0.037536 0.157356 0.274344
0.171406 0.181078 0.306987
0.284186 0.182745 0.309149
0.397800 0.188370 0.312894
0.509583 0.196106 0.319000
0.634807 0.205109 0.326740
0.793654 0.180490 0.316301
0.886996 0.156291 0.301830
0.886996 0.156291 0.301830
0.037536 0.268568 0.274344
0.171406 0.300770 0.306987
0.306753 0.324106 0.329891
0.423743 0.329507 0.335869
0.538582 0.334887 0.341150
0.682364 0.325333 0.332144
0.824993 0.316931 0.323958
0.901617 0.309451 0.316624
0.901617 0.309451 0.316624
0.047728 0.388765 0.283701
0.179238 0.423767 0.312354
0.308596 0.448959 0.333825
0.425839 0.454030 0.338235
0.539958 0.456702 0.342224
0.683243 0.457445 0.333168
0.825780 0.453086 0.324857
0.902377 0.448336 0.317405
0.902377 0.448336 0.317405
0.058218 0.511078 0.293654
0.188117 0.548389 0.319545
0.315238 0.576465 0.340068
0.430559 0.582191 0.344367
0.541368 0.582191 0.344367
0.683243 0.593074 0.333168
0.825780 0.593763 0.324857
0.902377 0.592366 0.317405
0.902377 0.592366 0.317405
0.069496 0.644910 0.304554
0.198189 0.683429 0.328380
0.299030 0.737785 0.326630
0.425667 0.741128 0.330541
0.548742 0.741128 0.330541
0.685024 0.741128 0.330541
0.825780 0.744014 0.324857
0.902377 0.745785 0.317405
0.902377 0.745785 0.317405
0.080783 0.778735 0.315591
0.144309 0.882419 0.300919
0.285974 0.895951 0.314649
0.416745 0.898993 0.317787
0.545590 0.898993 0.317787
0.687361 0.898993 0.317787
0.829133 0.898993 0.317787
0.902377 0.899204 0.317405
0.902377 0.899204 0.317405
0.040329 0.893939 0.303577
0.133914 0.963161 0.293755
0.276980 0.969246 0.306295
0.410323 0.970613 0.309111
0.542529 0.970613 0.309111
0.687530 0.970613 0.309111
0.832530 0.970613 0.309111
0.907224 0.970613 0.309111
0.907224 0.970613 0.309111
0.040329 0.893939 0.303577
0.133914 0.963161 0.293755
0.276980 0.969246 0.306295
0.410323 0.970613 0.309111
0.542529 0.970613 0.309111
0.687530 0.970613 0.309111
0.832530 0.970613 0.309111
0.907224 0.970613 0.309111
0.907224 0.970613 0.309111
0.048556 0.048556 0.398049
0.158977 0.048556 0.398049
0.261465 0.048556 0.398049
0.363952 0.048556 0.398049
0.470149 0.054771 0.403772
0.593947 0.065200 0.413591
0.717737 0.075638 0.423626
0.781503 0.081016 0.428847
0.781503 0.081016 0.428847
0.048556 0.167930 0.398049
0.179920 0.189405 0.433198
0.290427 0.190993 0.435626
0.399379 0.190993 0.435626
0.509583 0.196106 0.438748
0.634807 0.205109 0.445257
0.793654 0.180490 0.448635
0.886996 0.156291 0.443642
0.886996 0.156291 0.443642
0.048556 0.278728 0.398049
0.179920 0.306786 0.433198
0.309085 0.327980 0.458582
0.424952 0.331265 0.462434
0.538582 0.334887 0.464752
0.682364 0.325333 0.466578
0.824993 0.316931 0.462634
0.901617 0.309451 0.458196
0.901617 0.309451 0.458196
0.048556 0.389525 0.398049
0.179920 0.424167 0.433198
0.309085 0.449252 0.458582
0.446712 0.472419 0.480988
0.565529 0.488108 0.496677
0.699708 0.475769 0.485739
0.840288 0.469416 0.480033
0.916265 0.462583 0.473859
0.916265 0.462583 0.473859
0.058218 0.511078 0.406985
0.188117 0.548389 0.438471
0.315238 0.576465 0.462578
0.442568 0.604332 0.481888
0.567115 0.610312 0.488221
0.701086 0.612052 0.487299
0.841499 0.611255 0.481507
0.917429 0.608283 0.475152
0.917429 0.608283 0.475152
0.069496 0.644910 0.417703
0.198189 0.683429 0.446188
0.299030 0.737785 0.462812
0.439139 0.752872 0.479657
0.567765 0.758029 0.485615
0.702544 0.758029 0.485615
0.841499 0.760358 0.481507
0.917429 0.761274 0.475152
0.917429 0.761274 0.475152
0.080783 0.778735 0.428620
0.144309 0.882419 0.442633
0.285974 0.895951 0.456130
0.427615 0.909507 0.470461
0.561737 0.914061 0.475500
0.703076 0.914061 0.475500
0.844415 0.914061 0.475500
0.917429 0.914265 0.475152
0.917429 0.914265 0.475152
0.040329 0.893939 0.430296
0.133914 0.963161 0.438392
0.276980 0.969246 0.451067
0.420046 0.975331 0.464382
0.557335 0.977408 0.468863
0.702336 0.977408 0.468863
0.847336 0.977408 0.468863
0.922030 0.977408 0.468863
0.922030 0.977408 0.468863
0.040329 0.893939 0.430296
0.133914 0.963161 0.438392
0.276980 0.969246 0.451067
0.420046 0.975331 0.464382
0.557335 0.977408 0.468863
0.702336 0.977408 0.468863
0.847336 0.977408 0.468863
0.922030 0.977408 0.468863
0.922030 0.977408 0.468863
0.059367 0.059367 0.524721
0.169537 0.059367 0.524721
0.271791 0.059367 0.524721
0.374045 0.059367 0.524721
0.474649 0.059367 0.524721
0.593947 0.065200 0.530482
0.717737 0.075638 0.540982
0.781503 0.081016 0.546459
0.781503 0.081016 0.546459
0.059367 0.178469 0.524721
0.189121 0.198486 0.562178
0.298139 0.200008 0.564848
0.405663 0.200008 0.564848
0.512195 0.200008 0.564848
0.634807 0.205109 0.568366
0.793654 0.180490 0.586800
0.886996 0.156291 0.592092
0.886996 0.156291 0.592092
0.059367 0.289014 0.524721
0.189121 0.314380 0.562178
0.316032 0.334627 0.590464
0.429999 0.337825 0.594812
0.540533 0.337825 0.594812
0.682364 0.325333 0.607000
0.824993 0.316931 0.608225
0.901617 0.309451 0.607213
0.901617 0.309451 0.607213
0.059367 0.399559 0.524721
0.189121 0.430274 0.562178
0.316032 0.453975 0.590464
0.442462 0.472029 0.619230
0.565818 0.476778 0.623639
0.699708 0.475769 0.625247
0.840288 0.469416 0.625086
0.916265 0.462583 0.622628
0.916265 0.462583 0.622628
0.059367 0.512203 0.524721
0.189121 0.549054 0.562178
0.316032 0.576949 0.590464
0.442462 0.604724 0.619230
0.587396 0.625233 0.637845
0.718455 0.631002 0.645399
0.856000 0.628521 0.643537
0.930856 0.623240 0.638758
0.930856 0.623240 0.638758
0.069496 0.644910 0.534780
0.198189 0.683429 0.568764
0.299030 0.737785 0.605236
0.439139 0.752872 0.621518
0.579936 0.768364 0.638773
0.721746 0.776197 0.647783
0.857749 0.777736 0.645693
0.932436 0.777182 0.640580
0.932436 0.777182 0.640580
0.080783 0.778735 0.546220
0.144309 0.882419 0.590896
0.285974 0.895951 0.604907
0.427615 0.909507 0.619165
0.571540 0.922775 0.633650
0.719435 0.929104 0.640892
0.859892 0.929104 0.640892
0.932436 0.929290 0.640580
0.932436 0.929290 0.640580
0.040329 0.893939 0.562516
0.133914 0.963161 0.590141
0.276980 0.969246 0.603455
0.420046 0.975331 0.616770
0.565835 0.981533 0.629751
0.716976 0.984512 0.635892
0.861976 0.984512 0.635892
0.936670 0.984512 0.635892
0.936670 0.984512 0.635892
0.040329 0.893939 0.562516
0.133914 0.963161 0.590141
0.276980 0.969246 0.603455
0.420046 0.975331 0.616770
0.565835 0.981533 0.629751
0.716976 0.984512 0.635892
0.861976 0.984512 0.635892
0.936670 0.984512 0.635892
0.936670 0.984512 0.635892
0.070929 0.070929 0.661898
0.180926 0.070929 0.661898
0.283020 0.070929 0.661898
0.385115 0.070929 0.661898
0.486227 0.070929 0.661898
0.599643 0.070929 0.661898
0.717737 0.075638 0.666601
0.781503 0.081016 0.672020
0.781503 0.081016 0.672020
0.070929 0.189845 0.661898
0.199497 0.208775 0.700541
0.307428 0.210241 0.703354
0.413918 0.210241 0.703354
0.520120 0.210241 0.703354
0.638419 0.210241 0.703354
0.793654 0.180490 0.733809
0.886996 0.156291 0.749631
0.886996 0.156291 0.749631
0.070929 0.300217 0.661898
0.199497 0.323597 0.700541
0.297877 0.318663 0.757357
0.424041 0.321550 0.759826
0.547750 0.321550 0.759826
0.684669 0.321550 0.759826
0.824993 0.316931 0.762280
0.901617 0.309451 0.764484
0.901617 0.309451 0.764484
0.070929 0.410589 0.661898
0.199497 0.438420 0.700541
0.297877 0.452073 0.757357
0.438237 0.468768 0.772194
0.565997 0.473177 0.775979
0.701565 0.473177 0.775979
0.840288 0.469416 0.778028
0.916265 0.462583 0.779490
0.916265 0.462583 0.779490
0.070929 0.523722 0.661898
0.199497 0.556794 0.700541
0.297877 0.590341 0.757357
0.438237 0.606592 0.772194
0.579490 0.623855 0.787345
0.719831 0.630570 0.793025
0.856000 0.628521 0.794533
0.930856 0.623240 0.794797
0.930856 0.623240 0.794797
0.070929 0.646334 0.661898
0.199497 0.684349 0.700541
0.297877 0.738545 0.757357
0.438237 0.753541 0.772194
0.579490 0.768930 0.787345
0.733298 0.787243 0.805225
0.874044 0.796086 0.814270
0.946525 0.793179 0.812250
0.946525 0.793179 0.812250
0.080783 0.778735 0.671784
0.144309 0.882419 0.748326
0.285974 0.895951 0.762078
0.427615 0.909507 0.775957
0.571540 0.922775 0.789785
0.728800 0.937203 0.805433
0.877244 0.945315 0.814930
0.948561 0.945463 0.814704
0.948561 0.945463 0.814704
0.040329 0.893939 0.703287
0.133914 0.963161 0.750817
0.276980 0.969246 0.764132
0.420046 0.975331 0.777446
0.565835 0.981533 0.790427
0.724766 0.988293 0.804358
0.877413 0.992004 0.812005
0.952106 0.992004 0.812005
0.952106 0.992004 0.812005
0.040329 0.893939 0.703287
0.133914 0.963161 0.750817
0.276980 0.969246 0.764132
0.420046 0.975331 0.777446
0.565835 0.981533 0.790427
0.724766 0.988293 0.804358
0.877413 0.992004 0.812005
0.952106 0.992004 0.812005
0.952106 0.992004 0.812005
0.082498 0.082498 0.799067
0.192381 0.082498 0.799067
0.294370 0.082498 0.799067
0.396358 0.082498 0.799067
0.498031 0.082498 0.799067
0.611330 0.082498 0.799067
0.724628 0.082498 0.799067
0.782991 0.082498 0.799067
0.782991 0.082498 0.799067
0.082498 0.201291 0.799067
0.141291 0.152531 0.907485
0.271092 0.153671 0.908662
0.399751 0.153671 0.908662
0.528902 0.153671 0.908662
0.671829 0.153671 0.908662
0.814756 0.153671 0.908662
0.888382 0.153671 0.908662
0.888382 0.153671 0.908662
0.082498 0.311549 0.799067
0.141291 0.291628 0.907485
0.283006 0.304667 0.920967
0.413801 0.306876 0.923238
0.543701 0.306876 0.923238
0.686544 0.306876 0.923238
0.829387 0.306876 0.923238
0.902969 0.306876 0.923238
0.902969 0.306876 0.923238
0.082498 0.421807 0.799067
0.141291 0.430725 0.907485
0.283006 0.443692 0.920967
0.424718 0.456781 0.934451
0.558627 0.460077 0.937817
0.701340 0.460077 0.937817
0.844052 0.460077 0.937817
0.917567 0.460077 0.937817
0.917567 0.460077 0.937817
0.082498 0.535488 0.799067
0.141291 0.574963 0.907485
0.283006 0.588618 0.920967
0.424718 0.602359 0.934451
0.568904 0.616023 0.947597
0.716313 0.620991 0.952269
0.858711 0.620991 0.952269
0.932064 0.620991 0.952269
0.932064 0.620991 0.952269
0.082498 0.657972 0.799067
0.141291 0.729485 0.907485
0.283006 0.743060 0.920967
0.424718 0.756681 0.934451
0.568904 0.770105 0.947597
0.726445 0.784904 0.961744
0.874572 0.791282 0.967587
0.947499 0.791282 0.967587
0.947499 0.791282 0.967587
0.082498 0.780457 0.799067
0.141291 0.884007 0.907485
0.283006 0.897502 0.920967
0.424718 0.911004 0.934451
0.568904 0.924186 0.947597
0.726445 0.938419 0.961744
0.883874 0.952970 0.976002
0.964139 0.961108 0.983369
0.964139 0.961108 0.983369
0.040329 0.893939 0.844059
0.133914 0.963161 0.911494
0.276980 0.969246 0.924808
0.420046 0.975331 0.938123
0.565835 0.981533 0.951104
0.724766 0.988293 0.965034
0.883697 0.995053 0.978965
0.965566 0.998535 0.986141
0.965566 0.998535 0.986141
0.040329 0.893939 0.844059
0.133914 0.963161 0.911494
0.276980 0.969246 0.924808
0.420046 0.975331 0.938123
0.565835 0.981533 0.951104
0.724766 0.988293 0.965034
0.883697 0.995053 0.978965
0.965566 0.998535 0.986141
0.965566 0.998535 0.986141
0.040329 0.040329 0.893939
0.163538 0.040329 0.893939
0.277894 0.040329 0.893939
0.392251 0.040329 0.893939
0.506517 0.040329 0.893939
0.633555 0.040329 0.893939
0.760593 0.040329 0.893939
0.826033 0.040329 0.893939
0.826033 0.040329 0.893939
0.040329 0.173528 0.893939
0.133914 0.145317 0.963161
0.265536 0.146412 0.963692
0.396062 0.146412 0.963692
0.527388 0.146412 0.963692
0.672388 0.146412 0.963692
0.817389 0.146412 0.963692
0.892082 0.146412 0.963692
0.892082 0.146412 0.963692
0.040329 0.297156 0.893939
0.133914 0.286426 0.963161
0.276980 0.298966 0.969246
0.409619 0.301078 0.970271
0.541782 0.301078 0.970271
0.686782 0.301078 0.970271
0.831783 0.301078 0.970271
0.906476 0.301078 0.970271
0.906476 0.301078 0.970271
0.040329 0.420785 0.893939
0.133914 0.427535 0.963161
0.276980 0.440075 0.969246
0.420046 0.452615 0.975331
0.556176 0.455744 0.976850
0.701176 0.455744 0.976850
0.846177 0.455744 0.976850
0.920870 0.455744 0.976850
0.920870 0.455744 0.976850
0.040329 0.548516 0.893939
0.133914 0.574162 0.963161
0.276980 0.587476 0.969246
0.420046 0.600791 0.975331
0.565835 0.613772 0.981533
0.715441 0.618377 0.983768
0.860441 0.618377 0.983768
0.935135 0.618377 0.983768
0.935135 0.618377 0.983768
0.040329 0.685854 0.893939
0.133914 0.730919 0.963161
0.276980 0.744234 0.969246
0.420046 0.757548 0.975331
0.565835 0.770529 0.981533
0.724766 0.784460 0.988293
0.875501 0.790195 0.991076
0.950195 0.790195 0.991076
0.950195 0.790195 0.991076
0.040329 0.823193 0.893939
0.133914 0.887677 0.963161
0.276980 0.900991 0.969246
0.420046 0.914306 0.975331
0.565835 0.927287 0.981533
0.724766 0.941217 0.988293
0.883697 0.955148 0.995053
0.965255 0.962012 0.998384
0.965255 0.962012 0.998384
0.040329 0.893939 0.893939
0.133914 0.963161 0.963161
0.276980 0.969246 0.969246
0.420046 0.975331 0.975331
0.565835 0.981533 0.981533
0.724766 0.988293 0.988293
0.883697 0.995053 0.995053
0.965566 0.998535 0.998535
0.965566 0.998535 0.998535
0.040329 0.893939 0.893939
0.133914 0.963161 0.963161
0.276980 0.969246 0.969246
0.420046 0.975331 0.975331
0.565835 0.981533 0.981533
0.724766 0.988293 0.988293
0.883697 0.995053 0.995053
0.965566 0.998535 0.998535
0.965566 0.998535 0.998535
0.040329 0.040329 0.893939
0.163538 0.040329 0.893939
0.277894 0.040329 0.893939
0.392251 0.040329 0.893939
0.506517 0.040329 0.893939
0.633555 0.040329 0.893939
0.760593 0.040329 0.893939
0.826033 0.040329 0.893939
0.826033 0.040329 0.893939
0.040329 0.173528 0.893939
0.133914 0.145317 0.963161
0.265536 0.146412 0.963692
0.396062 0.146412 0.963692
0.527388 0.146412 0.963692
0.672388 0.146412 0.963692
0.817389 0.146412 0.963692
0.892082 0.146412 0.963692
0.892082 0.146412 0.963692
0.040329 0.297156 0.893939
0.133914 0.286426 0.963161
0.276980 0.298966 0.969246
0.409619 0.301078 0.970271
0.541782 0.301078 0.970271
0.686782 0.301078 0.970271
0.831783 0.301078 0.970271
0.906476 0.301078 0.970271
0.906476 0.301078 0.970271
0.040329 0.420785 0.893939
0.133914 0.427535 0.963161
0.276980 0.440075 0.969246
0.420046 0.452615 0.975331
0.556176 0.455744 0.976850
0.701176 0.455744 0.976850
0.846177 0.455744 0.976850
0.920870 0.455744 0.976850
0.920870 0.455744 0.976850
0.040329 0.548516 0.893939
0.133914 0.574162 0.963161
0.276980 0.587476 0.969246
0.420046 0.600791 0.975331
0.565835 0.613772 0.981533
0.715441 0.618377 0.983768
0.860441 0.618377 0.983768
0.935135 0.618377 0.983768
0.935135 0.618377 0.983768
0.040329 0.685854 0.893939
0.133914 0.730919 0.963161
0.276980 0.744234 0.969246
0.420046 0.757548 0.975331
0.565835 0.770529 0.981533
0.724766 0.784460 0.988293
0.875501 0.790195 0.991076
0.950195 0.790195 0.991076
0.950195 0.790195 0.991076
0.040329 0.823193 0.893939
0.133914 0.887677 0.963161
0.276980 0.900991 0.969246
0.420046 0.914306 0.975331
0.565835 0.927287 0.981533
0.724766 0.941217 0.988293
0.883697 0.955148 0.995053
0.965255 0.962012 0.998384
0.965255 0.962012 0.998384
0.040329 0.893939 0.893939
0.133914 0.963161 0.963161
0.276980 0.969246 0.969246
0.420046 0.975331 0.975331
0.565835 0.981533 0.981533
0.724766 0.988293 0.988293
0.883697 0.995053 0.995053
0.965566 0.998535 0.998535
0.965566 0.998535 0.998535
0.040329 0.893939 0.893939
0.133914 0.963161 0.963161
0.276980 0.969246 0.969246
0.420046 0.975331 0.975331
0.565835 0.981533 0.981533
0.724766 0.988293 0.988293
0.883697 0.995053 0.995053
0.965566 0.998535 0.998535
0.965566 0.998535 0.998535
