docs/luts/fuji_recipes/Provia_MT_Provia.cube
TITLE "Fujifilm Recipe: MT Provia (Provia)"
# FilmSim=Provia HL=0 SH=0 Col=-1 WB=Auto WBR=1 WBB=0
LUT_3D_SIZE 33
DOMAIN_MIN 0.0 0.0 0.0
DOMAIN_MAX 1.0 1.0 1.0
0.000000 0.000000 0.000000
0.027973 0.001957 0.001957
0.055945 0.003915 0.003915
0.083918 0.005872 0.005872
0.111890 0.007830 0.007830
0.139863 0.009787 0.009787
0.167835 0.011745 0.011745
0.195808 0.013702 0.013702
0.223781 0.015659 0.015659
0.251753 0.017617 0.017617
0.279726 0.019574 0.019574
0.307698 0.021532 0.021532
0.335671 0.023489 0.023489
0.363644 0.025446 0.025446
0.391616 0.027404 0.027404
0.419589 0.029361 0.029361
0.447561 0.031319 0.031319
0.475534 0.033276 0.033276
0.503506 0.035234 0.035234
0.531479 0.037191 0.037191
0.559452 0.039148 0.039148
0.587424 0.041106 0.041106
0.615397 0.043063 0.043063
0.643369 0.045021 0.045021
0.671342 0.046978 0.046978
0.699314 0.048936 0.048936
0.727287 0.050893 0.050893
0.755260 0.052850 0.052850
0.783232 0.054808 0.054808
0.811205 0.056765 0.056765
0.839177 0.058723 0.058723
0.867150 0.060680 0.060680
0.873290 0.061110 0.061110
0.001910 0.027290 0.001910
0.027973 0.027338 0.001957
0.055945 0.029295 0.003915
0.083918 0.031253 0.005872
0.111890 0.033210 0.007830
0.139863 0.035168 0.009787
0.167835 0.037125 0.011745
0.195808 0.039083 0.013702
0.223781 0.041040 0.015659
0.251753 0.042997 0.017617
0.279726 0.044955 0.019574
0.307698 0.046912 0.021532
0.335671 0.048870 0.023489
0.363644 0.050827 0.025446
0.391616 0.052785 0.027404
0.419589 0.054742 0.029361
0.447561 0.056699 0.031319
0.475534 0.058657 0.033276
0.503506 0.060614 0.035234
0.531479 0.062572 0.037191
0.559452 0.064529 0.039148
0.587424 0.066487 0.041106
0.615397 0.068444 0.043063
0.643369 0.070401 0.045021
0.671342 0.072359 0.046978
0.699314 0.074316 0.048936
0.727287 0.076274 0.050893
0.755260 0.078231 0.052850
0.783232 0.080188 0.054808
0.811205 0.082146 0.056765
0.839177 0.084103 0.058723
0.867150 0.086061 0.060680
0.873290 0.086490 0.061110
0.003819 0.054581 0.003819
0.029835 0.054581 0.003819
0.055945 0.054676 0.003915
0.083918 0.056634 0.005872
0.111890 0.058591 0.007830
0.139863 0.060548 0.009787
0.167835 0.062506 0.011745
0.195808 0.064463 0.013702
0.223781 0.066421 0.015659
0.251753 0.068378 0.017617
0.279726 0.070335 0.019574
0.307698 0.072293 0.021532
0.335671 0.074250 0.023489
0.363644 0.076208 0.025446
0.391616 0.078165 0.027404
0.419589 0.080123 0.029361
0.447561 0.082080 0.031319
0.475534 0.084037 0.033276
0.503506 0.085995 0.035234
0.531479 0.087952 0.037191
0.559452 0.089910 0.039148
0.587424 0.091867 0.041106
0.615397 0.093825 0.043063
0.643369 0.095782 0.045021
0.671342 0.097739 0.046978
0.699314 0.099697 0.048936
0.727287 0.101654 0.050893
0.755260 0.103612 0.052850
0.783232 0.105569 0.054808
0.811205 0.107527 0.056765
0.839177 0.109484 0.058723
0.867150 0.111441 0.060680
0.873290 0.111871 0.061110
0.005729 0.081871 0.005729
0.031744 0.081871 0.005729
0.057759 0.081871 0.005729
0.083918 0.082014 0.005872
0.111890 0.083972 0.007830
0.139863 0.085929 0.009787
0.167835 0.087886 0.011745
0.195808 0.089844 0.013702
0.223781 0.091801 0.015659
0.251753 0.093759 0.017617
0.279726 0.095716 0.019574
0.307698 0.097674 0.021532
0.335671 0.099631 0.023489
0.363644 0.101588 0.025446
0.391616 0.103546 0.027404
0.419589 0.105503 0.029361
0.447561 0.107461 0.031319
0.475534 0.109418 0.033276
0.503506 0.111376 0.035234
0.531479 0.113333 0.037191
0.559452 0.115290 0.039148
0.587424 0.117248 0.041106
0.615397 0.119205 0.043063
0.643369 0.121163 0.045021
0.671342 0.123120 0.046978
0.699314 0.125077 0.048936
0.727287 0.127035 0.050893
0.755260 0.128992 0.052850
0.783232 0.130950 0.054808
0.811205 0.132907 0.056765
0.839177 0.134865 0.058723
0.867150 0.136822 0.060680
0.873290 0.137252 0.061110
0.007639 0.109161 0.007639
0.033654 0.109161 0.007639
0.059669 0.109161 0.007639
0.085684 0.109161 0.007639
0.111890 0.109352 0.007830
0.139863 0.111310 0.009787
0.167835 0.113267 0.011745
0.195808 0.115225 0.013702
0.223781 0.117182 0.015659
0.251753 0.119139 0.017617
0.279726 0.121097 0.019574
0.307698 0.123054 0.021532
0.335671 0.125012 0.023489
0.363644 0.126969 0.025446
0.391616 0.128926 0.027404
0.419589 0.130884 0.029361
0.447561 0.132841 0.031319
0.475534 0.134799 0.033276
0.503506 0.136756 0.035234
0.531479 0.138714 0.037191
0.559452 0.140671 0.039148
0.587424 0.142628 0.041106
0.615397 0.144586 0.043063
0.643369 0.146543 0.045021
0.671342 0.148501 0.046978
0.699314 0.150458 0.048936
0.727287 0.152416 0.050893
0.755260 0.154373 0.052850
0.783232 0.156330 0.054808
0.811205 0.158288 0.056765
0.839177 0.160245 0.058723
0.867150 0.162203 0.060680
0.873290 0.162632 0.061110
0.009548 0.136452 0.009548
0.035564 0.136452 0.009548
0.061579 0.136452 0.009548
0.087594 0.136452 0.009548
0.113609 0.136452 0.009548
0.139863 0.136690 0.009787
0.167835 0.138648 0.011745
0.195808 0.140605 0.013702
0.223781 0.142563 0.015659
0.251753 0.144520 0.017617
0.279726 0.146477 0.019574
0.307698 0.148435 0.021532
0.335671 0.150392 0.023489
0.363644 0.152350 0.025446
0.391616 0.154307 0.027404
0.419589 0.156265 0.029361
0.447561 0.158222 0.031319
0.475534 0.160179 0.033276
0.503506 0.162137 0.035234
0.531479 0.164094 0.037191
0.559452 0.166052 0.039148
0.587424 0.168009 0.041106
0.615397 0.169966 0.043063
0.643369 0.171924 0.045021
0.671342 0.173881 0.046978
0.699314 0.175839 0.048936
0.727287 0.177796 0.050893
0.755260 0.179754 0.052850
0.783232 0.181711 0.054808
0.811205 0.183668 0.056765
0.839177 0.185626 0.058723
0.867150 0.187583 0.060680
0.873290 0.188013 0.061110
0.011458 0.163742 0.011458
0.037473 0.163742 0.011458
0.063488 0.163742 0.011458
0.089504 0.163742 0.011458
0.115519 0.163742 0.011458
0.141534 0.163742 0.011458
0.167835 0.164028 0.011745
0.195808 0.165986 0.013702
0.223781 0.167943 0.015659
0.251753 0.169901 0.017617
0.279726 0.171858 0.019574
0.307698 0.173815 0.021532
0.335671 0.175773 0.023489
0.363644 0.177730 0.025446
0.391616 0.179688 0.027404
0.419589 0.181645 0.029361
0.447561 0.183603 0.031319
0.475534 0.185560 0.033276
0.503506 0.187517 0.035234
0.531479 0.189475 0.037191
0.559452 0.191432 0.039148
0.587424 0.193390 0.041106
0.615397 0.195347 0.043063
0.643369 0.197305 0.045021
0.671342 0.199262 0.046978
0.699314 0.201219 0.048936
0.727287 0.203177 0.050893
0.755260 0.205134 0.052850
0.783232 0.207092 0.054808
0.811205 0.209049 0.056765
0.839177 0.211006 0.058723
0.867150 0.212964 0.060680
0.873290 0.213394 0.061110
0.013368 0.191032 0.013368
0.039383 0.191032 0.013368
0.065398 0.191032 0.013368
0.091413 0.191032 0.013368
0.117428 0.191032 0.013368
0.143444 0.191032 0.013368
0.169459 0.191032 0.013368
0.195808 0.191366 0.013702
0.223781 0.193324 0.015659
0.251753 0.195281 0.017617
0.279726 0.197239 0.019574
0.307698 0.199196 0.021532
0.335671 0.201154 0.023489
0.363644 0.203111 0.025446
0.391616 0.205068 0.027404
0.419589 0.207026 0.029361
0.447561 0.208983 0.031319
0.475534 0.210941 0.033276
0.503506 0.212898 0.035234
0.531479 0.214855 0.037191
0.559452 0.216813 0.039148
0.587424 0.218770 0.041106
0.615397 0.220728 0.043063
0.643369 0.222685 0.045021
0.671342 0.224643 0.046978
0.699314 0.226600 0.048936
0.727287 0.228557 0.050893
0.755260 0.230515 0.052850
0.783232 0.232472 0.054808
0.811205 0.234430 0.056765
0.839177 0.236387 0.058723
0.867150 0.238345 0.060680
0.873290 0.238774 0.061110
0.015277 0.218323 0.015277
0.041293 0.218323 0.015277
0.067308 0.218323 0.015277
0.093323 0.218323 0.015277
0.119338 0.218323 0.015277
0.145353 0.218323 0.015277
0.171368 0.218323 0.015277
0.197384 0.218323 0.015277
0.223781 0.218704 0.015659
0.251753 0.220662 0.017617
0.279726 0.222619 0.019574
0.307698 0.224577 0.021532
0.335671 0.226534 0.023489
0.363644 0.228492 0.025446
0.391616 0.230449 0.027404
0.419589 0.232406 0.029361
0.447561 0.234364 0.031319
0.475534 0.236321 0.033276
0.503506 0.238279 0.035234
0.531479 0.240236 0.037191
0.559452 0.242194 0.039148
0.587424 0.244151 0.041106
0.615397 0.246108 0.043063
0.643369 0.248066 0.045021
0.671342 0.250023 0.046978
0.699314 0.251981 0.048936
0.727287 0.253938 0.050893
0.755260 0.255896 0.052850
0.783232 0.257853 0.054808
0.811205 0.259810 0.056765
0.839177 0.261768 0.058723
0.867150 0.263725 0.060680
0.873290 0.264155 0.061110
0.017187 0.245613 0.017187
0.043202 0.245613 0.017187
0.069217 0.245613 0.017187
0.095233 0.245613 0.017187
0.121248 0.245613 0.017187
0.147263 0.245613 0.017187
0.173278 0.245613 0.017187
0.199293 0.245613 0.017187
0.225308 0.245613 0.017187
0.251753 0.246043 0.017617
0.279726 0.248000 0.019574
0.307698 0.249957 0.021532
0.335671 0.251915 0.023489
0.363644 0.253872 0.025446
0.391616 0.255830 0.027404
0.419589 0.257787 0.029361
0.447561 0.259745 0.031319
0.475534 0.261702 0.033276
0.503506 0.263659 0.035234
0.531479 0.265617 0.037191
0.559452 0.267574 0.039148
0.587424 0.269532 0.041106
0.615397 0.271489 0.043063
0.643369 0.273446 0.045021
0.671342 0.275404 0.046978
0.699314 0.277361 0.048936
0.727287 0.279319 0.050893
0.755260 0.281276 0.052850
0.783232 0.283234 0.054808
0.811205 0.285191 0.056765
0.839177 0.287148 0.058723
0.867150 0.289106 0.060680
0.873290 0.289536 0.061110
0.019097 0.272903 0.019097
0.045112 0.272903 0.019097
0.071127 0.272903 0.019097
0.097142 0.272903 0.019097
0.123157 0.272903 0.019097
0.149173 0.272903 0.019097
0.175188 0.272903 0.019097
0.201203 0.272903 0.019097
0.227218 0.272903 0.019097
0.253233 0.272903 0.019097
0.279726 0.273381 0.019574
0.307698 0.275338 0.021532
0.335671 0.277295 0.023489
0.363644 0.279253 0.025446
0.391616 0.281210 0.027404
0.419589 0.283168 0.029361
0.447561 0.285125 0.031319
0.475534 0.287083 0.033276
0.503506 0.289040 0.035234
0.531479 0.290997 0.037191
0.559452 0.292955 0.039148
0.587424 0.294912 0.041106
0.615397 0.296870 0.043063
0.643369 0.298827 0.045021
0.671342 0.300785 0.046978
0.699314 0.302742 0.048936
0.727287 0.304699 0.050893
0.755260 0.306657 0.052850
0.783232 0.308614 0.054808
0.811205 0.310572 0.056765
0.839177 0.312529 0.058723
0.867150 0.314486 0.060680
0.873290 0.314916 0.061110
0.021006 0.300194 0.021006
0.047022 0.300194 0.021006
0.073037 0.300194 0.021006
0.099052 0.300194 0.021006
0.125067 0.300194 0.021006
0.151082 0.300194 0.021006
0.177097 0.300194 0.021006
0.203113 0.300194 0.021006
0.229128 0.300194 0.021006
0.255143 0.300194 0.021006
0.281158 0.300194 0.021006
0.307698 0.300719 0.021532
0.335671 0.302676 0.023489
0.363644 0.304634 0.025446
0.391616 0.306591 0.027404
0.419589 0.308548 0.029361
0.447561 0.310506 0.031319
0.475534 0.312463 0.033276
0.503506 0.314421 0.035234
0.531479 0.316378 0.037191
0.559452 0.318335 0.039148
0.587424 0.320293 0.041106
0.615397 0.322250 0.043063
0.643369 0.324208 0.045021
0.671342 0.326165 0.046978
0.699314 0.328123 0.048936
0.727287 0.330080 0.050893
0.755260 0.332037 0.052850
0.783232 0.333995 0.054808
0.811205 0.335952 0.056765
0.839177 0.337910 0.058723
0.867150 0.339867 0.060680
0.873290 0.340297 0.061110
0.022916 0.327484 0.022916
0.048931 0.327484 0.022916
0.074946 0.327484 0.022916
0.100962 0.327484 0.022916
0.126977 0.327484 0.022916
0.152992 0.327484 0.022916
0.179007 0.327484 0.022916
0.205022 0.327484 0.022916
0.231037 0.327484 0.022916
0.257053 0.327484 0.022916
0.283068 0.327484 0.022916
0.309083 0.327484 0.022916
0.335671 0.328057 0.023489
0.363644 0.330014 0.025446
0.391616 0.331972 0.027404
0.419589 0.333929 0.029361
0.447561 0.335886 0.031319
0.475534 0.337844 0.033276
0.503506 0.339801 0.035234
0.531479 0.341759 0.037191
0.559452 0.343716 0.039148
0.587424 0.345674 0.041106
0.615397 0.347631 0.043063
0.643369 0.349588 0.045021
0.671342 0.351546 0.046978
0.699314 0.353503 0.048936
0.727287 0.355461 0.050893
0.755260 0.357418 0.052850
0.783232 0.359375 0.054808
0.811205 0.361333 0.056765
0.839177 0.363290 0.058723
0.867150 0.365248 0.060680
0.873290 0.365677 0.061110
0.024826 0.354774 0.024826
0.050841 0.354774 0.024826
0.076856 0.354774 0.024826
0.102871 0.354774 0.024826
0.128886 0.354774 0.024826
0.154902 0.354774 0.024826
0.180917 0.354774 0.024826
0.206932 0.354774 0.024826
0.232947 0.354774 0.024826
0.258962 0.354774 0.024826
0.284977 0.354774 0.024826
0.310993 0.354774 0.024826
0.337008 0.354774 0.024826
0.363644 0.355395 0.025446
0.391616 0.357352 0.027404
0.419589 0.359310 0.029361
0.447561 0.361267 0.031319
0.475534 0.363224 0.033276
0.503506 0.365182 0.035234
0.531479 0.367139 0.037191
0.559452 0.369097 0.039148
0.587424 0.371054 0.041106
0.615397 0.373012 0.043063
0.643369 0.374969 0.045021
0.671342 0.376926 0.046978
0.699314 0.378884 0.048936
0.727287 0.380841 0.050893
0.755260 0.382799 0.052850
0.783232 0.384756 0.054808
0.811205 0.386714 0.056765
0.839177 0.388671 0.058723
0.867150 0.390628 0.060680
0.873290 0.391058 0.061110
0.026736 0.382064 0.026736
0.052751 0.382064 0.026736
0.078766 0.382064 0.026736
0.104781 0.382064 0.026736
0.130796 0.382064 0.026736
0.156811 0.382064 0.026736
0.182826 0.382064 0.026736
0.208842 0.382064 0.026736
0.234857 0.382064 0.026736
0.260872 0.382064 0.026736
0.286887 0.382064 0.026736
0.312902 0.382064 0.026736
0.338917 0.382064 0.026736
0.364933 0.382064 0.026736
0.391616 0.382733 0.027404
0.419589 0.384690 0.029361
0.447561 0.386648 0.031319
0.475534 0.388605 0.033276
0.503506 0.390563 0.035234
0.531479 0.392520 0.037191
0.559452 0.394477 0.039148
0.587424 0.396435 0.041106
0.615397 0.398392 0.043063
0.643369 0.400350 0.045021
0.671342 0.402307 0.046978
0.699314 0.404265 0.048936
0.727287 0.406222 0.050893
0.755260 0.408179 0.052850
0.783232 0.410137 0.054808
0.811205 0.412094 0.056765
0.839177 0.414052 0.058723
0.867150 0.416009 0.060680
0.873290 0.416439 0.061110
0.028645 0.409355 0.028645
0.054660 0.409355 0.028645
0.080676 0.409355 0.028645
0.106691 0.409355 0.028645
0.132706 0.409355 0.028645
0.158721 0.409355 0.028645
0.184736 0.409355 0.028645
0.210751 0.409355 0.028645
0.236766 0.409355 0.028645
0.262782 0.409355 0.028645
0.288797 0.409355 0.028645
0.314812 0.409355 0.028645
0.340827 0.409355 0.028645
0.366842 0.409355 0.028645
0.392857 0.409355 0.028645
0.419589 0.410071 0.029361
0.447561 0.412028 0.031319
0.475534 0.413986 0.033276
0.503506 0.415943 0.035234
0.531479 0.417901 0.037191
0.559452 0.419858 0.039148
0.587424 0.421815 0.041106
0.615397 0.423773 0.043063
0.643369 0.425730 0.045021
0.671342 0.427688 0.046978
0.699314 0.429645 0.048936
0.727287 0.431603 0.050893
0.755260 0.433560 0.052850
0.783232 0.435517 0.054808
0.811205 0.437475 0.056765
0.839177 0.439432 0.058723
0.867150 0.441390 0.060680
0.873290 0.441819 0.061110
0.030555 0.436645 0.030555
0.056570 0.436645 0.030555
0.082585 0.436645 0.030555
0.108600 0.436645 0.030555
0.134616 0.436645 0.030555
0.160631 0.436645 0.030555
0.186646 0.436645 0.030555
0.212661 0.436645 0.030555
0.238676 0.436645 0.030555
0.264691 0.436645 0.030555
0.290706 0.436645 0.030555
0.316722 0.436645 0.030555
0.342737 0.436645 0.030555
0.368752 0.436645 0.030555
0.394767 0.436645 0.030555
0.420782 0.436645 0.030555
0.447561 0.437409 0.031319
0.475534 0.439366 0.033276
0.503506 0.441324 0.035234
0.531479 0.443281 0.037191
0.559452 0.445239 0.039148
0.587424 0.447196 0.041106
0.615397 0.449154 0.043063
0.643369 0.451111 0.045021
0.671342 0.453068 0.046978
0.699314 0.455026 0.048936
0.727287 0.456983 0.050893
0.755260 0.458941 0.052850
0.783232 0.460898 0.054808
0.811205 0.462855 0.056765
0.839177 0.464813 0.058723
0.867150 0.466770 0.060680
0.873290 0.467200 0.061110
0.032465 0.463935 0.032465
0.058480 0.463935 0.032465
0.084495 0.463935 0.032465
0.110510 0.463935 0.032465
0.136525 0.463935 0.032465
0.162540 0.463935 0.032465
0.188555 0.463935 0.032465
0.214571 0.463935 0.032465
0.240586 0.463935 0.032465
0.266601 0.463935 0.032465
0.292616 0.463935 0.032465
0.318631 0.463935 0.032465
0.344646 0.463935 0.032465
0.370662 0.463935 0.032465
0.396677 0.463935 0.032465
0.422692 0.463935 0.032465
0.448707 0.463935 0.032465
0.475534 0.464747 0.033276
0.503506 0.466704 0.035234
0.531479 0.468662 0.037191
0.559452 0.470619 0.039148
0.587424 0.472577 0.041106
0.615397 0.474534 0.043063
0.643369 0.476492 0.045021
0.671342 0.478449 0.046978
0.699314 0.480406 0.048936
0.727287 0.482364 0.050893
0.755260 0.484321 0.052850
0.783232 0.486279 0.054808
0.811205 0.488236 0.056765
0.839177 0.490194 0.058723
0.867150 0.492151 0.060680
0.873290 0.492581 0.061110
0.034374 0.491226 0.034374
0.060389 0.491226 0.034374
0.086405 0.491226 0.034374
0.112420 0.491226 0.034374
0.138435 0.491226 0.034374
0.164450 0.491226 0.034374
0.190465 0.491226 0.034374
0.216480 0.491226 0.034374
0.242495 0.491226 0.034374
0.268511 0.491226 0.034374
0.294526 0.491226 0.034374
0.320541 0.491226 0.034374
0.346556 0.491226 0.034374
0.372571 0.491226 0.034374
0.398586 0.491226 0.034374
0.424602 0.491226 0.034374
0.450617 0.491226 0.034374
0.476632 0.491226 0.034374
0.503506 0.492085 0.035234
0.531479 0.494043 0.037191
0.559452 0.496000 0.039148
0.587424 0.497957 0.041106
0.615397 0.499915 0.043063
0.643369 0.501872 0.045021
0.671342 0.503830 0.046978
0.699314 0.505787 0.048936
0.727287 0.507744 0.050893
0.755260 0.509702 0.052850
0.783232 0.511659 0.054808
0.811205 0.513617 0.056765
0.839177 0.515574 0.058723
0.867150 0.517532 0.060680
0.873290 0.517961 0.061110
0.036284 0.518516 0.036284
0.062299 0.518516 0.036284
0.088314 0.518516 0.036284
0.114329 0.518516 0.036284
0.140345 0.518516 0.036284
0.166360 0.518516 0.036284
0.192375 0.518516 0.036284
0.218390 0.518516 0.036284
0.244405 0.518516 0.036284
0.270420 0.518516 0.036284
0.296435 0.518516 0.036284
0.322451 0.518516 0.036284
0.348466 0.518516 0.036284
0.374481 0.518516 0.036284
0.400496 0.518516 0.036284
0.426511 0.518516 0.036284
0.452526 0.518516 0.036284
0.478542 0.518516 0.036284
0.504557 0.518516 0.036284
0.531479 0.519423 0.037191
0.559452 0.521381 0.039148
0.587424 0.523338 0.041106
0.615397 0.525295 0.043063
0.643369 0.527253 0.045021
0.671342 0.529210 0.046978
0.699314 0.531168 0.048936
0.727287 0.533125 0.050893
0.755260 0.535083 0.052850
0.783232 0.537040 0.054808
0.811205 0.538997 0.056765
0.839177 0.540955 0.058723
0.867150 0.542912 0.060680
0.873290 0.543342 0.061110
0.038194 0.545806 0.038194
0.064209 0.545806 0.038194
0.090224 0.545806 0.038194
0.116239 0.545806 0.038194
0.142254 0.545806 0.038194
0.168269 0.545806 0.038194
0.194285 0.545806 0.038194
0.220300 0.545806 0.038194
0.246315 0.545806 0.038194
0.272330 0.545806 0.038194
0.298345 0.545806 0.038194
0.324360 0.545806 0.038194
0.350375 0.545806 0.038194
0.376391 0.545806 0.038194
0.402406 0.545806 0.038194
0.428421 0.545806 0.038194
0.454436 0.545806 0.038194
0.480451 0.545806 0.038194
0.506466 0.545806 0.038194
0.532482 0.545806 0.038194
0.559452 0.546761 0.039148
0.587424 0.548719 0.041106
0.615397 0.550676 0.043063
0.643369 0.552634 0.045021
0.671342 0.554591 0.046978
0.699314 0.556548 0.048936
0.727287 0.558506 0.050893
0.755260 0.560463 0.052850
0.783232 0.562421 0.054808
0.811205 0.564378 0.056765
0.839177 0.566335 0.058723
0.867150 0.568293 0.060680
0.873290 0.568723 0.061110
0.040103 0.573097 0.040103
0.066118 0.573097 0.040103
0.092134 0.573097 0.040103
0.118149 0.573097 0.040103
0.144164 0.573097 0.040103
0.170179 0.573097 0.040103
0.196194 0.573097 0.040103
0.222209 0.573097 0.040103
0.248225 0.573097 0.040103
0.274240 0.573097 0.040103
0.300255 0.573097 0.040103
0.326270 0.573097 0.040103
0.352285 0.573097 0.040103
0.378300 0.573097 0.040103
0.404315 0.573097 0.040103
0.430331 0.573097 0.040103
0.456346 0.573097 0.040103
0.482361 0.573097 0.040103
0.508376 0.573097 0.040103
0.534391 0.573097 0.040103
0.560406 0.573097 0.040103
0.587424 0.574099 0.041106
0.615397 0.576057 0.043063
0.643369 0.578014 0.045021
0.671342 0.579972 0.046978
0.699314 0.581929 0.048936
0.727287 0.583886 0.050893
0.755260 0.585844 0.052850
0.783232 0.587801 0.054808
0.811205 0.589759 0.056765
0.839177 0.591716 0.058723
0.867150 0.593674 0.060680
0.873290 0.594103 0.061110
0.042013 0.600387 0.042013
0.068028 0.600387 0.042013
0.094043 0.600387 0.042013
0.120058 0.600387 0.042013
0.146074 0.600387 0.042013
0.172089 0.600387 0.042013
0.198104 0.600387 0.042013
0.224119 0.600387 0.042013
0.250134 0.600387 0.042013
0.276149 0.600387 0.042013
0.302165 0.600387 0.042013
0.328180 0.600387 0.042013
0.354195 0.600387 0.042013
0.380210 0.600387 0.042013
0.406225 0.600387 0.042013
0.432240 0.600387 0.042013
0.458255 0.600387 0.042013
0.484271 0.600387 0.042013
0.510286 0.600387 0.042013
0.536301 0.600387 0.042013
0.562316 0.600387 0.042013
0.588331 0.600387 0.042013
0.615397 0.601437 0.043063
0.643369 0.603395 0.045021
0.671342 0.605352 0.046978
0.699314 0.607310 0.048936
0.727287 0.609267 0.050893
0.755260 0.611224 0.052850
0.783232 0.613182 0.054808
0.811205 0.615139 0.056765
0.839177 0.617097 0.058723
0.867150 0.619054 0.060680
0.873290 0.619484 0.061110
0.043923 0.627677 0.043923
0.069938 0.627677 0.043923
0.095953 0.627677 0.043923
0.121968 0.627677 0.043923
0.147983 0.627677 0.043923
0.173998 0.627677 0.043923
0.200014 0.627677 0.043923
0.226029 0.627677 0.043923
0.252044 0.627677 0.043923
0.278059 0.627677 0.043923
0.304074 0.627677 0.043923
0.330089 0.627677 0.043923
0.356105 0.627677 0.043923
0.382120 0.627677 0.043923
0.408135 0.627677 0.043923
0.434150 0.627677 0.043923
0.460165 0.627677 0.043923
0.486180 0.627677 0.043923
0.512195 0.627677 0.043923
0.538211 0.627677 0.043923
0.564226 0.627677 0.043923
0.590241 0.627677 0.043923
0.616256 0.627677 0.043923
0.643369 0.628775 0.045021
0.671342 0.630733 0.046978
0.699314 0.632690 0.048936
0.727287 0.634648 0.050893
0.755260 0.636605 0.052850
0.783232 0.638563 0.054808
0.811205 0.640520 0.056765
0.839177 0.642477 0.058723
0.867150 0.644435 0.060680
0.873290 0.644864 0.061110
0.045832 0.654968 0.045832
0.071847 0.654968 0.045832
0.097863 0.654968 0.045832
0.123878 0.654968 0.045832
0.149893 0.654968 0.045832
0.175908 0.654968 0.045832
0.201923 0.654968 0.045832
0.227938 0.654968 0.045832
0.253954 0.654968 0.045832
0.279969 0.654968 0.045832
0.305984 0.654968 0.045832
0.331999 0.654968 0.045832
0.358014 0.654968 0.045832
0.384029 0.654968 0.045832
0.410045 0.654968 0.045832
0.436060 0.654968 0.045832
0.462075 0.654968 0.045832
0.488090 0.654968 0.045832
0.514105 0.654968 0.045832
0.540120 0.654968 0.045832
0.566135 0.654968 0.045832
0.592151 0.654968 0.045832
0.618166 0.654968 0.045832
0.644181 0.654968 0.045832
0.671342 0.656113 0.046978
0.699314 0.658071 0.048936
0.727287 0.660028 0.050893
0.755260 0.661986 0.052850
0.783232 0.663943 0.054808
0.811205 0.665901 0.056765
0.839177 0.667858 0.058723
0.867150 0.669815 0.060680
0.873290 0.670245 0.061110
0.047742 0.682258 0.047742
0.073757 0.682258 0.047742
0.099772 0.682258 0.047742
0.125787 0.682258 0.047742
0.151803 0.682258 0.047742
0.177818 0.682258 0.047742
0.203833 0.682258 0.047742
0.229848 0.682258 0.047742
0.255863 0.682258 0.047742
0.281878 0.682258 0.047742
0.307894 0.682258 0.047742
0.333909 0.682258 0.047742
0.359924 0.682258 0.047742
0.385939 0.682258 0.047742
0.411954 0.682258 0.047742
0.437969 0.682258 0.047742
0.463984 0.682258 0.047742
0.490000 0.682258 0.047742
0.516015 0.682258 0.047742
0.542030 0.682258 0.047742
0.568045 0.682258 0.047742
0.594060 0.682258 0.047742
0.620075 0.682258 0.047742
0.646091 0.682258 0.047742
0.672106 0.682258 0.047742
0.699314 0.683452 0.048936
0.727287 0.685409 0.050893
0.755260 0.687366 0.052850
0.783232 0.689324 0.054808
0.811205 0.691281 0.056765
0.839177 0.693239 0.058723
0.867150 0.695196 0.060680
0.873290 0.695626 0.061110
0.049652 0.709548 0.049652
0.075667 0.709548 0.049652
0.101682 0.709548 0.049652
0.127697 0.709548 0.049652
0.153712 0.709548 0.049652
0.179727 0.709548 0.049652
0.205743 0.709548 0.049652
0.231758 0.709548 0.049652
0.257773 0.709548 0.049652
0.283788 0.709548 0.049652
0.309803 0.709548 0.049652
0.335818 0.709548 0.049652
0.361834 0.709548 0.049652
0.387849 0.709548 0.049652
0.413864 0.709548 0.049652
0.439879 0.709548 0.049652
0.465894 0.709548 0.049652
0.491909 0.709548 0.049652
0.517924 0.709548 0.049652
0.543940 0.709548 0.049652
0.569955 0.709548 0.049652
0.595970 0.709548 0.049652
0.621985 0.709548 0.049652
0.648000 0.709548 0.049652
0.674015 0.709548 0.049652
