docs/luts/fuji_recipes/Provia_RR_Agfa_Optima.cube
TITLE "Fujifilm Recipe: RR Agfa Optima (Provia)"
# FilmSim=Provia HL=-2 SH=2 Col=-2 WB=Auto WBR=-1 WBB=-1
LUT_3D_SIZE 5
DOMAIN_MIN 0.0 0.0 0.0
DOMAIN_MAX 1.0 1.0 1.0
0.000000 0.000000 0.000000
0.231780 0.050879 0.050879
0.484344 0.106319 0.106319
0.697786 0.153172 0.153172
0.752760 0.165240 0.165240
0.052183 0.237723 0.052183
0.233085 0.237723 0.052183
0.484344 0.291860 0.106319
0.697786 0.338712 0.153172
0.752760 0.350780 0.165240
0.108769 0.495502 0.108769
0.289670 0.495502 0.108769
0.486793 0.495502 0.108769
0.697786 0.539905 0.153172
0.752760 0.551973 0.165240
0.156823 0.714416 0.156823
0.337725 0.714416 0.156823
0.534848 0.714416 0.156823
0.701436 0.714416 0.156823
0.752760 0.722833 0.165240
0.169200 0.770800 0.169200
0.350102 0.770800 0.169200
0.547225 0.770800 0.169200
0.713813 0.770800 0.169200
0.756720 0.770800 0.169200
0.050879 0.050879 0.231780
0.231780 0.050879 0.231780
0.484344 0.106319 0.287221
0.697786 0.153172 0.334074
0.752760 0.165240 0.346142
0.052183 0.237723 0.233085
0.283963 0.288602 0.283963
0.535223 0.342738 0.338100
0.748664 0.389591 0.384953
0.803639 0.401659 0.397020
0.108769 0.495502 0.289670
0.340549 0.546380 0.340549
0.537672 0.546380 0.340549
0.748664 0.590784 0.384953
0.803639 0.602852 0.397020
0.156823 0.714416 0.337725
0.388603 0.765295 0.388603
0.585726 0.765295 0.388603
0.752315 0.765295 0.388603
0.803639 0.773712 0.397020
0.169200 0.770800 0.350102
0.400980 0.821679 0.400980
0.598103 0.821679 0.400980
0.764692 0.821679 0.400980
0.807599 0.821679 0.400980
0.106319 0.106319 0.484344
0.287221 0.106319 0.484344
0.484344 0.106319 0.484344
0.697786 0.153172 0.531197
0.752760 0.165240 0.543265
0.106319 0.291860 0.484344
0.338100 0.342738 0.535223
0.536527 0.344043 0.536527
0.749969 0.390896 0.583380
0.804943 0.402963 0.595448
0.108769 0.495502 0.486793
0.340549 0.546380 0.537672
0.593113 0.601821 0.593113
0.804105 0.646225 0.637517
0.859079 0.658292 0.649584
0.156823 0.714416 0.534848
0.388603 0.765295 0.585726
0.641167 0.820735 0.641167
0.807756 0.820735 0.641167
0.859079 0.829152 0.649584
0.169200 0.770800 0.547225
0.400980 0.821679 0.598103
0.653544 0.877119 0.653544
0.820133 0.877119 0.653544
0.863039 0.877119 0.653544
0.153172 0.153172 0.697786
0.334074 0.153172 0.697786
0.531197 0.153172 0.697786
0.697786 0.153172 0.697786
0.752760 0.165240 0.709853
0.153172 0.338712 0.697786
0.384953 0.389591 0.748664
0.583380 0.390896 0.749969
0.749969 0.390896 0.749969
0.804943 0.402963 0.762036
0.153172 0.539905 0.697786
0.384953 0.590784 0.748664
0.637517 0.646225 0.804105
0.806554 0.648674 0.806554
0.861529 0.660742 0.818622
0.156823 0.714416 0.701436
0.388603 0.765295 0.752315
0.641167 0.820735 0.807756
0.854609 0.867588 0.854609
0.905932 0.876005 0.863026
0.169200 0.770800 0.713813
0.400980 0.821679 0.764692
0.653544 0.877119 0.820133
0.866986 0.923972 0.866986
0.909892 0.923972 0.866986
0.165240 0.165240 0.752760
0.346142 0.165240 0.752760
0.543265 0.165240 0.752760
0.709853 0.165240 0.752760
0.752760 0.165240 0.752760
0.165240 0.350780 0.752760
0.397020 0.401659 0.803639
0.595448 0.402963 0.804943
0.762036 0.402963 0.804943
0.804943 0.402963 0.804943
0.165240 0.551973 0.752760
0.397020 0.602852 0.803639
0.649584 0.658292 0.859079
0.818622 0.660742 0.861529
0.861529 0.660742 0.861529
0.165240 0.722833 0.752760
0.397020 0.773712 0.803639
0.649584 0.829152 0.859079
0.863026 0.876005 0.905932
0.909583 0.879656 0.909583
0.169200 0.770800 0.756720
0.400980 0.821679 0.807599
0.653544 0.877119 0.863039
0.866986 0.923972 0.909892
0.921960 0.936040 0.921960
