docs/luts/fuji_recipes/Provia_MT_Provia.cube
TITLE "Fujifilm Recipe: MT Provia (Provia)"
# FilmSim=Provia HL=0 SH=0 Col=-1 WB=Auto WBR=1 WBB=0
LUT_3D_SIZE 9
DOMAIN_MIN 0.0 0.0 0.0
DOMAIN_MAX 1.0 1.0 1.0
0.000000 0.000000 0.000000
0.111890 0.007830 0.007830
0.223781 0.015659 0.015659
0.335671 0.023489 0.023489
0.447561 0.031319 0.031319
0.559452 0.039148 0.039148
0.671342 0.046978 0.046978
0.783232 0.054808 0.054808
0.873290 0.061110 0.061110
0.007639 0.109161 0.007639
0.111890 0.109352 0.007830
0.223781 0.117182 0.015659
0.335671 0.125012 0.023489
0.447561 0.132841 0.031319
0.559452 0.140671 0.039148
0.671342 0.148501 0.046978
0.783232 0.156330 0.054808
0.873290 0.162632 0.061110
0.015277 0.218323 0.015277
0.119338 0.218323 0.015277
0.223781 0.218704 0.015659
0.335671 0.226534 0.023489
0.447561 0.234364 0.031319
0.559452 0.242194 0.039148
0.671342 0.250023 0.046978
0.783232 0.257853 0.054808
0.873290 0.264155 0.061110
0.022916 0.327484 0.022916
0.126977 0.327484 0.022916
0.231037 0.327484 0.022916
0.335671 0.328057 0.023489
0.447561 0.335886 0.031319
0.559452 0.343716 0.039148
0.671342 0.351546 0.046978
0.783232 0.359375 0.054808
0.873290 0.365677 0.061110
0.030555 0.436645 0.030555
0.134616 0.436645 0.030555
0.238676 0.436645 0.030555
0.342737 0.436645 0.030555
0.447561 0.437409 0.031319
0.559452 0.445239 0.039148
0.671342 0.453068 0.046978
0.783232 0.460898 0.054808
0.873290 0.467200 0.061110
0.038194 0.545806 0.038194
0.142254 0.545806 0.038194
0.246315 0.545806 0.038194
0.350375 0.545806 0.038194
0.454436 0.545806 0.038194
0.559452 0.546761 0.039148
0.671342 0.554591 0.046978
0.783232 0.562421 0.054808
0.873290 0.568723 0.061110
0.045832 0.654968 0.045832
0.149893 0.654968 0.045832
0.253954 0.654968 0.045832
0.358014 0.654968 0.045832
0.462075 0.654968 0.045832
0.566135 0.654968 0.045832
0.671342 0.656113 0.046978
0.783232 0.663943 0.054808
0.873290 0.670245 0.061110
0.053471 0.764129 0.053471
0.157532 0.764129 0.053471
0.261592 0.764129 0.053471
0.365653 0.764129 0.053471
0.469714 0.764129 0.053471
0.573774 0.764129 0.053471
0.677835 0.764129 0.053471
0.783232 0.765466 0.054808
0.873290 0.771768 0.061110
0.061110 0.873290 0.061110
0.165170 0.873290 0.061110
0.269231 0.873290 0.061110
0.373292 0.873290 0.061110
0.477352 0.873290 0.061110
0.581413 0.873290 0.061110
0.685474 0.873290 0.061110
0.789534 0.873290 0.061110
0.873290 0.873290 0.061110
0.007639 0.007639 0.109161
0.111890 0.007830 0.109352
0.223781 0.015659 0.117182
0.335671 0.023489 0.125012
0.447561 0.031319 0.132841
0.559452 0.039148 0.140671
0.671342 0.046978 0.148501
0.783232 0.054808 0.156330
0.873290 0.061110 0.162632
0.007639 0.109161 0.109161
0.127844 0.125281 0.125281
0.242073 0.130567 0.130567
0.355139 0.137221 0.137221
0.467732 0.144348 0.144348
0.580090 0.151710 0.151710
0.692314 0.159206 0.159206
0.818716 0.152524 0.152524
0.939021 0.128579 0.128579
0.015277 0.218323 0.116800
0.132920 0.236537 0.130263
0.242073 0.236763 0.130567
0.355139 0.242242 0.137221
0.467732 0.248665 0.144348
0.580090 0.255559 0.151710
0.692314 0.262722 0.159206
0.818716 0.260410 0.152524
0.939021 0.244356 0.128579
0.022916 0.327484 0.124439
0.139341 0.346886 0.136714
0.247054 0.346886 0.136714
0.355139 0.347262 0.137221
0.467732 0.352983 0.144348
0.580090 0.359409 0.151710
0.692314 0.366238 0.159206
0.818716 0.368295 0.152524
0.939021 0.360134 0.128579
0.030555 0.436645 0.132077
0.146249 0.456760 0.143640
0.253232 0.456760 0.143640
0.360215 0.456760 0.143640
0.467732 0.457301 0.144348
0.580090 0.463259 0.151710
0.692314 0.469754 0.159206
0.818716 0.476180 0.152524
0.939021 0.475911 0.128579
0.038194 0.545806 0.139716
0.153401 0.566397 0.150803
0.259897 0.566397 0.150803
0.366392 0.566397 0.150803
0.472888 0.566397 0.150803
0.580090 0.567109 0.151710
0.692314 0.573271 0.159206
0.818716 0.584065 0.152524
0.939021 0.591689 0.128579
0.045832 0.654968 0.147355
0.160692 0.675897 0.158103
0.266839 0.675897 0.158103
0.372987 0.675897 0.158103
0.479135 0.675897 0.158103
0.585283 0.675897 0.158103
0.692314 0.676787 0.159206
0.818716 0.691950 0.152524
0.939021 0.707466 0.128579
0.053471 0.764129 0.154994
0.168069 0.785313 0.165487
0.273956 0.785313 0.165487
0.379843 0.785313 0.165487
0.485730 0.785313 0.165487
0.591617 0.785313 0.165487
0.697505 0.785313 0.165487
0.818716 0.799836 0.152524
0.939021 0.823244 0.128579
0.061110 0.873290 0.162632
0.131473 0.939021 0.128579
0.250145 0.939021 0.128579
0.368817 0.939021 0.128579
0.487489 0.939021 0.128579
0.606161 0.939021 0.128579
0.724833 0.939021 0.128579
0.843505 0.939021 0.128579
0.939021 0.939021 0.128579
0.015277 0.015277 0.218323
0.119338 0.015277 0.218323
0.223781 0.015659 0.218704
0.335671 0.023489 0.226534
0.447561 0.031319 0.234364
0.559452 0.039148 0.242194
0.671342 0.046978 0.250023
0.783232 0.054808 0.257853
0.873290 0.061110 0.264155
0.015277 0.116800 0.218323
0.132920 0.130263 0.236537
0.242073 0.130567 0.236763
0.355139 0.137221 0.242242
0.467732 0.144348 0.248665
0.580090 0.151710 0.255559
0.692314 0.159206 0.262722
0.818716 0.152524 0.260410
0.939021 0.128579 0.244356
0.015277 0.218323 0.218323
0.133218 0.236912 0.236912
0.255687 0.250563 0.250563
0.370368 0.255192 0.255192
0.484146 0.261134 0.261134
0.597381 0.267619 0.267619
0.718606 0.266114 0.266114
0.847336 0.257104 0.257104
0.947732 0.253068 0.253068
0.022916 0.327484 0.225961
0.139627 0.347303 0.242151
0.260149 0.362012 0.254788
0.370368 0.362332 0.255192
0.484146 0.367330 0.261134
0.597381 0.373143 0.267619
0.718606 0.375148 0.266114
0.847336 0.371159 0.257104
0.947732 0.368845 0.253068
0.030555 0.436645 0.233600
0.146525 0.457205 0.248344
0.265840 0.473074 0.260526
0.374771 0.473074 0.260526
0.484146 0.473526 0.261134
0.597381 0.478667 0.267619
0.718606 0.484182 0.266114
0.847336 0.485213 0.257104
0.947732 0.484623 0.253068
0.038194 0.545806 0.241239
0.153669 0.566861 0.255018
0.272087 0.583593 0.266807
0.380322 0.583593 0.266807
0.488557 0.583593 0.266807
0.597381 0.584191 0.267619
0.718606 0.593217 0.266114
0.847336 0.599267 0.257104
0.947732 0.600400 0.253068
0.045832 0.654968 0.248877
0.160954 0.676376 0.261966
0.278682 0.693773 0.273427
0.386395 0.693773 0.273427
0.494109 0.693773 0.273427
0.601822 0.693773 0.273427
0.718606 0.702251 0.266114
0.847336 0.713322 0.257104
0.947732 0.716177 0.253068
0.053471 0.764129 0.256516
0.166391 0.787739 0.267783
0.263334 0.826353 0.257647
0.379919 0.826353 0.257647
0.496504 0.826353 0.257647
0.613088 0.826353 0.257647
0.729673 0.826353 0.257647
0.847336 0.827376 0.257104
0.947732 0.831955 0.253068
0.061110 0.873290 0.264155
0.131691 0.939239 0.244574
0.258857 0.947732 0.253068
0.377528 0.947732 0.253068
0.496200 0.947732 0.253068
0.614872 0.947732 0.253068
0.733544 0.947732 0.253068
0.852216 0.947732 0.253068
0.947732 0.947732 0.253068
0.022916 0.022916 0.327484
0.126977 0.022916 0.327484
0.231037 0.022916 0.327484
0.335671 0.023489 0.328057
0.447561 0.031319 0.335886
0.559452 0.039148 0.343716
0.671342 0.046978 0.351546
0.783232 0.054808 0.359375
0.873290 0.061110 0.365677
0.022916 0.124439 0.327484
0.139341 0.136714 0.346886
0.247054 0.136714 0.346886
0.355139 0.137221 0.347262
0.467732 0.144348 0.352983
0.580090 0.151710 0.359409
0.692314 0.159206 0.366238
0.818716 0.152524 0.368295
0.939021 0.128579 0.360134
0.022916 0.225961 0.327484
0.139627 0.242151 0.347303
0.260149 0.254788 0.362012
0.370368 0.255192 0.362332
0.484146 0.261134 0.367330
0.597381 0.267619 0.373143
0.718606 0.266114 0.375148
0.847336 0.257104 0.371159
0.947732 0.253068 0.368845
0.022916 0.327484 0.327484
0.139627 0.347303 0.347303
0.260758 0.362702 0.362702
0.383531 0.375844 0.375844
0.498390 0.380090 0.380090
0.616162 0.382038 0.382038
0.735246 0.382674 0.382674
0.856291 0.381349 0.381349
0.956444 0.377556 0.377556
0.030555 0.436645 0.335123
0.146525 0.457205 0.352775
0.266436 0.473824 0.367471
0.387656 0.487216 0.379584
0.498390 0.487636 0.380090
0.616162 0.492214 0.382038
0.735246 0.494602 0.382674
0.856291 0.495108 0.381349
0.956444 0.493334 0.377556
0.038194 0.545806 0.342761
0.153669 0.566861 0.358966
0.272670 0.584390 0.373055
0.392947 0.598668 0.384932
0.502487 0.598668 0.384932
0.616162 0.602390 0.382038
0.735246 0.606529 0.382674
0.856291 0.608866 0.381349
0.956444 0.609111 0.377556
0.045832 0.654968 0.350400
0.160954 0.676376 0.365569
0.276641 0.697219 0.377793
0.391021 0.717757 0.382643
0.505518 0.717757 0.382643
0.620015 0.717757 0.382643
0.735246 0.718457 0.382674
0.856291 0.722625 0.381349
0.956444 0.724889 0.377556
0.053471 0.764129 0.358039
0.166391 0.787739 0.371774
0.263857 0.826803 0.371897
0.390302 0.835403 0.381797
0.506539 0.835403 0.381797
0.622775 0.835403 0.381797
0.739012 0.835403 0.381797
0.856291 0.836383 0.381349
0.956444 0.840666 0.377556
0.061110 0.873290 0.365677
0.131691 0.939239 0.360352
0.259292 0.948168 0.369281
0.386240 0.956444 0.377556
0.504912 0.956444 0.377556
0.623583 0.956444 0.377556
0.742255 0.956444 0.377556
0.860927 0.956444 0.377556
0.956444 0.956444 0.377556
0.030555 0.030555 0.436645
0.134616 0.030555 0.436645
0.238676 0.030555 0.436645
0.342737 0.030555 0.436645
0.447561 0.031319 0.437409
0.559452 0.039148 0.445239
0.671342 0.046978 0.453068
0.783232 0.054808 0.460898
0.873290 0.061110 0.467200
0.030555 0.132077 0.436645
0.146249 0.143640 0.456760
0.253232 0.143640 0.456760
0.360215 0.143640 0.456760
0.467732 0.144348 0.457301
0.580090 0.151710 0.463259
0.692314 0.159206 0.469754
0.818716 0.152524 0.476180
0.939021 0.128579 0.475911
0.030555 0.233600 0.436645
0.146525 0.248344 0.457205
0.265840 0.260526 0.473074
0.374771 0.260526 0.473074
0.484146 0.261134 0.473526
0.597381 0.267619 0.478667
0.718606 0.266114 0.484182
0.847336 0.257104 0.485213
0.947732 0.253068 0.484623
0.030555 0.335123 0.436645
0.146525 0.352775 0.457205
0.266436 0.367471 0.473824
0.387656 0.379584 0.487216
0.498390 0.380090 0.487636
0.616162 0.382038 0.492214
0.735246 0.382674 0.494602
0.856291 0.381349 0.495108
0.956444 0.377556 0.493334
0.030555 0.436645 0.436645
0.146525 0.457205 0.457205
0.266436 0.473824 0.473824
0.388575 0.488215 0.488215
0.511375 0.501125 0.501125
0.627472 0.503928 0.503928
0.745175 0.505945 0.505945
0.865347 0.505493 0.505493
0.965155 0.502045 0.502045
0.038194 0.545806 0.444284
0.153669 0.566861 0.462913
0.272670 0.584390 0.478722
0.391906 0.601684 0.492708
0.514533 0.613234 0.503566
0.627472 0.613745 0.503928
0.745175 0.617215 0.505945
0.865347 0.618833 0.505493
0.965155 0.617823 0.502045
0.045832 0.654968 0.451923
0.160954 0.676376 0.469171
0.276641 0.697219 0.484268
0.391892 0.718498 0.495177
0.516877 0.727826 0.505774
0.630678 0.727826 0.505774
0.745175 0.728484 0.505945
0.865347 0.732173 0.505493
0.965155 0.733600 0.502045
0.053471 0.764129 0.459561
0.166391 0.787739 0.475765
0.263857 0.826803 0.485624
0.391103 0.836087 0.495972
0.517103 0.844590 0.505810
0.632853 0.844590 0.505810
0.748602 0.844590 0.505810
0.865347 0.845513 0.505493
0.965155 0.849377 0.502045
0.061110 0.873290 0.467200
0.131691 0.939239 0.476129
0.259292 0.948168 0.485058
0.386893 0.957097 0.493987
0.513623 0.965155 0.502045
0.632295 0.965155 0.502045
0.750967 0.965155 0.502045
0.869638 0.965155 0.502045
0.965155 0.965155 0.502045
0.038194 0.038194 0.545806
0.142254 0.038194 0.545806
0.246315 0.038194 0.545806
0.350375 0.038194 0.545806
0.454436 0.038194 0.545806
0.559452 0.039148 0.546761
0.671342 0.046978 0.554591
0.783232 0.054808 0.562421
0.873290 0.061110 0.568723
0.038194 0.139716 0.545806
0.153401 0.150803 0.566397
0.259897 0.150803 0.566397
0.366392 0.150803 0.566397
0.472888 0.150803 0.566397
0.580090 0.151710 0.567109
0.692314 0.159206 0.573271
0.818716 0.152524 0.584065
0.939021 0.128579 0.591689
0.038194 0.241239 0.545806
0.153669 0.255018 0.566861
0.272087 0.266807 0.583593
0.380322 0.266807 0.583593
0.488557 0.266807 0.583593
0.597381 0.267619 0.584191
0.718606 0.266114 0.593217
0.847336 0.257104 0.599267
0.947732 0.253068 0.600400
0.038194 0.342761 0.545806
0.153669 0.358966 0.566861
0.272670 0.373055 0.584390
0.392947 0.384932 0.598668
0.502487 0.384932 0.598668
0.616162 0.382038 0.602390
0.735246 0.382674 0.606529
0.856291 0.381349 0.608866
0.956444 0.377556 0.609111
0.038194 0.444284 0.545806
0.153669 0.462913 0.566861
0.272670 0.478722 0.584390
0.391906 0.492708 0.601684
0.514533 0.503566 0.613234
0.627472 0.503928 0.613745
0.745175 0.505945 0.617215
0.865347 0.505493 0.618833
0.965155 0.502045 0.617823
0.038194 0.545806 0.545806
0.153669 0.566861 0.566861
0.272670 0.584390 0.584390
0.391906 0.601684 0.601684
0.515749 0.614371 0.614371
0.639219 0.626406 0.626406
0.755606 0.628714 0.628714
0.874584 0.629456 0.629456
0.973866 0.626534 0.626534
0.045832 0.654968 0.553445
0.160954 0.676376 0.572774
0.276641 0.697219 0.590743
0.391892 0.718498 0.606838
0.518062 0.728858 0.617913
0.642122 0.738438 0.628362
0.755606 0.739055 0.628714
0.874584 0.742158 0.629456
0.973866 0.742311 0.626534
0.053471 0.764129 0.561084
0.166391 0.787739 0.579756
0.263857 0.826803 0.599350
0.391103 0.836087 0.609344
0.518201 0.845519 0.619782
0.643613 0.854014 0.629586
0.758632 0.854014 0.629586
0.874584 0.854861 0.629456
0.973866 0.858089 0.626534
0.061110 0.873290 0.568723
0.131691 0.939239 0.591907
0.259292 0.948168 0.600836
0.386893 0.957097 0.609765
0.514494 0.966026 0.618694
0.641006 0.973866 0.626534
0.759678 0.973866 0.626534
0.878350 0.973866 0.626534
0.973866 0.973866 0.626534
0.045832 0.045832 0.654968
0.149893 0.045832 0.654968
0.253954 0.045832 0.654968
0.358014 0.045832 0.654968
0.462075 0.045832 0.654968
0.566135 0.045832 0.654968
0.671342 0.046978 0.656113
0.783232 0.054808 0.663943
0.873290 0.061110 0.670245
0.045832 0.147355 0.654968
0.160692 0.158103 0.675897
0.266839 0.158103 0.675897
0.372987 0.158103 0.675897
0.479135 0.158103 0.675897
0.585283 0.158103 0.675897
0.692314 0.159206 0.676787
0.818716 0.152524 0.691950
0.939021 0.128579 0.707466
0.045832 0.248877 0.654968
0.160954 0.261966 0.676376
0.278682 0.273427 0.693773
0.386395 0.273427 0.693773
0.494109 0.273427 0.693773
0.601822 0.273427 0.693773
0.718606 0.266114 0.702251
0.847336 0.257104 0.713322
0.947732 0.253068 0.716177
0.045832 0.350400 0.654968
0.160954 0.365569 0.676376
0.276641 0.377793 0.697219
0.391021 0.382643 0.717757
0.505518 0.382643 0.717757
0.620015 0.382643 0.717757
0.735246 0.382674 0.718457
0.856291 0.381349 0.722625
0.956444 0.377556 0.724889
0.045832 0.451923 0.654968
0.160954 0.469171 0.676376
0.276641 0.484268 0.697219
0.391892 0.495177 0.718498
0.516877 0.505774 0.727826
0.630678 0.505774 0.727826
0.745175 0.505945 0.728484
0.865347 0.505493 0.732173
0.965155 0.502045 0.733600
0.045832 0.553445 0.654968
0.160954 0.572774 0.676376
0.276641 0.590743 0.697219
0.391892 0.606838 0.718498
0.518062 0.617913 0.728858
0.642122 0.628362 0.738438
0.755606 0.628714 0.739055
0.874584 0.629456 0.742158
0.973866 0.626534 0.742311
0.045832 0.654968 0.654968
0.160954 0.676376 0.676376
0.276641 0.697219 0.697219
0.391892 0.718498 0.718498
0.518062 0.728858 0.728858
0.643631 0.739819 0.739819
0.767062 0.751687 0.751687
0.884194 0.753046 0.753046
0.982577 0.751023 0.751023
0.053471 0.764129 0.662606
0.166391 0.787739 0.683748
0.263857 0.826803 0.713076
0.391103 0.836087 0.722715
0.518201 0.845519 0.732651
0.645032 0.855218 0.743119
0.769541 0.863913 0.752887
0.884194 0.864661 0.753046
0.982577 0.866800 0.751023
0.061110 0.873290 0.670245
0.131691 0.939239 0.707684
0.259292 0.948168 0.716613
0.386893 0.957097 0.725542
0.514494 0.966026 0.734471
0.642095 0.974955 0.743400
0.768389 0.982577 0.751023
0.887061 0.982577 0.751023
0.982577 0.982577 0.751023
0.053471 0.053471 0.764129
0.157532 0.053471 0.764129
0.261592 0.053471 0.764129
0.365653 0.053471 0.764129
0.469714 0.053471 0.764129
0.573774 0.053471 0.764129
0.677835 0.053471 0.764129
0.783232 0.054808 0.765466
0.873290 0.061110 0.771768
0.053471 0.154994 0.764129
0.168069 0.165487 0.785313
0.273956 0.165487 0.785313
0.379843 0.165487 0.785313
0.485730 0.165487 0.785313
0.591617 0.165487 0.785313
0.697505 0.165487 0.785313
0.818716 0.152524 0.799836
0.939021 0.128579 0.823244
0.053471 0.256516 0.764129
0.166391 0.267783 0.787739
0.263334 0.257647 0.826353
0.379919 0.257647 0.826353
0.496504 0.257647 0.826353
0.613088 0.257647 0.826353
0.729673 0.257647 0.826353
0.847336 0.257104 0.827376
0.947732 0.253068 0.831955
0.053471 0.358039 0.764129
0.166391 0.371774 0.787739
0.263857 0.371897 0.826803
0.390302 0.381797 0.835403
0.506539 0.381797 0.835403
0.622775 0.381797 0.835403
0.739012 0.381797 0.835403
0.856291 0.381349 0.836383
0.956444 0.377556 0.840666
0.053471 0.459561 0.764129
0.166391 0.475765 0.787739
0.263857 0.485624 0.826803
0.391103 0.495972 0.836087
0.517103 0.505810 0.844590
0.632853 0.505810 0.844590
0.748602 0.505810 0.844590
0.865347 0.505493 0.845513
0.965155 0.502045 0.849377
0.053471 0.561084 0.764129
0.166391 0.579756 0.787739
0.263857 0.599350 0.826803
0.391103 0.609344 0.836087
0.518201 0.619782 0.845519
0.643613 0.629586 0.854014
0.758632 0.629586 0.854014
0.874584 0.629456 0.854861
0.973866 0.626534 0.858089
0.053471 0.662606 0.764129
0.166391 0.683748 0.787739
0.263857 0.713076 0.826803
0.391103 0.722715 0.836087
0.518201 0.732651 0.845519
0.645032 0.743119 0.855218
0.769541 0.752887 0.863913
0.884194 0.753046 0.864661
0.982577 0.751023 0.866800
0.053471 0.764129 0.764129
0.166391 0.787739 0.787739
0.263857 0.826803 0.826803
0.391103 0.836087 0.836087
0.518201 0.845519 0.845519
0.645032 0.855218 0.855218
0.771310 0.865470 0.865470
0.894906 0.876969 0.876969
0.991289 0.875511 0.875511
0.061110 0.873290 0.771768
0.131691 0.939239 0.823461
0.259292 0.948168 0.832390
0.386893 0.957097 0.841320
0.514494 0.966026 0.850249
0.642095 0.974955 0.859178
0.769696 0.983884 0.868107
0.895772 0.991289 0.875511
0.991289 0.991289 0.875511
0.061110 0.061110 0.873290
0.165170 0.061110 0.873290
0.269231 0.061110 0.873290
0.373292 0.061110 0.873290
0.477352 0.061110 0.873290
0.581413 0.061110 0.873290
0.685474 0.061110 0.873290
0.789534 0.061110 0.873290
0.873290 0.061110 0.873290
0.061110 0.162632 0.873290
0.131473 0.128579 0.939021
0.250145 0.128579 0.939021
0.368817 0.128579 0.939021
0.487489 0.128579 0.939021
0.606161 0.128579 0.939021
0.724833 0.128579 0.939021
0.843505 0.128579 0.939021
0.939021 0.128579 0.939021
0.061110 0.264155 0.873290
0.131691 0.244574 0.939239
0.258857 0.253068 0.947732
0.377528 0.253068 0.947732
0.496200 0.253068 0.947732
0.614872 0.253068 0.947732
0.733544 0.253068 0.947732
0.852216 0.253068 0.947732
0.947732 0.253068 0.947732
0.061110 0.365677 0.873290
0.131691 0.360352 0.939239
0.259292 0.369281 0.948168
0.386240 0.377556 0.956444
0.504912 0.377556 0.956444
0.623583 0.377556 0.956444
0.742255 0.377556 0.956444
0.860927 0.377556 0.956444
0.956444 0.377556 0.956444
0.061110 0.467200 0.873290
0.131691 0.476129 0.939239
0.259292 0.485058 0.948168
0.386893 0.493987 0.957097
0.513623 0.502045 0.965155
0.632295 0.502045 0.965155
0.750967 0.502045 0.965155
0.869638 0.502045 0.965155
0.965155 0.502045 0.965155
0.061110 0.568723 0.873290
0.131691 0.591907 0.939239
0.259292 0.600836 0.948168
0.386893 0.609765 0.957097
0.514494 0.618694 0.966026
0.641006 0.626534 0.973866
0.759678 0.626534 0.973866
0.878350 0.626534 0.973866
0.973866 0.626534 0.973866
0.061110 0.670245 0.873290
0.131691 0.707684 0.939239
0.259292 0.716613 0.948168
0.386893 0.725542 0.957097
0.514494 0.734471 0.966026
0.642095 0.743400 0.974955
0.768389 0.751023 0.982577
0.887061 0.751023 0.982577
0.982577 0.751023 0.982577
0.061110 0.771768 0.873290
0.131691 0.823461 0.939239
0.259292 0.832390 0.948168
0.386893 0.841320 0.957097
0.514494 0.850249 0.966026
0.642095 0.859178 0.974955
0.769696 0.868107 0.983884
0.895772 0.875511 0.991289
0.991289 0.875511 0.991289
0.061110 0.873290 0.873290
0.131691 0.939239 0.939239
0.259292 0.948168 0.948168
0.386893 0.957097 0.957097
0.514494 0.966026 0.966026
0.642095 0.974955 0.974955
0.769696 0.983884 0.983884
0.897297 0.992813 0.992813
1.000000 1.000000 1.000000
