docs/luts/fuji_recipes/Provia_PE_Provia_Sternfeld.cube
TITLE "Fujifilm Recipe: PE Provia Sternfeld (Provia)"
# FilmSim=Provia HL=-2 SH=-1 Col=-3 WB=Auto WBR=0 WBB=0
LUT_3D_SIZE 33
DOMAIN_MIN 0.0 0.0 0.0
DOMAIN_MAX 1.0 1.0 1.0
0.040000 0.040000 0.040000
0.061900 0.048100 0.048100
0.083800 0.056200 0.056200
0.105700 0.064300 0.064300
0.127600 0.072400 0.072400
0.149500 0.080500 0.080500
0.171400 0.088600 0.088600
0.193300 0.096700 0.096700
0.215200 0.104800 0.104800
0.237100 0.112900 0.112900
0.259000 0.121000 0.121000
0.280900 0.129100 0.129100
0.302800 0.137200 0.137200
0.324700 0.145300 0.145300
0.346600 0.153400 0.153400
0.368500 0.161500 0.161500
0.390400 0.169600 0.169600
0.395875 0.171625 0.171625
0.415950 0.179050 0.179050
0.436025 0.186475 0.186475
0.456100 0.193900 0.193900
0.476175 0.201325 0.201325
0.496250 0.208750 0.208750
0.516325 0.216175 0.216175
0.536400 0.223600 0.223600
0.556475 0.231025 0.231025
0.576550 0.238450 0.238450
0.596625 0.245875 0.245875
0.616700 0.253300 0.253300
0.636775 0.260725 0.260725
0.656850 0.268150 0.268150
0.676925 0.275575 0.275575
0.697000 0.283000 0.283000
0.048100 0.061900 0.048100
0.061900 0.061900 0.048100
0.083800 0.070000 0.056200
0.105700 0.078100 0.064300
0.127600 0.086200 0.072400
0.149500 0.094300 0.080500
0.171400 0.102400 0.088600
0.193300 0.110500 0.096700
0.215200 0.118600 0.104800
0.237100 0.126700 0.112900
0.259000 0.134800 0.121000
0.280900 0.142900 0.129100
0.302800 0.151000 0.137200
0.324700 0.159100 0.145300
0.346600 0.167200 0.153400
0.368500 0.175300 0.161500
0.390400 0.183400 0.169600
0.395875 0.185425 0.171625
0.415950 0.192850 0.179050
0.436025 0.200275 0.186475
0.456100 0.207700 0.193900
0.476175 0.215125 0.201325
0.496250 0.222550 0.208750
0.516325 0.229975 0.216175
0.536400 0.237400 0.223600
0.556475 0.244825 0.231025
0.576550 0.252250 0.238450
0.596625 0.259675 0.245875
0.616700 0.267100 0.253300
0.636775 0.274525 0.260725
0.656850 0.281950 0.268150
0.676925 0.289375 0.275575
0.697000 0.296800 0.283000
0.056200 0.083800 0.056200
0.070000 0.083800 0.056200
0.083800 0.083800 0.056200
0.105700 0.091900 0.064300
0.127600 0.100000 0.072400
0.149500 0.108100 0.080500
0.171400 0.116200 0.088600
0.193300 0.124300 0.096700
0.215200 0.132400 0.104800
0.237100 0.140500 0.112900
0.259000 0.148600 0.121000
0.280900 0.156700 0.129100
0.302800 0.164800 0.137200
0.324700 0.172900 0.145300
0.346600 0.181000 0.153400
0.368500 0.189100 0.161500
0.390400 0.197200 0.169600
0.395875 0.199225 0.171625
0.415950 0.206650 0.179050
0.436025 0.214075 0.186475
0.456100 0.221500 0.193900
0.476175 0.228925 0.201325
0.496250 0.236350 0.208750
0.516325 0.243775 0.216175
0.536400 0.251200 0.223600
0.556475 0.258625 0.231025
0.576550 0.266050 0.238450
0.596625 0.273475 0.245875
0.616700 0.280900 0.253300
0.636775 0.288325 0.260725
0.656850 0.295750 0.268150
0.676925 0.303175 0.275575
0.697000 0.310600 0.283000
0.064300 0.105700 0.064300
0.078100 0.105700 0.064300
0.091900 0.105700 0.064300
0.105700 0.105700 0.064300
0.127600 0.113800 0.072400
0.149500 0.121900 0.080500
0.171400 0.130000 0.088600
0.193300 0.138100 0.096700
0.215200 0.146200 0.104800
0.237100 0.154300 0.112900
0.259000 0.162400 0.121000
0.280900 0.170500 0.129100
0.302800 0.178600 0.137200
0.324700 0.186700 0.145300
0.346600 0.194800 0.153400
0.368500 0.202900 0.161500
0.390400 0.211000 0.169600
0.395875 0.213025 0.171625
0.415950 0.220450 0.179050
0.436025 0.227875 0.186475
0.456100 0.235300 0.193900
0.476175 0.242725 0.201325
0.496250 0.250150 0.208750
0.516325 0.257575 0.216175
0.536400 0.265000 0.223600
0.556475 0.272425 0.231025
0.576550 0.279850 0.238450
0.596625 0.287275 0.245875
0.616700 0.294700 0.253300
0.636775 0.302125 0.260725
0.656850 0.309550 0.268150
0.676925 0.316975 0.275575
0.697000 0.324400 0.283000
0.072400 0.127600 0.072400
0.086200 0.127600 0.072400
0.100000 0.127600 0.072400
0.113800 0.127600 0.072400
0.127600 0.127600 0.072400
0.149500 0.135700 0.080500
0.171400 0.143800 0.088600
0.193300 0.151900 0.096700
0.215200 0.160000 0.104800
0.237100 0.168100 0.112900
0.259000 0.176200 0.121000
0.280900 0.184300 0.129100
0.302800 0.192400 0.137200
0.324700 0.200500 0.145300
0.346600 0.208600 0.153400
0.368500 0.216700 0.161500
0.390400 0.224800 0.169600
0.395875 0.226825 0.171625
0.415950 0.234250 0.179050
0.436025 0.241675 0.186475
0.456100 0.249100 0.193900
0.476175 0.256525 0.201325
0.496250 0.263950 0.208750
0.516325 0.271375 0.216175
0.536400 0.278800 0.223600
0.556475 0.286225 0.231025
0.576550 0.293650 0.238450
0.596625 0.301075 0.245875
0.616700 0.308500 0.253300
0.636775 0.315925 0.260725
0.656850 0.323350 0.268150
0.676925 0.330775 0.275575
0.697000 0.338200 0.283000
0.080500 0.149500 0.080500
0.094300 0.149500 0.080500
0.108100 0.149500 0.080500
0.121900 0.149500 0.080500
0.135700 0.149500 0.080500
0.149500 0.149500 0.080500
0.171400 0.157600 0.088600
0.193300 0.165700 0.096700
0.215200 0.173800 0.104800
0.237100 0.181900 0.112900
0.259000 0.190000 0.121000
0.280900 0.198100 0.129100
0.302800 0.206200 0.137200
0.324700 0.214300 0.145300
0.346600 0.222400 0.153400
0.368500 0.230500 0.161500
0.390400 0.238600 0.169600
0.395875 0.240625 0.171625
0.415950 0.248050 0.179050
0.436025 0.255475 0.186475
0.456100 0.262900 0.193900
0.476175 0.270325 0.201325
0.496250 0.277750 0.208750
0.516325 0.285175 0.216175
0.536400 0.292600 0.223600
0.556475 0.300025 0.231025
0.576550 0.307450 0.238450
0.596625 0.314875 0.245875
0.616700 0.322300 0.253300
0.636775 0.329725 0.260725
0.656850 0.337150 0.268150
0.676925 0.344575 0.275575
0.697000 0.352000 0.283000
0.088600 0.171400 0.088600
0.102400 0.171400 0.088600
0.116200 0.171400 0.088600
0.130000 0.171400 0.088600
0.143800 0.171400 0.088600
0.157600 0.171400 0.088600
0.171400 0.171400 0.088600
0.193300 0.179500 0.096700
0.215200 0.187600 0.104800
0.237100 0.195700 0.112900
0.259000 0.203800 0.121000
0.280900 0.211900 0.129100
0.302800 0.220000 0.137200
0.324700 0.228100 0.145300
0.346600 0.236200 0.153400
0.368500 0.244300 0.161500
0.390400 0.252400 0.169600
0.395875 0.254425 0.171625
0.415950 0.261850 0.179050
0.436025 0.269275 0.186475
0.456100 0.276700 0.193900
0.476175 0.284125 0.201325
0.496250 0.291550 0.208750
0.516325 0.298975 0.216175
0.536400 0.306400 0.223600
0.556475 0.313825 0.231025
0.576550 0.321250 0.238450
0.596625 0.328675 0.245875
0.616700 0.336100 0.253300
0.636775 0.343525 0.260725
0.656850 0.350950 0.268150
0.676925 0.358375 0.275575
0.697000 0.365800 0.283000
0.096700 0.193300 0.096700
0.110500 0.193300 0.096700
0.124300 0.193300 0.096700
0.138100 0.193300 0.096700
0.151900 0.193300 0.096700
0.165700 0.193300 0.096700
0.179500 0.193300 0.096700
0.193300 0.193300 0.096700
0.215200 0.201400 0.104800
0.237100 0.209500 0.112900
0.259000 0.217600 0.121000
0.280900 0.225700 0.129100
0.302800 0.233800 0.137200
0.324700 0.241900 0.145300
0.346600 0.250000 0.153400
0.368500 0.258100 0.161500
0.390400 0.266200 0.169600
0.395875 0.268225 0.171625
0.415950 0.275650 0.179050
0.436025 0.283075 0.186475
0.456100 0.290500 0.193900
0.476175 0.297925 0.201325
0.496250 0.305350 0.208750
0.516325 0.312775 0.216175
0.536400 0.320200 0.223600
0.556475 0.327625 0.231025
0.576550 0.335050 0.238450
0.596625 0.342475 0.245875
0.616700 0.349900 0.253300
0.636775 0.357325 0.260725
0.656850 0.364750 0.268150
0.676925 0.372175 0.275575
0.697000 0.379600 0.283000
0.104800 0.215200 0.104800
0.118600 0.215200 0.104800
0.132400 0.215200 0.104800
0.146200 0.215200 0.104800
0.160000 0.215200 0.104800
0.173800 0.215200 0.104800
0.187600 0.215200 0.104800
0.201400 0.215200 0.104800
0.215200 0.215200 0.104800
0.237100 0.223300 0.112900
0.259000 0.231400 0.121000
0.280900 0.239500 0.129100
0.302800 0.247600 0.137200
0.324700 0.255700 0.145300
0.346600 0.263800 0.153400
0.368500 0.271900 0.161500
0.390400 0.280000 0.169600
0.395875 0.282025 0.171625
0.415950 0.289450 0.179050
0.436025 0.296875 0.186475
0.456100 0.304300 0.193900
0.476175 0.311725 0.201325
0.496250 0.319150 0.208750
0.516325 0.326575 0.216175
0.536400 0.334000 0.223600
0.556475 0.341425 0.231025
0.576550 0.348850 0.238450
0.596625 0.356275 0.245875
0.616700 0.363700 0.253300
0.636775 0.371125 0.260725
0.656850 0.378550 0.268150
0.676925 0.385975 0.275575
0.697000 0.393400 0.283000
0.112900 0.237100 0.112900
0.126700 0.237100 0.112900
0.140500 0.237100 0.112900
0.154300 0.237100 0.112900
0.168100 0.237100 0.112900
0.181900 0.237100 0.112900
0.195700 0.237100 0.112900
0.209500 0.237100 0.112900
0.223300 0.237100 0.112900
0.237100 0.237100 0.112900
0.259000 0.245200 0.121000
0.280900 0.253300 0.129100
0.302800 0.261400 0.137200
0.324700 0.269500 0.145300
0.346600 0.277600 0.153400
0.368500 0.285700 0.161500
0.390400 0.293800 0.169600
0.395875 0.295825 0.171625
0.415950 0.303250 0.179050
0.436025 0.310675 0.186475
0.456100 0.318100 0.193900
0.476175 0.325525 0.201325
0.496250 0.332950 0.208750
0.516325 0.340375 0.216175
0.536400 0.347800 0.223600
0.556475 0.355225 0.231025
0.576550 0.362650 0.238450
0.596625 0.370075 0.245875
0.616700 0.377500 0.253300
0.636775 0.384925 0.260725
0.656850 0.392350 0.268150
0.676925 0.399775 0.275575
0.697000 0.407200 0.283000
0.121000 0.259000 0.121000
0.134800 0.259000 0.121000
0.148600 0.259000 0.121000
0.162400 0.259000 0.121000
0.176200 0.259000 0.121000
0.190000 0.259000 0.121000
0.203800 0.259000 0.121000
0.217600 0.259000 0.121000
0.231400 0.259000 0.121000
0.245200 0.259000 0.121000
0.259000 0.259000 0.121000
0.280900 0.267100 0.129100
0.302800 0.275200 0.137200
0.324700 0.283300 0.145300
0.346600 0.291400 0.153400
0.368500 0.299500 0.161500
0.390400 0.307600 0.169600
0.395875 0.309625 0.171625
0.415950 0.317050 0.179050
0.436025 0.324475 0.186475
0.456100 0.331900 0.193900
0.476175 0.339325 0.201325
0.496250 0.346750 0.208750
0.516325 0.354175 0.216175
0.536400 0.361600 0.223600
0.556475 0.369025 0.231025
0.576550 0.376450 0.238450
0.596625 0.383875 0.245875
0.616700 0.391300 0.253300
0.636775 0.398725 0.260725
0.656850 0.406150 0.268150
0.676925 0.413575 0.275575
0.697000 0.421000 0.283000
0.129100 0.280900 0.129100
0.142900 0.280900 0.129100
0.156700 0.280900 0.129100
0.170500 0.280900 0.129100
0.184300 0.280900 0.129100
0.198100 0.280900 0.129100
0.211900 0.280900 0.129100
0.225700 0.280900 0.129100
0.239500 0.280900 0.129100
0.253300 0.280900 0.129100
0.267100 0.280900 0.129100
0.280900 0.280900 0.129100
0.302800 0.289000 0.137200
0.324700 0.297100 0.145300
0.346600 0.305200 0.153400
0.368500 0.313300 0.161500
0.390400 0.321400 0.169600
0.395875 0.323425 0.171625
0.415950 0.330850 0.179050
0.436025 0.338275 0.186475
0.456100 0.345700 0.193900
0.476175 0.353125 0.201325
0.496250 0.360550 0.208750
0.516325 0.367975 0.216175
0.536400 0.375400 0.223600
0.556475 0.382825 0.231025
0.576550 0.390250 0.238450
0.596625 0.397675 0.245875
0.616700 0.405100 0.253300
0.636775 0.412525 0.260725
0.656850 0.419950 0.268150
0.676925 0.427375 0.275575
0.697000 0.434800 0.283000
0.137200 0.302800 0.137200
0.151000 0.302800 0.137200
0.164800 0.302800 0.137200
0.178600 0.302800 0.137200
0.192400 0.302800 0.137200
0.206200 0.302800 0.137200
0.220000 0.302800 0.137200
0.233800 0.302800 0.137200
0.247600 0.302800 0.137200
0.261400 0.302800 0.137200
0.275200 0.302800 0.137200
0.289000 0.302800 0.137200
0.302800 0.302800 0.137200
0.324700 0.310900 0.145300
0.346600 0.319000 0.153400
0.368500 0.327100 0.161500
0.390400 0.335200 0.169600
0.395875 0.337225 0.171625
0.415950 0.344650 0.179050
0.436025 0.352075 0.186475
0.456100 0.359500 0.193900
0.476175 0.366925 0.201325
0.496250 0.374350 0.208750
0.516325 0.381775 0.216175
0.536400 0.389200 0.223600
0.556475 0.396625 0.231025
0.576550 0.404050 0.238450
0.596625 0.411475 0.245875
0.616700 0.418900 0.253300
0.636775 0.426325 0.260725
0.656850 0.433750 0.268150
0.676925 0.441175 0.275575
0.697000 0.448600 0.283000
0.145300 0.324700 0.145300
0.159100 0.324700 0.145300
0.172900 0.324700 0.145300
0.186700 0.324700 0.145300
0.200500 0.324700 0.145300
0.214300 0.324700 0.145300
0.228100 0.324700 0.145300
0.241900 0.324700 0.145300
0.255700 0.324700 0.145300
0.269500 0.324700 0.145300
0.283300 0.324700 0.145300
0.297100 0.324700 0.145300
0.310900 0.324700 0.145300
0.324700 0.324700 0.145300
0.346600 0.332800 0.153400
0.368500 0.340900 0.161500
0.390400 0.349000 0.169600
0.395875 0.351025 0.171625
0.415950 0.358450 0.179050
0.436025 0.365875 0.186475
0.456100 0.373300 0.193900
0.476175 0.380725 0.201325
0.496250 0.388150 0.208750
0.516325 0.395575 0.216175
0.536400 0.403000 0.223600
0.556475 0.410425 0.231025
0.576550 0.417850 0.238450
0.596625 0.425275 0.245875
0.616700 0.432700 0.253300
0.636775 0.440125 0.260725
0.656850 0.447550 0.268150
0.676925 0.454975 0.275575
0.697000 0.462400 0.283000
0.153400 0.346600 0.153400
0.167200 0.346600 0.153400
0.181000 0.346600 0.153400
0.194800 0.346600 0.153400
0.208600 0.346600 0.153400
0.222400 0.346600 0.153400
0.236200 0.346600 0.153400
0.250000 0.346600 0.153400
0.263800 0.346600 0.153400
0.277600 0.346600 0.153400
0.291400 0.346600 0.153400
0.305200 0.346600 0.153400
0.319000 0.346600 0.153400
0.332800 0.346600 0.153400
0.346600 0.346600 0.153400
0.368500 0.354700 0.161500
0.390400 0.362800 0.169600
0.395875 0.364825 0.171625
0.415950 0.372250 0.179050
0.436025 0.379675 0.186475
0.456100 0.387100 0.193900
0.476175 0.394525 0.201325
0.496250 0.401950 0.208750
0.516325 0.409375 0.216175
0.536400 0.416800 0.223600
0.556475 0.424225 0.231025
0.576550 0.431650 0.238450
0.596625 0.439075 0.245875
0.616700 0.446500 0.253300
0.636775 0.453925 0.260725
0.656850 0.461350 0.268150
0.676925 0.468775 0.275575
0.697000 0.476200 0.283000
0.161500 0.368500 0.161500
0.175300 0.368500 0.161500
0.189100 0.368500 0.161500
0.202900 0.368500 0.161500
0.216700 0.368500 0.161500
0.230500 0.368500 0.161500
0.244300 0.368500 0.161500
0.258100 0.368500 0.161500
0.271900 0.368500 0.161500
0.285700 0.368500 0.161500
0.299500 0.368500 0.161500
0.313300 0.368500 0.161500
0.327100 0.368500 0.161500
0.340900 0.368500 0.161500
0.354700 0.368500 0.161500
0.368500 0.368500 0.161500
0.390400 0.376600 0.169600
0.395875 0.378625 0.171625
0.415950 0.386050 0.179050
0.436025 0.393475 0.186475
0.456100 0.400900 0.193900
0.476175 0.408325 0.201325
0.496250 0.415750 0.208750
0.516325 0.423175 0.216175
0.536400 0.430600 0.223600
0.556475 0.438025 0.231025
0.576550 0.445450 0.238450
0.596625 0.452875 0.245875
0.616700 0.460300 0.253300
0.636775 0.467725 0.260725
0.656850 0.475150 0.268150
0.676925 0.482575 0.275575
0.697000 0.490000 0.283000
0.169600 0.390400 0.169600
0.183400 0.390400 0.169600
0.197200 0.390400 0.169600
0.211000 0.390400 0.169600
0.224800 0.390400 0.169600
0.238600 0.390400 0.169600
0.252400 0.390400 0.169600
0.266200 0.390400 0.169600
0.280000 0.390400 0.169600
0.293800 0.390400 0.169600
0.307600 0.390400 0.169600
0.321400 0.390400 0.169600
0.335200 0.390400 0.169600
0.349000 0.390400 0.169600
0.362800 0.390400 0.169600
0.376600 0.390400 0.169600
0.390400 0.390400 0.169600
0.395875 0.392425 0.171625
0.415950 0.399850 0.179050
0.436025 0.407275 0.186475
0.456100 0.414700 0.193900
0.476175 0.422125 0.201325
0.496250 0.429550 0.208750
0.516325 0.436975 0.216175
0.536400 0.444400 0.223600
0.556475 0.451825 0.231025
0.576550 0.459250 0.238450
0.596625 0.466675 0.245875
0.616700 0.474100 0.253300
0.636775 0.481525 0.260725
0.656850 0.488950 0.268150
0.676925 0.496375 0.275575
0.697000 0.503800 0.283000
0.171625 0.395875 0.171625
0.185425 0.395875 0.171625
0.199225 0.395875 0.171625
0.213025 0.395875 0.171625
0.226825 0.395875 0.171625
0.240625 0.395875 0.171625
0.254425 0.395875 0.171625
0.268225 0.395875 0.171625
0.282025 0.395875 0.171625
0.295825 0.395875 0.171625
0.309625 0.395875 0.171625
0.323425 0.395875 0.171625
0.337225 0.395875 0.171625
0.351025 0.395875 0.171625
0.364825 0.395875 0.171625
0.378625 0.395875 0.171625
0.392425 0.395875 0.171625
0.395875 0.395875 0.171625
0.415950 0.403300 0.179050
0.436025 0.410725 0.186475
0.456100 0.418150 0.193900
0.476175 0.425575 0.201325
0.496250 0.433000 0.208750
0.516325 0.440425 0.216175
0.536400 0.447850 0.223600
0.556475 0.455275 0.231025
0.576550 0.462700 0.238450
0.596625 0.470125 0.245875
0.616700 0.477550 0.253300
0.636775 0.484975 0.260725
0.656850 0.492400 0.268150
0.676925 0.499825 0.275575
0.697000 0.507250 0.283000
0.179050 0.415950 0.179050
0.192850 0.415950 0.179050
0.206650 0.415950 0.179050
0.220450 0.415950 0.179050
0.234250 0.415950 0.179050
0.248050 0.415950 0.179050
0.261850 0.415950 0.179050
0.275650 0.415950 0.179050
0.289450 0.415950 0.179050
0.303250 0.415950 0.179050
0.317050 0.415950 0.179050
0.330850 0.415950 0.179050
0.344650 0.415950 0.179050
0.358450 0.415950 0.179050
0.372250 0.415950 0.179050
0.386050 0.415950 0.179050
0.399850 0.415950 0.179050
0.403300 0.415950 0.179050
0.415950 0.415950 0.179050
0.436025 0.423375 0.186475
0.456100 0.430800 0.193900
0.476175 0.438225 0.201325
0.496250 0.445650 0.208750
0.516325 0.453075 0.216175
0.536400 0.460500 0.223600
0.556475 0.467925 0.231025
0.576550 0.475350 0.238450
0.596625 0.482775 0.245875
0.616700 0.490200 0.253300
0.636775 0.497625 0.260725
0.656850 0.505050 0.268150
0.676925 0.512475 0.275575
0.697000 0.519900 0.283000
0.186475 0.436025 0.186475
0.200275 0.436025 0.186475
0.214075 0.436025 0.186475
0.227875 0.436025 0.186475
0.241675 0.436025 0.186475
0.255475 0.436025 0.186475
0.269275 0.436025 0.186475
0.283075 0.436025 0.186475
0.296875 0.436025 0.186475
0.310675 0.436025 0.186475
0.324475 0.436025 0.186475
0.338275 0.436025 0.186475
0.352075 0.436025 0.186475
0.365875 0.436025 0.186475
0.379675 0.436025 0.186475
0.393475 0.436025 0.186475
0.407275 0.436025 0.186475
0.410725 0.436025 0.186475
0.423375 0.436025 0.186475
0.436025 0.436025 0.186475
0.456100 0.443450 0.193900
0.476175 0.450875 0.201325
0.496250 0.458300 0.208750
0.516325 0.465725 0.216175
0.536400 0.473150 0.223600
0.556475 0.480575 0.231025
0.576550 0.488000 0.238450
0.596625 0.495425 0.245875
0.616700 0.502850 0.253300
0.636775 0.510275 0.260725
0.656850 0.517700 0.268150
0.676925 0.525125 0.275575
0.697000 0.532550 0.283000
0.193900 0.456100 0.193900
0.207700 0.456100 0.193900
0.221500 0.456100 0.193900
0.235300 0.456100 0.193900
0.249100 0.456100 0.193900
0.262900 0.456100 0.193900
0.276700 0.456100 0.193900
0.290500 0.456100 0.193900
0.304300 0.456100 0.193900
0.318100 0.456100 0.193900
0.331900 0.456100 0.193900
0.345700 0.456100 0.193900
0.359500 0.456100 0.193900
0.373300 0.456100 0.193900
0.387100 0.456100 0.193900
0.400900 0.456100 0.193900
0.414700 0.456100 0.193900
0.418150 0.456100 0.193900
0.430800 0.456100 0.193900
0.443450 0.456100 0.193900
0.456100 0.456100 0.193900
0.476175 0.463525 0.201325
0.496250 0.470950 0.208750
0.516325 0.478375 0.216175
0.536400 0.485800 0.223600
0.556475 0.493225 0.231025
0.576550 0.500650 0.238450
0.596625 0.508075 0.245875
0.616700 0.515500 0.253300
0.636775 0.522925 0.260725
0.656850 0.530350 0.268150
0.676925 0.537775 0.275575
0.697000 0.545200 0.283000
0.201325 0.476175 0.201325
0.215125 0.476175 0.201325
0.228925 0.476175 0.201325
0.242725 0.476175 0.201325
0.256525 0.476175 0.201325
0.270325 0.476175 0.201325
0.284125 0.476175 0.201325
0.297925 0.476175 0.201325
0.311725 0.476175 0.201325
0.325525 0.476175 0.201325
0.339325 0.476175 0.201325
0.353125 0.476175 0.201325
0.366925 0.476175 0.201325
0.380725 0.476175 0.201325
0.394525 0.476175 0.201325
0.408325 0.476175 0.201325
0.422125 0.476175 0.201325
0.425575 0.476175 0.201325
0.438225 0.476175 0.201325
0.450875 0.476175 0.201325
0.463525 0.476175 0.201325
0.476175 0.476175 0.201325
0.496250 0.483600 0.208750
0.516325 0.491025 0.216175
0.536400 0.498450 0.223600
0.556475 0.505875 0.231025
0.576550 0.513300 0.238450
0.596625 0.520725 0.245875
0.616700 0.528150 0.253300
0.636775 0.535575 0.260725
0.656850 0.543000 0.268150
0.676925 0.550425 0.275575
0.697000 0.557850 0.283000
0.208750 0.496250 0.208750
0.222550 0.496250 0.208750
0.236350 0.496250 0.208750
0.250150 0.496250 0.208750
0.263950 0.496250 0.208750
0.277750 0.496250 0.208750
0.291550 0.496250 0.208750
0.305350 0.496250 0.208750
0.319150 0.496250 0.208750
0.332950 0.496250 0.208750
0.346750 0.496250 0.208750
0.360550 0.496250 0.208750
0.374350 0.496250 0.208750
0.388150 0.496250 0.208750
0.401950 0.496250 0.208750
0.415750 0.496250 0.208750
0.429550 0.496250 0.208750
0.433000 0.496250 0.208750
0.445650 0.496250 0.208750
0.458300 0.496250 0.208750
0.470950 0.496250 0.208750
0.483600 0.496250 0.208750
0.496250 0.496250 0.208750
0.516325 0.503675 0.216175
0.536400 0.511100 0.223600
0.556475 0.518525 0.231025
0.576550 0.525950 0.238450
0.596625 0.533375 0.245875
0.616700 0.540800 0.253300
0.636775 0.548225 0.260725
0.656850 0.555650 0.268150
0.676925 0.563075 0.275575
0.697000 0.570500 0.283000
0.216175 0.516325 0.216175
0.229975 0.516325 0.216175
0.243775 0.516325 0.216175
0.257575 0.516325 0.216175
0.271375 0.516325 0.216175
0.285175 0.516325 0.216175
0.298975 0.516325 0.216175
0.312775 0.516325 0.216175
0.326575 0.516325 0.216175
0.340375 0.516325 0.216175
0.354175 0.516325 0.216175
0.367975 0.516325 0.216175
0.381775 0.516325 0.216175
0.395575 0.516325 0.216175
0.409375 0.516325 0.216175
0.423175 0.516325 0.216175
0.436975 0.516325 0.216175
0.440425 0.516325 0.216175
0.453075 0.516325 0.216175
0.465725 0.516325 0.216175
0.478375 0.516325 0.216175
0.491025 0.516325 0.216175
0.503675 0.516325 0.216175
0.516325 0.516325 0.216175
0.536400 0.523750 0.223600
0.556475 0.531175 0.231025
0.576550 0.538600 0.238450
0.596625 0.546025 0.245875
0.616700 0.553450 0.253300
0.636775 0.560875 0.260725
0.656850 0.568300 0.268150
0.676925 0.575725 0.275575
0.697000 0.583150 0.283000
0.223600 0.536400 0.223600
0.237400 0.536400 0.223600
0.251200 0.536400 0.223600
0.265000 0.536400 0.223600
0.278800 0.536400 0.223600
0.292600 0.536400 0.223600
0.306400 0.536400 0.223600
0.320200 0.536400 0.223600
0.334000 0.536400 0.223600
0.347800 0.536400 0.223600
0.361600 0.536400 0.223600
0.375400 0.536400 0.223600
0.389200 0.536400 0.223600
0.403000 0.536400 0.223600
0.416800 0.536400 0.223600
0.430600 0.536400 0.223600
0.444400 0.536400 0.223600
0.447850 0.536400 0.223600
0.460500 0.536400 0.223600
0.473150 0.536400 0.223600
0.485800 0.536400 0.223600
0.498450 0.536400 0.223600
0.511100 0.536400 0.223600
0.523750 0.536400 0.223600
0.536400 0.536400 0.223600
0.556475 0.543825 0.231025
0.576550 0.551250 0.238450
0.596625 0.558675 0.245875
0.616700 0.566100 0.253300
0.636775 0.573525 0.260725
0.656850 0.580950 0.268150
0.676925 0.588375 0.275575
0.697000 0.595800 0.283000
0.231025 0.556475 0.231025
0.244825 0.556475 0.231025
0.258625 0.556475 0.231025
0.272425 0.556475 0.231025
0.286225 0.556475 0.231025
0.300025 0.556475 0.231025
0.313825 0.556475 0.231025
0.327625 0.556475 0.231025
0.341425 0.556475 0.231025
0.355225 0.556475 0.231025
0.369025 0.556475 0.231025
0.382825 0.556475 0.231025
0.396625 0.556475 0.231025
0.410425 0.556475 0.231025
0.424225 0.556475 0.231025
0.438025 0.556475 0.231025
0.451825 0.556475 0.231025
0.455275 0.556475 0.231025
0.467925 0.556475 0.231025
0.480575 0.556475 0.231025
0.493225 0.556475 0.231025
0.505875 0.556475 0.231025
0.518525 0.556475 0.231025
0.531175 0.556475 0.231025
0.543825 0.556475 0.231025
0.556475 0.556475 0.231025
0.576550 0.563900 0.238450
0.596625 0.571325 0.245875
0.616700 0.578750 0.253300
0.636775 0.586175 0.260725
0.656850 0.593600 0.268150
0.676925 0.601025 0.275575
0.697000 0.608450 0.283000
0.238450 0.576550 0.238450
0.252250 0.576550 0.238450
0.266050 0.576550 0.238450
0.279850 0.576550 0.238450
0.293650 0.576550 0.238450
0.307450 0.576550 0.238450
0.321250 0.576550 0.238450
0.335050 0.576550 0.238450
0.348850 0.576550 0.238450
0.362650 0.576550 0.238450
0.376450 0.576550 0.238450
0.390250 0.576550 0.238450
0.404050 0.576550 0.238450
0.417850 0.576550 0.238450
0.431650 0.576550 0.238450
0.445450 0.576550 0.238450
0.459250 0.576550 0.238450
0.462700 0.576550 0.238450
0.475350 0.576550 0.238450
0.488000 0.576550 0.238450
0.500650 0.576550 0.238450
0.513300 0.576550 0.238450
0.525950 0.576550 0.238450
0.538600 0.576550 0.238450
