docs/luts/fuji_recipes/Provia_RR_Agfa_Optima.cube
TITLE "Fujifilm Recipe: RR Agfa Optima (Provia)"
# FilmSim=Provia HL=-2 SH=2 Col=-2 WB=Auto WBR=-1 WBB=-1
LUT_3D_SIZE 9
DOMAIN_MIN 0.0 0.0 0.0
DOMAIN_MAX 1.0 1.0 1.0
0.000000 0.000000 0.000000
0.120208 0.026387 0.026387
0.231780 0.050879 0.050879
0.343352 0.075370 0.075370
0.484344 0.106319 0.106319
0.591065 0.129746 0.129746
0.697786 0.153172 0.153172
0.752760 0.165240 0.165240
0.752760 0.165240 0.165240
0.027064 0.123291 0.027064
0.120885 0.123291 0.027064
0.231780 0.147105 0.050879
0.343352 0.171597 0.075370
0.484344 0.202546 0.106319
0.591065 0.225973 0.129746
0.697786 0.249399 0.153172
0.752760 0.261467 0.165240
0.752760 0.261467 0.165240
0.052183 0.237723 0.052183
0.146004 0.237723 0.052183
0.233085 0.237723 0.052183
0.343352 0.260910 0.075370
0.484344 0.291860 0.106319
0.591065 0.315286 0.129746
0.697786 0.338712 0.153172
0.752760 0.350780 0.165240
0.752760 0.350780 0.165240
0.077302 0.352156 0.077302
0.171124 0.352156 0.077302
0.258204 0.352156 0.077302
0.345284 0.352156 0.077302
0.484344 0.381173 0.106319
0.591065 0.404599 0.129746
0.697786 0.428026 0.153172
0.752760 0.440093 0.165240
0.752760 0.440093 0.165240
0.108769 0.495502 0.108769
0.202590 0.495502 0.108769
0.289670 0.495502 0.108769
0.376751 0.495502 0.108769
0.486793 0.495502 0.108769
0.591065 0.516479 0.129746
0.697786 0.539905 0.153172
0.752760 0.551973 0.165240
0.752760 0.551973 0.165240
0.132796 0.604959 0.132796
0.226617 0.604959 0.132796
0.313697 0.604959 0.132796
0.400778 0.604959 0.132796
0.510821 0.604959 0.132796
0.594115 0.604959 0.132796
0.697786 0.625335 0.153172
0.752760 0.637403 0.165240
0.752760 0.637403 0.165240
0.156823 0.714416 0.156823
0.250644 0.714416 0.156823
0.337725 0.714416 0.156823
0.424805 0.714416 0.156823
0.534848 0.714416 0.156823
0.618142 0.714416 0.156823
0.701436 0.714416 0.156823
0.752760 0.722833 0.165240
0.752760 0.722833 0.165240
0.169200 0.770800 0.169200
0.263021 0.770800 0.169200
0.350102 0.770800 0.169200
0.437182 0.770800 0.169200
0.547225 0.770800 0.169200
0.630519 0.770800 0.169200
0.713813 0.770800 0.169200
0.756720 0.770800 0.169200
0.756720 0.770800 0.169200
0.169200 0.770800 0.169200
0.263021 0.770800 0.169200
0.350102 0.770800 0.169200
0.437182 0.770800 0.169200
0.547225 0.770800 0.169200
0.630519 0.770800 0.169200
0.713813 0.770800 0.169200
0.756720 0.770800 0.169200
0.756720 0.770800 0.169200
0.026387 0.026387 0.120208
0.120208 0.026387 0.120208
0.231780 0.050879 0.144700
0.343352 0.075370 0.169191
0.484344 0.106319 0.200141
0.591065 0.129746 0.223567
0.697786 0.153172 0.246994
0.752760 0.165240 0.259061
0.752760 0.165240 0.259061
0.027064 0.123291 0.120885
0.147272 0.149678 0.147272
0.258167 0.173493 0.171087
0.369739 0.197984 0.195578
0.510731 0.228934 0.226528
0.617452 0.252360 0.249954
0.724173 0.275787 0.273381
0.779147 0.287854 0.285448
0.779147 0.287854 0.285448
0.052183 0.237723 0.146004
0.172392 0.264110 0.172392
0.259472 0.264110 0.172392
0.369739 0.287297 0.195578
0.510731 0.318247 0.226528
0.617452 0.341673 0.249954
0.724173 0.365100 0.273381
0.779147 0.377167 0.285448
0.779147 0.377167 0.285448
0.077302 0.352156 0.171124
0.197511 0.378543 0.197511
0.284591 0.378543 0.197511
0.371672 0.378543 0.197511
0.510731 0.407560 0.226528
0.617452 0.430986 0.249954
0.724173 0.454413 0.273381
0.779147 0.466480 0.285448
0.779147 0.466480 0.285448
0.108769 0.495502 0.202590
0.228977 0.521889 0.228977
0.316057 0.521889 0.228977
0.403138 0.521889 0.228977
0.513181 0.521889 0.228977
0.617452 0.542866 0.249954
0.724173 0.566293 0.273381
0.779147 0.578360 0.285448
0.779147 0.578360 0.285448
0.132796 0.604959 0.226617
0.253004 0.631346 0.253004
0.340085 0.631346 0.253004
0.427165 0.631346 0.253004
0.537208 0.631346 0.253004
0.620502 0.631346 0.253004
0.724173 0.651723 0.273381
0.779147 0.663790 0.285448
0.779147 0.663790 0.285448
0.156823 0.714416 0.250644
0.277031 0.740803 0.277031
0.364112 0.740803 0.277031
0.451192 0.740803 0.277031
0.561235 0.740803 0.277031
0.644529 0.740803 0.277031
0.727823 0.740803 0.277031
0.779147 0.749220 0.285448
0.779147 0.749220 0.285448
0.169200 0.770800 0.263021
0.289408 0.797187 0.289408
0.376489 0.797187 0.289408
0.463569 0.797187 0.289408
0.573612 0.797187 0.289408
0.656906 0.797187 0.289408
0.740200 0.797187 0.289408
0.783107 0.797187 0.289408
0.783107 0.797187 0.289408
0.169200 0.770800 0.263021
0.289408 0.797187 0.289408
0.376489 0.797187 0.289408
0.463569 0.797187 0.289408
0.573612 0.797187 0.289408
0.656906 0.797187 0.289408
0.740200 0.797187 0.289408
0.783107 0.797187 0.289408
0.783107 0.797187 0.289408
0.050879 0.050879 0.231780
0.144700 0.050879 0.231780
0.231780 0.050879 0.231780
0.343352 0.075370 0.256271
0.484344 0.106319 0.287221
0.591065 0.129746 0.310648
0.697786 0.153172 0.334074
0.752760 0.165240 0.346142
0.752760 0.165240 0.346142
0.050879 0.147105 0.231780
0.171087 0.173493 0.258167
0.258844 0.174169 0.258844
0.370416 0.198661 0.283335
0.511408 0.229610 0.314285
0.618129 0.253037 0.337711
0.724849 0.276463 0.361138
0.779824 0.288531 0.373205
0.779824 0.288531 0.373205
0.052183 0.237723 0.233085
0.172392 0.264110 0.259472
0.283963 0.288602 0.283963
0.394230 0.311789 0.307150
0.535223 0.342738 0.338100
0.641943 0.366165 0.361526
0.748664 0.389591 0.384953
0.803639 0.401659 0.397020
0.803639 0.401659 0.397020
0.077302 0.352156 0.258204
0.197511 0.378543 0.284591
0.309083 0.403034 0.309083
0.396163 0.403034 0.309083
0.535223 0.432051 0.338100
0.641943 0.455478 0.361526
0.748664 0.478904 0.384953
0.803639 0.490972 0.397020
0.803639 0.490972 0.397020
0.108769 0.495502 0.289670
0.228977 0.521889 0.316057
0.340549 0.546380 0.340549
0.427629 0.546380 0.340549
0.537672 0.546380 0.340549
0.641943 0.567358 0.361526
0.748664 0.590784 0.384953
0.803639 0.602852 0.397020
0.803639 0.602852 0.397020
0.132796 0.604959 0.313697
0.253004 0.631346 0.340085
0.364576 0.655837 0.364576
0.451656 0.655837 0.364576
0.561699 0.655837 0.364576
0.644993 0.655837 0.364576
0.748664 0.676214 0.384953
0.803639 0.688282 0.397020
0.803639 0.688282 0.397020
0.156823 0.714416 0.337725
0.277031 0.740803 0.364112
0.388603 0.765295 0.388603
0.475683 0.765295 0.388603
0.585726 0.765295 0.388603
0.669020 0.765295 0.388603
0.752315 0.765295 0.388603
0.803639 0.773712 0.397020
0.803639 0.773712 0.397020
0.169200 0.770800 0.350102
0.289408 0.797187 0.376489
0.400980 0.821679 0.400980
0.488060 0.821679 0.400980
0.598103 0.821679 0.400980
0.681397 0.821679 0.400980
0.764692 0.821679 0.400980
0.807599 0.821679 0.400980
0.807599 0.821679 0.400980
0.169200 0.770800 0.350102
0.289408 0.797187 0.376489
0.400980 0.821679 0.400980
0.488060 0.821679 0.400980
0.598103 0.821679 0.400980
0.681397 0.821679 0.400980
0.764692 0.821679 0.400980
0.807599 0.821679 0.400980
0.807599 0.821679 0.400980
0.075370 0.075370 0.343352
0.169191 0.075370 0.343352
0.256271 0.075370 0.343352
0.343352 0.075370 0.343352
0.484344 0.106319 0.374301
0.591065 0.129746 0.397728
0.697786 0.153172 0.421154
0.752760 0.165240 0.433222
0.752760 0.165240 0.433222
0.075370 0.171597 0.343352
0.195578 0.197984 0.369739
0.283335 0.198661 0.370416
0.370416 0.198661 0.370416
0.511408 0.229610 0.401365
0.618129 0.253037 0.424792
0.724849 0.276463 0.448218
0.779824 0.288531 0.460286
0.779824 0.288531 0.460286
0.075370 0.260910 0.343352
0.195578 0.287297 0.369739
0.307150 0.311789 0.394230
0.395535 0.313093 0.395535
0.536527 0.344043 0.426484
0.643248 0.367469 0.449911
0.749969 0.390896 0.473337
0.804943 0.402963 0.485405
0.804943 0.402963 0.485405
0.077302 0.352156 0.345284
0.197511 0.378543 0.371672
0.309083 0.403034 0.396163
0.420654 0.427526 0.420654
0.559714 0.456543 0.449671
0.666435 0.479969 0.473098
0.773155 0.503396 0.496524
0.828130 0.515463 0.508592
0.828130 0.515463 0.508592
0.108769 0.495502 0.376751
0.228977 0.521889 0.403138
0.340549 0.546380 0.427629
0.452120 0.570872 0.452120
0.562163 0.570872 0.452120
0.666435 0.591849 0.473098
0.773155 0.615275 0.496524
0.828130 0.627343 0.508592
0.828130 0.627343 0.508592
0.132796 0.604959 0.400778
0.253004 0.631346 0.427165
0.364576 0.655837 0.451656
0.476148 0.680329 0.476148
0.586190 0.680329 0.476148
0.669485 0.680329 0.476148
0.773155 0.700705 0.496524
0.828130 0.712773 0.508592
0.828130 0.712773 0.508592
0.156823 0.714416 0.424805
0.277031 0.740803 0.451192
0.388603 0.765295 0.475683
0.500175 0.789786 0.500175
0.610218 0.789786 0.500175
0.693512 0.789786 0.500175
0.776806 0.789786 0.500175
0.828130 0.798203 0.508592
0.828130 0.798203 0.508592
0.169200 0.770800 0.437182
0.289408 0.797187 0.463569
0.400980 0.821679 0.488060
0.512552 0.846170 0.512552
0.622595 0.846170 0.512552
0.705889 0.846170 0.512552
0.789183 0.846170 0.512552
0.832090 0.846170 0.512552
0.832090 0.846170 0.512552
0.169200 0.770800 0.437182
0.289408 0.797187 0.463569
0.400980 0.821679 0.488060
0.512552 0.846170 0.512552
0.622595 0.846170 0.512552
0.705889 0.846170 0.512552
0.789183 0.846170 0.512552
0.832090 0.846170 0.512552
0.832090 0.846170 0.512552
0.106319 0.106319 0.484344
0.200141 0.106319 0.484344
0.287221 0.106319 0.484344
0.374301 0.106319 0.484344
0.484344 0.106319 0.484344
0.591065 0.129746 0.507771
0.697786 0.153172 0.531197
0.752760 0.165240 0.543265
0.752760 0.165240 0.543265
0.106319 0.202546 0.484344
0.226528 0.228934 0.510731
0.314285 0.229610 0.511408
0.401365 0.229610 0.511408
0.511408 0.229610 0.511408
0.618129 0.253037 0.534834
0.724849 0.276463 0.558261
0.779824 0.288531 0.570329
0.779824 0.288531 0.570329
0.106319 0.291860 0.484344
0.226528 0.318247 0.510731
0.338100 0.342738 0.535223
0.426484 0.344043 0.536527
0.536527 0.344043 0.536527
0.643248 0.367469 0.559954
0.749969 0.390896 0.583380
0.804943 0.402963 0.595448
0.804943 0.402963 0.595448
0.106319 0.381173 0.484344
0.226528 0.407560 0.510731
0.338100 0.432051 0.535223
0.449671 0.456543 0.559714
0.561647 0.458475 0.561647
0.668367 0.481902 0.585073
0.775088 0.505328 0.608500
0.830062 0.517396 0.620567
0.830062 0.517396 0.620567
0.108769 0.495502 0.486793
0.228977 0.521889 0.513181
0.340549 0.546380 0.537672
0.452120 0.570872 0.562163
0.593113 0.601821 0.593113
0.697384 0.622798 0.614090
0.804105 0.646225 0.637517
0.859079 0.658292 0.649584
0.859079 0.658292 0.649584
0.132796 0.604959 0.510821
0.253004 0.631346 0.537208
0.364576 0.655837 0.561699
0.476148 0.680329 0.586190
0.617140 0.711278 0.617140
0.700434 0.711278 0.617140
0.804105 0.731655 0.637517
0.859079 0.743722 0.649584
0.859079 0.743722 0.649584
0.156823 0.714416 0.534848
0.277031 0.740803 0.561235
0.388603 0.765295 0.585726
0.500175 0.789786 0.610218
0.641167 0.820735 0.641167
0.724461 0.820735 0.641167
0.807756 0.820735 0.641167
0.859079 0.829152 0.649584
0.859079 0.829152 0.649584
0.169200 0.770800 0.547225
0.289408 0.797187 0.573612
0.400980 0.821679 0.598103
0.512552 0.846170 0.622595
0.653544 0.877119 0.653544
0.736838 0.877119 0.653544
0.820133 0.877119 0.653544
0.863039 0.877119 0.653544
0.863039 0.877119 0.653544
0.169200 0.770800 0.547225
0.289408 0.797187 0.573612
0.400980 0.821679 0.598103
0.512552 0.846170 0.622595
0.653544 0.877119 0.653544
0.736838 0.877119 0.653544
0.820133 0.877119 0.653544
0.863039 0.877119 0.653544
0.863039 0.877119 0.653544
0.129746 0.129746 0.591065
0.223567 0.129746 0.591065
0.310648 0.129746 0.591065
0.397728 0.129746 0.591065
0.507771 0.129746 0.591065
0.591065 0.129746 0.591065
0.697786 0.153172 0.614491
0.752760 0.165240 0.626559
0.752760 0.165240 0.626559
0.129746 0.225973 0.591065
0.249954 0.252360 0.617452
0.337711 0.253037 0.618129
0.424792 0.253037 0.618129
0.534834 0.253037 0.618129
0.618129 0.253037 0.618129
0.724849 0.276463 0.641555
0.779824 0.288531 0.653623
0.779824 0.288531 0.653623
0.129746 0.315286 0.591065
0.249954 0.341673 0.617452
0.361526 0.366165 0.641943
0.449911 0.367469 0.643248
0.559954 0.367469 0.643248
0.643248 0.367469 0.643248
0.749969 0.390896 0.666674
0.804943 0.402963 0.678742
0.804943 0.402963 0.678742
0.129746 0.404599 0.591065
0.249954 0.430986 0.617452
0.361526 0.455478 0.641943
0.473098 0.479969 0.666435
0.585073 0.481902 0.668367
0.668367 0.481902 0.668367
0.775088 0.505328 0.691794
0.830062 0.517396 0.703861
0.830062 0.517396 0.703861
0.129746 0.516479 0.591065
0.249954 0.542866 0.617452
0.361526 0.567358 0.641943
0.473098 0.591849 0.666435
0.614090 0.622798 0.697384
0.699834 0.625248 0.699834
0.806554 0.648674 0.723260
0.861529 0.660742 0.735328
0.861529 0.660742 0.735328
0.132796 0.604959 0.594115
0.253004 0.631346 0.620502
0.364576 0.655837 0.644993
0.476148 0.680329 0.669485
0.617140 0.711278 0.700434
0.723861 0.734705 0.723861
0.827531 0.755081 0.744237
0.882506 0.767149 0.756305
0.882506 0.767149 0.756305
0.156823 0.714416 0.618142
0.277031 0.740803 0.644529
0.388603 0.765295 0.669020
0.500175 0.789786 0.693512
0.641167 0.820735 0.724461
0.747888 0.844162 0.747888
0.831182 0.844162 0.747888
0.882506 0.852579 0.756305
0.882506 0.852579 0.756305
0.169200 0.770800 0.630519
0.289408 0.797187 0.656906
0.400980 0.821679 0.681397
0.512552 0.846170 0.705889
0.653544 0.877119 0.736838
0.760265 0.900546 0.760265
0.843559 0.900546 0.760265
0.886466 0.900546 0.760265
0.886466 0.900546 0.760265
0.169200 0.770800 0.630519
0.289408 0.797187 0.656906
0.400980 0.821679 0.681397
0.512552 0.846170 0.705889
0.653544 0.877119 0.736838
0.760265 0.900546 0.760265
0.843559 0.900546 0.760265
0.886466 0.900546 0.760265
0.886466 0.900546 0.760265
0.153172 0.153172 0.697786
0.246994 0.153172 0.697786
0.334074 0.153172 0.697786
0.421154 0.153172 0.697786
0.531197 0.153172 0.697786
0.614491 0.153172 0.697786
0.697786 0.153172 0.697786
0.752760 0.165240 0.709853
0.752760 0.165240 0.709853
0.153172 0.249399 0.697786
0.273381 0.275787 0.724173
0.361138 0.276463 0.724849
0.448218 0.276463 0.724849
0.558261 0.276463 0.724849
0.641555 0.276463 0.724849
0.724849 0.276463 0.724849
0.779824 0.288531 0.736917
0.779824 0.288531 0.736917
0.153172 0.338712 0.697786
0.273381 0.365100 0.724173
0.384953 0.389591 0.748664
0.473337 0.390896 0.749969
0.583380 0.390896 0.749969
0.666674 0.390896 0.749969
0.749969 0.390896 0.749969
0.804943 0.402963 0.762036
0.804943 0.402963 0.762036
0.153172 0.428026 0.697786
0.273381 0.454413 0.724173
0.384953 0.478904 0.748664
0.496524 0.503396 0.773155
0.608500 0.505328 0.775088
0.691794 0.505328 0.775088
0.775088 0.505328 0.775088
0.830062 0.517396 0.787156
0.830062 0.517396 0.787156
0.153172 0.539905 0.697786
0.273381 0.566293 0.724173
0.384953 0.590784 0.748664
0.496524 0.615275 0.773155
0.637517 0.646225 0.804105
0.723260 0.648674 0.806554
0.806554 0.648674 0.806554
0.861529 0.660742 0.818622
0.861529 0.660742 0.818622
0.153172 0.625335 0.697786
0.273381 0.651723 0.724173
0.384953 0.676214 0.748664
0.496524 0.700705 0.773155
0.637517 0.731655 0.804105
0.744237 0.755081 0.827531
0.830581 0.758131 0.830581
0.885556 0.770199 0.842649
0.885556 0.770199 0.842649
0.156823 0.714416 0.701436
0.277031 0.740803 0.727823
0.388603 0.765295 0.752315
0.500175 0.789786 0.776806
0.641167 0.820735 0.807756
0.747888 0.844162 0.831182
0.854609 0.867588 0.854609
0.905932 0.876005 0.863026
0.905932 0.876005 0.863026
0.169200 0.770800 0.713813
0.289408 0.797187 0.740200
0.400980 0.821679 0.764692
0.512552 0.846170 0.789183
0.653544 0.877119 0.820133
0.760265 0.900546 0.843559
0.866986 0.923972 0.866986
0.909892 0.923972 0.866986
0.909892 0.923972 0.866986
0.169200 0.770800 0.713813
0.289408 0.797187 0.740200
0.400980 0.821679 0.764692
0.512552 0.846170 0.789183
0.653544 0.877119 0.820133
0.760265 0.900546 0.843559
0.866986 0.923972 0.866986
0.909892 0.923972 0.866986
0.909892 0.923972 0.866986
0.165240 0.165240 0.752760
0.259061 0.165240 0.752760
0.346142 0.165240 0.752760
0.433222 0.165240 0.752760
0.543265 0.165240 0.752760
0.626559 0.165240 0.752760
0.709853 0.165240 0.752760
0.752760 0.165240 0.752760
0.752760 0.165240 0.752760
0.165240 0.261467 0.752760
0.285448 0.287854 0.779147
0.373205 0.288531 0.779824
0.460286 0.288531 0.779824
0.570329 0.288531 0.779824
0.653623 0.288531 0.779824
0.736917 0.288531 0.779824
0.779824 0.288531 0.779824
0.779824 0.288531 0.779824
0.165240 0.350780 0.752760
0.285448 0.377167 0.779147
0.397020 0.401659 0.803639
0.485405 0.402963 0.804943
0.595448 0.402963 0.804943
0.678742 0.402963 0.804943
0.762036 0.402963 0.804943
0.804943 0.402963 0.804943
0.804943 0.402963 0.804943
0.165240 0.440093 0.752760
0.285448 0.466480 0.779147
0.397020 0.490972 0.803639
0.508592 0.515463 0.828130
0.620567 0.517396 0.830062
0.703861 0.517396 0.830062
0.787156 0.517396 0.830062
0.830062 0.517396 0.830062
0.830062 0.517396 0.830062
0.165240 0.551973 0.752760
0.285448 0.578360 0.779147
0.397020 0.602852 0.803639
0.508592 0.627343 0.828130
0.649584 0.658292 0.859079
0.735328 0.660742 0.861529
0.818622 0.660742 0.861529
0.861529 0.660742 0.861529
0.861529 0.660742 0.861529
0.165240 0.637403 0.752760
0.285448 0.663790 0.779147
0.397020 0.688282 0.803639
0.508592 0.712773 0.828130
0.649584 0.743722 0.859079
0.756305 0.767149 0.882506
0.842649 0.770199 0.885556
0.885556 0.770199 0.885556
0.885556 0.770199 0.885556
0.165240 0.722833 0.752760
0.285448 0.749220 0.779147
0.397020 0.773712 0.803639
0.508592 0.798203 0.828130
0.649584 0.829152 0.859079
0.756305 0.852579 0.882506
0.863026 0.876005 0.905932
0.909583 0.879656 0.909583
0.909583 0.879656 0.909583
0.169200 0.770800 0.756720
0.289408 0.797187 0.783107
0.400980 0.821679 0.807599
0.512552 0.846170 0.832090
0.653544 0.877119 0.863039
0.760265 0.900546 0.886466
0.866986 0.923972 0.909892
0.921960 0.936040 0.921960
0.921960 0.936040 0.921960
0.169200 0.770800 0.756720
0.289408 0.797187 0.783107
0.400980 0.821679 0.807599
0.512552 0.846170 0.832090
0.653544 0.877119 0.863039
0.760265 0.900546 0.886466
0.866986 0.923972 0.909892
0.921960 0.936040 0.921960
0.921960 0.936040 0.921960
0.165240 0.165240 0.752760
0.259061 0.165240 0.752760
0.346142 0.165240 0.752760
0.433222 0.165240 0.752760
0.543265 0.165240 0.752760
0.626559 0.165240 0.752760
0.709853 0.165240 0.752760
0.752760 0.165240 0.752760
0.752760 0.165240 0.752760
0.165240 0.261467 0.752760
0.285448 0.287854 0.779147
0.373205 0.288531 0.779824
0.460286 0.288531 0.779824
0.570329 0.288531 0.779824
0.653623 0.288531 0.779824
0.736917 0.288531 0.779824
0.779824 0.288531 0.779824
0.779824 0.288531 0.779824
0.165240 0.350780 0.752760
0.285448 0.377167 0.779147
0.397020 0.401659 0.803639
0.485405 0.402963 0.804943
0.595448 0.402963 0.804943
0.678742 0.402963 0.804943
0.762036 0.402963 0.804943
0.804943 0.402963 0.804943
0.804943 0.402963 0.804943
0.165240 0.440093 0.752760
0.285448 0.466480 0.779147
0.397020 0.490972 0.803639
0.508592 0.515463 0.828130
0.620567 0.517396 0.830062
0.703861 0.517396 0.830062
0.787156 0.517396 0.830062
0.830062 0.517396 0.830062
0.830062 0.517396 0.830062
0.165240 0.551973 0.752760
0.285448 0.578360 0.779147
0.397020 0.602852 0.803639
0.508592 0.627343 0.828130
0.649584 0.658292 0.859079
0.735328 0.660742 0.861529
0.818622 0.660742 0.861529
0.861529 0.660742 0.861529
0.861529 0.660742 0.861529
0.165240 0.637403 0.752760
0.285448 0.663790 0.779147
0.397020 0.688282 0.803639
0.508592 0.712773 0.828130
0.649584 0.743722 0.859079
0.756305 0.767149 0.882506
0.842649 0.770199 0.885556
0.885556 0.770199 0.885556
0.885556 0.770199 0.885556
0.165240 0.722833 0.752760
0.285448 0.749220 0.779147
0.397020 0.773712 0.803639
0.508592 0.798203 0.828130
0.649584 0.829152 0.859079
0.756305 0.852579 0.882506
0.863026 0.876005 0.905932
0.909583 0.879656 0.909583
0.909583 0.879656 0.909583
0.169200 0.770800 0.756720
0.289408 0.797187 0.783107
0.400980 0.821679 0.807599
0.512552 0.846170 0.832090
0.653544 0.877119 0.863039
0.760265 0.900546 0.886466
0.866986 0.923972 0.909892
0.921960 0.936040 0.921960
0.921960 0.936040 0.921960
0.169200 0.770800 0.756720
0.289408 0.797187 0.783107
0.400980 0.821679 0.807599
0.512552 0.846170 0.832090
0.653544 0.877119 0.863039
0.760265 0.900546 0.886466
0.866986 0.923972 0.909892
0.921960 0.936040 0.921960
0.921960 0.936040 0.921960
