docs/luts/fuji_recipes/Provia_RR_Agfa_Optima.cube
TITLE "Fujifilm Recipe: RR Agfa Optima (Provia)"
# FilmSim=Provia HL=-2 SH=2 Col=-2 WB=Auto WBR=-1 WBB=-1
LUT_3D_SIZE 33
DOMAIN_MIN 0.0 0.0 0.0
DOMAIN_MAX 1.0 1.0 1.0
0.000000 0.000000 0.000000
0.036056 0.007915 0.007915
0.064423 0.014142 0.014142
0.092316 0.020264 0.020264
0.120208 0.026387 0.026387
0.148101 0.032510 0.032510
0.175994 0.038633 0.038633
0.203887 0.044756 0.044756
0.231780 0.050879 0.050879
0.259673 0.057001 0.057001
0.287566 0.063124 0.063124
0.315459 0.069247 0.069247
0.343352 0.075370 0.075370
0.371245 0.081493 0.081493
0.430984 0.094606 0.094606
0.457664 0.100463 0.100463
0.484344 0.106319 0.106319
0.511024 0.112176 0.112176
0.537704 0.118033 0.118033
0.564385 0.123889 0.123889
0.591065 0.129746 0.129746
0.617745 0.135603 0.135603
0.644425 0.141459 0.141459
0.671105 0.147316 0.147316
0.697786 0.153172 0.153172
0.724466 0.159029 0.159029
0.751146 0.164886 0.164886
0.752760 0.165240 0.165240
0.752760 0.165240 0.165240
0.752760 0.165240 0.165240
0.752760 0.165240 0.165240
0.752760 0.165240 0.165240
0.752760 0.165240 0.165240
0.008118 0.036981 0.008118
0.036259 0.036981 0.008118
0.064423 0.043005 0.014142
0.092316 0.049128 0.020264
0.120208 0.055250 0.026387
0.148101 0.061373 0.032510
0.175994 0.067496 0.038633
0.203887 0.073619 0.044756
0.231780 0.079742 0.050879
0.259673 0.085865 0.057001
0.287566 0.091987 0.063124
0.315459 0.098110 0.069247
0.343352 0.104233 0.075370
0.371245 0.110356 0.081493
0.430984 0.123469 0.094606
0.457664 0.129326 0.100463
0.484344 0.135183 0.106319
0.511024 0.141039 0.112176
0.537704 0.146896 0.118033
0.564385 0.152752 0.123889
0.591065 0.158609 0.129746
0.617745 0.164466 0.135603
0.644425 0.170322 0.141459
0.671105 0.176179 0.147316
0.697786 0.182036 0.153172
0.724466 0.187892 0.159029
0.751146 0.193749 0.164886
0.752760 0.194103 0.165240
0.752760 0.194103 0.165240
0.752760 0.194103 0.165240
0.752760 0.194103 0.165240
0.752760 0.194103 0.165240
0.752760 0.194103 0.165240
0.014504 0.066075 0.014504
0.042646 0.066075 0.014504
0.064785 0.066075 0.014504
0.092316 0.071835 0.020264
0.120208 0.077958 0.026387
0.148101 0.084080 0.032510
0.175994 0.090203 0.038633
0.203887 0.096326 0.044756
0.231780 0.102449 0.050879
0.259673 0.108572 0.057001
0.287566 0.114695 0.063124
0.315459 0.120817 0.069247
0.343352 0.126940 0.075370
0.371245 0.133063 0.081493
0.430984 0.146177 0.094606
0.457664 0.152033 0.100463
0.484344 0.157890 0.106319
0.511024 0.163746 0.112176
0.537704 0.169603 0.118033
0.564385 0.175460 0.123889
0.591065 0.181316 0.129746
0.617745 0.187173 0.135603
0.644425 0.193030 0.141459
0.671105 0.198886 0.147316
0.697786 0.204743 0.153172
0.724466 0.210599 0.159029
0.751146 0.216456 0.164886
0.752760 0.216810 0.165240
0.752760 0.216810 0.165240
0.752760 0.216810 0.165240
0.752760 0.216810 0.165240
0.752760 0.216810 0.165240
0.752760 0.216810 0.165240
0.020784 0.094683 0.020784
0.048926 0.094683 0.020784
0.071065 0.094683 0.020784
0.092835 0.094683 0.020784
0.120208 0.100286 0.026387
0.148101 0.106409 0.032510
0.175994 0.112532 0.038633
0.203887 0.118654 0.044756
0.231780 0.124777 0.050879
0.259673 0.130900 0.057001
0.287566 0.137023 0.063124
0.315459 0.143146 0.069247
0.343352 0.149269 0.075370
0.371245 0.155391 0.081493
0.430984 0.168505 0.094606
0.457664 0.174361 0.100463
0.484344 0.180218 0.106319
0.511024 0.186075 0.112176
0.537704 0.191931 0.118033
0.564385 0.197788 0.123889
0.591065 0.203645 0.129746
0.617745 0.209501 0.135603
0.644425 0.215358 0.141459
0.671105 0.221214 0.147316
0.697786 0.227071 0.153172
0.724466 0.232928 0.159029
0.751146 0.238784 0.164886
0.752760 0.239139 0.165240
0.752760 0.239139 0.165240
0.752760 0.239139 0.165240
0.752760 0.239139 0.165240
0.752760 0.239139 0.165240
0.752760 0.239139 0.165240
0.027064 0.123291 0.027064
0.055205 0.123291 0.027064
0.077345 0.123291 0.027064
0.099115 0.123291 0.027064
0.120885 0.123291 0.027064
0.148101 0.128737 0.032510
0.175994 0.134860 0.038633
0.203887 0.140983 0.044756
0.231780 0.147105 0.050879
0.259673 0.153228 0.057001
0.287566 0.159351 0.063124
0.315459 0.165474 0.069247
0.343352 0.171597 0.075370
0.371245 0.177720 0.081493
0.430984 0.190833 0.094606
0.457664 0.196690 0.100463
0.484344 0.202546 0.106319
0.511024 0.208403 0.112176
0.537704 0.214260 0.118033
0.564385 0.220116 0.123889
0.591065 0.225973 0.129746
0.617745 0.231829 0.135603
0.644425 0.237686 0.141459
0.671105 0.243543 0.147316
0.697786 0.249399 0.153172
0.724466 0.255256 0.159029
0.751146 0.261113 0.164886
0.752760 0.261467 0.165240
0.752760 0.261467 0.165240
0.752760 0.261467 0.165240
0.752760 0.261467 0.165240
0.752760 0.261467 0.165240
0.752760 0.261467 0.165240
0.033344 0.151899 0.033344
0.061485 0.151899 0.033344
0.083625 0.151899 0.033344
0.105395 0.151899 0.033344
0.127165 0.151899 0.033344
0.148935 0.151899 0.033344
0.175994 0.157188 0.038633
0.203887 0.163311 0.044756
0.231780 0.169434 0.050879
0.259673 0.175557 0.057001
0.287566 0.181679 0.063124
0.315459 0.187802 0.069247
0.343352 0.193925 0.075370
0.371245 0.200048 0.081493
0.430984 0.213161 0.094606
0.457664 0.219018 0.100463
0.484344 0.224875 0.106319
0.511024 0.230731 0.112176
0.537704 0.236588 0.118033
0.564385 0.242445 0.123889
0.591065 0.248301 0.129746
0.617745 0.254158 0.135603
0.644425 0.260014 0.141459
0.671105 0.265871 0.147316
0.697786 0.271728 0.153172
0.724466 0.277584 0.159029
0.751146 0.283441 0.164886
0.752760 0.283795 0.165240
0.752760 0.283795 0.165240
0.752760 0.283795 0.165240
0.752760 0.283795 0.165240
0.752760 0.283795 0.165240
0.752760 0.283795 0.165240
0.039623 0.180507 0.039623
0.067765 0.180507 0.039623
0.089905 0.180507 0.039623
0.111675 0.180507 0.039623
0.133445 0.180507 0.039623
0.155215 0.180507 0.039623
0.176985 0.180507 0.039623
0.203887 0.185639 0.044756
0.231780 0.191762 0.050879
0.259673 0.197885 0.057001
0.287566 0.204008 0.063124
0.315459 0.210131 0.069247
0.343352 0.216253 0.075370
0.371245 0.222376 0.081493
0.430984 0.235490 0.094606
0.457664 0.241346 0.100463
0.484344 0.247203 0.106319
0.511024 0.253060 0.112176
0.537704 0.258916 0.118033
0.564385 0.264773 0.123889
0.591065 0.270629 0.129746
0.617745 0.276486 0.135603
0.644425 0.282343 0.141459
0.671105 0.288199 0.147316
0.697786 0.294056 0.153172
0.724466 0.299913 0.159029
0.751146 0.305769 0.164886
0.752760 0.306123 0.165240
0.752760 0.306123 0.165240
0.752760 0.306123 0.165240
0.752760 0.306123 0.165240
0.752760 0.306123 0.165240
0.752760 0.306123 0.165240
0.045903 0.209115 0.045903
0.074045 0.209115 0.045903
0.096184 0.209115 0.045903
0.117954 0.209115 0.045903
0.139725 0.209115 0.045903
0.161495 0.209115 0.045903
0.183265 0.209115 0.045903
0.205035 0.209115 0.045903
0.231780 0.214090 0.050879
0.259673 0.220213 0.057001
0.287566 0.226336 0.063124
0.315459 0.232459 0.069247
0.343352 0.238582 0.075370
0.371245 0.244705 0.081493
0.430984 0.257818 0.094606
0.457664 0.263675 0.100463
0.484344 0.269531 0.106319
0.511024 0.275388 0.112176
0.537704 0.281244 0.118033
0.564385 0.287101 0.123889
0.591065 0.292958 0.129746
0.617745 0.298814 0.135603
0.644425 0.304671 0.141459
0.671105 0.310528 0.147316
0.697786 0.316384 0.153172
0.724466 0.322241 0.159029
0.751146 0.328097 0.164886
0.752760 0.328452 0.165240
0.752760 0.328452 0.165240
0.752760 0.328452 0.165240
0.752760 0.328452 0.165240
0.752760 0.328452 0.165240
0.752760 0.328452 0.165240
0.052183 0.237723 0.052183
0.080325 0.237723 0.052183
0.102464 0.237723 0.052183
0.124234 0.237723 0.052183
0.146004 0.237723 0.052183
0.167774 0.237723 0.052183
0.189545 0.237723 0.052183
0.211315 0.237723 0.052183
0.233085 0.237723 0.052183
0.259673 0.242541 0.057001
0.287566 0.248664 0.063124
0.315459 0.254787 0.069247
0.343352 0.260910 0.075370
0.371245 0.267033 0.081493
0.430984 0.280146 0.094606
0.457664 0.286003 0.100463
0.484344 0.291860 0.106319
0.511024 0.297716 0.112176
0.537704 0.303573 0.118033
0.564385 0.309429 0.123889
0.591065 0.315286 0.129746
0.617745 0.321143 0.135603
0.644425 0.326999 0.141459
0.671105 0.332856 0.147316
0.697786 0.338712 0.153172
0.724466 0.344569 0.159029
0.751146 0.350426 0.164886
0.752760 0.350780 0.165240
0.752760 0.350780 0.165240
0.752760 0.350780 0.165240
0.752760 0.350780 0.165240
0.752760 0.350780 0.165240
0.752760 0.350780 0.165240
0.058463 0.266331 0.058463
0.086605 0.266331 0.058463
0.108744 0.266331 0.058463
0.130514 0.266331 0.058463
0.152284 0.266331 0.058463
0.174054 0.266331 0.058463
0.195824 0.266331 0.058463
0.217594 0.266331 0.058463
0.239365 0.266331 0.058463
0.261135 0.266331 0.058463
0.287566 0.270993 0.063124
0.315459 0.277115 0.069247
0.343352 0.283238 0.075370
0.371245 0.289361 0.081493
0.430984 0.302475 0.094606
0.457664 0.308331 0.100463
0.484344 0.314188 0.106319
0.511024 0.320044 0.112176
0.537704 0.325901 0.118033
0.564385 0.331758 0.123889
0.591065 0.337614 0.129746
0.617745 0.343471 0.135603
0.644425 0.349328 0.141459
0.671105 0.355184 0.147316
0.697786 0.361041 0.153172
0.724466 0.366897 0.159029
0.751146 0.372754 0.164886
0.752760 0.373108 0.165240
0.752760 0.373108 0.165240
0.752760 0.373108 0.165240
0.752760 0.373108 0.165240
0.752760 0.373108 0.165240
0.752760 0.373108 0.165240
0.064743 0.294939 0.064743
0.092884 0.294939 0.064743
0.115024 0.294939 0.064743
0.136794 0.294939 0.064743
0.158564 0.294939 0.064743
0.180334 0.294939 0.064743
0.202104 0.294939 0.064743
0.223874 0.294939 0.064743
0.245644 0.294939 0.064743
0.267414 0.294939 0.064743
0.289185 0.294939 0.064743
0.315459 0.299444 0.069247
0.343352 0.305567 0.075370
0.371245 0.311689 0.081493
0.430984 0.324803 0.094606
0.457664 0.330659 0.100463
0.484344 0.336516 0.106319
0.511024 0.342373 0.112176
0.537704 0.348229 0.118033
0.564385 0.354086 0.123889
0.591065 0.359943 0.129746
0.617745 0.365799 0.135603
0.644425 0.371656 0.141459
0.671105 0.377512 0.147316
0.697786 0.383369 0.153172
0.724466 0.389226 0.159029
0.751146 0.395082 0.164886
0.752760 0.395437 0.165240
0.752760 0.395437 0.165240
0.752760 0.395437 0.165240
0.752760 0.395437 0.165240
0.752760 0.395437 0.165240
0.752760 0.395437 0.165240
0.071023 0.323548 0.071023
0.099164 0.323548 0.071023
0.121304 0.323548 0.071023
0.143074 0.323548 0.071023
0.164844 0.323548 0.071023
0.186614 0.323548 0.071023
0.208384 0.323548 0.071023
0.230154 0.323548 0.071023
0.251924 0.323548 0.071023
0.273694 0.323548 0.071023
0.295464 0.323548 0.071023
0.317234 0.323548 0.071023
0.343352 0.327895 0.075370
0.371245 0.334018 0.081493
0.430984 0.347131 0.094606
0.457664 0.352988 0.100463
0.484344 0.358844 0.106319
0.511024 0.364701 0.112176
0.537704 0.370558 0.118033
0.564385 0.376414 0.123889
0.591065 0.382271 0.129746
0.617745 0.388127 0.135603
0.644425 0.393984 0.141459
0.671105 0.399841 0.147316
0.697786 0.405697 0.153172
0.724466 0.411554 0.159029
0.751146 0.417411 0.164886
0.752760 0.417765 0.165240
0.752760 0.417765 0.165240
0.752760 0.417765 0.165240
0.752760 0.417765 0.165240
0.752760 0.417765 0.165240
0.752760 0.417765 0.165240
0.077302 0.352156 0.077302
0.105444 0.352156 0.077302
0.127584 0.352156 0.077302
0.149354 0.352156 0.077302
0.171124 0.352156 0.077302
0.192894 0.352156 0.077302
0.214664 0.352156 0.077302
0.236434 0.352156 0.077302
0.258204 0.352156 0.077302
0.279974 0.352156 0.077302
0.301744 0.352156 0.077302
0.323514 0.352156 0.077302
0.345284 0.352156 0.077302
0.371245 0.356346 0.081493
0.430984 0.369459 0.094606
0.457664 0.375316 0.100463
0.484344 0.381173 0.106319
0.511024 0.387029 0.112176
0.537704 0.392886 0.118033
0.564385 0.398743 0.123889
0.591065 0.404599 0.129746
0.617745 0.410456 0.135603
0.644425 0.416312 0.141459
0.671105 0.422169 0.147316
0.697786 0.428026 0.153172
0.724466 0.433882 0.159029
0.751146 0.439739 0.164886
0.752760 0.440093 0.165240
0.752760 0.440093 0.165240
0.752760 0.440093 0.165240
0.752760 0.440093 0.165240
0.752760 0.440093 0.165240
0.752760 0.440093 0.165240
0.090748 0.413409 0.090748
0.118890 0.413409 0.090748
0.141029 0.413409 0.090748
0.162799 0.413409 0.090748
0.184570 0.413409 0.090748
0.206340 0.413409 0.090748
0.228110 0.413409 0.090748
0.249880 0.413409 0.090748
0.271650 0.413409 0.090748
0.293420 0.413409 0.090748
0.315190 0.413409 0.090748
0.336960 0.413409 0.090748
0.358730 0.413409 0.090748
0.380500 0.413409 0.090748
0.430984 0.417267 0.094606
0.457664 0.423123 0.100463
0.484344 0.428980 0.106319
0.511024 0.434837 0.112176
0.537704 0.440693 0.118033
0.564385 0.446550 0.123889
0.591065 0.452406 0.129746
0.617745 0.458263 0.135603
0.644425 0.464120 0.141459
0.671105 0.469976 0.147316
0.697786 0.475833 0.153172
0.724466 0.481690 0.159029
0.751146 0.487546 0.164886
0.752760 0.487901 0.165240
0.752760 0.487901 0.165240
0.752760 0.487901 0.165240
0.752760 0.487901 0.165240
0.752760 0.487901 0.165240
0.752760 0.487901 0.165240
0.096755 0.440773 0.096755
0.124897 0.440773 0.096755
0.147036 0.440773 0.096755
0.168806 0.440773 0.096755
0.190576 0.440773 0.096755
0.212346 0.440773 0.096755
0.234116 0.440773 0.096755
0.255887 0.440773 0.096755
0.277657 0.440773 0.096755
0.299427 0.440773 0.096755
0.321197 0.440773 0.096755
0.342967 0.440773 0.096755
0.364737 0.440773 0.096755
0.386507 0.440773 0.096755
0.433133 0.440773 0.096755
0.457664 0.444481 0.100463
0.484344 0.450337 0.106319
0.511024 0.456194 0.112176
0.537704 0.462051 0.118033
0.564385 0.467907 0.123889
0.591065 0.473764 0.129746
0.617745 0.479621 0.135603
0.644425 0.485477 0.141459
0.671105 0.491334 0.147316
0.697786 0.497190 0.153172
0.724466 0.503047 0.159029
0.751146 0.508904 0.164886
0.752760 0.509258 0.165240
0.752760 0.509258 0.165240
0.752760 0.509258 0.165240
0.752760 0.509258 0.165240
0.752760 0.509258 0.165240
0.752760 0.509258 0.165240
0.102762 0.468137 0.102762
0.130903 0.468137 0.102762
0.153043 0.468137 0.102762
0.174813 0.468137 0.102762
0.196583 0.468137 0.102762
0.218353 0.468137 0.102762
0.240123 0.468137 0.102762
0.261893 0.468137 0.102762
0.283663 0.468137 0.102762
0.305434 0.468137 0.102762
0.327204 0.468137 0.102762
0.348974 0.468137 0.102762
0.370744 0.468137 0.102762
0.392514 0.468137 0.102762
0.439139 0.468137 0.102762
0.459963 0.468137 0.102762
0.484344 0.471695 0.106319
0.511024 0.477552 0.112176
0.537704 0.483408 0.118033
0.564385 0.489265 0.123889
0.591065 0.495121 0.129746
0.617745 0.500978 0.135603
0.644425 0.506835 0.141459
0.671105 0.512691 0.147316
0.697786 0.518548 0.153172
0.724466 0.524405 0.159029
0.751146 0.530261 0.164886
0.752760 0.530616 0.165240
0.752760 0.530616 0.165240
0.752760 0.530616 0.165240
0.752760 0.530616 0.165240
0.752760 0.530616 0.165240
0.752760 0.530616 0.165240
0.108769 0.495502 0.108769
0.136910 0.495502 0.108769
0.159050 0.495502 0.108769
0.180820 0.495502 0.108769
0.202590 0.495502 0.108769
0.224360 0.495502 0.108769
0.246130 0.495502 0.108769
0.267900 0.495502 0.108769
0.289670 0.495502 0.108769
0.311440 0.495502 0.108769
0.333210 0.495502 0.108769
0.354980 0.495502 0.108769
0.376751 0.495502 0.108769
0.398521 0.495502 0.108769
0.445146 0.495502 0.108769
0.465970 0.495502 0.108769
0.486793 0.495502 0.108769
0.511024 0.498909 0.112176
0.537704 0.504766 0.118033
0.564385 0.510622 0.123889
0.591065 0.516479 0.129746
0.617745 0.522336 0.135603
0.644425 0.528192 0.141459
0.671105 0.534049 0.147316
0.697786 0.539905 0.153172
0.724466 0.545762 0.159029
0.751146 0.551619 0.164886
0.752760 0.551973 0.165240
0.752760 0.551973 0.165240
0.752760 0.551973 0.165240
0.752760 0.551973 0.165240
0.752760 0.551973 0.165240
0.752760 0.551973 0.165240
0.114775 0.522866 0.114775
0.142917 0.522866 0.114775
0.165057 0.522866 0.114775
0.186827 0.522866 0.114775
0.208597 0.522866 0.114775
0.230367 0.522866 0.114775
0.252137 0.522866 0.114775
0.273907 0.522866 0.114775
0.295677 0.522866 0.114775
0.317447 0.522866 0.114775
0.339217 0.522866 0.114775
0.360987 0.522866 0.114775
0.382757 0.522866 0.114775
0.404527 0.522866 0.114775
0.451153 0.522866 0.114775
0.471977 0.522866 0.114775
0.492800 0.522866 0.114775
0.513624 0.522866 0.114775
0.537704 0.526123 0.118033
0.564385 0.531980 0.123889
0.591065 0.537836 0.129746
0.617745 0.543693 0.135603
0.644425 0.549550 0.141459
0.671105 0.555406 0.147316
0.697786 0.561263 0.153172
0.724466 0.567120 0.159029
0.751146 0.572976 0.164886
0.752760 0.573331 0.165240
0.752760 0.573331 0.165240
0.752760 0.573331 0.165240
0.752760 0.573331 0.165240
0.752760 0.573331 0.165240
0.752760 0.573331 0.165240
0.120782 0.550230 0.120782
0.148924 0.550230 0.120782
0.171063 0.550230 0.120782
0.192833 0.550230 0.120782
0.214603 0.550230 0.120782
0.236374 0.550230 0.120782
0.258144 0.550230 0.120782
0.279914 0.550230 0.120782
0.301684 0.550230 0.120782
0.323454 0.550230 0.120782
0.345224 0.550230 0.120782
0.366994 0.550230 0.120782
0.388764 0.550230 0.120782
0.410534 0.550230 0.120782
0.457160 0.550230 0.120782
0.477983 0.550230 0.120782
0.498807 0.550230 0.120782
0.519630 0.550230 0.120782
0.540454 0.550230 0.120782
0.564385 0.553337 0.123889
0.591065 0.559194 0.129746
0.617745 0.565051 0.135603
0.644425 0.570907 0.141459
0.671105 0.576764 0.147316
0.697786 0.582620 0.153172
0.724466 0.588477 0.159029
0.751146 0.594334 0.164886
0.752760 0.594688 0.165240
0.752760 0.594688 0.165240
0.752760 0.594688 0.165240
0.752760 0.594688 0.165240
0.752760 0.594688 0.165240
0.752760 0.594688 0.165240
0.126789 0.577595 0.126789
0.154931 0.577595 0.126789
0.177070 0.577595 0.126789
0.198840 0.577595 0.126789
0.220610 0.577595 0.126789
0.242380 0.577595 0.126789
0.264150 0.577595 0.126789
0.285921 0.577595 0.126789
0.307691 0.577595 0.126789
0.329461 0.577595 0.126789
0.351231 0.577595 0.126789
0.373001 0.577595 0.126789
0.394771 0.577595 0.126789
0.416541 0.577595 0.126789
0.463167 0.577595 0.126789
0.483990 0.577595 0.126789
0.504814 0.577595 0.126789
0.525637 0.577595 0.126789
0.546461 0.577595 0.126789
0.567284 0.577595 0.126789
0.591065 0.580551 0.129746
0.617745 0.586408 0.135603
0.644425 0.592265 0.141459
0.671105 0.598121 0.147316
0.697786 0.603978 0.153172
0.724466 0.609835 0.159029
0.751146 0.615691 0.164886
0.752760 0.616045 0.165240
0.752760 0.616045 0.165240
0.752760 0.616045 0.165240
0.752760 0.616045 0.165240
0.752760 0.616045 0.165240
0.752760 0.616045 0.165240
0.132796 0.604959 0.132796
0.160937 0.604959 0.132796
0.183077 0.604959 0.132796
0.204847 0.604959 0.132796
0.226617 0.604959 0.132796
0.248387 0.604959 0.132796
0.270157 0.604959 0.132796
0.291927 0.604959 0.132796
0.313697 0.604959 0.132796
0.335467 0.604959 0.132796
0.357238 0.604959 0.132796
0.379008 0.604959 0.132796
0.400778 0.604959 0.132796
0.422548 0.604959 0.132796
0.469173 0.604959 0.132796
0.489997 0.604959 0.132796
0.510821 0.604959 0.132796
0.531644 0.604959 0.132796
0.552468 0.604959 0.132796
0.573291 0.604959 0.132796
0.594115 0.604959 0.132796
0.617745 0.607766 0.135603
0.644425 0.613622 0.141459
0.671105 0.619479 0.147316
0.697786 0.625335 0.153172
0.724466 0.631192 0.159029
0.751146 0.637049 0.164886
0.752760 0.637403 0.165240
0.752760 0.637403 0.165240
0.752760 0.637403 0.165240
0.752760 0.637403 0.165240
0.752760 0.637403 0.165240
0.752760 0.637403 0.165240
0.138803 0.632323 0.138803
0.166944 0.632323 0.138803
0.189084 0.632323 0.138803
0.210854 0.632323 0.138803
0.232624 0.632323 0.138803
0.254394 0.632323 0.138803
0.276164 0.632323 0.138803
0.297934 0.632323 0.138803
0.319704 0.632323 0.138803
0.341474 0.632323 0.138803
0.363244 0.632323 0.138803
0.385014 0.632323 0.138803
0.406785 0.632323 0.138803
0.428555 0.632323 0.138803
0.475180 0.632323 0.138803
0.496004 0.632323 0.138803
0.516827 0.632323 0.138803
0.537651 0.632323 0.138803
0.558474 0.632323 0.138803
0.579298 0.632323 0.138803
0.600122 0.632323 0.138803
0.620945 0.632323 0.138803
0.644425 0.634980 0.141459
0.671105 0.640836 0.147316
0.697786 0.646693 0.153172
0.724466 0.652550 0.159029
0.751146 0.658406 0.164886
0.752760 0.658760 0.165240
0.752760 0.658760 0.165240
0.752760 0.658760 0.165240
0.752760 0.658760 0.165240
0.752760 0.658760 0.165240
0.752760 0.658760 0.165240
0.144809 0.659687 0.144809
0.172951 0.659687 0.144809
0.195091 0.659687 0.144809
0.216861 0.659687 0.144809
0.238631 0.659687 0.144809
0.260401 0.659687 0.144809
0.282171 0.659687 0.144809
0.303941 0.659687 0.144809
0.325711 0.659687 0.144809
0.347481 0.659687 0.144809
0.369251 0.659687 0.144809
0.391021 0.659687 0.144809
0.412791 0.659687 0.144809
0.434561 0.659687 0.144809
0.481187 0.659687 0.144809
0.502011 0.659687 0.144809
0.522834 0.659687 0.144809
0.543658 0.659687 0.144809
0.564481 0.659687 0.144809
0.585305 0.659687 0.144809
0.606128 0.659687 0.144809
0.626952 0.659687 0.144809
0.647775 0.659687 0.144809
0.671105 0.662194 0.147316
0.697786 0.668050 0.153172
0.724466 0.673907 0.159029
0.751146 0.679764 0.164886
0.752760 0.680118 0.165240
0.752760 0.680118 0.165240
0.752760 0.680118 0.165240
0.752760 0.680118 0.165240
0.752760 0.680118 0.165240
0.752760 0.680118 0.165240
0.150816 0.687052 0.150816
0.178958 0.687052 0.150816
0.201097 0.687052 0.150816
0.222867 0.687052 0.150816
0.244637 0.687052 0.150816
0.266408 0.687052 0.150816
0.288178 0.687052 0.150816
0.309948 0.687052 0.150816
0.331718 0.687052 0.150816
0.353488 0.687052 0.150816
0.375258 0.687052 0.150816
0.397028 0.687052 0.150816
0.418798 0.687052 0.150816
0.440568 0.687052 0.150816
0.487194 0.687052 0.150816
0.508017 0.687052 0.150816
0.528841 0.687052 0.150816
0.549664 0.687052 0.150816
0.570488 0.687052 0.150816
0.591312 0.687052 0.150816
0.612135 0.687052 0.150816
0.632959 0.687052 0.150816
0.653782 0.687052 0.150816
0.674606 0.687052 0.150816
0.697786 0.689408 0.153172
0.724466 0.695265 0.159029
0.751146 0.701121 0.164886
0.752760 0.701475 0.165240
0.752760 0.701475 0.165240
0.752760 0.701475 0.165240
0.752760 0.701475 0.165240
0.752760 0.701475 0.165240
0.752760 0.701475 0.165240
0.156823 0.714416 0.156823
0.184965 0.714416 0.156823
0.207104 0.714416 0.156823
0.228874 0.714416 0.156823
0.250644 0.714416 0.156823
0.272414 0.714416 0.156823
0.294184 0.714416 0.156823
0.315954 0.714416 0.156823
0.337725 0.714416 0.156823
0.359495 0.714416 0.156823
0.381265 0.714416 0.156823
0.403035 0.714416 0.156823
0.424805 0.714416 0.156823
0.446575 0.714416 0.156823
0.493201 0.714416 0.156823
0.514024 0.714416 0.156823
0.534848 0.714416 0.156823
0.555671 0.714416 0.156823
0.576495 0.714416 0.156823
0.597318 0.714416 0.156823
0.618142 0.714416 0.156823
0.638965 0.714416 0.156823
0.659789 0.714416 0.156823
0.680613 0.714416 0.156823
0.701436 0.714416 0.156823
0.724466 0.716622 0.159029
0.751146 0.722479 0.164886
0.752760 0.722833 0.165240
0.752760 0.722833 0.165240
0.752760 0.722833 0.165240
0.752760 0.722833 0.165240
0.752760 0.722833 0.165240
0.752760 0.722833 0.165240
0.162830 0.741780 0.162830
0.190971 0.741780 0.162830
0.213111 0.741780 0.162830
0.234881 0.741780 0.162830
0.256651 0.741780 0.162830
0.278421 0.741780 0.162830
0.300191 0.741780 0.162830
0.321961 0.741780 0.162830
0.343731 0.741780 0.162830
0.365501 0.741780 0.162830
0.387272 0.741780 0.162830
0.409042 0.741780 0.162830
0.430812 0.741780 0.162830
0.452582 0.741780 0.162830
0.499207 0.741780 0.162830
0.520031 0.741780 0.162830
0.540855 0.741780 0.162830
0.561678 0.741780 0.162830
0.582502 0.741780 0.162830
0.603325 0.741780 0.162830
0.624149 0.741780 0.162830
0.644972 0.741780 0.162830
0.665796 0.741780 0.162830
0.686619 0.741780 0.162830
0.707443 0.741780 0.162830
0.728266 0.741780 0.162830
0.751146 0.743836 0.164886
0.752760 0.744190 0.165240
0.752760 0.744190 0.165240
0.752760 0.744190 0.165240
0.752760 0.744190 0.165240
0.752760 0.744190 0.165240
0.752760 0.744190 0.165240
0.168837 0.769145 0.168837
0.196978 0.769145 0.168837
0.219118 0.769145 0.168837
0.240888 0.769145 0.168837
0.262658 0.769145 0.168837
0.284428 0.769145 0.168837
0.306198 0.769145 0.168837
0.327968 0.769145 0.168837
0.349738 0.769145 0.168837
0.371508 0.769145 0.168837
0.393278 0.769145 0.168837
0.415048 0.769145 0.168837
0.436818 0.769145 0.168837
0.458589 0.769145 0.168837
0.505214 0.769145 0.168837
0.526038 0.769145 0.168837
0.546861 0.769145 0.168837
0.567685 0.769145 0.168837
0.588508 0.769145 0.168837
0.609332 0.769145 0.168837
0.630156 0.769145 0.168837
0.650979 0.769145 0.168837
0.671803 0.769145 0.168837
0.692626 0.769145 0.168837
