docs/luts/fuji_recipes/Provia_PE_Provia_Sternfeld.cube
TITLE "Fujifilm Recipe: PE Provia Sternfeld (Provia)"
# FilmSim=Provia HL=-2 SH=-1 Col=-3 WB=Auto WBR=0 WBB=0
LUT_3D_SIZE 9
DOMAIN_MIN 0.0 0.0 0.0
DOMAIN_MAX 1.0 1.0 1.0
0.040000 0.040000 0.040000
0.127600 0.072400 0.072400
0.215200 0.104800 0.104800
0.302800 0.137200 0.137200
0.390400 0.169600 0.169600
0.456100 0.193900 0.193900
0.536400 0.223600 0.223600
0.616700 0.253300 0.253300
0.697000 0.283000 0.283000
0.072400 0.127600 0.072400
0.127600 0.127600 0.072400
0.215200 0.160000 0.104800
0.302800 0.192400 0.137200
0.390400 0.224800 0.169600
0.456100 0.249100 0.193900
0.536400 0.278800 0.223600
0.616700 0.308500 0.253300
0.697000 0.338200 0.283000
0.104800 0.215200 0.104800
0.160000 0.215200 0.104800
0.215200 0.215200 0.104800
0.302800 0.247600 0.137200
0.390400 0.280000 0.169600
0.456100 0.304300 0.193900
0.536400 0.334000 0.223600
0.616700 0.363700 0.253300
0.697000 0.393400 0.283000
0.137200 0.302800 0.137200
0.192400 0.302800 0.137200
0.247600 0.302800 0.137200
0.302800 0.302800 0.137200
0.390400 0.335200 0.169600
0.456100 0.359500 0.193900
0.536400 0.389200 0.223600
0.616700 0.418900 0.253300
0.697000 0.448600 0.283000
0.169600 0.390400 0.169600
0.224800 0.390400 0.169600
0.280000 0.390400 0.169600
0.335200 0.390400 0.169600
0.390400 0.390400 0.169600
0.456100 0.414700 0.193900
0.536400 0.444400 0.223600
0.616700 0.474100 0.253300
0.697000 0.503800 0.283000
0.193900 0.456100 0.193900
0.249100 0.456100 0.193900
0.304300 0.456100 0.193900
0.359500 0.456100 0.193900
0.414700 0.456100 0.193900
0.456100 0.456100 0.193900
0.536400 0.485800 0.223600
0.616700 0.515500 0.253300
0.697000 0.545200 0.283000
0.223600 0.536400 0.223600
0.278800 0.536400 0.223600
0.334000 0.536400 0.223600
0.389200 0.536400 0.223600
0.444400 0.536400 0.223600
0.485800 0.536400 0.223600
0.536400 0.536400 0.223600
0.616700 0.566100 0.253300
0.697000 0.595800 0.283000
0.253300 0.616700 0.253300
0.308500 0.616700 0.253300
0.363700 0.616700 0.253300
0.418900 0.616700 0.253300
0.474100 0.616700 0.253300
0.515500 0.616700 0.253300
0.566100 0.616700 0.253300
0.616700 0.616700 0.253300
0.697000 0.646400 0.283000
0.283000 0.697000 0.283000
0.338200 0.697000 0.283000
0.393400 0.697000 0.283000
0.448600 0.697000 0.283000
0.503800 0.697000 0.283000
0.545200 0.697000 0.283000
0.595800 0.697000 0.283000
0.646400 0.697000 0.283000
0.697000 0.697000 0.283000
0.072400 0.072400 0.127600
0.127600 0.072400 0.127600
0.215200 0.104800 0.160000
0.302800 0.137200 0.192400
0.390400 0.169600 0.224800
0.456100 0.193900 0.249100
0.536400 0.223600 0.278800
0.616700 0.253300 0.308500
0.697000 0.283000 0.338200
0.072400 0.127600 0.127600
0.160000 0.160000 0.160000
0.247600 0.192400 0.192400
0.335200 0.224800 0.224800
0.422800 0.257200 0.257200
0.488500 0.281500 0.281500
0.568800 0.311200 0.311200
0.649100 0.340900 0.340900
0.729400 0.370600 0.370600
0.104800 0.215200 0.160000
0.192400 0.247600 0.192400
0.247600 0.247600 0.192400
0.335200 0.280000 0.224800
0.422800 0.312400 0.257200
0.488500 0.336700 0.281500
0.568800 0.366400 0.311200
0.649100 0.396100 0.340900
0.729400 0.425800 0.370600
0.137200 0.302800 0.192400
0.224800 0.335200 0.224800
0.280000 0.335200 0.224800
0.335200 0.335200 0.224800
0.422800 0.367600 0.257200
0.488500 0.391900 0.281500
0.568800 0.421600 0.311200
0.649100 0.451300 0.340900
0.729400 0.481000 0.370600
0.169600 0.390400 0.224800
0.257200 0.422800 0.257200
0.312400 0.422800 0.257200
0.367600 0.422800 0.257200
0.422800 0.422800 0.257200
0.488500 0.447100 0.281500
0.568800 0.476800 0.311200
0.649100 0.506500 0.340900
0.729400 0.536200 0.370600
0.193900 0.456100 0.249100
0.281500 0.488500 0.281500
0.336700 0.488500 0.281500
0.391900 0.488500 0.281500
0.447100 0.488500 0.281500
0.488500 0.488500 0.281500
0.568800 0.518200 0.311200
0.649100 0.547900 0.340900
0.729400 0.577600 0.370600
0.223600 0.536400 0.278800
0.311200 0.568800 0.311200
0.366400 0.568800 0.311200
0.421600 0.568800 0.311200
0.476800 0.568800 0.311200
0.518200 0.568800 0.311200
0.568800 0.568800 0.311200
0.649100 0.598500 0.340900
0.729400 0.628200 0.370600
0.253300 0.616700 0.308500
0.340900 0.649100 0.340900
0.396100 0.649100 0.340900
0.451300 0.649100 0.340900
0.506500 0.649100 0.340900
0.547900 0.649100 0.340900
0.598500 0.649100 0.340900
0.649100 0.649100 0.340900
0.729400 0.678800 0.370600
0.283000 0.697000 0.338200
0.370600 0.729400 0.370600
0.425800 0.729400 0.370600
0.481000 0.729400 0.370600
0.536200 0.729400 0.370600
0.577600 0.729400 0.370600
0.628200 0.729400 0.370600
0.678800 0.729400 0.370600
0.729400 0.729400 0.370600
0.104800 0.104800 0.215200
0.160000 0.104800 0.215200
0.215200 0.104800 0.215200
0.302800 0.137200 0.247600
0.390400 0.169600 0.280000
0.456100 0.193900 0.304300
0.536400 0.223600 0.334000
0.616700 0.253300 0.363700
0.697000 0.283000 0.393400
0.104800 0.160000 0.215200
0.192400 0.192400 0.247600
0.247600 0.192400 0.247600
0.335200 0.224800 0.280000
0.422800 0.257200 0.312400
0.488500 0.281500 0.336700
0.568800 0.311200 0.366400
0.649100 0.340900 0.396100
0.729400 0.370600 0.425800
0.104800 0.215200 0.215200
0.192400 0.247600 0.247600
0.280000 0.280000 0.280000
0.367600 0.312400 0.312400
0.455200 0.344800 0.344800
0.520900 0.369100 0.369100
0.601200 0.398800 0.398800
0.681500 0.428500 0.428500
0.761800 0.458200 0.458200
0.137200 0.302800 0.247600
0.224800 0.335200 0.280000
0.312400 0.367600 0.312400
0.367600 0.367600 0.312400
0.455200 0.400000 0.344800
0.520900 0.424300 0.369100
0.601200 0.454000 0.398800
0.681500 0.483700 0.428500
0.761800 0.513400 0.458200
0.169600 0.390400 0.280000
0.257200 0.422800 0.312400
0.344800 0.455200 0.344800
0.400000 0.455200 0.344800
0.455200 0.455200 0.344800
0.520900 0.479500 0.369100
0.601200 0.509200 0.398800
0.681500 0.538900 0.428500
0.761800 0.568600 0.458200
0.193900 0.456100 0.304300
0.281500 0.488500 0.336700
0.369100 0.520900 0.369100
0.424300 0.520900 0.369100
0.479500 0.520900 0.369100
0.520900 0.520900 0.369100
0.601200 0.550600 0.398800
0.681500 0.580300 0.428500
0.761800 0.610000 0.458200
0.223600 0.536400 0.334000
0.311200 0.568800 0.366400
0.398800 0.601200 0.398800
0.454000 0.601200 0.398800
0.509200 0.601200 0.398800
0.550600 0.601200 0.398800
0.601200 0.601200 0.398800
0.681500 0.630900 0.428500
0.761800 0.660600 0.458200
0.253300 0.616700 0.363700
0.340900 0.649100 0.396100
0.428500 0.681500 0.428500
0.483700 0.681500 0.428500
0.538900 0.681500 0.428500
0.580300 0.681500 0.428500
0.630900 0.681500 0.428500
0.681500 0.681500 0.428500
0.761800 0.711200 0.458200
0.283000 0.697000 0.393400
0.370600 0.729400 0.425800
0.458200 0.761800 0.458200
0.513400 0.761800 0.458200
0.568600 0.761800 0.458200
0.610000 0.761800 0.458200
0.660600 0.761800 0.458200
0.711200 0.761800 0.458200
0.761800 0.761800 0.458200
0.137200 0.137200 0.302800
0.192400 0.137200 0.302800
0.247600 0.137200 0.302800
0.302800 0.137200 0.302800
0.390400 0.169600 0.335200
0.456100 0.193900 0.359500
0.536400 0.223600 0.389200
0.616700 0.253300 0.418900
0.697000 0.283000 0.448600
0.137200 0.192400 0.302800
0.224800 0.224800 0.335200
0.280000 0.224800 0.335200
0.335200 0.224800 0.335200
0.422800 0.257200 0.367600
0.488500 0.281500 0.391900
0.568800 0.311200 0.421600
0.649100 0.340900 0.451300
0.729400 0.370600 0.481000
0.137200 0.247600 0.302800
0.224800 0.280000 0.335200
0.312400 0.312400 0.367600
0.367600 0.312400 0.367600
0.455200 0.344800 0.400000
0.520900 0.369100 0.424300
0.601200 0.398800 0.454000
0.681500 0.428500 0.483700
0.761800 0.458200 0.513400
0.137200 0.302800 0.302800
0.224800 0.335200 0.335200
0.312400 0.367600 0.367600
0.400000 0.400000 0.400000
0.487600 0.432400 0.432400
0.553300 0.456700 0.456700
0.633600 0.486400 0.486400
0.713900 0.516100 0.516100
0.794200 0.545800 0.545800
0.169600 0.390400 0.335200
0.257200 0.422800 0.367600
0.344800 0.455200 0.400000
0.432400 0.487600 0.432400
0.487600 0.487600 0.432400
0.553300 0.511900 0.456700
0.633600 0.541600 0.486400
0.713900 0.571300 0.516100
0.794200 0.601000 0.545800
0.193900 0.456100 0.359500
0.281500 0.488500 0.391900
0.369100 0.520900 0.424300
0.456700 0.553300 0.456700
0.511900 0.553300 0.456700
0.553300 0.553300 0.456700
0.633600 0.583000 0.486400
0.713900 0.612700 0.516100
0.794200 0.642400 0.545800
0.223600 0.536400 0.389200
0.311200 0.568800 0.421600
0.398800 0.601200 0.454000
0.486400 0.633600 0.486400
0.541600 0.633600 0.486400
0.583000 0.633600 0.486400
0.633600 0.633600 0.486400
0.713900 0.663300 0.516100
0.794200 0.693000 0.545800
0.253300 0.616700 0.418900
0.340900 0.649100 0.451300
0.428500 0.681500 0.483700
0.516100 0.713900 0.516100
0.571300 0.713900 0.516100
0.612700 0.713900 0.516100
0.663300 0.713900 0.516100
0.713900 0.713900 0.516100
0.794200 0.743600 0.545800
0.283000 0.697000 0.448600
0.370600 0.729400 0.481000
0.458200 0.761800 0.513400
0.545800 0.794200 0.545800
0.601000 0.794200 0.545800
0.642400 0.794200 0.545800
0.693000 0.794200 0.545800
0.743600 0.794200 0.545800
0.794200 0.794200 0.545800
0.169600 0.169600 0.390400
0.224800 0.169600 0.390400
0.280000 0.169600 0.390400
0.335200 0.169600 0.390400
0.390400 0.169600 0.390400
0.456100 0.193900 0.414700
0.536400 0.223600 0.444400
0.616700 0.253300 0.474100
0.697000 0.283000 0.503800
0.169600 0.224800 0.390400
0.257200 0.257200 0.422800
0.312400 0.257200 0.422800
0.367600 0.257200 0.422800
0.422800 0.257200 0.422800
0.488500 0.281500 0.447100
0.568800 0.311200 0.476800
0.649100 0.340900 0.506500
0.729400 0.370600 0.536200
0.169600 0.280000 0.390400
0.257200 0.312400 0.422800
0.344800 0.344800 0.455200
0.400000 0.344800 0.455200
0.455200 0.344800 0.455200
0.520900 0.369100 0.479500
0.601200 0.398800 0.509200
0.681500 0.428500 0.538900
0.761800 0.458200 0.568600
0.169600 0.335200 0.390400
0.257200 0.367600 0.422800
0.344800 0.400000 0.455200
0.432400 0.432400 0.487600
0.487600 0.432400 0.487600
0.553300 0.456700 0.511900
0.633600 0.486400 0.541600
0.713900 0.516100 0.571300
0.794200 0.545800 0.601000
0.169600 0.390400 0.390400
0.257200 0.422800 0.422800
0.344800 0.455200 0.455200
0.432400 0.487600 0.487600
0.520000 0.520000 0.520000
0.585700 0.544300 0.544300
0.666000 0.574000 0.574000
0.746300 0.603700 0.603700
0.826600 0.633400 0.633400
0.193900 0.456100 0.414700
0.281500 0.488500 0.447100
0.369100 0.520900 0.479500
0.456700 0.553300 0.511900
0.544300 0.585700 0.544300
0.585700 0.585700 0.544300
0.666000 0.615400 0.574000
0.746300 0.645100 0.603700
0.826600 0.674800 0.633400
0.223600 0.536400 0.444400
0.311200 0.568800 0.476800
0.398800 0.601200 0.509200
0.486400 0.633600 0.541600
0.574000 0.666000 0.574000
0.615400 0.666000 0.574000
0.666000 0.666000 0.574000
0.746300 0.695700 0.603700
0.826600 0.725400 0.633400
0.253300 0.616700 0.474100
0.340900 0.649100 0.506500
0.428500 0.681500 0.538900
0.516100 0.713900 0.571300
0.603700 0.746300 0.603700
0.645100 0.746300 0.603700
0.695700 0.746300 0.603700
0.746300 0.746300 0.603700
0.826600 0.776000 0.633400
0.283000 0.697000 0.503800
0.370600 0.729400 0.536200
0.458200 0.761800 0.568600
0.545800 0.794200 0.601000
0.633400 0.826600 0.633400
0.674800 0.826600 0.633400
0.725400 0.826600 0.633400
0.776000 0.826600 0.633400
0.826600 0.826600 0.633400
0.193900 0.193900 0.456100
0.249100 0.193900 0.456100
0.304300 0.193900 0.456100
0.359500 0.193900 0.456100
0.414700 0.193900 0.456100
0.456100 0.193900 0.456100
0.536400 0.223600 0.485800
0.616700 0.253300 0.515500
0.697000 0.283000 0.545200
0.193900 0.249100 0.456100
0.281500 0.281500 0.488500
0.336700 0.281500 0.488500
0.391900 0.281500 0.488500
0.447100 0.281500 0.488500
0.488500 0.281500 0.488500
0.568800 0.311200 0.518200
0.649100 0.340900 0.547900
0.729400 0.370600 0.577600
0.193900 0.304300 0.456100
0.281500 0.336700 0.488500
0.369100 0.369100 0.520900
0.424300 0.369100 0.520900
0.479500 0.369100 0.520900
0.520900 0.369100 0.520900
0.601200 0.398800 0.550600
0.681500 0.428500 0.580300
0.761800 0.458200 0.610000
0.193900 0.359500 0.456100
0.281500 0.391900 0.488500
0.369100 0.424300 0.520900
0.456700 0.456700 0.553300
0.511900 0.456700 0.553300
0.553300 0.456700 0.553300
0.633600 0.486400 0.583000
0.713900 0.516100 0.612700
0.794200 0.545800 0.642400
0.193900 0.414700 0.456100
0.281500 0.447100 0.488500
0.369100 0.479500 0.520900
0.456700 0.511900 0.553300
0.544300 0.544300 0.585700
0.585700 0.544300 0.585700
0.666000 0.574000 0.615400
0.746300 0.603700 0.645100
0.826600 0.633400 0.674800
0.193900 0.456100 0.456100
0.281500 0.488500 0.488500
0.369100 0.520900 0.520900
0.456700 0.553300 0.553300
0.544300 0.585700 0.585700
0.610000 0.610000 0.610000
0.690300 0.639700 0.639700
0.770600 0.669400 0.669400
0.850900 0.699100 0.699100
0.223600 0.536400 0.485800
0.311200 0.568800 0.518200
0.398800 0.601200 0.550600
0.486400 0.633600 0.583000
0.574000 0.666000 0.615400
0.639700 0.690300 0.639700
0.690300 0.690300 0.639700
0.770600 0.720000 0.669400
0.850900 0.749700 0.699100
0.253300 0.616700 0.515500
0.340900 0.649100 0.547900
0.428500 0.681500 0.580300
0.516100 0.713900 0.612700
0.603700 0.746300 0.645100
0.669400 0.770600 0.669400
0.720000 0.770600 0.669400
0.770600 0.770600 0.669400
0.850900 0.800300 0.699100
0.283000 0.697000 0.545200
0.370600 0.729400 0.577600
0.458200 0.761800 0.610000
0.545800 0.794200 0.642400
0.633400 0.826600 0.674800
0.699100 0.850900 0.699100
0.749700 0.850900 0.699100
0.800300 0.850900 0.699100
0.850900 0.850900 0.699100
0.223600 0.223600 0.536400
0.278800 0.223600 0.536400
0.334000 0.223600 0.536400
0.389200 0.223600 0.536400
0.444400 0.223600 0.536400
0.485800 0.223600 0.536400
0.536400 0.223600 0.536400
0.616700 0.253300 0.566100
0.697000 0.283000 0.595800
0.223600 0.278800 0.536400
0.311200 0.311200 0.568800
0.366400 0.311200 0.568800
0.421600 0.311200 0.568800
0.476800 0.311200 0.568800
0.518200 0.311200 0.568800
0.568800 0.311200 0.568800
0.649100 0.340900 0.598500
0.729400 0.370600 0.628200
0.223600 0.334000 0.536400
0.311200 0.366400 0.568800
0.398800 0.398800 0.601200
0.454000 0.398800 0.601200
0.509200 0.398800 0.601200
0.550600 0.398800 0.601200
0.601200 0.398800 0.601200
0.681500 0.428500 0.630900
0.761800 0.458200 0.660600
0.223600 0.389200 0.536400
0.311200 0.421600 0.568800
0.398800 0.454000 0.601200
0.486400 0.486400 0.633600
0.541600 0.486400 0.633600
0.583000 0.486400 0.633600
0.633600 0.486400 0.633600
0.713900 0.516100 0.663300
0.794200 0.545800 0.693000
0.223600 0.444400 0.536400
0.311200 0.476800 0.568800
0.398800 0.509200 0.601200
0.486400 0.541600 0.633600
0.574000 0.574000 0.666000
0.615400 0.574000 0.666000
0.666000 0.574000 0.666000
0.746300 0.603700 0.695700
0.826600 0.633400 0.725400
0.223600 0.485800 0.536400
0.311200 0.518200 0.568800
0.398800 0.550600 0.601200
0.486400 0.583000 0.633600
0.574000 0.615400 0.666000
0.639700 0.639700 0.690300
0.690300 0.639700 0.690300
0.770600 0.669400 0.720000
0.850900 0.699100 0.749700
0.223600 0.536400 0.536400
0.311200 0.568800 0.568800
0.398800 0.601200 0.601200
0.486400 0.633600 0.633600
0.574000 0.666000 0.666000
0.639700 0.690300 0.690300
0.720000 0.720000 0.720000
0.800300 0.749700 0.749700
0.880600 0.779400 0.779400
0.253300 0.616700 0.566100
0.340900 0.649100 0.598500
0.428500 0.681500 0.630900
0.516100 0.713900 0.663300
0.603700 0.746300 0.695700
0.669400 0.770600 0.720000
0.749700 0.800300 0.749700
0.800300 0.800300 0.749700
0.880600 0.830000 0.779400
0.283000 0.697000 0.595800
0.370600 0.729400 0.628200
0.458200 0.761800 0.660600
0.545800 0.794200 0.693000
0.633400 0.826600 0.725400
0.699100 0.850900 0.749700
0.779400 0.880600 0.779400
0.830000 0.880600 0.779400
0.880600 0.880600 0.779400
0.253300 0.253300 0.616700
0.308500 0.253300 0.616700
0.363700 0.253300 0.616700
0.418900 0.253300 0.616700
0.474100 0.253300 0.616700
0.515500 0.253300 0.616700
0.566100 0.253300 0.616700
0.616700 0.253300 0.616700
0.697000 0.283000 0.646400
0.253300 0.308500 0.616700
0.340900 0.340900 0.649100
0.396100 0.340900 0.649100
0.451300 0.340900 0.649100
0.506500 0.340900 0.649100
0.547900 0.340900 0.649100
0.598500 0.340900 0.649100
0.649100 0.340900 0.649100
0.729400 0.370600 0.678800
0.253300 0.363700 0.616700
0.340900 0.396100 0.649100
0.428500 0.428500 0.681500
0.483700 0.428500 0.681500
0.538900 0.428500 0.681500
0.580300 0.428500 0.681500
0.630900 0.428500 0.681500
0.681500 0.428500 0.681500
0.761800 0.458200 0.711200
0.253300 0.418900 0.616700
0.340900 0.451300 0.649100
0.428500 0.483700 0.681500
0.516100 0.516100 0.713900
0.571300 0.516100 0.713900
0.612700 0.516100 0.713900
0.663300 0.516100 0.713900
0.713900 0.516100 0.713900
0.794200 0.545800 0.743600
0.253300 0.474100 0.616700
0.340900 0.506500 0.649100
0.428500 0.538900 0.681500
0.516100 0.571300 0.713900
0.603700 0.603700 0.746300
0.645100 0.603700 0.746300
0.695700 0.603700 0.746300
0.746300 0.603700 0.746300
0.826600 0.633400 0.776000
0.253300 0.515500 0.616700
0.340900 0.547900 0.649100
0.428500 0.580300 0.681500
0.516100 0.612700 0.713900
0.603700 0.645100 0.746300
0.669400 0.669400 0.770600
0.720000 0.669400 0.770600
0.770600 0.669400 0.770600
0.850900 0.699100 0.800300
0.253300 0.566100 0.616700
0.340900 0.598500 0.649100
0.428500 0.630900 0.681500
0.516100 0.663300 0.713900
0.603700 0.695700 0.746300
0.669400 0.720000 0.770600
0.749700 0.749700 0.800300
0.800300 0.749700 0.800300
0.880600 0.779400 0.830000
0.253300 0.616700 0.616700
0.340900 0.649100 0.649100
0.428500 0.681500 0.681500
0.516100 0.713900 0.713900
0.603700 0.746300 0.746300
0.669400 0.770600 0.770600
0.749700 0.800300 0.800300
0.830000 0.830000 0.830000
0.910300 0.859700 0.859700
0.283000 0.697000 0.646400
0.370600 0.729400 0.678800
0.458200 0.761800 0.711200
0.545800 0.794200 0.743600
0.633400 0.826600 0.776000
0.699100 0.850900 0.800300
0.779400 0.880600 0.830000
0.859700 0.910300 0.859700
0.910300 0.910300 0.859700
0.283000 0.283000 0.697000
0.338200 0.283000 0.697000
0.393400 0.283000 0.697000
0.448600 0.283000 0.697000
0.503800 0.283000 0.697000
0.545200 0.283000 0.697000
0.595800 0.283000 0.697000
0.646400 0.283000 0.697000
0.697000 0.283000 0.697000
0.283000 0.338200 0.697000
0.370600 0.370600 0.729400
0.425800 0.370600 0.729400
0.481000 0.370600 0.729400
0.536200 0.370600 0.729400
0.577600 0.370600 0.729400
0.628200 0.370600 0.729400
0.678800 0.370600 0.729400
0.729400 0.370600 0.729400
0.283000 0.393400 0.697000
0.370600 0.425800 0.729400
0.458200 0.458200 0.761800
0.513400 0.458200 0.761800
0.568600 0.458200 0.761800
0.610000 0.458200 0.761800
0.660600 0.458200 0.761800
0.711200 0.458200 0.761800
0.761800 0.458200 0.761800
0.283000 0.448600 0.697000
0.370600 0.481000 0.729400
0.458200 0.513400 0.761800
0.545800 0.545800 0.794200
0.601000 0.545800 0.794200
0.642400 0.545800 0.794200
0.693000 0.545800 0.794200
0.743600 0.545800 0.794200
0.794200 0.545800 0.794200
0.283000 0.503800 0.697000
0.370600 0.536200 0.729400
0.458200 0.568600 0.761800
0.545800 0.601000 0.794200
0.633400 0.633400 0.826600
0.674800 0.633400 0.826600
0.725400 0.633400 0.826600
0.776000 0.633400 0.826600
0.826600 0.633400 0.826600
0.283000 0.545200 0.697000
0.370600 0.577600 0.729400
0.458200 0.610000 0.761800
0.545800 0.642400 0.794200
0.633400 0.674800 0.826600
0.699100 0.699100 0.850900
0.749700 0.699100 0.850900
0.800300 0.699100 0.850900
0.850900 0.699100 0.850900
0.283000 0.595800 0.697000
0.370600 0.628200 0.729400
0.458200 0.660600 0.761800
0.545800 0.693000 0.794200
0.633400 0.725400 0.826600
0.699100 0.749700 0.850900
0.779400 0.779400 0.880600
0.830000 0.779400 0.880600
0.880600 0.779400 0.880600
0.283000 0.646400 0.697000
0.370600 0.678800 0.729400
0.458200 0.711200 0.761800
0.545800 0.743600 0.794200
0.633400 0.776000 0.826600
0.699100 0.800300 0.850900
0.779400 0.830000 0.880600
0.859700 0.859700 0.910300
0.910300 0.859700 0.910300
0.283000 0.697000 0.697000
0.370600 0.729400 0.729400
0.458200 0.761800 0.761800
0.545800 0.794200 0.794200
0.633400 0.826600 0.826600
0.699100 0.850900 0.850900
0.779400 0.880600 0.880600
0.859700 0.910300 0.910300
0.940000 0.940000 0.940000
