docs/luts/fuji_recipes/Provia_RR_Fujicolor_Pro_400H_OverExposed.cube
TITLE "Fujifilm Recipe: RR Fujicolor Pro 400H OverExposed (Provia)"
# FilmSim=Provia HL=-2 SH=4 Col=1 WB=Auto WBR=2 WBB=2
LUT_3D_SIZE 5
DOMAIN_MIN 0.0 0.0 0.0
DOMAIN_MAX 1.0 1.0 1.0
0.000000 0.000000 0.000000
0.310575 0.000000 0.000000
0.693713 0.000000 0.000000
0.940000 0.000000 0.000000
0.940000 0.000000 0.000000
0.000000 0.295786 0.000000
0.310575 0.295786 0.000000
0.693713 0.295786 0.000000
0.940000 0.295786 0.000000
0.940000 0.295786 0.000000
0.000000 0.663536 0.000000
0.310575 0.663536 0.000000
0.693713 0.663536 0.000000
0.940000 0.663536 0.000000
0.940000 0.663536 0.000000
0.000000 0.940000 0.000000
0.310575 0.940000 0.000000
0.693713 0.940000 0.000000
0.940000 0.940000 0.000000
0.940000 0.940000 0.000000
0.000000 0.940000 0.000000
0.310575 0.940000 0.000000
0.693713 0.940000 0.000000
0.940000 0.940000 0.000000
0.940000 0.940000 0.000000
0.000000 0.000000 0.310575
0.310575 0.000000 0.310575
0.693713 0.000000 0.310575
0.940000 0.000000 0.310575
0.940000 0.000000 0.310575
0.000000 0.295786 0.310575
0.311906 0.294455 0.311906
0.729526 0.259973 0.277424
0.997979 0.237807 0.255258
0.997979 0.237807 0.255258
0.000000 0.663536 0.310575
0.278809 0.695302 0.278809
0.728195 0.692586 0.276093
0.996648 0.670420 0.253927
0.996648 0.670420 0.253927
0.000000 0.940000 0.310575
0.253927 0.996648 0.253927
0.706029 0.996648 0.253927
0.996648 0.996648 0.253927
0.996648 0.996648 0.253927
0.000000 0.940000 0.310575
0.253927 0.996648 0.253927
0.706029 0.996648 0.253927
0.996648 0.996648 0.253927
0.996648 0.996648 0.253927
0.000000 0.000000 0.693713
0.310575 0.000000 0.693713
0.693713 0.000000 0.693713
0.940000 0.000000 0.693713
0.940000 0.000000 0.693713
0.000000 0.295786 0.693713
0.277424 0.259973 0.729526
0.729526 0.259973 0.729526
0.997979 0.237807 0.707360
0.997979 0.237807 0.707360
0.000000 0.663536 0.693713
0.276093 0.692586 0.728195
0.696428 0.660820 0.696428
0.964882 0.638654 0.674263
0.964882 0.638654 0.674263
0.000000 0.940000 0.693713
0.253927 0.996648 0.706029
0.671547 0.962166 0.671547
0.962166 0.962166 0.671547
0.962166 0.962166 0.671547
0.000000 0.940000 0.693713
0.253927 0.996648 0.706029
0.671547 0.962166 0.671547
0.962166 0.962166 0.671547
0.962166 0.962166 0.671547
0.000000 0.000000 0.940000
0.310575 0.000000 0.940000
0.693713 0.000000 0.940000
0.940000 0.000000 0.940000
0.940000 0.000000 0.940000
0.000000 0.295786 0.940000
0.255258 0.237807 0.997979
0.707360 0.237807 0.997979
0.997979 0.237807 0.997979
0.997979 0.237807 0.997979
0.000000 0.663536 0.940000
0.253927 0.670420 0.996648
0.674263 0.638654 0.964882
0.964882 0.638654 0.964882
0.964882 0.638654 0.964882
0.000000 0.940000 0.940000
0.253927 0.996648 0.996648
0.671547 0.962166 0.962166
0.940000 0.940000 0.940000
0.940000 0.940000 0.940000
0.000000 0.940000 0.940000
0.253927 0.996648 0.996648
0.671547 0.962166 0.962166
0.940000 0.940000 0.940000
0.940000 0.940000 0.940000
0.000000 0.000000 0.940000
0.310575 0.000000 0.940000
0.693713 0.000000 0.940000
0.940000 0.000000 0.940000
0.940000 0.000000 0.940000
0.000000 0.295786 0.940000
0.255258 0.237807 0.997979
0.707360 0.237807 0.997979
0.997979 0.237807 0.997979
0.997979 0.237807 0.997979
0.000000 0.663536 0.940000
0.253927 0.670420 0.996648
0.674263 0.638654 0.964882
0.964882 0.638654 0.964882
0.964882 0.638654 0.964882
0.000000 0.940000 0.940000
0.253927 0.996648 0.996648
0.671547 0.962166 0.962166
0.940000 0.940000 0.940000
0.940000 0.940000 0.940000
0.000000 0.940000 0.940000
0.253927 0.996648 0.996648
0.671547 0.962166 0.962166
0.940000 0.940000 0.940000
0.940000 0.940000 0.940000
