docs/luts/fuji_recipes/Provia_RR_Fujicolor_Pro_400H_OverExposed.cube
TITLE "Fujifilm Recipe: RR Fujicolor Pro 400H OverExposed (Provia)"
# FilmSim=Provia HL=-2 SH=4 Col=1 WB=Auto WBR=2 WBB=2
LUT_3D_SIZE 33
DOMAIN_MIN 0.0 0.0 0.0
DOMAIN_MAX 1.0 1.0 1.0
0.000000 0.000000 0.000000
0.052410 0.000000 0.000000
0.089826 0.000000 0.000000
0.126618 0.000000 0.000000
0.163409 0.000000 0.000000
0.200201 0.000000 0.000000
0.236992 0.000000 0.000000
0.273784 0.000000 0.000000
0.310575 0.000000 0.000000
0.347367 0.000000 0.000000
0.384158 0.000000 0.000000
0.500995 0.000000 0.000000
0.539539 0.000000 0.000000
0.578082 0.000000 0.000000
0.616626 0.000000 0.000000
0.655169 0.000000 0.000000
0.693713 0.000000 0.000000
0.732256 0.000000 0.000000
0.770800 0.000000 0.000000
0.809343 0.000000 0.000000
0.847887 0.000000 0.000000
0.886430 0.000000 0.000000
0.924974 0.000000 0.000000
0.940000 0.000000 0.000000
0.940000 0.000000 0.000000
0.940000 0.000000 0.000000
0.940000 0.000000 0.000000
0.940000 0.000000 0.000000
0.940000 0.000000 0.000000
0.940000 0.000000 0.000000
0.940000 0.000000 0.000000
0.940000 0.000000 0.000000
0.940000 0.000000 0.000000
0.000000 0.049915 0.000000
0.052410 0.049915 0.000000
0.089826 0.049915 0.000000
0.126618 0.049915 0.000000
0.163409 0.049915 0.000000
0.200201 0.049915 0.000000
0.236992 0.049915 0.000000
0.273784 0.049915 0.000000
0.310575 0.049915 0.000000
0.347367 0.049915 0.000000
0.384158 0.049915 0.000000
0.500995 0.049915 0.000000
0.539539 0.049915 0.000000
0.578082 0.049915 0.000000
0.616626 0.049915 0.000000
0.655169 0.049915 0.000000
0.693713 0.049915 0.000000
0.732256 0.049915 0.000000
0.770800 0.049915 0.000000
0.809343 0.049915 0.000000
0.847887 0.049915 0.000000
0.886430 0.049915 0.000000
0.924974 0.049915 0.000000
0.940000 0.049915 0.000000
0.940000 0.049915 0.000000
0.940000 0.049915 0.000000
0.940000 0.049915 0.000000
0.940000 0.049915 0.000000
0.940000 0.049915 0.000000
0.940000 0.049915 0.000000
0.940000 0.049915 0.000000
0.940000 0.049915 0.000000
0.940000 0.049915 0.000000
0.000000 0.085549 0.000000
0.052410 0.085549 0.000000
0.089826 0.085549 0.000000
0.126618 0.085549 0.000000
0.163409 0.085549 0.000000
0.200201 0.085549 0.000000
0.236992 0.085549 0.000000
0.273784 0.085549 0.000000
0.310575 0.085549 0.000000
0.347367 0.085549 0.000000
0.384158 0.085549 0.000000
0.500995 0.085549 0.000000
0.539539 0.085549 0.000000
0.578082 0.085549 0.000000
0.616626 0.085549 0.000000
0.655169 0.085549 0.000000
0.693713 0.085549 0.000000
0.732256 0.085549 0.000000
0.770800 0.085549 0.000000
0.809343 0.085549 0.000000
0.847887 0.085549 0.000000
0.886430 0.085549 0.000000
0.924974 0.085549 0.000000
0.940000 0.085549 0.000000
0.940000 0.085549 0.000000
0.940000 0.085549 0.000000
0.940000 0.085549 0.000000
0.940000 0.085549 0.000000
0.940000 0.085549 0.000000
0.940000 0.085549 0.000000
0.940000 0.085549 0.000000
0.940000 0.085549 0.000000
0.940000 0.085549 0.000000
0.000000 0.120588 0.000000
0.052410 0.120588 0.000000
0.089826 0.120588 0.000000
0.126618 0.120588 0.000000
0.163409 0.120588 0.000000
0.200201 0.120588 0.000000
0.236992 0.120588 0.000000
0.273784 0.120588 0.000000
0.310575 0.120588 0.000000
0.347367 0.120588 0.000000
0.384158 0.120588 0.000000
0.500995 0.120588 0.000000
0.539539 0.120588 0.000000
0.578082 0.120588 0.000000
0.616626 0.120588 0.000000
0.655169 0.120588 0.000000
0.693713 0.120588 0.000000
0.732256 0.120588 0.000000
0.770800 0.120588 0.000000
0.809343 0.120588 0.000000
0.847887 0.120588 0.000000
0.886430 0.120588 0.000000
0.924974 0.120588 0.000000
0.940000 0.120588 0.000000
0.940000 0.120588 0.000000
0.940000 0.120588 0.000000
0.940000 0.120588 0.000000
0.940000 0.120588 0.000000
0.940000 0.120588 0.000000
0.940000 0.120588 0.000000
0.940000 0.120588 0.000000
0.940000 0.120588 0.000000
0.940000 0.120588 0.000000
0.000000 0.155628 0.000000
0.052410 0.155628 0.000000
0.089826 0.155628 0.000000
0.126618 0.155628 0.000000
0.163409 0.155628 0.000000
0.200201 0.155628 0.000000
0.236992 0.155628 0.000000
0.273784 0.155628 0.000000
0.310575 0.155628 0.000000
0.347367 0.155628 0.000000
0.384158 0.155628 0.000000
0.500995 0.155628 0.000000
0.539539 0.155628 0.000000
0.578082 0.155628 0.000000
0.616626 0.155628 0.000000
0.655169 0.155628 0.000000
0.693713 0.155628 0.000000
0.732256 0.155628 0.000000
0.770800 0.155628 0.000000
0.809343 0.155628 0.000000
0.847887 0.155628 0.000000
0.886430 0.155628 0.000000
0.924974 0.155628 0.000000
0.940000 0.155628 0.000000
0.940000 0.155628 0.000000
0.940000 0.155628 0.000000
0.940000 0.155628 0.000000
0.940000 0.155628 0.000000
0.940000 0.155628 0.000000
0.940000 0.155628 0.000000
0.940000 0.155628 0.000000
0.940000 0.155628 0.000000
0.940000 0.155628 0.000000
0.000000 0.190667 0.000000
0.052410 0.190667 0.000000
0.089826 0.190667 0.000000
0.126618 0.190667 0.000000
0.163409 0.190667 0.000000
0.200201 0.190667 0.000000
0.236992 0.190667 0.000000
0.273784 0.190667 0.000000
0.310575 0.190667 0.000000
0.347367 0.190667 0.000000
0.384158 0.190667 0.000000
0.500995 0.190667 0.000000
0.539539 0.190667 0.000000
0.578082 0.190667 0.000000
0.616626 0.190667 0.000000
0.655169 0.190667 0.000000
0.693713 0.190667 0.000000
0.732256 0.190667 0.000000
0.770800 0.190667 0.000000
0.809343 0.190667 0.000000
0.847887 0.190667 0.000000
0.886430 0.190667 0.000000
0.924974 0.190667 0.000000
0.940000 0.190667 0.000000
0.940000 0.190667 0.000000
0.940000 0.190667 0.000000
0.940000 0.190667 0.000000
0.940000 0.190667 0.000000
0.940000 0.190667 0.000000
0.940000 0.190667 0.000000
0.940000 0.190667 0.000000
0.940000 0.190667 0.000000
0.940000 0.190667 0.000000
0.000000 0.225707 0.000000
0.052410 0.225707 0.000000
0.089826 0.225707 0.000000
0.126618 0.225707 0.000000
0.163409 0.225707 0.000000
0.200201 0.225707 0.000000
0.236992 0.225707 0.000000
0.273784 0.225707 0.000000
0.310575 0.225707 0.000000
0.347367 0.225707 0.000000
0.384158 0.225707 0.000000
0.500995 0.225707 0.000000
0.539539 0.225707 0.000000
0.578082 0.225707 0.000000
0.616626 0.225707 0.000000
0.655169 0.225707 0.000000
0.693713 0.225707 0.000000
0.732256 0.225707 0.000000
0.770800 0.225707 0.000000
0.809343 0.225707 0.000000
0.847887 0.225707 0.000000
0.886430 0.225707 0.000000
0.924974 0.225707 0.000000
0.940000 0.225707 0.000000
0.940000 0.225707 0.000000
0.940000 0.225707 0.000000
0.940000 0.225707 0.000000
0.940000 0.225707 0.000000
0.940000 0.225707 0.000000
0.940000 0.225707 0.000000
0.940000 0.225707 0.000000
0.940000 0.225707 0.000000
0.940000 0.225707 0.000000
0.000000 0.260746 0.000000
0.052410 0.260746 0.000000
0.089826 0.260746 0.000000
0.126618 0.260746 0.000000
0.163409 0.260746 0.000000
0.200201 0.260746 0.000000
0.236992 0.260746 0.000000
0.273784 0.260746 0.000000
0.310575 0.260746 0.000000
0.347367 0.260746 0.000000
0.384158 0.260746 0.000000
0.500995 0.260746 0.000000
0.539539 0.260746 0.000000
0.578082 0.260746 0.000000
0.616626 0.260746 0.000000
0.655169 0.260746 0.000000
0.693713 0.260746 0.000000
0.732256 0.260746 0.000000
0.770800 0.260746 0.000000
0.809343 0.260746 0.000000
0.847887 0.260746 0.000000
0.886430 0.260746 0.000000
0.924974 0.260746 0.000000
0.940000 0.260746 0.000000
0.940000 0.260746 0.000000
0.940000 0.260746 0.000000
0.940000 0.260746 0.000000
0.940000 0.260746 0.000000
0.940000 0.260746 0.000000
0.940000 0.260746 0.000000
0.940000 0.260746 0.000000
0.940000 0.260746 0.000000
0.940000 0.260746 0.000000
0.000000 0.295786 0.000000
0.052410 0.295786 0.000000
0.089826 0.295786 0.000000
0.126618 0.295786 0.000000
0.163409 0.295786 0.000000
0.200201 0.295786 0.000000
0.236992 0.295786 0.000000
0.273784 0.295786 0.000000
0.310575 0.295786 0.000000
0.347367 0.295786 0.000000
0.384158 0.295786 0.000000
0.500995 0.295786 0.000000
0.539539 0.295786 0.000000
0.578082 0.295786 0.000000
0.616626 0.295786 0.000000
0.655169 0.295786 0.000000
0.693713 0.295786 0.000000
0.732256 0.295786 0.000000
0.770800 0.295786 0.000000
0.809343 0.295786 0.000000
0.847887 0.295786 0.000000
0.886430 0.295786 0.000000
0.924974 0.295786 0.000000
0.940000 0.295786 0.000000
0.940000 0.295786 0.000000
0.940000 0.295786 0.000000
0.940000 0.295786 0.000000
0.940000 0.295786 0.000000
0.940000 0.295786 0.000000
0.940000 0.295786 0.000000
0.940000 0.295786 0.000000
0.940000 0.295786 0.000000
0.940000 0.295786 0.000000
0.000000 0.330826 0.000000
0.052410 0.330826 0.000000
0.089826 0.330826 0.000000
0.126618 0.330826 0.000000
0.163409 0.330826 0.000000
0.200201 0.330826 0.000000
0.236992 0.330826 0.000000
0.273784 0.330826 0.000000
0.310575 0.330826 0.000000
0.347367 0.330826 0.000000
0.384158 0.330826 0.000000
0.500995 0.330826 0.000000
0.539539 0.330826 0.000000
0.578082 0.330826 0.000000
0.616626 0.330826 0.000000
0.655169 0.330826 0.000000
0.693713 0.330826 0.000000
0.732256 0.330826 0.000000
0.770800 0.330826 0.000000
0.809343 0.330826 0.000000
0.847887 0.330826 0.000000
0.886430 0.330826 0.000000
0.924974 0.330826 0.000000
0.940000 0.330826 0.000000
0.940000 0.330826 0.000000
0.940000 0.330826 0.000000
0.940000 0.330826 0.000000
0.940000 0.330826 0.000000
0.940000 0.330826 0.000000
0.940000 0.330826 0.000000
0.940000 0.330826 0.000000
0.940000 0.330826 0.000000
0.940000 0.330826 0.000000
0.000000 0.365865 0.000000
0.052410 0.365865 0.000000
0.089826 0.365865 0.000000
0.126618 0.365865 0.000000
0.163409 0.365865 0.000000
0.200201 0.365865 0.000000
0.236992 0.365865 0.000000
0.273784 0.365865 0.000000
0.310575 0.365865 0.000000
0.347367 0.365865 0.000000
0.384158 0.365865 0.000000
0.500995 0.365865 0.000000
0.539539 0.365865 0.000000
0.578082 0.365865 0.000000
0.616626 0.365865 0.000000
0.655169 0.365865 0.000000
0.693713 0.365865 0.000000
0.732256 0.365865 0.000000
0.770800 0.365865 0.000000
0.809343 0.365865 0.000000
0.847887 0.365865 0.000000
0.886430 0.365865 0.000000
0.924974 0.365865 0.000000
0.940000 0.365865 0.000000
0.940000 0.365865 0.000000
0.940000 0.365865 0.000000
0.940000 0.365865 0.000000
0.940000 0.365865 0.000000
0.940000 0.365865 0.000000
0.940000 0.365865 0.000000
0.940000 0.365865 0.000000
0.940000 0.365865 0.000000
0.940000 0.365865 0.000000
0.000000 0.400905 0.000000
0.052410 0.400905 0.000000
0.089826 0.400905 0.000000
0.126618 0.400905 0.000000
0.163409 0.400905 0.000000
0.200201 0.400905 0.000000
0.236992 0.400905 0.000000
0.273784 0.400905 0.000000
0.310575 0.400905 0.000000
0.347367 0.400905 0.000000
0.384158 0.400905 0.000000
0.500995 0.400905 0.000000
0.539539 0.400905 0.000000
0.578082 0.400905 0.000000
0.616626 0.400905 0.000000
0.655169 0.400905 0.000000
0.693713 0.400905 0.000000
0.732256 0.400905 0.000000
0.770800 0.400905 0.000000
0.809343 0.400905 0.000000
0.847887 0.400905 0.000000
0.886430 0.400905 0.000000
0.924974 0.400905 0.000000
0.940000 0.400905 0.000000
0.940000 0.400905 0.000000
0.940000 0.400905 0.000000
0.940000 0.400905 0.000000
0.940000 0.400905 0.000000
0.940000 0.400905 0.000000
0.940000 0.400905 0.000000
0.940000 0.400905 0.000000
0.940000 0.400905 0.000000
0.940000 0.400905 0.000000
0.000000 0.516703 0.000000
0.052410 0.516703 0.000000
0.089826 0.516703 0.000000
0.126618 0.516703 0.000000
0.163409 0.516703 0.000000
0.200201 0.516703 0.000000
0.236992 0.516703 0.000000
0.273784 0.516703 0.000000
0.310575 0.516703 0.000000
0.347367 0.516703 0.000000
0.384158 0.516703 0.000000
0.500995 0.516703 0.000000
0.539539 0.516703 0.000000
0.578082 0.516703 0.000000
0.616626 0.516703 0.000000
0.655169 0.516703 0.000000
0.693713 0.516703 0.000000
0.732256 0.516703 0.000000
0.770800 0.516703 0.000000
0.809343 0.516703 0.000000
0.847887 0.516703 0.000000
0.886430 0.516703 0.000000
0.924974 0.516703 0.000000
0.940000 0.516703 0.000000
0.940000 0.516703 0.000000
0.940000 0.516703 0.000000
0.940000 0.516703 0.000000
0.940000 0.516703 0.000000
0.940000 0.516703 0.000000
0.940000 0.516703 0.000000
0.940000 0.516703 0.000000
0.940000 0.516703 0.000000
0.940000 0.516703 0.000000
0.000000 0.553411 0.000000
0.052410 0.553411 0.000000
0.089826 0.553411 0.000000
0.126618 0.553411 0.000000
0.163409 0.553411 0.000000
0.200201 0.553411 0.000000
0.236992 0.553411 0.000000
0.273784 0.553411 0.000000
0.310575 0.553411 0.000000
0.347367 0.553411 0.000000
0.384158 0.553411 0.000000
0.500995 0.553411 0.000000
0.539539 0.553411 0.000000
0.578082 0.553411 0.000000
0.616626 0.553411 0.000000
0.655169 0.553411 0.000000
0.693713 0.553411 0.000000
0.732256 0.553411 0.000000
0.770800 0.553411 0.000000
0.809343 0.553411 0.000000
0.847887 0.553411 0.000000
0.886430 0.553411 0.000000
0.924974 0.553411 0.000000
0.940000 0.553411 0.000000
0.940000 0.553411 0.000000
0.940000 0.553411 0.000000
0.940000 0.553411 0.000000
0.940000 0.553411 0.000000
0.940000 0.553411 0.000000
0.940000 0.553411 0.000000
0.940000 0.553411 0.000000
0.940000 0.553411 0.000000
0.940000 0.553411 0.000000
0.000000 0.590120 0.000000
0.052410 0.590120 0.000000
0.089826 0.590120 0.000000
0.126618 0.590120 0.000000
0.163409 0.590120 0.000000
0.200201 0.590120 0.000000
0.236992 0.590120 0.000000
0.273784 0.590120 0.000000
0.310575 0.590120 0.000000
0.347367 0.590120 0.000000
0.384158 0.590120 0.000000
0.500995 0.590120 0.000000
0.539539 0.590120 0.000000
0.578082 0.590120 0.000000
0.616626 0.590120 0.000000
0.655169 0.590120 0.000000
0.693713 0.590120 0.000000
0.732256 0.590120 0.000000
0.770800 0.590120 0.000000
0.809343 0.590120 0.000000
0.847887 0.590120 0.000000
0.886430 0.590120 0.000000
0.924974 0.590120 0.000000
0.940000 0.590120 0.000000
0.940000 0.590120 0.000000
0.940000 0.590120 0.000000
0.940000 0.590120 0.000000
0.940000 0.590120 0.000000
0.940000 0.590120 0.000000
0.940000 0.590120 0.000000
0.940000 0.590120 0.000000
0.940000 0.590120 0.000000
0.940000 0.590120 0.000000
0.000000 0.626828 0.000000
0.052410 0.626828 0.000000
0.089826 0.626828 0.000000
0.126618 0.626828 0.000000
0.163409 0.626828 0.000000
0.200201 0.626828 0.000000
0.236992 0.626828 0.000000
0.273784 0.626828 0.000000
0.310575 0.626828 0.000000
0.347367 0.626828 0.000000
0.384158 0.626828 0.000000
0.500995 0.626828 0.000000
0.539539 0.626828 0.000000
0.578082 0.626828 0.000000
0.616626 0.626828 0.000000
0.655169 0.626828 0.000000
0.693713 0.626828 0.000000
0.732256 0.626828 0.000000
0.770800 0.626828 0.000000
0.809343 0.626828 0.000000
0.847887 0.626828 0.000000
0.886430 0.626828 0.000000
0.924974 0.626828 0.000000
0.940000 0.626828 0.000000
0.940000 0.626828 0.000000
0.940000 0.626828 0.000000
0.940000 0.626828 0.000000
0.940000 0.626828 0.000000
0.940000 0.626828 0.000000
0.940000 0.626828 0.000000
0.940000 0.626828 0.000000
0.940000 0.626828 0.000000
0.940000 0.626828 0.000000
0.000000 0.663536 0.000000
0.052410 0.663536 0.000000
0.089826 0.663536 0.000000
0.126618 0.663536 0.000000
0.163409 0.663536 0.000000
0.200201 0.663536 0.000000
0.236992 0.663536 0.000000
0.273784 0.663536 0.000000
0.310575 0.663536 0.000000
0.347367 0.663536 0.000000
0.384158 0.663536 0.000000
0.500995 0.663536 0.000000
0.539539 0.663536 0.000000
0.578082 0.663536 0.000000
0.616626 0.663536 0.000000
0.655169 0.663536 0.000000
0.693713 0.663536 0.000000
0.732256 0.663536 0.000000
0.770800 0.663536 0.000000
0.809343 0.663536 0.000000
0.847887 0.663536 0.000000
0.886430 0.663536 0.000000
0.924974 0.663536 0.000000
0.940000 0.663536 0.000000
0.940000 0.663536 0.000000
0.940000 0.663536 0.000000
0.940000 0.663536 0.000000
0.940000 0.663536 0.000000
0.940000 0.663536 0.000000
0.940000 0.663536 0.000000
0.940000 0.663536 0.000000
0.940000 0.663536 0.000000
0.940000 0.663536 0.000000
0.000000 0.700244 0.000000
0.052410 0.700244 0.000000
0.089826 0.700244 0.000000
0.126618 0.700244 0.000000
0.163409 0.700244 0.000000
0.200201 0.700244 0.000000
0.236992 0.700244 0.000000
0.273784 0.700244 0.000000
0.310575 0.700244 0.000000
0.347367 0.700244 0.000000
0.384158 0.700244 0.000000
0.500995 0.700244 0.000000
0.539539 0.700244 0.000000
0.578082 0.700244 0.000000
0.616626 0.700244 0.000000
0.655169 0.700244 0.000000
0.693713 0.700244 0.000000
0.732256 0.700244 0.000000
0.770800 0.700244 0.000000
0.809343 0.700244 0.000000
0.847887 0.700244 0.000000
0.886430 0.700244 0.000000
0.924974 0.700244 0.000000
0.940000 0.700244 0.000000
0.940000 0.700244 0.000000
0.940000 0.700244 0.000000
0.940000 0.700244 0.000000
0.940000 0.700244 0.000000
0.940000 0.700244 0.000000
0.940000 0.700244 0.000000
0.940000 0.700244 0.000000
0.940000 0.700244 0.000000
0.940000 0.700244 0.000000
0.000000 0.736952 0.000000
0.052410 0.736952 0.000000
0.089826 0.736952 0.000000
0.126618 0.736952 0.000000
0.163409 0.736952 0.000000
0.200201 0.736952 0.000000
0.236992 0.736952 0.000000
0.273784 0.736952 0.000000
0.310575 0.736952 0.000000
0.347367 0.736952 0.000000
0.384158 0.736952 0.000000
0.500995 0.736952 0.000000
0.539539 0.736952 0.000000
0.578082 0.736952 0.000000
0.616626 0.736952 0.000000
0.655169 0.736952 0.000000
0.693713 0.736952 0.000000
0.732256 0.736952 0.000000
0.770800 0.736952 0.000000
0.809343 0.736952 0.000000
0.847887 0.736952 0.000000
0.886430 0.736952 0.000000
0.924974 0.736952 0.000000
0.940000 0.736952 0.000000
0.940000 0.736952 0.000000
0.940000 0.736952 0.000000
0.940000 0.736952 0.000000
0.940000 0.736952 0.000000
0.940000 0.736952 0.000000
0.940000 0.736952 0.000000
0.940000 0.736952 0.000000
0.940000 0.736952 0.000000
0.940000 0.736952 0.000000
0.000000 0.773660 0.000000
0.052410 0.773660 0.000000
0.089826 0.773660 0.000000
0.126618 0.773660 0.000000
0.163409 0.773660 0.000000
0.200201 0.773660 0.000000
0.236992 0.773660 0.000000
0.273784 0.773660 0.000000
0.310575 0.773660 0.000000
0.347367 0.773660 0.000000
0.384158 0.773660 0.000000
0.500995 0.773660 0.000000
0.539539 0.773660 0.000000
0.578082 0.773660 0.000000
0.616626 0.773660 0.000000
0.655169 0.773660 0.000000
0.693713 0.773660 0.000000
0.732256 0.773660 0.000000
0.770800 0.773660 0.000000
0.809343 0.773660 0.000000
0.847887 0.773660 0.000000
0.886430 0.773660 0.000000
0.924974 0.773660 0.000000
0.940000 0.773660 0.000000
0.940000 0.773660 0.000000
0.940000 0.773660 0.000000
0.940000 0.773660 0.000000
0.940000 0.773660 0.000000
0.940000 0.773660 0.000000
0.940000 0.773660 0.000000
0.940000 0.773660 0.000000
0.940000 0.773660 0.000000
0.940000 0.773660 0.000000
0.000000 0.810368 0.000000
0.052410 0.810368 0.000000
0.089826 0.810368 0.000000
0.126618 0.810368 0.000000
0.163409 0.810368 0.000000
0.200201 0.810368 0.000000
0.236992 0.810368 0.000000
0.273784 0.810368 0.000000
0.310575 0.810368 0.000000
0.347367 0.810368 0.000000
0.384158 0.810368 0.000000
0.500995 0.810368 0.000000
0.539539 0.810368 0.000000
0.578082 0.810368 0.000000
0.616626 0.810368 0.000000
0.655169 0.810368 0.000000
0.693713 0.810368 0.000000
0.732256 0.810368 0.000000
0.770800 0.810368 0.000000
0.809343 0.810368 0.000000
0.847887 0.810368 0.000000
0.886430 0.810368 0.000000
0.924974 0.810368 0.000000
0.940000 0.810368 0.000000
0.940000 0.810368 0.000000
0.940000 0.810368 0.000000
0.940000 0.810368 0.000000
0.940000 0.810368 0.000000
0.940000 0.810368 0.000000
0.940000 0.810368 0.000000
0.940000 0.810368 0.000000
0.940000 0.810368 0.000000
0.940000 0.810368 0.000000
0.000000 0.847076 0.000000
0.052410 0.847076 0.000000
0.089826 0.847076 0.000000
0.126618 0.847076 0.000000
0.163409 0.847076 0.000000
0.200201 0.847076 0.000000
0.236992 0.847076 0.000000
0.273784 0.847076 0.000000
0.310575 0.847076 0.000000
0.347367 0.847076 0.000000
0.384158 0.847076 0.000000
0.500995 0.847076 0.000000
0.539539 0.847076 0.000000
0.578082 0.847076 0.000000
0.616626 0.847076 0.000000
0.655169 0.847076 0.000000
0.693713 0.847076 0.000000
0.732256 0.847076 0.000000
0.770800 0.847076 0.000000
0.809343 0.847076 0.000000
0.847887 0.847076 0.000000
0.886430 0.847076 0.000000
0.924974 0.847076 0.000000
0.940000 0.847076 0.000000
0.940000 0.847076 0.000000
0.940000 0.847076 0.000000
0.940000 0.847076 0.000000
0.940000 0.847076 0.000000
0.940000 0.847076 0.000000
0.940000 0.847076 0.000000
0.940000 0.847076 0.000000
0.940000 0.847076 0.000000
0.940000 0.847076 0.000000
0.000000 0.883784 0.000000
0.052410 0.883784 0.000000
0.089826 0.883784 0.000000
0.126618 0.883784 0.000000
0.163409 0.883784 0.000000
0.200201 0.883784 0.000000
0.236992 0.883784 0.000000
0.273784 0.883784 0.000000
0.310575 0.883784 0.000000
0.347367 0.883784 0.000000
0.384158 0.883784 0.000000
0.500995 0.883784 0.000000
0.539539 0.883784 0.000000
0.578082 0.883784 0.000000
0.616626 0.883784 0.000000
0.655169 0.883784 0.000000
0.693713 0.883784 0.000000
0.732256 0.883784 0.000000
0.770800 0.883784 0.000000
0.809343 0.883784 0.000000
0.847887 0.883784 0.000000
0.886430 0.883784 0.000000
0.924974 0.883784 0.000000
0.940000 0.883784 0.000000
0.940000 0.883784 0.000000
0.940000 0.883784 0.000000
0.940000 0.883784 0.000000
0.940000 0.883784 0.000000
0.940000 0.883784 0.000000
0.940000 0.883784 0.000000
0.940000 0.883784 0.000000
0.940000 0.883784 0.000000
0.940000 0.883784 0.000000
0.000000 0.920492 0.000000
0.052410 0.920492 0.000000
0.089826 0.920492 0.000000
0.126618 0.920492 0.000000
0.163409 0.920492 0.000000
0.200201 0.920492 0.000000
0.236992 0.920492 0.000000
0.273784 0.920492 0.000000
0.310575 0.920492 0.000000
0.347367 0.920492 0.000000
0.384158 0.920492 0.000000
0.500995 0.920492 0.000000
0.539539 0.920492 0.000000
0.578082 0.920492 0.000000
0.616626 0.920492 0.000000
0.655169 0.920492 0.000000
0.693713 0.920492 0.000000
0.732256 0.920492 0.000000
0.770800 0.920492 0.000000
0.809343 0.920492 0.000000
0.847887 0.920492 0.000000
0.886430 0.920492 0.000000
0.924974 0.920492 0.000000
0.940000 0.920492 0.000000
0.940000 0.920492 0.000000
0.940000 0.920492 0.000000
0.940000 0.920492 0.000000
0.940000 0.920492 0.000000
0.940000 0.920492 0.000000
0.940000 0.920492 0.000000
0.940000 0.920492 0.000000
0.940000 0.920492 0.000000
0.940000 0.920492 0.000000
0.000000 0.940000 0.000000
0.052410 0.940000 0.000000
0.089826 0.940000 0.000000
0.126618 0.940000 0.000000
0.163409 0.940000 0.000000
0.200201 0.940000 0.000000
0.236992 0.940000 0.000000
0.273784 0.940000 0.000000
0.310575 0.940000 0.000000
0.347367 0.940000 0.000000
0.384158 0.940000 0.000000
0.500995 0.940000 0.000000
0.539539 0.940000 0.000000
0.578082 0.940000 0.000000
0.616626 0.940000 0.000000
0.655169 0.940000 0.000000
0.693713 0.940000 0.000000
0.732256 0.940000 0.000000
0.770800 0.940000 0.000000
0.809343 0.940000 0.000000
0.847887 0.940000 0.000000
0.886430 0.940000 0.000000
0.924974 0.940000 0.000000
0.940000 0.940000 0.000000
0.940000 0.940000 0.000000
0.940000 0.940000 0.000000
0.940000 0.940000 0.000000
0.940000 0.940000 0.000000
0.940000 0.940000 0.000000
0.940000 0.940000 0.000000
0.940000 0.940000 0.000000
0.940000 0.940000 0.000000
0.940000 0.940000 0.000000
0.000000 0.940000 0.000000
0.052410 0.940000 0.000000
0.089826 0.940000 0.000000
0.126618 0.940000 0.000000
0.163409 0.940000 0.000000
0.200201 0.940000 0.000000
0.236992 0.940000 0.000000
0.273784 0.940000 0.000000
0.310575 0.940000 0.000000
0.347367 0.940000 0.000000
0.384158 0.940000 0.000000
0.500995 0.940000 0.000000
0.539539 0.940000 0.000000
0.578082 0.940000 0.000000
0.616626 0.940000 0.000000
0.655169 0.940000 0.000000
0.693713 0.940000 0.000000
0.732256 0.940000 0.000000
0.770800 0.940000 0.000000
0.809343 0.940000 0.000000
0.847887 0.940000 0.000000
0.886430 0.940000 0.000000
0.924974 0.940000 0.000000
0.940000 0.940000 0.000000
0.940000 0.940000 0.000000
0.940000 0.940000 0.000000
0.940000 0.940000 0.000000
0.940000 0.940000 0.000000
0.940000 0.940000 0.000000
0.940000 0.940000 0.000000
0.940000 0.940000 0.000000
0.940000 0.940000 0.000000
0.940000 0.940000 0.000000
0.000000 0.940000 0.000000
0.052410 0.940000 0.000000
0.089826 0.940000 0.000000
0.126618 0.940000 0.000000
0.163409 0.940000 0.000000
0.200201 0.940000 0.000000
0.236992 0.940000 0.000000
0.273784 0.940000 0.000000
0.310575 0.940000 0.000000
0.347367 0.940000 0.000000
0.384158 0.940000 0.000000
0.500995 0.940000 0.000000
0.539539 0.940000 0.000000
0.578082 0.940000 0.000000
0.616626 0.940000 0.000000
0.655169 0.940000 0.000000
0.693713 0.940000 0.000000
0.732256 0.940000 0.000000
0.770800 0.940000 0.000000
0.809343 0.940000 0.000000
0.847887 0.940000 0.000000
0.886430 0.940000 0.000000
0.924974 0.940000 0.000000
0.940000 0.940000 0.000000
