docs/luts/fuji_recipes/Provia_RR_Fujicolor_Pro_400H_OverExposed.cube
TITLE "Fujifilm Recipe: RR Fujicolor Pro 400H OverExposed (Provia)"
# FilmSim=Provia HL=-2 SH=4 Col=1 WB=Auto WBR=2 WBB=2
LUT_3D_SIZE 9
DOMAIN_MIN 0.0 0.0 0.0
DOMAIN_MAX 1.0 1.0 1.0
0.000000 0.000000 0.000000
0.163409 0.000000 0.000000
0.310575 0.000000 0.000000
0.539539 0.000000 0.000000
0.693713 0.000000 0.000000
0.847887 0.000000 0.000000
0.940000 0.000000 0.000000
0.940000 0.000000 0.000000
0.940000 0.000000 0.000000
0.000000 0.155628 0.000000
0.163409 0.155628 0.000000
0.310575 0.155628 0.000000
0.539539 0.155628 0.000000
0.693713 0.155628 0.000000
0.847887 0.155628 0.000000
0.940000 0.155628 0.000000
0.940000 0.155628 0.000000
0.940000 0.155628 0.000000
0.000000 0.295786 0.000000
0.163409 0.295786 0.000000
0.310575 0.295786 0.000000
0.539539 0.295786 0.000000
0.693713 0.295786 0.000000
0.847887 0.295786 0.000000
0.940000 0.295786 0.000000
0.940000 0.295786 0.000000
0.940000 0.295786 0.000000
0.000000 0.516703 0.000000
0.163409 0.516703 0.000000
0.310575 0.516703 0.000000
0.539539 0.516703 0.000000
0.693713 0.516703 0.000000
0.847887 0.516703 0.000000
0.940000 0.516703 0.000000
0.940000 0.516703 0.000000
0.940000 0.516703 0.000000
0.000000 0.663536 0.000000
0.163409 0.663536 0.000000
0.310575 0.663536 0.000000
0.539539 0.663536 0.000000
0.693713 0.663536 0.000000
0.847887 0.663536 0.000000
0.940000 0.663536 0.000000
0.940000 0.663536 0.000000
0.940000 0.663536 0.000000
0.000000 0.810368 0.000000
0.163409 0.810368 0.000000
0.310575 0.810368 0.000000
0.539539 0.810368 0.000000
0.693713 0.810368 0.000000
0.847887 0.810368 0.000000
0.940000 0.810368 0.000000
0.940000 0.810368 0.000000
0.940000 0.810368 0.000000
0.000000 0.940000 0.000000
0.163409 0.940000 0.000000
0.310575 0.940000 0.000000
0.539539 0.940000 0.000000
0.693713 0.940000 0.000000
0.847887 0.940000 0.000000
0.940000 0.940000 0.000000
0.940000 0.940000 0.000000
0.940000 0.940000 0.000000
0.000000 0.940000 0.000000
0.163409 0.940000 0.000000
0.310575 0.940000 0.000000
0.539539 0.940000 0.000000
0.693713 0.940000 0.000000
0.847887 0.940000 0.000000
0.940000 0.940000 0.000000
0.940000 0.940000 0.000000
0.940000 0.940000 0.000000
0.000000 0.940000 0.000000
0.163409 0.940000 0.000000
0.310575 0.940000 0.000000
0.539539 0.940000 0.000000
0.693713 0.940000 0.000000
0.847887 0.940000 0.000000
0.940000 0.940000 0.000000
0.940000 0.940000 0.000000
0.940000 0.940000 0.000000
0.000000 0.000000 0.163409
0.163409 0.000000 0.163409
0.310575 0.000000 0.163409
0.539539 0.000000 0.163409
0.693713 0.000000 0.163409
0.847887 0.000000 0.163409
0.940000 0.000000 0.163409
0.940000 0.000000 0.163409
0.940000 0.000000 0.163409
0.000000 0.155628 0.163409
0.164110 0.154927 0.164110
0.324521 0.141683 0.150865
0.574091 0.121076 0.130258
0.742140 0.107200 0.116382
0.910190 0.093324 0.102507
1.000000 0.095628 0.104600
1.000000 0.095628 0.104600
1.000000 0.095628 0.104600
0.000000 0.295786 0.163409
0.151495 0.307700 0.151495
0.323820 0.306369 0.150164
0.573390 0.285762 0.129558
0.741440 0.271886 0.115682
0.909490 0.258011 0.101806
1.000000 0.256241 0.103409
1.000000 0.256241 0.103409
1.000000 0.256241 0.103409
0.000000 0.516703 0.163409
0.131613 0.548500 0.131613
0.305269 0.548500 0.131613
0.573390 0.546445 0.129558
0.741440 0.532569 0.115682
0.909490 0.518693 0.101806
1.000000 0.511295 0.103409
1.000000 0.511295 0.103409
1.000000 0.511295 0.103409
0.000000 0.663536 0.163409
0.118398 0.708547 0.118398
0.292054 0.708547 0.118398
0.562230 0.708547 0.118398
0.741440 0.705831 0.115682
0.909490 0.691956 0.101806
1.000000 0.680816 0.103409
1.000000 0.680816 0.103409
1.000000 0.680816 0.103409
0.000000 0.810368 0.163409
0.105183 0.868594 0.105183
0.278839 0.868594 0.105183
0.549016 0.868594 0.105183
0.730941 0.868594 0.105183
0.909490 0.865218 0.101806
1.000000 0.850337 0.103409
1.000000 0.850337 0.103409
1.000000 0.850337 0.103409
0.000000 0.940000 0.163409
0.103409 1.000000 0.103409
0.273316 1.000000 0.103409
0.537659 1.000000 0.103409
0.715656 1.000000 0.103409
0.893653 1.000000 0.103409
1.000000 1.000000 0.103409
1.000000 1.000000 0.103409
1.000000 1.000000 0.103409
0.000000 0.940000 0.163409
0.103409 1.000000 0.103409
0.273316 1.000000 0.103409
0.537659 1.000000 0.103409
0.715656 1.000000 0.103409
0.893653 1.000000 0.103409
1.000000 1.000000 0.103409
1.000000 1.000000 0.103409
1.000000 1.000000 0.103409
0.000000 0.940000 0.163409
0.103409 1.000000 0.103409
0.273316 1.000000 0.103409
0.537659 1.000000 0.103409
0.715656 1.000000 0.103409
0.893653 1.000000 0.103409
1.000000 1.000000 0.103409
1.000000 1.000000 0.103409
1.000000 1.000000 0.103409
0.000000 0.000000 0.310575
0.163409 0.000000 0.310575
0.310575 0.000000 0.310575
0.539539 0.000000 0.310575
0.693713 0.000000 0.310575
0.847887 0.000000 0.310575
0.940000 0.000000 0.310575
0.940000 0.000000 0.310575
0.940000 0.000000 0.310575
0.000000 0.155628 0.310575
0.150865 0.141683 0.324521
0.324521 0.141683 0.324521
0.574091 0.121076 0.303914
0.742140 0.107200 0.290038
0.910190 0.093324 0.276163
1.000000 0.095628 0.274280
1.000000 0.095628 0.274280
1.000000 0.095628 0.274280
0.000000 0.295786 0.310575
0.150164 0.306369 0.323820
0.311906 0.294455 0.311906
0.561476 0.273848 0.291300
0.729526 0.259973 0.277424
0.897576 0.246097 0.263548
0.997979 0.237807 0.255258
0.997979 0.237807 0.255258
0.997979 0.237807 0.255258
0.000000 0.516703 0.310575
0.131613 0.548500 0.305269
0.292024 0.535255 0.292024
0.560145 0.533200 0.289969
0.728195 0.519324 0.276093
0.896245 0.505448 0.262217
0.996648 0.497158 0.253927
0.996648 0.497158 0.253927
0.996648 0.497158 0.253927
0.000000 0.663536 0.310575
0.118398 0.708547 0.292054
0.278809 0.695302 0.278809
0.548986 0.695302 0.278809
0.728195 0.692586 0.276093
0.896245 0.678711 0.262217
0.996648 0.670420 0.253927
0.996648 0.670420 0.253927
0.996648 0.670420 0.253927
0.000000 0.810368 0.310575
0.105183 0.868594 0.278839
0.265594 0.855350 0.265594
0.535771 0.855350 0.265594
0.717696 0.855350 0.265594
0.896245 0.851973 0.262217
0.996648 0.843683 0.253927
0.996648 0.843683 0.253927
0.996648 0.843683 0.253927
0.000000 0.940000 0.310575
0.103409 1.000000 0.273316
0.253927 0.996648 0.253927
0.524104 0.996648 0.253927
0.706029 0.996648 0.253927
0.887954 0.996648 0.253927
0.996648 0.996648 0.253927
0.996648 0.996648 0.253927
0.996648 0.996648 0.253927
0.000000 0.940000 0.310575
0.103409 1.000000 0.273316
0.253927 0.996648 0.253927
0.524104 0.996648 0.253927
0.706029 0.996648 0.253927
0.887954 0.996648 0.253927
0.996648 0.996648 0.253927
0.996648 0.996648 0.253927
0.996648 0.996648 0.253927
0.000000 0.940000 0.310575
0.103409 1.000000 0.273316
0.253927 0.996648 0.253927
0.524104 0.996648 0.253927
0.706029 0.996648 0.253927
0.887954 0.996648 0.253927
0.996648 0.996648 0.253927
0.996648 0.996648 0.253927
0.996648 0.996648 0.253927
0.000000 0.000000 0.539539
0.163409 0.000000 0.539539
0.310575 0.000000 0.539539
0.539539 0.000000 0.539539
0.693713 0.000000 0.539539
0.847887 0.000000 0.539539
0.940000 0.000000 0.539539
0.940000 0.000000 0.539539
0.940000 0.000000 0.539539
0.000000 0.155628 0.539539
0.130258 0.121076 0.574091
0.303914 0.121076 0.574091
0.574091 0.121076 0.574091
0.742140 0.107200 0.560215
0.910190 0.093324 0.546339
1.000000 0.095628 0.538273
1.000000 0.095628 0.538273
1.000000 0.095628 0.538273
0.000000 0.295786 0.539539
0.129558 0.285762 0.573390
0.291300 0.273848 0.561476
0.561476 0.273848 0.561476
0.729526 0.259973 0.547601
0.897576 0.246097 0.533725
0.997979 0.237807 0.525435
0.997979 0.237807 0.525435
0.997979 0.237807 0.525435
0.000000 0.516703 0.539539
0.129558 0.546445 0.573390
0.289969 0.533200 0.560145
0.541594 0.514648 0.541594
0.709643 0.500773 0.527718
0.877693 0.486897 0.513842
0.978097 0.478607 0.505552
0.978097 0.478607 0.505552
0.978097 0.478607 0.505552
0.000000 0.663536 0.539539
0.118398 0.708547 0.562230
0.278809 0.695302 0.548986
0.528379 0.674696 0.528379
0.707588 0.671980 0.525663
0.875638 0.658104 0.511787
0.976042 0.649814 0.503497
0.976042 0.649814 0.503497
0.976042 0.649814 0.503497
0.000000 0.810368 0.539539
0.105183 0.868594 0.549016
0.265594 0.855350 0.535771
0.515164 0.834743 0.515164
0.697089 0.834743 0.515164
0.875638 0.831366 0.511787
0.976042 0.823076 0.503497
0.976042 0.823076 0.503497
0.976042 0.823076 0.503497
0.000000 0.940000 0.539539
0.103409 1.000000 0.537659
0.253927 0.996648 0.524104
0.503497 0.976042 0.503497
0.685422 0.976042 0.503497
0.867348 0.976042 0.503497
0.976042 0.976042 0.503497
0.976042 0.976042 0.503497
0.976042 0.976042 0.503497
0.000000 0.940000 0.539539
0.103409 1.000000 0.537659
0.253927 0.996648 0.524104
0.503497 0.976042 0.503497
0.685422 0.976042 0.503497
0.867348 0.976042 0.503497
0.976042 0.976042 0.503497
0.976042 0.976042 0.503497
0.976042 0.976042 0.503497
0.000000 0.940000 0.539539
0.103409 1.000000 0.537659
0.253927 0.996648 0.524104
0.503497 0.976042 0.503497
0.685422 0.976042 0.503497
0.867348 0.976042 0.503497
0.976042 0.976042 0.503497
0.976042 0.976042 0.503497
0.976042 0.976042 0.503497
0.000000 0.000000 0.693713
0.163409 0.000000 0.693713
0.310575 0.000000 0.693713
0.539539 0.000000 0.693713
0.693713 0.000000 0.693713
0.847887 0.000000 0.693713
0.940000 0.000000 0.693713
0.940000 0.000000 0.693713
0.940000 0.000000 0.693713
0.000000 0.155628 0.693713
0.116382 0.107200 0.742140
0.290038 0.107200 0.742140
0.560215 0.107200 0.742140
0.742140 0.107200 0.742140
0.910190 0.093324 0.728265
1.000000 0.095628 0.716033
1.000000 0.095628 0.716033
1.000000 0.095628 0.716033
0.000000 0.295786 0.693713
0.115682 0.271886 0.741440
0.277424 0.259973 0.729526
0.547601 0.259973 0.729526
0.729526 0.259973 0.729526
0.897576 0.246097 0.715650
0.997979 0.237807 0.707360
0.997979 0.237807 0.707360
0.997979 0.237807 0.707360
0.000000 0.516703 0.693713
0.115682 0.532569 0.741440
0.276093 0.519324 0.728195
0.527718 0.500773 0.709643
0.709643 0.500773 0.709643
0.877693 0.486897 0.695768
0.978097 0.478607 0.687478
0.978097 0.478607 0.687478
0.978097 0.478607 0.687478
0.000000 0.663536 0.693713
0.115682 0.705831 0.741440
0.276093 0.692586 0.728195
0.525663 0.671980 0.707588
0.696428 0.660820 0.696428
0.864478 0.646944 0.682553
0.964882 0.638654 0.674263
0.964882 0.638654 0.674263
0.964882 0.638654 0.674263
0.000000 0.810368 0.693713
0.105183 0.868594 0.730941
0.265594 0.855350 0.717696
0.515164 0.834743 0.697089
0.683214 0.820867 0.683214
0.861762 0.817491 0.679837
0.962166 0.809200 0.671547
0.962166 0.809200 0.671547
0.962166 0.809200 0.671547
0.000000 0.940000 0.693713
0.103409 1.000000 0.715656
0.253927 0.996648 0.706029
0.503497 0.976042 0.685422
0.671547 0.962166 0.671547
0.853472 0.962166 0.671547
0.962166 0.962166 0.671547
0.962166 0.962166 0.671547
0.962166 0.962166 0.671547
0.000000 0.940000 0.693713
0.103409 1.000000 0.715656
0.253927 0.996648 0.706029
0.503497 0.976042 0.685422
0.671547 0.962166 0.671547
0.853472 0.962166 0.671547
0.962166 0.962166 0.671547
0.962166 0.962166 0.671547
0.962166 0.962166 0.671547
0.000000 0.940000 0.693713
0.103409 1.000000 0.715656
0.253927 0.996648 0.706029
0.503497 0.976042 0.685422
0.671547 0.962166 0.671547
0.853472 0.962166 0.671547
0.962166 0.962166 0.671547
0.962166 0.962166 0.671547
0.962166 0.962166 0.671547
0.000000 0.000000 0.847887
0.163409 0.000000 0.847887
0.310575 0.000000 0.847887
0.539539 0.000000 0.847887
0.693713 0.000000 0.847887
0.847887 0.000000 0.847887
0.940000 0.000000 0.847887
0.940000 0.000000 0.847887
0.940000 0.000000 0.847887
0.000000 0.155628 0.847887
0.102507 0.093324 0.910190
0.276163 0.093324 0.910190
0.546339 0.093324 0.910190
0.728265 0.093324 0.910190
0.910190 0.093324 0.910190
1.000000 0.095628 0.893794
1.000000 0.095628 0.893794
1.000000 0.095628 0.893794
0.000000 0.295786 0.847887
0.101806 0.258011 0.909490
0.263548 0.246097 0.897576
0.533725 0.246097 0.897576
0.715650 0.246097 0.897576
0.897576 0.246097 0.897576
0.997979 0.237807 0.889285
0.997979 0.237807 0.889285
0.997979 0.237807 0.889285
0.000000 0.516703 0.847887
0.101806 0.518693 0.909490
0.262217 0.505448 0.896245
0.513842 0.486897 0.877693
0.695768 0.486897 0.877693
0.877693 0.486897 0.877693
0.978097 0.478607 0.869403
0.978097 0.478607 0.869403
0.978097 0.478607 0.869403
0.000000 0.663536 0.847887
0.101806 0.691956 0.909490
0.262217 0.678711 0.896245
0.511787 0.658104 0.875638
0.682553 0.646944 0.864478
0.864478 0.646944 0.864478
0.964882 0.638654 0.856188
0.964882 0.638654 0.856188
0.964882 0.638654 0.856188
0.000000 0.810368 0.847887
0.101806 0.865218 0.909490
0.262217 0.851973 0.896245
0.511787 0.831366 0.875638
0.679837 0.817491 0.861762
0.851263 0.806992 0.851263
0.951667 0.798701 0.842973
0.951667 0.798701 0.842973
0.951667 0.798701 0.842973
0.000000 0.940000 0.847887
0.103409 1.000000 0.893653
0.253927 0.996648 0.887954
0.503497 0.976042 0.867348
0.671547 0.962166 0.853472
0.839596 0.948290 0.839596
0.948290 0.948290 0.839596
0.948290 0.948290 0.839596
0.948290 0.948290 0.839596
0.000000 0.940000 0.847887
0.103409 1.000000 0.893653
0.253927 0.996648 0.887954
0.503497 0.976042 0.867348
0.671547 0.962166 0.853472
0.839596 0.948290 0.839596
0.948290 0.948290 0.839596
0.948290 0.948290 0.839596
0.948290 0.948290 0.839596
0.000000 0.940000 0.847887
0.103409 1.000000 0.893653
0.253927 0.996648 0.887954
0.503497 0.976042 0.867348
0.671547 0.962166 0.853472
0.839596 0.948290 0.839596
0.948290 0.948290 0.839596
0.948290 0.948290 0.839596
0.948290 0.948290 0.839596
0.000000 0.000000 0.940000
0.163409 0.000000 0.940000
0.310575 0.000000 0.940000
0.539539 0.000000 0.940000
0.693713 0.000000 0.940000
0.847887 0.000000 0.940000
0.940000 0.000000 0.940000
0.940000 0.000000 0.940000
0.940000 0.000000 0.940000
0.000000 0.155628 0.940000
0.104600 0.095628 1.000000
0.274280 0.095628 1.000000
0.538273 0.095628 1.000000
0.716033 0.095628 1.000000
0.893794 0.095628 1.000000
1.000000 0.095628 1.000000
1.000000 0.095628 1.000000
1.000000 0.095628 1.000000
0.000000 0.295786 0.940000
0.103409 0.256241 1.000000
0.255258 0.237807 0.997979
0.525435 0.237807 0.997979
0.707360 0.237807 0.997979
0.889285 0.237807 0.997979
0.997979 0.237807 0.997979
0.997979 0.237807 0.997979
0.997979 0.237807 0.997979
0.000000 0.516703 0.940000
0.103409 0.511295 1.000000
0.253927 0.497158 0.996648
0.505552 0.478607 0.978097
0.687478 0.478607 0.978097
0.869403 0.478607 0.978097
0.978097 0.478607 0.978097
0.978097 0.478607 0.978097
0.978097 0.478607 0.978097
0.000000 0.663536 0.940000
0.103409 0.680816 1.000000
0.253927 0.670420 0.996648
0.503497 0.649814 0.976042
0.674263 0.638654 0.964882
0.856188 0.638654 0.964882
0.964882 0.638654 0.964882
0.964882 0.638654 0.964882
0.964882 0.638654 0.964882
0.000000 0.810368 0.940000
0.103409 0.850337 1.000000
0.253927 0.843683 0.996648
0.503497 0.823076 0.976042
0.671547 0.809200 0.962166
0.842973 0.798701 0.951667
0.951667 0.798701 0.951667
0.951667 0.798701 0.951667
0.951667 0.798701 0.951667
0.000000 0.940000 0.940000
0.103409 1.000000 1.000000
0.253927 0.996648 0.996648
0.503497 0.976042 0.976042
0.671547 0.962166 0.962166
0.839596 0.948290 0.948290
0.940000 0.940000 0.940000
0.940000 0.940000 0.940000
0.940000 0.940000 0.940000
0.000000 0.940000 0.940000
0.103409 1.000000 1.000000
0.253927 0.996648 0.996648
0.503497 0.976042 0.976042
0.671547 0.962166 0.962166
0.839596 0.948290 0.948290
0.940000 0.940000 0.940000
0.940000 0.940000 0.940000
0.940000 0.940000 0.940000
0.000000 0.940000 0.940000
0.103409 1.000000 1.000000
0.253927 0.996648 0.996648
0.503497 0.976042 0.976042
0.671547 0.962166 0.962166
0.839596 0.948290 0.948290
0.940000 0.940000 0.940000
0.940000 0.940000 0.940000
0.940000 0.940000 0.940000
0.000000 0.000000 0.940000
0.163409 0.000000 0.940000
0.310575 0.000000 0.940000
0.539539 0.000000 0.940000
0.693713 0.000000 0.940000
0.847887 0.000000 0.940000
0.940000 0.000000 0.940000
0.940000 0.000000 0.940000
0.940000 0.000000 0.940000
0.000000 0.155628 0.940000
0.104600 0.095628 1.000000
0.274280 0.095628 1.000000
0.538273 0.095628 1.000000
0.716033 0.095628 1.000000
0.893794 0.095628 1.000000
1.000000 0.095628 1.000000
1.000000 0.095628 1.000000
1.000000 0.095628 1.000000
0.000000 0.295786 0.940000
0.103409 0.256241 1.000000
0.255258 0.237807 0.997979
0.525435 0.237807 0.997979
0.707360 0.237807 0.997979
0.889285 0.237807 0.997979
0.997979 0.237807 0.997979
0.997979 0.237807 0.997979
0.997979 0.237807 0.997979
0.000000 0.516703 0.940000
0.103409 0.511295 1.000000
0.253927 0.497158 0.996648
0.505552 0.478607 0.978097
0.687478 0.478607 0.978097
0.869403 0.478607 0.978097
0.978097 0.478607 0.978097
0.978097 0.478607 0.978097
0.978097 0.478607 0.978097
0.000000 0.663536 0.940000
0.103409 0.680816 1.000000
0.253927 0.670420 0.996648
0.503497 0.649814 0.976042
0.674263 0.638654 0.964882
0.856188 0.638654 0.964882
0.964882 0.638654 0.964882
0.964882 0.638654 0.964882
0.964882 0.638654 0.964882
0.000000 0.810368 0.940000
0.103409 0.850337 1.000000
0.253927 0.843683 0.996648
0.503497 0.823076 0.976042
0.671547 0.809200 0.962166
0.842973 0.798701 0.951667
0.951667 0.798701 0.951667
0.951667 0.798701 0.951667
0.951667 0.798701 0.951667
0.000000 0.940000 0.940000
0.103409 1.000000 1.000000
0.253927 0.996648 0.996648
0.503497 0.976042 0.976042
0.671547 0.962166 0.962166
0.839596 0.948290 0.948290
0.940000 0.940000 0.940000
0.940000 0.940000 0.940000
0.940000 0.940000 0.940000
0.000000 0.940000 0.940000
0.103409 1.000000 1.000000
0.253927 0.996648 0.996648
0.503497 0.976042 0.976042
0.671547 0.962166 0.962166
0.839596 0.948290 0.948290
0.940000 0.940000 0.940000
0.940000 0.940000 0.940000
0.940000 0.940000 0.940000
0.000000 0.940000 0.940000
0.103409 1.000000 1.000000
0.253927 0.996648 0.996648
0.503497 0.976042 0.976042
0.671547 0.962166 0.962166
0.839596 0.948290 0.948290
0.940000 0.940000 0.940000
0.940000 0.940000 0.940000
0.940000 0.940000 0.940000
0.000000 0.000000 0.940000
0.163409 0.000000 0.940000
0.310575 0.000000 0.940000
0.539539 0.000000 0.940000
0.693713 0.000000 0.940000
0.847887 0.000000 0.940000
0.940000 0.000000 0.940000
0.940000 0.000000 0.940000
0.940000 0.000000 0.940000
0.000000 0.155628 0.940000
0.104600 0.095628 1.000000
0.274280 0.095628 1.000000
0.538273 0.095628 1.000000
0.716033 0.095628 1.000000
0.893794 0.095628 1.000000
1.000000 0.095628 1.000000
1.000000 0.095628 1.000000
1.000000 0.095628 1.000000
0.000000 0.295786 0.940000
0.103409 0.256241 1.000000
0.255258 0.237807 0.997979
0.525435 0.237807 0.997979
0.707360 0.237807 0.997979
0.889285 0.237807 0.997979
0.997979 0.237807 0.997979
0.997979 0.237807 0.997979
0.997979 0.237807 0.997979
0.000000 0.516703 0.940000
0.103409 0.511295 1.000000
0.253927 0.497158 0.996648
0.505552 0.478607 0.978097
0.687478 0.478607 0.978097
0.869403 0.478607 0.978097
0.978097 0.478607 0.978097
0.978097 0.478607 0.978097
0.978097 0.478607 0.978097
0.000000 0.663536 0.940000
0.103409 0.680816 1.000000
0.253927 0.670420 0.996648
0.503497 0.649814 0.976042
0.674263 0.638654 0.964882
0.856188 0.638654 0.964882
0.964882 0.638654 0.964882
0.964882 0.638654 0.964882
0.964882 0.638654 0.964882
0.000000 0.810368 0.940000
0.103409 0.850337 1.000000
0.253927 0.843683 0.996648
0.503497 0.823076 0.976042
0.671547 0.809200 0.962166
0.842973 0.798701 0.951667
0.951667 0.798701 0.951667
0.951667 0.798701 0.951667
0.951667 0.798701 0.951667
0.000000 0.940000 0.940000
0.103409 1.000000 1.000000
0.253927 0.996648 0.996648
0.503497 0.976042 0.976042
0.671547 0.962166 0.962166
0.839596 0.948290 0.948290
0.940000 0.940000 0.940000
0.940000 0.940000 0.940000
0.940000 0.940000 0.940000
0.000000 0.940000 0.940000
0.103409 1.000000 1.000000
0.253927 0.996648 0.996648
0.503497 0.976042 0.976042
0.671547 0.962166 0.962166
0.839596 0.948290 0.948290
0.940000 0.940000 0.940000
0.940000 0.940000 0.940000
0.940000 0.940000 0.940000
0.000000 0.940000 0.940000
0.103409 1.000000 1.000000
0.253927 0.996648 0.996648
0.503497 0.976042 0.976042
0.671547 0.962166 0.962166
0.839596 0.948290 0.948290
0.940000 0.940000 0.940000
0.940000 0.940000 0.940000
0.940000 0.940000 0.940000
