docs/luts/fuji_recipes/Provia_MT_Provia.cube
TITLE "Fujifilm Recipe: MT Provia (Provia)"
# FilmSim=Provia HL=0 SH=0 Col=-1 WB=Auto WBR=1 WBB=0
LUT_3D_SIZE 5
DOMAIN_MIN 0.0 0.0 0.0
DOMAIN_MAX 1.0 1.0 1.0
0.000000 0.000000 0.000000
0.223781 0.015659 0.015659
0.447561 0.031319 0.031319
0.671342 0.046978 0.046978
0.873290 0.061110 0.061110
0.015277 0.218323 0.015277
0.223781 0.218704 0.015659
0.447561 0.234364 0.031319
0.671342 0.250023 0.046978
0.873290 0.264155 0.061110
0.030555 0.436645 0.030555
0.238676 0.436645 0.030555
0.447561 0.437409 0.031319
0.671342 0.453068 0.046978
0.873290 0.467200 0.061110
0.045832 0.654968 0.045832
0.253954 0.654968 0.045832
0.462075 0.654968 0.045832
0.671342 0.656113 0.046978
0.873290 0.670245 0.061110
0.061110 0.873290 0.061110
0.269231 0.873290 0.061110
0.477352 0.873290 0.061110
0.685474 0.873290 0.061110
0.873290 0.873290 0.061110
0.015277 0.015277 0.218323
0.223781 0.015659 0.218704
0.447561 0.031319 0.234364
0.671342 0.046978 0.250023
0.873290 0.061110 0.264155
0.015277 0.218323 0.218323
0.255687 0.250563 0.250563
0.484146 0.261134 0.261134
0.718606 0.266114 0.266114
0.947732 0.253068 0.253068
0.030555 0.436645 0.233600
0.265840 0.473074 0.260526
0.484146 0.473526 0.261134
0.718606 0.484182 0.266114
0.947732 0.484623 0.253068
0.045832 0.654968 0.248877
0.278682 0.693773 0.273427
0.494109 0.693773 0.273427
0.718606 0.702251 0.266114
0.947732 0.716177 0.253068
0.061110 0.873290 0.264155
0.258857 0.947732 0.253068
0.496200 0.947732 0.253068
0.733544 0.947732 0.253068
0.947732 0.947732 0.253068
0.030555 0.030555 0.436645
0.238676 0.030555 0.436645
0.447561 0.031319 0.437409
0.671342 0.046978 0.453068
0.873290 0.061110 0.467200
0.030555 0.233600 0.436645
0.265840 0.260526 0.473074
0.484146 0.261134 0.473526
0.718606 0.266114 0.484182
0.947732 0.253068 0.484623
0.030555 0.436645 0.436645
0.266436 0.473824 0.473824
0.511375 0.501125 0.501125
0.745175 0.505945 0.505945
0.965155 0.502045 0.502045
0.045832 0.654968 0.451923
0.276641 0.697219 0.484268
0.516877 0.727826 0.505774
0.745175 0.728484 0.505945
0.965155 0.733600 0.502045
0.061110 0.873290 0.467200
0.259292 0.948168 0.485058
0.513623 0.965155 0.502045
0.750967 0.965155 0.502045
0.965155 0.965155 0.502045
0.045832 0.045832 0.654968
0.253954 0.045832 0.654968
0.462075 0.045832 0.654968
0.671342 0.046978 0.656113
0.873290 0.061110 0.670245
0.045832 0.248877 0.654968
0.278682 0.273427 0.693773
0.494109 0.273427 0.693773
0.718606 0.266114 0.702251
0.947732 0.253068 0.716177
0.045832 0.451923 0.654968
0.276641 0.484268 0.697219
0.516877 0.505774 0.727826
0.745175 0.505945 0.728484
0.965155 0.502045 0.733600
0.045832 0.654968 0.654968
0.276641 0.697219 0.697219
0.518062 0.728858 0.728858
0.767062 0.751687 0.751687
0.982577 0.751023 0.751023
0.061110 0.873290 0.670245
0.259292 0.948168 0.716613
0.514494 0.966026 0.734471
0.768389 0.982577 0.751023
0.982577 0.982577 0.751023
0.061110 0.061110 0.873290
0.269231 0.061110 0.873290
0.477352 0.061110 0.873290
0.685474 0.061110 0.873290
0.873290 0.061110 0.873290
0.061110 0.264155 0.873290
0.258857 0.253068 0.947732
0.496200 0.253068 0.947732
0.733544 0.253068 0.947732
0.947732 0.253068 0.947732
0.061110 0.467200 0.873290
0.259292 0.485058 0.948168
0.513623 0.502045 0.965155
0.750967 0.502045 0.965155
0.965155 0.502045 0.965155
0.061110 0.670245 0.873290
0.259292 0.716613 0.948168
0.514494 0.734471 0.966026
0.768389 0.751023 0.982577
0.982577 0.751023 0.982577
0.061110 0.873290 0.873290
0.259292 0.948168 0.948168
0.514494 0.966026 0.966026
0.769696 0.983884 0.983884
1.000000 1.000000 1.000000
