docs/luts/fuji_recipes/Provia_RR_Fujichrome_Sensia_100.cube
TITLE "Fujifilm Recipe: RR Fujichrome Sensia 100 (Provia)"
# FilmSim=Provia HL=0 SH=2 Col=0 WB=FLight2 WBR=-1 WBB=-3
LUT_3D_SIZE 5
DOMAIN_MIN 0.0 0.0 0.0
DOMAIN_MAX 1.0 1.0 1.0
0.000000 0.000000 0.000000
0.264522 0.000000 0.000000
0.567153 0.000000 0.000000
0.846783 0.000000 0.000000
0.918805 0.000000 0.000000
0.000000 0.289906 0.000000
0.264522 0.289906 0.000000
0.567153 0.289906 0.000000
0.846783 0.289906 0.000000
0.918805 0.289906 0.000000
0.000000 0.618489 0.000000
0.264522 0.618489 0.000000
0.567153 0.618489 0.000000
0.846783 0.618489 0.000000
0.918805 0.618489 0.000000
0.000000 0.921862 0.000000
0.264522 0.921862 0.000000
0.567153 0.921862 0.000000
0.846783 0.921862 0.000000
0.918805 0.921862 0.000000
0.000000 1.000000 0.000000
0.264522 1.000000 0.000000
0.567153 1.000000 0.000000
0.846783 1.000000 0.000000
0.918805 1.000000 0.000000
0.000000 0.000000 0.286365
0.264522 0.000000 0.286365
0.567153 0.000000 0.286365
0.846783 0.000000 0.286365
0.918805 0.000000 0.286365
0.000000 0.289906 0.286365
0.264522 0.289906 0.286365
0.567153 0.289906 0.286365
0.846783 0.289906 0.286365
0.918805 0.289906 0.286365
0.000000 0.618489 0.286365
0.264522 0.618489 0.286365
0.567153 0.618489 0.286365
0.846783 0.618489 0.286365
0.918805 0.618489 0.286365
0.000000 0.921862 0.286365
0.264522 0.921862 0.286365
0.567153 0.921862 0.286365
0.846783 0.921862 0.286365
0.918805 0.921862 0.286365
0.000000 1.000000 0.286365
0.264522 1.000000 0.286365
0.567153 1.000000 0.286365
0.846783 1.000000 0.286365
0.918805 1.000000 0.286365
0.000000 0.000000 0.608103
0.264522 0.000000 0.608103
0.567153 0.000000 0.608103
0.846783 0.000000 0.608103
0.918805 0.000000 0.608103
0.000000 0.289906 0.608103
0.264522 0.289906 0.608103
0.567153 0.289906 0.608103
0.846783 0.289906 0.608103
0.918805 0.289906 0.608103
0.000000 0.618489 0.608103
0.264522 0.618489 0.608103
0.567153 0.618489 0.608103
0.846783 0.618489 0.608103
0.918805 0.618489 0.608103
0.000000 0.921862 0.608103
0.264522 0.921862 0.608103
0.567153 0.921862 0.608103
0.846783 0.921862 0.608103
0.918805 0.921862 0.608103
0.000000 1.000000 0.608103
0.264522 1.000000 0.608103
0.567153 1.000000 0.608103
0.846783 1.000000 0.608103
0.918805 1.000000 0.608103
0.000000 0.000000 0.904940
0.264522 0.000000 0.904940
0.567153 0.000000 0.904940
0.846783 0.000000 0.904940
0.918805 0.000000 0.904940
0.000000 0.289906 0.904940
0.264522 0.289906 0.904940
0.567153 0.289906 0.904940
0.846783 0.289906 0.904940
0.918805 0.289906 0.904940
0.000000 0.618489 0.904940
0.264522 0.618489 0.904940
0.567153 0.618489 0.904940
0.846783 0.618489 0.904940
0.918805 0.618489 0.904940
0.000000 0.921862 0.904940
0.264522 0.921862 0.904940
0.567153 0.921862 0.904940
0.846783 0.921862 0.904940
0.918805 0.921862 0.904940
0.000000 1.000000 0.904940
0.264522 1.000000 0.904940
0.567153 1.000000 0.904940
0.846783 1.000000 0.904940
0.918805 1.000000 0.904940
0.000000 0.000000 0.925000
0.264522 0.000000 0.925000
0.567153 0.000000 0.925000
0.846783 0.000000 0.925000
0.918805 0.000000 0.925000
0.000000 0.289906 0.925000
0.264522 0.289906 0.925000
0.567153 0.289906 0.925000
0.846783 0.289906 0.925000
0.918805 0.289906 0.925000
0.000000 0.618489 0.925000
0.264522 0.618489 0.925000
0.567153 0.618489 0.925000
0.846783 0.618489 0.925000
0.918805 0.618489 0.925000
0.000000 0.921862 0.925000
0.264522 0.921862 0.925000
0.567153 0.921862 0.925000
0.846783 0.921862 0.925000
0.918805 0.921862 0.925000
0.000000 1.000000 0.925000
0.264522 1.000000 0.925000
0.567153 1.000000 0.925000
0.846783 1.000000 0.925000
0.918805 1.000000 0.925000
