docs/luts/fuji_recipes/Provia_GB_Balan_Colour.cube
TITLE "Fujifilm Recipe: GB Balan Colour (Provia)"
# FilmSim=Provia HL=-1 SH=-1 Col=0 WB=Auto WBR=0 WBB=0
LUT_3D_SIZE 33
DOMAIN_MIN 0.0 0.0 0.0
DOMAIN_MAX 1.0 1.0 1.0
0.040000 0.040000 0.040000
0.070000 0.040000 0.040000
0.100000 0.040000 0.040000
0.130000 0.040000 0.040000
0.160000 0.040000 0.040000
0.190000 0.040000 0.040000
0.220000 0.040000 0.040000
0.250000 0.040000 0.040000
0.280000 0.040000 0.040000
0.310000 0.040000 0.040000
0.340000 0.040000 0.040000
0.370000 0.040000 0.040000
0.400000 0.040000 0.040000
0.430000 0.040000 0.040000
0.460000 0.040000 0.040000
0.490000 0.040000 0.040000
0.520000 0.040000 0.040000
0.529375 0.040000 0.040000
0.558750 0.040000 0.040000
0.588125 0.040000 0.040000
0.617500 0.040000 0.040000
0.646875 0.040000 0.040000
0.676250 0.040000 0.040000
0.705625 0.040000 0.040000
0.735000 0.040000 0.040000
0.764375 0.040000 0.040000
0.793750 0.040000 0.040000
0.823125 0.040000 0.040000
0.852500 0.040000 0.040000
0.881875 0.040000 0.040000
0.911250 0.040000 0.040000
0.940625 0.040000 0.040000
0.970000 0.040000 0.040000
0.041559 0.070000 0.040000
0.070000 0.068441 0.040000
0.100000 0.068200 0.040000
0.130000 0.068153 0.040000
0.160000 0.070000 0.040000
0.190000 0.070000 0.040000
0.220000 0.070000 0.040000
0.250000 0.070000 0.040000
0.280000 0.070000 0.040000
0.310000 0.070000 0.040000
0.340000 0.070000 0.040000
0.370000 0.070000 0.040000
0.400000 0.070000 0.040000
0.430000 0.070000 0.040000
0.460000 0.070000 0.040000
0.490000 0.070000 0.040000
0.520000 0.070000 0.040000
0.529375 0.070000 0.040000
0.558750 0.070000 0.040000
0.588125 0.070000 0.040000
0.617500 0.070000 0.040000
0.646875 0.070000 0.040000
0.676250 0.070000 0.040000
0.705625 0.070000 0.040000
0.735000 0.070000 0.040000
0.764375 0.070000 0.040000
0.793750 0.070000 0.040000
0.823125 0.070000 0.040000
0.852500 0.070000 0.040000
0.881875 0.070000 0.040000
0.911250 0.070000 0.040000
0.940625 0.070000 0.040000
0.970000 0.070000 0.040000
0.043118 0.100000 0.040000
0.073600 0.100000 0.040000
0.100000 0.096882 0.040000
0.130000 0.096529 0.040000
0.160000 0.096400 0.040000
0.190000 0.096339 0.040000
0.220000 0.096306 0.040000
0.250000 0.100000 0.040000
0.280000 0.100000 0.040000
0.310000 0.100000 0.040000
0.340000 0.100000 0.040000
0.370000 0.100000 0.040000
0.400000 0.100000 0.040000
0.430000 0.100000 0.040000
0.460000 0.100000 0.040000
0.490000 0.100000 0.040000
0.520000 0.100000 0.040000
0.529375 0.100000 0.040000
0.558750 0.100000 0.040000
0.588125 0.100000 0.040000
0.617500 0.100000 0.040000
0.646875 0.100000 0.040000
0.676250 0.100000 0.040000
0.705625 0.100000 0.040000
0.735000 0.100000 0.040000
0.764375 0.100000 0.040000
0.793750 0.100000 0.040000
0.823125 0.100000 0.040000
0.852500 0.100000 0.040000
0.881875 0.100000 0.040000
0.911250 0.100000 0.040000
0.940625 0.100000 0.040000
0.970000 0.100000 0.040000
0.044677 0.130000 0.040000
0.075318 0.130000 0.040000
0.105318 0.130000 0.040000
0.130000 0.125323 0.040000
0.160000 0.124909 0.040000
0.190000 0.124710 0.040000
0.220000 0.124600 0.040000
0.250000 0.124533 0.040000
0.280000 0.124489 0.040000
0.310000 0.124459 0.040000
0.340000 0.124438 0.040000
0.370000 0.130000 0.040000
0.400000 0.130000 0.040000
0.430000 0.130000 0.040000
0.460000 0.130000 0.040000
0.490000 0.130000 0.040000
0.520000 0.130000 0.040000
0.529375 0.130000 0.040000
0.558750 0.130000 0.040000
0.588125 0.130000 0.040000
0.617500 0.130000 0.040000
0.646875 0.130000 0.040000
0.676250 0.130000 0.040000
0.705625 0.130000 0.040000
0.735000 0.130000 0.040000
0.764375 0.130000 0.040000
0.793750 0.130000 0.040000
0.823125 0.130000 0.040000
0.852500 0.130000 0.040000
0.881875 0.130000 0.040000
0.911250 0.130000 0.040000
0.940625 0.130000 0.040000
0.970000 0.130000 0.040000
0.046235 0.160000 0.040000
0.076955 0.160000 0.040000
0.107200 0.160000 0.040000
0.136955 0.160000 0.040000
0.160000 0.153765 0.040000
0.190000 0.153312 0.040000
0.220000 0.153058 0.040000
0.250000 0.152902 0.040000
0.280000 0.152800 0.040000
0.310000 0.152729 0.040000
0.340000 0.152679 0.040000
0.370000 0.152641 0.040000
0.400000 0.152612 0.040000
0.430000 0.152590 0.040000
0.460000 0.160000 0.040000
0.490000 0.160000 0.040000
0.520000 0.160000 0.040000
0.529375 0.160000 0.040000
0.558750 0.160000 0.040000
0.588125 0.160000 0.040000
0.617500 0.160000 0.040000
0.646875 0.160000 0.040000
0.676250 0.160000 0.040000
0.705625 0.160000 0.040000
0.735000 0.160000 0.040000
0.764375 0.160000 0.040000
0.793750 0.160000 0.040000
0.823125 0.160000 0.040000
0.852500 0.160000 0.040000
0.881875 0.160000 0.040000
0.911250 0.160000 0.040000
0.940625 0.160000 0.040000
0.970000 0.160000 0.040000
0.047794 0.190000 0.040000
0.078560 0.190000 0.040000
0.108951 0.190000 0.040000
0.138951 0.190000 0.040000
0.168560 0.190000 0.040000
0.190000 0.182206 0.040000
0.220000 0.181727 0.040000
0.250000 0.181430 0.040000
0.280000 0.181234 0.040000
0.310000 0.181098 0.040000
0.340000 0.181000 0.040000
0.370000 0.180927 0.040000
0.400000 0.180871 0.040000
0.430000 0.180828 0.040000
0.460000 0.180793 0.040000
0.490000 0.180765 0.040000
0.520000 0.180743 0.040000
0.529375 0.180736 0.040000
0.558750 0.190000 0.040000
0.588125 0.190000 0.040000
0.617500 0.190000 0.040000
0.646875 0.190000 0.040000
0.676250 0.190000 0.040000
0.705625 0.190000 0.040000
0.735000 0.190000 0.040000
0.764375 0.190000 0.040000
0.793750 0.190000 0.040000
0.823125 0.190000 0.040000
0.852500 0.190000 0.040000
0.881875 0.190000 0.040000
0.911250 0.190000 0.040000
0.940625 0.190000 0.040000
0.970000 0.190000 0.040000
0.049353 0.220000 0.040000
0.080149 0.220000 0.040000
0.110636 0.220000 0.040000
0.140800 0.220000 0.040000
0.170636 0.220000 0.040000
0.200149 0.220000 0.040000
0.220000 0.210647 0.040000
0.250000 0.210149 0.040000
0.280000 0.209818 0.040000
0.310000 0.209587 0.040000
0.340000 0.209420 0.040000
0.370000 0.209295 0.040000
0.400000 0.209200 0.040000
0.430000 0.209125 0.040000
0.460000 0.209066 0.040000
0.490000 0.209018 0.040000
0.520000 0.208979 0.040000
0.529375 0.208968 0.040000
0.558750 0.208938 0.040000
0.588125 0.208912 0.040000
0.617500 0.208890 0.040000
0.646875 0.208871 0.040000
0.676250 0.220000 0.040000
0.705625 0.220000 0.040000
0.735000 0.220000 0.040000
0.764375 0.220000 0.040000
0.793750 0.220000 0.040000
0.823125 0.220000 0.040000
0.852500 0.220000 0.040000
0.881875 0.220000 0.040000
0.911250 0.220000 0.040000
0.940625 0.220000 0.040000
0.970000 0.220000 0.040000
0.050912 0.250000 0.040000
0.081729 0.250000 0.040000
0.112284 0.250000 0.040000
0.142565 0.250000 0.040000
0.172565 0.250000 0.040000
0.202284 0.250000 0.040000
0.231729 0.250000 0.040000
0.250000 0.239088 0.040000
0.280000 0.238576 0.040000
0.310000 0.238217 0.040000
0.340000 0.237956 0.040000
0.370000 0.237760 0.040000
0.400000 0.237611 0.040000
0.430000 0.237493 0.040000
0.460000 0.237400 0.040000
0.490000 0.237324 0.040000
0.520000 0.237262 0.040000
0.529375 0.237245 0.040000
0.558750 0.237197 0.040000
0.588125 0.237156 0.040000
0.617500 0.237122 0.040000
0.646875 0.237092 0.040000
0.676250 0.237066 0.040000
0.705625 0.237044 0.040000
0.735000 0.237024 0.040000
0.764375 0.250000 0.040000
0.793750 0.250000 0.040000
0.823125 0.250000 0.040000
0.852500 0.250000 0.040000
0.881875 0.250000 0.040000
0.911250 0.250000 0.040000
0.940625 0.250000 0.040000
0.970000 0.250000 0.040000
0.052471 0.280000 0.040000
0.083304 0.280000 0.040000
0.113909 0.280000 0.040000
0.144277 0.280000 0.040000
0.174400 0.280000 0.040000
0.204277 0.280000 0.040000
0.233909 0.280000 0.040000
0.263304 0.280000 0.040000
0.280000 0.267529 0.040000
0.310000 0.267006 0.040000
0.340000 0.266623 0.040000
0.370000 0.266336 0.040000
0.400000 0.266116 0.040000
0.430000 0.265943 0.040000
0.460000 0.265804 0.040000
0.490000 0.265692 0.040000
0.520000 0.265600 0.040000
0.529375 0.265575 0.040000
0.558750 0.265503 0.040000
0.588125 0.265443 0.040000
0.617500 0.265392 0.040000
0.646875 0.265348 0.040000
0.676250 0.265309 0.040000
0.705625 0.265276 0.040000
0.735000 0.265247 0.040000
0.764375 0.265221 0.040000
0.793750 0.265198 0.040000
0.823125 0.265178 0.040000
0.852500 0.265160 0.040000
0.881875 0.280000 0.040000
0.911250 0.280000 0.040000
0.940625 0.280000 0.040000
0.970000 0.280000 0.040000
0.054030 0.310000 0.040000
0.084875 0.310000 0.040000
0.115519 0.310000 0.040000
0.145954 0.310000 0.040000
0.176173 0.310000 0.040000
0.206173 0.310000 0.040000
0.235954 0.310000 0.040000
0.265519 0.310000 0.040000
0.294875 0.310000 0.040000
0.310000 0.295970 0.040000
0.340000 0.295438 0.040000
0.370000 0.295036 0.040000
0.400000 0.294726 0.040000
0.430000 0.294483 0.040000
0.460000 0.294288 0.040000
0.490000 0.294130 0.040000
0.520000 0.294000 0.040000
0.529375 0.293964 0.040000
0.558750 0.293863 0.040000
0.588125 0.293778 0.040000
0.617500 0.293705 0.040000
0.646875 0.293643 0.040000
0.676250 0.293588 0.040000
0.705625 0.293541 0.040000
0.735000 0.293500 0.040000
0.764375 0.293463 0.040000
0.793750 0.293430 0.040000
0.823125 0.293402 0.040000
0.852500 0.293376 0.040000
0.881875 0.293353 0.040000
0.911250 0.293332 0.040000
0.940625 0.293313 0.040000
0.970000 0.310000 0.040000
0.055588 0.340000 0.040000
0.086444 0.340000 0.040000
0.117119 0.340000 0.040000
0.147607 0.340000 0.040000
0.177901 0.340000 0.040000
0.208000 0.340000 0.040000
0.237901 0.340000 0.040000
0.267607 0.340000 0.040000
0.297119 0.340000 0.040000
0.326444 0.340000 0.040000
0.340000 0.324412 0.040000
0.370000 0.323871 0.040000
0.400000 0.323453 0.040000
0.430000 0.323124 0.040000
0.460000 0.322860 0.040000
0.490000 0.322645 0.040000
0.520000 0.322468 0.040000
0.529375 0.322419 0.040000
0.558750 0.322282 0.040000
0.588125 0.322166 0.040000
0.617500 0.322066 0.040000
0.646875 0.321981 0.040000
0.676250 0.321907 0.040000
0.705625 0.321843 0.040000
0.735000 0.321786 0.040000
0.764375 0.321736 0.040000
0.793750 0.321691 0.040000
0.823125 0.321652 0.040000
0.852500 0.321617 0.040000
0.881875 0.321585 0.040000
0.911250 0.321556 0.040000
0.940625 0.321530 0.040000
0.970000 0.321507 0.040000
0.057147 0.370000 0.040000
0.088011 0.370000 0.040000
0.118711 0.370000 0.040000
0.149242 0.370000 0.040000
0.179598 0.370000 0.040000
0.209778 0.370000 0.040000
0.239778 0.370000 0.040000
0.269598 0.370000 0.040000
0.299242 0.370000 0.040000
0.328711 0.370000 0.040000
0.358011 0.370000 0.040000
0.370000 0.352853 0.040000
0.400000 0.352306 0.040000
0.430000 0.351874 0.040000
0.460000 0.351527 0.040000
0.490000 0.351244 0.040000
0.520000 0.351011 0.040000
0.529375 0.350946 0.040000
0.558750 0.350765 0.040000
0.588125 0.350612 0.040000
0.617500 0.350481 0.040000
0.646875 0.350368 0.040000
0.676250 0.350270 0.040000
0.705625 0.350184 0.040000
0.735000 0.350109 0.040000
0.764375 0.350043 0.040000
0.793750 0.349984 0.040000
0.823125 0.349932 0.040000
0.852500 0.349885 0.040000
0.881875 0.349843 0.040000
0.911250 0.349805 0.040000
0.940625 0.349771 0.040000
0.970000 0.349739 0.040000
0.058706 0.400000 0.040000
0.089576 0.400000 0.040000
0.120297 0.400000 0.040000
0.150864 0.400000 0.040000
0.181272 0.400000 0.040000
0.211518 0.400000 0.040000
0.241600 0.400000 0.040000
0.271518 0.400000 0.040000
0.301272 0.400000 0.040000
0.330864 0.400000 0.040000
0.360297 0.400000 0.040000
0.389576 0.400000 0.040000
0.400000 0.381294 0.040000
0.430000 0.380742 0.040000
0.460000 0.380298 0.040000
0.490000 0.379935 0.040000
0.520000 0.379635 0.040000
0.529375 0.379552 0.040000
0.558750 0.379320 0.040000
0.588125 0.379122 0.040000
0.617500 0.378953 0.040000
0.646875 0.378807 0.040000
0.676250 0.378681 0.040000
0.705625 0.378571 0.040000
0.735000 0.378474 0.040000
0.764375 0.378388 0.040000
0.793750 0.378312 0.040000
0.823125 0.378244 0.040000
0.852500 0.378183 0.040000
0.881875 0.378129 0.040000
0.911250 0.378080 0.040000
0.940625 0.378035 0.040000
0.970000 0.377995 0.040000
0.060265 0.430000 0.040000
0.091141 0.430000 0.040000
0.121879 0.430000 0.040000
0.152476 0.430000 0.040000
0.182927 0.430000 0.040000
0.213229 0.430000 0.040000
0.243381 0.430000 0.040000
0.273381 0.430000 0.040000
0.303229 0.430000 0.040000
0.332927 0.430000 0.040000
0.362476 0.430000 0.040000
0.391879 0.430000 0.040000
0.421141 0.430000 0.040000
0.430000 0.409735 0.040000
0.460000 0.409179 0.040000
0.490000 0.408724 0.040000
0.520000 0.408347 0.040000
0.529375 0.408243 0.040000
0.558750 0.407950 0.040000
0.588125 0.407701 0.040000
0.617500 0.407488 0.040000
0.646875 0.407304 0.040000
0.676250 0.407144 0.040000
0.705625 0.407004 0.040000
0.735000 0.406882 0.040000
0.764375 0.406773 0.040000
0.793750 0.406677 0.040000
0.823125 0.406591 0.040000
0.852500 0.406515 0.040000
0.881875 0.406445 0.040000
0.911250 0.406383 0.040000
0.940625 0.406327 0.040000
0.970000 0.406276 0.040000
0.061824 0.460000 0.040000
0.092704 0.460000 0.040000
0.123458 0.460000 0.040000
0.154080 0.460000 0.040000
0.184568 0.460000 0.040000
0.214919 0.460000 0.040000
0.245130 0.460000 0.040000
0.275200 0.460000 0.040000
0.305130 0.460000 0.040000
0.334919 0.460000 0.040000
0.364568 0.460000 0.040000
0.394080 0.460000 0.040000
0.423458 0.460000 0.040000
0.452704 0.460000 0.040000
0.460000 0.438176 0.040000
0.490000 0.437616 0.040000
0.520000 0.437151 0.040000
0.529375 0.437023 0.040000
0.558750 0.436661 0.040000
0.588125 0.436353 0.040000
0.617500 0.436089 0.040000
0.646875 0.435861 0.040000
0.676250 0.435663 0.040000
0.705625 0.435489 0.040000
0.735000 0.435337 0.040000
0.764375 0.435202 0.040000
0.793750 0.435083 0.040000
0.823125 0.434976 0.040000
0.852500 0.434881 0.040000
0.881875 0.434795 0.040000
0.911250 0.434717 0.040000
0.940625 0.434647 0.040000
0.970000 0.434583 0.040000
0.063383 0.490000 0.040000
0.094267 0.490000 0.040000
0.125034 0.490000 0.040000
0.155679 0.490000 0.040000
0.186198 0.490000 0.040000
0.216590 0.490000 0.040000
0.246852 0.490000 0.040000
0.276984 0.490000 0.040000
0.306984 0.490000 0.040000
0.336852 0.490000 0.040000
0.366590 0.490000 0.040000
0.396198 0.490000 0.040000
0.425679 0.490000 0.040000
0.455034 0.490000 0.040000
0.484267 0.490000 0.040000
0.490000 0.466617 0.040000
0.520000 0.466054 0.040000
0.529375 0.465897 0.040000
0.558750 0.465457 0.040000
0.588125 0.465082 0.040000
0.617500 0.464761 0.040000
0.646875 0.464483 0.040000
0.676250 0.464241 0.040000
0.705625 0.464029 0.040000
0.735000 0.463843 0.040000
0.764375 0.463678 0.040000
0.793750 0.463532 0.040000
0.823125 0.463401 0.040000
0.852500 0.463284 0.040000
0.881875 0.463179 0.040000
0.911250 0.463084 0.040000
0.940625 0.462998 0.040000
0.970000 0.462920 0.040000
0.064942 0.520000 0.040000
0.095830 0.520000 0.040000
0.126608 0.520000 0.040000
0.157272 0.520000 0.040000
0.187819 0.520000 0.040000
0.218247 0.520000 0.040000
0.248554 0.520000 0.040000
0.278738 0.520000 0.040000
0.308800 0.520000 0.040000
0.338738 0.520000 0.040000
0.368554 0.520000 0.040000
0.398247 0.520000 0.040000
0.427819 0.520000 0.040000
0.457272 0.520000 0.040000
0.486608 0.520000 0.040000
0.515830 0.520000 0.040000
0.520000 0.495058 0.040000
0.529375 0.494871 0.040000
0.558750 0.494344 0.040000
0.588125 0.493894 0.040000
0.617500 0.493507 0.040000
0.646875 0.493173 0.040000
0.676250 0.492882 0.040000
0.705625 0.492627 0.040000
0.735000 0.492402 0.040000
0.764375 0.492203 0.040000
0.793750 0.492027 0.040000
0.823125 0.491869 0.040000
0.852500 0.491728 0.040000
0.881875 0.491601 0.040000
0.911250 0.491486 0.040000
0.940625 0.491382 0.040000
0.970000 0.491288 0.040000
0.065429 0.529375 0.040000
0.096318 0.529375 0.040000
0.127099 0.529375 0.040000
0.157769 0.529375 0.040000
0.188324 0.529375 0.040000
0.218762 0.529375 0.040000
0.249082 0.529375 0.040000
0.279282 0.529375 0.040000
0.309361 0.529375 0.040000
0.339319 0.529375 0.040000
0.369157 0.529375 0.040000
0.398875 0.529375 0.040000
0.428473 0.529375 0.040000
0.457954 0.529375 0.040000
0.487320 0.529375 0.040000
0.516574 0.529375 0.040000
0.529375 0.513032 0.040000
0.529375 0.503946 0.040000
0.558750 0.503390 0.040000
0.588125 0.502915 0.040000
0.617500 0.502506 0.040000
0.646875 0.502153 0.040000
0.676250 0.501845 0.040000
0.705625 0.501576 0.040000
0.735000 0.501338 0.040000
0.764375 0.501128 0.040000
0.793750 0.500941 0.040000
0.823125 0.500775 0.040000
0.852500 0.500625 0.040000
0.881875 0.500491 0.040000
0.911250 0.500369 0.040000
0.940625 0.500259 0.040000
0.970000 0.500159 0.040000
0.066955 0.558750 0.040000
0.097848 0.558750 0.040000
0.128638 0.558750 0.040000
0.159323 0.558750 0.040000
0.189901 0.558750 0.040000
0.220369 0.558750 0.040000
0.250726 0.558750 0.040000
0.280971 0.558750 0.040000
0.311101 0.558750 0.040000
0.341118 0.558750 0.040000
0.371020 0.558750 0.040000
0.400809 0.558750 0.040000
0.430485 0.558750 0.040000
0.460049 0.558750 0.040000
0.489503 0.558750 0.040000
0.518849 0.558750 0.040000
0.548089 0.558750 0.040000
0.557205 0.558750 0.040000
0.558750 0.531795 0.040000
0.588125 0.531236 0.040000
0.617500 0.530755 0.040000
0.646875 0.530338 0.040000
0.676250 0.529974 0.040000
0.705625 0.529656 0.040000
0.735000 0.529375 0.040000
0.764375 0.529126 0.040000
0.793750 0.528905 0.040000
0.823125 0.528708 0.040000
0.852500 0.528531 0.040000
0.881875 0.528371 0.040000
0.911250 0.528227 0.040000
0.940625 0.528097 0.040000
0.970000 0.527978 0.040000
0.068481 0.588125 0.040000
0.099377 0.588125 0.040000
0.130175 0.588125 0.040000
0.160875 0.588125 0.040000
0.191473 0.588125 0.040000
0.221968 0.588125 0.040000
0.252358 0.588125 0.040000
0.282641 0.588125 0.040000
0.312818 0.588125 0.040000
0.342887 0.588125 0.040000
0.372847 0.588125 0.040000
0.402700 0.588125 0.040000
0.432445 0.588125 0.040000
0.462084 0.588125 0.040000
0.491617 0.588125 0.040000
0.521047 0.588125 0.040000
0.550375 0.588125 0.040000
0.559519 0.588125 0.040000
0.588109 0.588125 0.040000
0.588125 0.559644 0.040000
0.617500 0.559082 0.040000
0.646875 0.558595 0.040000
0.676250 0.558170 0.040000
0.705625 0.557798 0.040000
0.735000 0.557469 0.040000
0.764375 0.557178 0.040000
0.793750 0.556919 0.040000
0.823125 0.556687 0.040000
0.852500 0.556479 0.040000
0.881875 0.556292 0.040000
0.911250 0.556123 0.040000
0.940625 0.555970 0.040000
0.970000 0.555831 0.040000
0.070008 0.617500 0.040000
0.100905 0.617500 0.040000
0.131712 0.617500 0.040000
0.162424 0.617500 0.040000
0.193040 0.617500 0.040000
0.223559 0.617500 0.040000
0.253978 0.617500 0.040000
0.284297 0.617500 0.040000
0.314515 0.617500 0.040000
0.344630 0.617500 0.040000
0.374643 0.617500 0.040000
0.404553 0.617500 0.040000
0.434361 0.617500 0.040000
0.464068 0.617500 0.040000
0.493673 0.617500 0.040000
0.523179 0.617500 0.040000
0.552587 0.617500 0.040000
0.561757 0.617500 0.040000
0.590430 0.617500 0.040000
0.617500 0.615987 0.040000
0.617500 0.587492 0.040000
0.646875 0.586929 0.040000
0.676250 0.586437 0.040000
0.705625 0.586005 0.040000
0.735000 0.585623 0.040000
0.764375 0.585285 0.040000
0.793750 0.584984 0.040000
0.823125 0.584715 0.040000
0.852500 0.584473 0.040000
0.881875 0.584256 0.040000
0.911250 0.584059 0.040000
0.940625 0.583881 0.040000
0.970000 0.583718 0.040000
0.071534 0.646875 0.040000
0.102434 0.646875 0.040000
0.133247 0.646875 0.040000
0.163971 0.646875 0.040000
0.194604 0.646875 0.040000
0.225144 0.646875 0.040000
0.255590 0.646875 0.040000
0.285940 0.646875 0.040000
0.316195 0.646875 0.040000
0.346352 0.646875 0.040000
0.376412 0.646875 0.040000
0.406374 0.646875 0.040000
0.436239 0.646875 0.040000
0.466007 0.646875 0.040000
0.495678 0.646875 0.040000
0.525254 0.646875 0.040000
0.554736 0.646875 0.040000
0.563929 0.646875 0.040000
0.592678 0.646875 0.040000
0.621340 0.646875 0.040000
0.646875 0.643834 0.040000
0.646875 0.615341 0.040000
0.676250 0.614776 0.040000
0.705625 0.614279 0.040000
0.735000 0.613840 0.040000
0.764375 0.613451 0.040000
0.793750 0.613104 0.040000
0.823125 0.612793 0.040000
0.852500 0.612515 0.040000
0.881875 0.612264 0.040000
0.911250 0.612037 0.040000
0.940625 0.611830 0.040000
0.970000 0.611643 0.040000
0.073061 0.676250 0.040000
0.103962 0.676250 0.040000
0.134781 0.676250 0.040000
0.165516 0.676250 0.040000
0.196163 0.676250 0.040000
0.226723 0.676250 0.040000
0.257193 0.676250 0.040000
0.287572 0.676250 0.040000
0.317860 0.676250 0.040000
0.348055 0.676250 0.040000
0.378158 0.676250 0.040000
0.408168 0.676250 0.040000
0.438084 0.676250 0.040000
0.467908 0.676250 0.040000
0.497640 0.676250 0.040000
0.527279 0.676250 0.040000
0.556828 0.676250 0.040000
0.566044 0.676250 0.040000
0.594863 0.676250 0.040000
0.623597 0.676250 0.040000
0.652249 0.676250 0.040000
0.676250 0.671681 0.040000
0.676250 0.643189 0.040000
0.705625 0.642623 0.040000
0.735000 0.642121 0.040000
0.764375 0.641676 0.040000
0.793750 0.641280 0.040000
0.823125 0.640925 0.040000
0.852500 0.640605 0.040000
0.881875 0.640318 0.040000
0.911250 0.640057 0.040000
0.940625 0.639821 0.040000
0.970000 0.639606 0.040000
0.074587 0.705625 0.040000
0.105491 0.705625 0.040000
0.136315 0.705625 0.040000
0.167059 0.705625 0.040000
0.197720 0.705625 0.040000
0.228297 0.705625 0.040000
0.258789 0.705625 0.040000
0.289194 0.705625 0.040000
0.319512 0.705625 0.040000
0.349743 0.705625 0.040000
0.379884 0.705625 0.040000
0.409937 0.705625 0.040000
0.439901 0.705625 0.040000
0.469776 0.705625 0.040000
0.499562 0.705625 0.040000
0.529261 0.705625 0.040000
0.558872 0.705625 0.040000
0.568107 0.705625 0.040000
0.596991 0.705625 0.040000
0.625793 0.705625 0.040000
0.654515 0.705625 0.040000
0.683157 0.705625 0.040000
0.705625 0.699528 0.040000
0.705625 0.671038 0.040000
0.735000 0.670470 0.040000
0.764375 0.669965 0.040000
0.793750 0.669514 0.040000
0.823125 0.669110 0.040000
0.852500 0.668747 0.040000
0.881875 0.668420 0.040000
0.911250 0.668124 0.040000
0.940625 0.667855 0.040000
0.970000 0.667610 0.040000
0.076113 0.735000 0.040000
0.107019 0.735000 0.040000
0.137848 0.735000 0.040000
0.168600 0.735000 0.040000
0.199274 0.735000 0.040000
0.229867 0.735000 0.040000
0.260379 0.735000 0.040000
0.290808 0.735000 0.040000
0.321154 0.735000 0.040000
0.351416 0.735000 0.040000
0.381593 0.735000 0.040000
0.411686 0.735000 0.040000
0.441693 0.735000 0.040000
0.471615 0.735000 0.040000
0.501451 0.735000 0.040000
0.531204 0.735000 0.040000
0.560872 0.735000 0.040000
0.570126 0.735000 0.040000
0.599069 0.735000 0.040000
0.627934 0.735000 0.040000
0.656721 0.735000 0.040000
0.685431 0.735000 0.040000
0.714065 0.735000 0.040000
0.735000 0.727375 0.040000
0.735000 0.698887 0.040000
0.764375 0.698317 0.040000
0.793750 0.697808 0.040000
0.823125 0.697352 0.040000
0.852500 0.696942 0.040000
0.881875 0.696572 0.040000
0.911250 0.696236 0.040000
0.940625 0.695932 0.040000
0.970000 0.695655 0.040000
0.077640 0.764375 0.040000
0.108546 0.764375 0.040000
0.139381 0.764375 0.040000
0.170141 0.764375 0.040000
0.200826 0.764375 0.040000
0.231434 0.764375 0.040000
0.261964 0.764375 0.040000
0.292415 0.764375 0.040000
0.322786 0.764375 0.040000
0.353077 0.764375 0.040000
0.383287 0.764375 0.040000
0.413415 0.764375 0.040000
0.443462 0.764375 0.040000
0.473427 0.764375 0.040000
0.503311 0.764375 0.040000
0.533113 0.764375 0.040000
0.562834 0.764375 0.040000
0.572105 0.764375 0.040000
0.601104 0.764375 0.040000
0.630027 0.764375 0.040000
0.658874 0.764375 0.040000
0.687647 0.764375 0.040000
0.716346 0.764375 0.040000
0.744972 0.764375 0.040000
0.764375 0.755222 0.040000
0.764375 0.726735 0.040000
0.793750 0.726164 0.040000
0.823125 0.725652 0.040000
0.852500 0.725191 0.040000
0.881875 0.724775 0.040000
0.911250 0.724397 0.040000
0.940625 0.724055 0.040000
0.970000 0.723743 0.040000
0.079166 0.793750 0.040000
0.110074 0.793750 0.040000
0.140913 0.793750 0.040000
0.171680 0.793750 0.040000
0.202375 0.793750 0.040000
0.232997 0.793750 0.040000
0.263544 0.793750 0.040000
0.294015 0.793750 0.040000
0.324410 0.793750 0.040000
0.354727 0.793750 0.040000
0.384967 0.793750 0.040000
0.415129 0.793750 0.040000
0.445213 0.793750 0.040000
0.475217 0.793750 0.040000
0.505144 0.793750 0.040000
0.534992 0.793750 0.040000
0.564762 0.793750 0.040000
0.574049 0.793750 0.040000
0.603099 0.793750 0.040000
0.632076 0.793750 0.040000
0.660980 0.793750 0.040000
0.689811 0.793750 0.040000
0.718570 0.793750 0.040000
0.747259 0.793750 0.040000
