docs/luts/fuji_recipes/Provia_RR_Cross_Process.cube
TITLE "Fujifilm Recipe: RR Cross Process (Provia)"
# FilmSim=Provia HL=2 SH=3 Col=4 WB=Auto WBR=-3 WBB=-8
LUT_3D_SIZE 9
DOMAIN_MIN 0.0 0.0 0.0
DOMAIN_MAX 1.0 1.0 1.0
0.000000 0.000000 0.000000
0.133031 0.000000 0.000000
0.256504 0.000000 0.000000
0.379977 0.000000 0.000000
0.577871 0.000000 0.000000
0.729406 0.000000 0.000000
0.880941 0.000000 0.000000
0.959000 0.000000 0.000000
0.959000 0.000000 0.000000
0.000000 0.143817 0.000000
0.133031 0.143817 0.000000
0.256504 0.143817 0.000000
0.379977 0.143817 0.000000
0.577871 0.143817 0.000000
0.729406 0.143817 0.000000
0.880941 0.143817 0.000000
0.959000 0.143817 0.000000
0.959000 0.143817 0.000000
0.000000 0.277302 0.000000
0.133031 0.277302 0.000000
0.256504 0.277302 0.000000
0.379977 0.277302 0.000000
0.577871 0.277302 0.000000
0.729406 0.277302 0.000000
0.880941 0.277302 0.000000
0.959000 0.277302 0.000000
0.959000 0.277302 0.000000
0.000000 0.410786 0.000000
0.133031 0.410786 0.000000
0.256504 0.410786 0.000000
0.379977 0.410786 0.000000
0.577871 0.410786 0.000000
0.729406 0.410786 0.000000
0.880941 0.410786 0.000000
0.959000 0.410786 0.000000
0.959000 0.410786 0.000000
0.000000 0.627968 0.000000
0.133031 0.627968 0.000000
0.256504 0.627968 0.000000
0.379977 0.627968 0.000000
0.577871 0.627968 0.000000
0.729406 0.627968 0.000000
0.880941 0.627968 0.000000
0.959000 0.627968 0.000000
0.959000 0.627968 0.000000
0.000000 0.791790 0.000000
0.133031 0.791790 0.000000
0.256504 0.791790 0.000000
0.379977 0.791790 0.000000
0.577871 0.791790 0.000000
0.729406 0.791790 0.000000
0.880941 0.791790 0.000000
0.959000 0.791790 0.000000
0.959000 0.791790 0.000000
0.000000 0.955611 0.000000
0.133031 0.955611 0.000000
0.256504 0.955611 0.000000
0.379977 0.955611 0.000000
0.577871 0.955611 0.000000
0.729406 0.955611 0.000000
0.880941 0.955611 0.000000
0.959000 0.955611 0.000000
0.959000 0.955611 0.000000
0.000000 1.000000 0.000000
0.133031 1.000000 0.000000
0.256504 1.000000 0.000000
0.379977 1.000000 0.000000
0.577871 1.000000 0.000000
0.729406 1.000000 0.000000
0.880941 1.000000 0.000000
0.959000 1.000000 0.000000
0.959000 1.000000 0.000000
0.000000 1.000000 0.000000
0.133031 1.000000 0.000000
0.256504 1.000000 0.000000
0.379977 1.000000 0.000000
0.577871 1.000000 0.000000
0.729406 1.000000 0.000000
0.880941 1.000000 0.000000
0.959000 1.000000 0.000000
0.959000 1.000000 0.000000
0.000000 0.000000 0.115054
0.133031 0.000000 0.115054
0.256504 0.000000 0.115054
0.379977 0.000000 0.115054
0.577871 0.000000 0.115054
0.729406 0.000000 0.115054
0.880941 0.000000 0.115054
0.959000 0.000000 0.115054
0.959000 0.000000 0.115054
0.000000 0.143817 0.115054
0.135620 0.154172 0.104699
0.307426 0.113605 0.064132
0.475349 0.069155 0.019682
0.692924 0.043064 0.000000
0.844459 0.039537 0.000000
0.995995 0.037405 0.000000
1.000000 0.105612 0.074054
1.000000 0.105612 0.074054
0.000000 0.277302 0.115054
0.087565 0.335711 0.056645
0.299939 0.335711 0.056645
0.475349 0.298748 0.019682
0.692924 0.242916 0.000000
0.844459 0.223018 0.000000
0.995995 0.210995 0.000000
1.000000 0.252066 0.074054
1.000000 0.252066 0.074054
0.000000 0.410786 0.115054
0.039511 0.517250 0.008590
0.251885 0.517250 0.008590
0.464258 0.517250 0.008590
0.692924 0.442767 0.000000
0.844459 0.406500 0.000000
0.995995 0.384584 0.000000
1.000000 0.398520 0.074054
1.000000 0.398520 0.074054
0.000000 0.627968 0.115054
0.026042 0.743022 0.000000
0.204909 0.743022 0.000000
0.383775 0.743022 0.000000
0.670449 0.743022 0.000000
0.844459 0.705028 0.000000
0.995995 0.667017 0.000000
1.000000 0.636804 0.074054
1.000000 0.636804 0.074054
0.000000 0.791790 0.115054
0.024090 0.906844 0.000000
0.189547 0.906844 0.000000
0.355004 0.906844 0.000000
0.620186 0.906844 0.000000
0.823247 0.906844 0.000000
0.995995 0.880059 0.000000
1.000000 0.816543 0.074054
1.000000 0.816543 0.074054
0.000000 0.955611 0.115054
0.090541 1.000000 0.070665
0.227055 1.000000 0.070665
0.363569 1.000000 0.070665
0.582363 1.000000 0.070665
0.749903 1.000000 0.070665
0.917443 1.000000 0.070665
1.000000 0.996282 0.074054
1.000000 0.996282 0.074054
0.000000 1.000000 0.115054
0.133031 1.000000 0.115054
0.256504 1.000000 0.115054
0.379977 1.000000 0.115054
0.577871 1.000000 0.115054
0.729406 1.000000 0.115054
0.880941 1.000000 0.115054
0.959000 1.000000 0.115054
0.959000 1.000000 0.115054
0.000000 1.000000 0.115054
0.133031 1.000000 0.115054
0.256504 1.000000 0.115054
0.379977 1.000000 0.115054
0.577871 1.000000 0.115054
0.729406 1.000000 0.115054
0.880941 1.000000 0.115054
0.959000 1.000000 0.115054
0.959000 1.000000 0.115054
0.000000 0.000000 0.221841
0.133031 0.000000 0.221841
0.256504 0.000000 0.221841
0.379977 0.000000 0.221841
0.577871 0.000000 0.221841
0.729406 0.000000 0.221841
0.880941 0.000000 0.221841
0.959000 0.000000 0.221841
0.959000 0.000000 0.221841
0.000000 0.143817 0.221841
0.101059 0.119612 0.253813
0.297071 0.103250 0.237451
0.464995 0.058800 0.193001
0.721688 0.000000 0.129728
0.873223 0.000000 0.116349
1.000000 0.024758 0.127987
1.000000 0.102817 0.188690
1.000000 0.102817 0.188690
0.000000 0.277302 0.221841
0.081094 0.329239 0.233847
0.261496 0.297267 0.201876
0.436906 0.260304 0.164913
0.706041 0.189063 0.093671
0.912129 0.134510 0.039118
1.000000 0.178279 0.102782
1.000000 0.242471 0.180841
1.000000 0.242471 0.180841
0.000000 0.410786 0.221841
0.033039 0.510778 0.185793
0.213441 0.478806 0.153821
0.425815 0.478806 0.153821
0.706041 0.418656 0.093671
0.912129 0.364103 0.039118
1.000000 0.359988 0.102782
1.000000 0.390804 0.180841
1.000000 0.390804 0.180841
0.000000 0.627968 0.221841
0.000000 0.760999 0.136552
0.135256 0.774174 0.075636
0.347629 0.774174 0.075636
0.688006 0.774174 0.075636
0.912129 0.737656 0.039118
1.000000 0.655634 0.102782
1.000000 0.632145 0.180841
1.000000 0.632145 0.180841
0.000000 0.791790 0.221841
0.000000 0.924821 0.124679
0.076280 0.996971 0.016660
0.288653 0.996971 0.016660
0.629030 0.996971 0.016660
0.889670 0.996971 0.016660
1.000000 0.878641 0.102782
1.000000 0.814190 0.180841
1.000000 0.814190 0.180841
0.000000 0.955611 0.221841
0.088643 1.000000 0.187038
0.216309 1.000000 0.177453
0.354721 1.000000 0.177453
0.576557 1.000000 0.177453
0.746426 1.000000 0.177453
0.916295 1.000000 0.177453
1.000000 0.996235 0.180841
1.000000 0.996235 0.180841
0.000000 1.000000 0.221841
0.133031 1.000000 0.221841
0.256504 1.000000 0.221841
0.379977 1.000000 0.221841
0.577871 1.000000 0.221841
0.729406 1.000000 0.221841
0.880941 1.000000 0.221841
0.959000 1.000000 0.221841
0.959000 1.000000 0.221841
0.000000 1.000000 0.221841
0.133031 1.000000 0.221841
0.256504 1.000000 0.221841
0.379977 1.000000 0.221841
0.577871 1.000000 0.221841
0.729406 1.000000 0.221841
0.880941 1.000000 0.221841
0.959000 1.000000 0.221841
0.959000 1.000000 0.221841
0.000000 0.000000 0.328629
0.133031 0.000000 0.328629
0.256504 0.000000 0.328629
0.379977 0.000000 0.328629
0.577871 0.000000 0.328629
0.729406 0.000000 0.328629
0.880941 0.000000 0.328629
0.959000 0.000000 0.328629
0.959000 0.000000 0.328629
0.000000 0.143817 0.328629
0.062616 0.081168 0.399044
0.271106 0.077285 0.395161
0.464995 0.058800 0.376676
0.721688 0.000000 0.307281
0.873223 0.000000 0.275589
1.000000 0.024758 0.269271
1.000000 0.102817 0.306219
1.000000 0.102817 0.306219
0.000000 0.277302 0.328629
0.062616 0.310761 0.399044
0.230539 0.266311 0.354594
0.416940 0.240339 0.328621
0.686075 0.169097 0.257380
0.892163 0.114544 0.202827
1.000000 0.158242 0.229817
1.000000 0.236302 0.293803
1.000000 0.236302 0.293803
0.000000 0.410786 0.328629
0.033039 0.510778 0.369467
0.200963 0.466328 0.325017
0.387371 0.440363 0.299052
0.667598 0.380212 0.238902
0.873685 0.325660 0.184349
1.000000 0.327147 0.209569
1.000000 0.380473 0.287629
1.000000 0.380473 0.287629
0.000000 0.627968 0.328629
0.000000 0.760999 0.300745
0.122777 0.761695 0.246832
0.309186 0.735730 0.220867
0.649562 0.735730 0.220867
0.873685 0.699213 0.184349
1.000000 0.637963 0.209569
1.000000 0.625907 0.287629
1.000000 0.625907 0.287629
0.000000 0.791790 0.328629
0.000000 0.924821 0.274597
0.063801 0.984493 0.187856
0.250210 0.958528 0.161891
0.590587 0.958528 0.161891
0.851227 0.958528 0.161891
1.000000 0.872414 0.209569
1.000000 0.811039 0.287629
1.000000 0.811039 0.287629
0.000000 0.955611 0.328629
0.088643 1.000000 0.305350
0.212116 1.000000 0.293399
0.342859 1.000000 0.284240
0.568773 1.000000 0.284240
0.741765 1.000000 0.284240
0.914756 1.000000 0.284240
1.000000 0.996171 0.287629
1.000000 0.996171 0.287629
0.000000 1.000000 0.328629
0.133031 1.000000 0.328629
0.256504 1.000000 0.328629
0.379977 1.000000 0.328629
0.577871 1.000000 0.328629
0.729406 1.000000 0.328629
0.880941 1.000000 0.328629
0.959000 1.000000 0.328629
0.959000 1.000000 0.328629
0.000000 1.000000 0.328629
0.133031 1.000000 0.328629
0.256504 1.000000 0.328629
0.379977 1.000000 0.328629
0.577871 1.000000 0.328629
0.729406 1.000000 0.328629
0.880941 1.000000 0.328629
0.959000 1.000000 0.328629
0.959000 1.000000 0.328629
0.000000 0.000000 0.435416
0.133031 0.000000 0.435416
0.256504 0.000000 0.435416
0.379977 0.000000 0.435416
0.577871 0.000000 0.435416
0.729406 0.000000 0.435416
0.880941 0.000000 0.435416
0.959000 0.000000 0.435416
0.959000 0.000000 0.435416
0.000000 0.143817 0.435416
0.024172 0.042725 0.544275
0.232663 0.038842 0.540392
0.445036 0.038842 0.540392
0.721688 0.000000 0.484833
0.873223 0.000000 0.434829
1.000000 0.024758 0.410554
1.000000 0.102817 0.423748
1.000000 0.102817 0.423748
0.000000 0.277302 0.435416
0.024172 0.272318 0.544275
0.192096 0.227868 0.499825
0.396982 0.220380 0.492338
0.686075 0.169097 0.441054
0.892163 0.114544 0.386501
1.000000 0.158242 0.378729
1.000000 0.236302 0.413436
1.000000 0.236302 0.413436
0.000000 0.410786 0.435416
0.024172 0.501911 0.544275
0.192096 0.457461 0.499825
0.360019 0.413010 0.455374
0.638021 0.350636 0.393000
0.844109 0.296083 0.338447
1.000000 0.291727 0.328831
1.000000 0.369786 0.398100
1.000000 0.369786 0.398100
0.000000 0.627968 0.435416
0.000000 0.760999 0.464938
0.122777 0.761695 0.430506
0.290700 0.717245 0.386056
0.611119 0.697287 0.366098
0.835242 0.660769 0.329580
1.000000 0.611822 0.316357
1.000000 0.617124 0.394416
1.000000 0.617124 0.394416
0.000000 0.791790 0.435416
0.000000 0.924821 0.424514
0.063801 0.984493 0.371530
0.231724 0.940042 0.327080
0.552143 0.920084 0.307122
0.812783 0.920084 0.307122
1.000000 0.863201 0.316357
1.000000 0.806603 0.394416
1.000000 0.806603 0.394416
0.000000 0.955611 0.435416
0.088643 1.000000 0.423663
0.212116 1.000000 0.413747
0.335589 1.000000 0.399578
0.557793 1.000000 0.391028
0.735190 1.000000 0.391028
0.912586 1.000000 0.391028
1.000000 0.996081 0.394416
1.000000 0.996081 0.394416
0.000000 1.000000 0.435416
0.133031 1.000000 0.435416
0.256504 1.000000 0.435416
0.379977 1.000000 0.435416
0.577871 1.000000 0.435416
0.729406 1.000000 0.435416
0.880941 1.000000 0.435416
0.959000 1.000000 0.435416
0.959000 1.000000 0.435416
0.000000 1.000000 0.435416
0.133031 1.000000 0.435416
0.256504 1.000000 0.435416
0.379977 1.000000 0.435416
0.577871 1.000000 0.435416
0.729406 1.000000 0.435416
0.880941 1.000000 0.435416
0.959000 1.000000 0.435416
0.959000 1.000000 0.435416
0.000000 0.000000 0.625432
0.133031 0.000000 0.625432
0.256504 0.000000 0.625432
0.379977 0.000000 0.625432
0.577871 0.000000 0.625432
0.729406 0.000000 0.625432
0.880941 0.000000 0.625432
0.959000 0.000000 0.625432
0.959000 0.000000 0.625432
0.000000 0.143817 0.625432
0.000000 0.016615 0.758463
0.179987 0.000000 0.769249
0.377201 0.000000 0.769249
0.693283 0.000000 0.769249
0.873223 0.000000 0.718178
1.000000 0.024758 0.661952
1.000000 0.102817 0.632878
1.000000 0.102817 0.632878
0.000000 0.277302 0.625432
0.000000 0.222225 0.758463
0.123690 0.159462 0.758246
0.328576 0.151975 0.750759
0.668953 0.151975 0.750759
0.892163 0.114544 0.713328
1.000000 0.158242 0.643700
1.000000 0.236302 0.626308
1.000000 0.236302 0.626308
0.000000 0.410786 0.625432
0.000000 0.427836 0.758463
0.123690 0.389055 0.758246
0.291613 0.344605 0.713796
0.620899 0.333514 0.702704
0.844109 0.296083 0.665274
1.000000 0.291727 0.615084
1.000000 0.369786 0.616538
1.000000 0.369786 0.616538
0.000000 0.627968 0.625432
0.000000 0.760999 0.757100
0.122777 0.761695 0.757333
0.290700 0.717245 0.712882
0.559835 0.646003 0.641641
0.766836 0.592364 0.588001
0.972924 0.537811 0.533449
1.000000 0.587592 0.584432
1.000000 0.587592 0.584432
0.000000 0.791790 0.625432
0.000000 0.924821 0.691274
0.063801 0.984493 0.698357
0.231724 0.940042 0.653907
0.500860 0.868801 0.582665
0.744378 0.851679 0.565543
0.972924 0.819584 0.533449
1.000000 0.791685 0.584432
1.000000 0.791685 0.584432
0.000000 0.955611 0.625432
0.088643 1.000000 0.634186
0.212116 1.000000 0.627892
0.335589 1.000000 0.618899
0.533482 1.000000 0.592221
0.712973 1.000000 0.581043
0.905252 1.000000 0.581043
1.000000 0.995778 0.584432
1.000000 0.995778 0.584432
0.000000 1.000000 0.625432
0.133031 1.000000 0.625432
0.256504 1.000000 0.625432
0.379977 1.000000 0.625432
0.577871 1.000000 0.625432
0.729406 1.000000 0.625432
0.880941 1.000000 0.625432
0.959000 1.000000 0.625432
0.959000 1.000000 0.625432
0.000000 1.000000 0.625432
0.133031 1.000000 0.625432
0.256504 1.000000 0.625432
0.379977 1.000000 0.625432
0.577871 1.000000 0.625432
0.729406 1.000000 0.625432
0.880941 1.000000 0.625432
0.959000 1.000000 0.625432
0.959000 1.000000 0.625432
0.000000 0.000000 0.756489
0.133031 0.000000 0.756489
0.256504 0.000000 0.756489
0.379977 0.000000 0.756489
0.577871 0.000000 0.756489
0.729406 0.000000 0.756489
0.880941 0.000000 0.756489
0.959000 0.000000 0.756489
0.959000 0.000000 0.756489
0.000000 0.143817 0.756489
0.000000 0.015389 0.889520
0.165590 0.000000 0.900307
0.347031 0.000000 0.900307
0.637831 0.000000 0.900307
0.860508 0.000000 0.900307
1.000000 0.024758 0.835346
1.000000 0.102817 0.777118
1.000000 0.102817 0.777118
0.000000 0.277302 0.756489
0.000000 0.205838 0.889520
0.076509 0.112281 0.936484
0.281396 0.104794 0.928997
0.621773 0.104794 0.928997
0.882413 0.104794 0.928997
1.000000 0.158242 0.826456
1.000000 0.236302 0.773130
1.000000 0.236302 0.773130
0.000000 0.410786 0.756489
0.000000 0.396288 0.889520
0.076509 0.341874 0.936484
0.244433 0.297424 0.892034
0.573718 0.286333 0.880942
0.834359 0.286333 0.880942
1.000000 0.291727 0.812518
1.000000 0.369786 0.767198
1.000000 0.369786 0.767198
0.000000 0.627968 0.756489
0.000000 0.706153 0.889520
0.076509 0.715428 0.936484
0.244433 0.670977 0.892034
0.513568 0.599736 0.820792
0.756173 0.581701 0.802757
0.972011 0.536898 0.757954
1.000000 0.586968 0.747325
1.000000 0.586968 0.747325
0.000000 0.791790 0.756489
0.000000 0.924821 0.875263
0.063801 0.984493 0.923776
0.231724 0.940042 0.879325
0.500860 0.868801 0.808084
0.706947 0.814248 0.753531
0.925743 0.772404 0.711687
1.000000 0.765084 0.715489
1.000000 0.765084 0.715489
0.000000 0.955611 0.756489
0.088643 1.000000 0.779387
0.212116 1.000000 0.775592
0.335589 1.000000 0.770168
0.533482 1.000000 0.754080
0.685017 1.000000 0.722730
0.892038 1.000000 0.712101
1.000000 0.995239 0.715489
1.000000 0.995239 0.715489
0.000000 1.000000 0.756489
0.133031 1.000000 0.756489
0.256504 1.000000 0.756489
0.379977 1.000000 0.756489
0.577871 1.000000 0.756489
0.729406 1.000000 0.756489
0.880941 1.000000 0.756489
0.959000 1.000000 0.756489
0.959000 1.000000 0.756489
0.000000 1.000000 0.756489
0.133031 1.000000 0.756489
0.256504 1.000000 0.756489
0.379977 1.000000 0.756489
0.577871 1.000000 0.756489
0.729406 1.000000 0.756489
0.880941 1.000000 0.756489
0.959000 1.000000 0.756489
0.959000 1.000000 0.756489
0.000000 0.000000 0.824000
0.133031 0.000000 0.824000
0.256504 0.000000 0.824000
0.379977 0.000000 0.824000
0.577871 0.000000 0.824000
0.729406 0.000000 0.824000
0.880941 0.000000 0.824000
0.959000 0.000000 0.824000
0.959000 0.000000 0.824000
0.000000 0.143817 0.824000
0.000000 0.014940 0.957031
0.160339 0.000000 0.967817
0.336027 0.000000 0.967817
0.617605 0.000000 0.967817
0.833221 0.000000 0.967817
1.000000 0.024758 0.924665
1.000000 0.102817 0.851420
1.000000 0.102817 0.851420
0.000000 0.277302 0.824000
0.000000 0.199823 0.957031
0.080504 0.114202 1.000000
0.270086 0.101302 1.000000
0.595396 0.101302 1.000000
0.844500 0.101302 1.000000
1.000000 0.158242 0.920598
1.000000 0.236302 0.848761
1.000000 0.236302 0.848761
0.000000 0.410786 0.824000
0.000000 0.384706 0.957031
0.080504 0.330482 1.000000
0.220129 0.273120 0.983848
0.549414 0.262029 0.972757
0.810055 0.262029 0.972757
1.000000 0.291727 0.914221
1.000000 0.369786 0.844807
1.000000 0.369786 0.844807
0.000000 0.627968 0.824000
0.000000 0.685516 0.957031
0.080504 0.682376 1.000000
0.220129 0.646673 0.983848
0.489264 0.575432 0.912607
0.731869 0.557397 0.894571
0.972011 0.536898 0.874073
1.000000 0.586968 0.831559
1.000000 0.586968 0.831559
0.000000 0.791790 0.824000
0.000000 0.912418 0.957031
0.080504 0.947811 1.000000
0.220129 0.928447 0.983848
0.489264 0.857205 0.912607
0.695352 0.802652 0.858054
0.913035 0.759696 0.815097
1.000000 0.750790 0.798796
1.000000 0.750790 0.798796
0.000000 0.955611 0.824000
0.088643 1.000000 0.854184
0.212116 1.000000 0.851676
0.335589 1.000000 0.848091
0.533482 1.000000 0.837457
0.685017 1.000000 0.816736
0.874961 1.000000 0.779611
1.000000 0.994553 0.783000
1.000000 0.994553 0.783000
0.000000 1.000000 0.824000
0.133031 1.000000 0.824000
0.256504 1.000000 0.824000
0.379977 1.000000 0.824000
0.577871 1.000000 0.824000
0.729406 1.000000 0.824000
0.880941 1.000000 0.824000
0.959000 1.000000 0.824000
0.959000 1.000000 0.824000
0.000000 1.000000 0.824000
0.133031 1.000000 0.824000
0.256504 1.000000 0.824000
0.379977 1.000000 0.824000
0.577871 1.000000 0.824000
0.729406 1.000000 0.824000
0.880941 1.000000 0.824000
0.959000 1.000000 0.824000
0.959000 1.000000 0.824000
0.000000 0.000000 0.824000
0.133031 0.000000 0.824000
0.256504 0.000000 0.824000
0.379977 0.000000 0.824000
0.577871 0.000000 0.824000
0.729406 0.000000 0.824000
0.880941 0.000000 0.824000
0.959000 0.000000 0.824000
0.959000 0.000000 0.824000
0.000000 0.143817 0.824000
0.000000 0.014940 0.957031
0.160339 0.000000 0.967817
0.336027 0.000000 0.967817
0.617605 0.000000 0.967817
0.833221 0.000000 0.967817
1.000000 0.024758 0.924665
1.000000 0.102817 0.851420
1.000000 0.102817 0.851420
0.000000 0.277302 0.824000
0.000000 0.199823 0.957031
0.080504 0.114202 1.000000
0.270086 0.101302 1.000000
0.595396 0.101302 1.000000
0.844500 0.101302 1.000000
1.000000 0.158242 0.920598
1.000000 0.236302 0.848761
1.000000 0.236302 0.848761
0.000000 0.410786 0.824000
0.000000 0.384706 0.957031
0.080504 0.330482 1.000000
0.220129 0.273120 0.983848
0.549414 0.262029 0.972757
0.810055 0.262029 0.972757
1.000000 0.291727 0.914221
1.000000 0.369786 0.844807
1.000000 0.369786 0.844807
0.000000 0.627968 0.824000
0.000000 0.685516 0.957031
0.080504 0.682376 1.000000
0.220129 0.646673 0.983848
0.489264 0.575432 0.912607
0.731869 0.557397 0.894571
0.972011 0.536898 0.874073
1.000000 0.586968 0.831559
1.000000 0.586968 0.831559
0.000000 0.791790 0.824000
0.000000 0.912418 0.957031
0.080504 0.947811 1.000000
0.220129 0.928447 0.983848
0.489264 0.857205 0.912607
0.695352 0.802652 0.858054
0.913035 0.759696 0.815097
1.000000 0.750790 0.798796
1.000000 0.750790 0.798796
0.000000 0.955611 0.824000
0.088643 1.000000 0.854184
0.212116 1.000000 0.851676
0.335589 1.000000 0.848091
0.533482 1.000000 0.837457
0.685017 1.000000 0.816736
0.874961 1.000000 0.779611
1.000000 0.994553 0.783000
1.000000 0.994553 0.783000
0.000000 1.000000 0.824000
0.133031 1.000000 0.824000
0.256504 1.000000 0.824000
0.379977 1.000000 0.824000
0.577871 1.000000 0.824000
0.729406 1.000000 0.824000
0.880941 1.000000 0.824000
0.959000 1.000000 0.824000
0.959000 1.000000 0.824000
0.000000 1.000000 0.824000
0.133031 1.000000 0.824000
0.256504 1.000000 0.824000
0.379977 1.000000 0.824000
0.577871 1.000000 0.824000
0.729406 1.000000 0.824000
0.880941 1.000000 0.824000
0.959000 1.000000 0.824000
0.959000 1.000000 0.824000
