docs/luts/fuji_recipes/Provia_RR_Fujichrome_Sensia_100.cube
TITLE "Fujifilm Recipe: RR Fujichrome Sensia 100 (Provia)"
# FilmSim=Provia HL=0 SH=2 Col=0 WB=FLight2 WBR=-1 WBB=-3
LUT_3D_SIZE 33
DOMAIN_MIN 0.0 0.0 0.0
DOMAIN_MAX 1.0 1.0 1.0
0.000000 0.000000 0.000000
0.038874 0.000000 0.000000
0.071577 0.000000 0.000000
0.103734 0.000000 0.000000
0.135892 0.000000 0.000000
0.168049 0.000000 0.000000
0.200207 0.000000 0.000000
0.232364 0.000000 0.000000
0.264522 0.000000 0.000000
0.296679 0.000000 0.000000
0.328836 0.000000 0.000000
0.360994 0.000000 0.000000
0.393151 0.000000 0.000000
0.425309 0.000000 0.000000
0.457466 0.000000 0.000000
0.532200 0.000000 0.000000
0.567153 0.000000 0.000000
0.602107 0.000000 0.000000
0.637061 0.000000 0.000000
0.672014 0.000000 0.000000
0.706968 0.000000 0.000000
0.741922 0.000000 0.000000
0.776876 0.000000 0.000000
0.811829 0.000000 0.000000
0.846783 0.000000 0.000000
0.881737 0.000000 0.000000
0.916691 0.000000 0.000000
0.918805 0.000000 0.000000
0.918805 0.000000 0.000000
0.918805 0.000000 0.000000
0.918805 0.000000 0.000000
0.918805 0.000000 0.000000
0.918805 0.000000 0.000000
0.000000 0.045099 0.000000
0.038874 0.045099 0.000000
0.071577 0.045099 0.000000
0.103734 0.045099 0.000000
0.135892 0.045099 0.000000
0.168049 0.045099 0.000000
0.200207 0.045099 0.000000
0.232364 0.045099 0.000000
0.264522 0.045099 0.000000
0.296679 0.045099 0.000000
0.328836 0.045099 0.000000
0.360994 0.045099 0.000000
0.393151 0.045099 0.000000
0.425309 0.045099 0.000000
0.457466 0.045099 0.000000
0.532200 0.045099 0.000000
0.567153 0.045099 0.000000
0.602107 0.045099 0.000000
0.637061 0.045099 0.000000
0.672014 0.045099 0.000000
0.706968 0.045099 0.000000
0.741922 0.045099 0.000000
0.776876 0.045099 0.000000
0.811829 0.045099 0.000000
0.846783 0.045099 0.000000
0.881737 0.045099 0.000000
0.916691 0.045099 0.000000
0.918805 0.045099 0.000000
0.918805 0.045099 0.000000
0.918805 0.045099 0.000000
0.918805 0.045099 0.000000
0.918805 0.045099 0.000000
0.918805 0.045099 0.000000
0.000000 0.080579 0.000000
0.038874 0.080579 0.000000
0.071577 0.080579 0.000000
0.103734 0.080579 0.000000
0.135892 0.080579 0.000000
0.168049 0.080579 0.000000
0.200207 0.080579 0.000000
0.232364 0.080579 0.000000
0.264522 0.080579 0.000000
0.296679 0.080579 0.000000
0.328836 0.080579 0.000000
0.360994 0.080579 0.000000
0.393151 0.080579 0.000000
0.425309 0.080579 0.000000
0.457466 0.080579 0.000000
0.532200 0.080579 0.000000
0.567153 0.080579 0.000000
0.602107 0.080579 0.000000
0.637061 0.080579 0.000000
0.672014 0.080579 0.000000
0.706968 0.080579 0.000000
0.741922 0.080579 0.000000
0.776876 0.080579 0.000000
0.811829 0.080579 0.000000
0.846783 0.080579 0.000000
0.881737 0.080579 0.000000
0.916691 0.080579 0.000000
0.918805 0.080579 0.000000
0.918805 0.080579 0.000000
0.918805 0.080579 0.000000
0.918805 0.080579 0.000000
0.918805 0.080579 0.000000
0.918805 0.080579 0.000000
0.000000 0.115467 0.000000
0.038874 0.115467 0.000000
0.071577 0.115467 0.000000
0.103734 0.115467 0.000000
0.135892 0.115467 0.000000
0.168049 0.115467 0.000000
0.200207 0.115467 0.000000
0.232364 0.115467 0.000000
0.264522 0.115467 0.000000
0.296679 0.115467 0.000000
0.328836 0.115467 0.000000
0.360994 0.115467 0.000000
0.393151 0.115467 0.000000
0.425309 0.115467 0.000000
0.457466 0.115467 0.000000
0.532200 0.115467 0.000000
0.567153 0.115467 0.000000
0.602107 0.115467 0.000000
0.637061 0.115467 0.000000
0.672014 0.115467 0.000000
0.706968 0.115467 0.000000
0.741922 0.115467 0.000000
0.776876 0.115467 0.000000
0.811829 0.115467 0.000000
0.846783 0.115467 0.000000
0.881737 0.115467 0.000000
0.916691 0.115467 0.000000
0.918805 0.115467 0.000000
0.918805 0.115467 0.000000
0.918805 0.115467 0.000000
0.918805 0.115467 0.000000
0.918805 0.115467 0.000000
0.918805 0.115467 0.000000
0.000000 0.150355 0.000000
0.038874 0.150355 0.000000
0.071577 0.150355 0.000000
0.103734 0.150355 0.000000
0.135892 0.150355 0.000000
0.168049 0.150355 0.000000
0.200207 0.150355 0.000000
0.232364 0.150355 0.000000
0.264522 0.150355 0.000000
0.296679 0.150355 0.000000
0.328836 0.150355 0.000000
0.360994 0.150355 0.000000
0.393151 0.150355 0.000000
0.425309 0.150355 0.000000
0.457466 0.150355 0.000000
0.532200 0.150355 0.000000
0.567153 0.150355 0.000000
0.602107 0.150355 0.000000
0.637061 0.150355 0.000000
0.672014 0.150355 0.000000
0.706968 0.150355 0.000000
0.741922 0.150355 0.000000
0.776876 0.150355 0.000000
0.811829 0.150355 0.000000
0.846783 0.150355 0.000000
0.881737 0.150355 0.000000
0.916691 0.150355 0.000000
0.918805 0.150355 0.000000
0.918805 0.150355 0.000000
0.918805 0.150355 0.000000
0.918805 0.150355 0.000000
0.918805 0.150355 0.000000
0.918805 0.150355 0.000000
0.000000 0.185243 0.000000
0.038874 0.185243 0.000000
0.071577 0.185243 0.000000
0.103734 0.185243 0.000000
0.135892 0.185243 0.000000
0.168049 0.185243 0.000000
0.200207 0.185243 0.000000
0.232364 0.185243 0.000000
0.264522 0.185243 0.000000
0.296679 0.185243 0.000000
0.328836 0.185243 0.000000
0.360994 0.185243 0.000000
0.393151 0.185243 0.000000
0.425309 0.185243 0.000000
0.457466 0.185243 0.000000
0.532200 0.185243 0.000000
0.567153 0.185243 0.000000
0.602107 0.185243 0.000000
0.637061 0.185243 0.000000
0.672014 0.185243 0.000000
0.706968 0.185243 0.000000
0.741922 0.185243 0.000000
0.776876 0.185243 0.000000
0.811829 0.185243 0.000000
0.846783 0.185243 0.000000
0.881737 0.185243 0.000000
0.916691 0.185243 0.000000
0.918805 0.185243 0.000000
0.918805 0.185243 0.000000
0.918805 0.185243 0.000000
0.918805 0.185243 0.000000
0.918805 0.185243 0.000000
0.918805 0.185243 0.000000
0.000000 0.220130 0.000000
0.038874 0.220130 0.000000
0.071577 0.220130 0.000000
0.103734 0.220130 0.000000
0.135892 0.220130 0.000000
0.168049 0.220130 0.000000
0.200207 0.220130 0.000000
0.232364 0.220130 0.000000
0.264522 0.220130 0.000000
0.296679 0.220130 0.000000
0.328836 0.220130 0.000000
0.360994 0.220130 0.000000
0.393151 0.220130 0.000000
0.425309 0.220130 0.000000
0.457466 0.220130 0.000000
0.532200 0.220130 0.000000
0.567153 0.220130 0.000000
0.602107 0.220130 0.000000
0.637061 0.220130 0.000000
0.672014 0.220130 0.000000
0.706968 0.220130 0.000000
0.741922 0.220130 0.000000
0.776876 0.220130 0.000000
0.811829 0.220130 0.000000
0.846783 0.220130 0.000000
0.881737 0.220130 0.000000
0.916691 0.220130 0.000000
0.918805 0.220130 0.000000
0.918805 0.220130 0.000000
0.918805 0.220130 0.000000
0.918805 0.220130 0.000000
0.918805 0.220130 0.000000
0.918805 0.220130 0.000000
0.000000 0.255018 0.000000
0.038874 0.255018 0.000000
0.071577 0.255018 0.000000
0.103734 0.255018 0.000000
0.135892 0.255018 0.000000
0.168049 0.255018 0.000000
0.200207 0.255018 0.000000
0.232364 0.255018 0.000000
0.264522 0.255018 0.000000
0.296679 0.255018 0.000000
0.328836 0.255018 0.000000
0.360994 0.255018 0.000000
0.393151 0.255018 0.000000
0.425309 0.255018 0.000000
0.457466 0.255018 0.000000
0.532200 0.255018 0.000000
0.567153 0.255018 0.000000
0.602107 0.255018 0.000000
0.637061 0.255018 0.000000
0.672014 0.255018 0.000000
0.706968 0.255018 0.000000
0.741922 0.255018 0.000000
0.776876 0.255018 0.000000
0.811829 0.255018 0.000000
0.846783 0.255018 0.000000
0.881737 0.255018 0.000000
0.916691 0.255018 0.000000
0.918805 0.255018 0.000000
0.918805 0.255018 0.000000
0.918805 0.255018 0.000000
0.918805 0.255018 0.000000
0.918805 0.255018 0.000000
0.918805 0.255018 0.000000
0.000000 0.289906 0.000000
0.038874 0.289906 0.000000
0.071577 0.289906 0.000000
0.103734 0.289906 0.000000
0.135892 0.289906 0.000000
0.168049 0.289906 0.000000
0.200207 0.289906 0.000000
0.232364 0.289906 0.000000
0.264522 0.289906 0.000000
0.296679 0.289906 0.000000
0.328836 0.289906 0.000000
0.360994 0.289906 0.000000
0.393151 0.289906 0.000000
0.425309 0.289906 0.000000
0.457466 0.289906 0.000000
0.532200 0.289906 0.000000
0.567153 0.289906 0.000000
0.602107 0.289906 0.000000
0.637061 0.289906 0.000000
0.672014 0.289906 0.000000
0.706968 0.289906 0.000000
0.741922 0.289906 0.000000
0.776876 0.289906 0.000000
0.811829 0.289906 0.000000
0.846783 0.289906 0.000000
0.881737 0.289906 0.000000
0.916691 0.289906 0.000000
0.918805 0.289906 0.000000
0.918805 0.289906 0.000000
0.918805 0.289906 0.000000
0.918805 0.289906 0.000000
0.918805 0.289906 0.000000
0.918805 0.289906 0.000000
0.000000 0.324794 0.000000
0.038874 0.324794 0.000000
0.071577 0.324794 0.000000
0.103734 0.324794 0.000000
0.135892 0.324794 0.000000
0.168049 0.324794 0.000000
0.200207 0.324794 0.000000
0.232364 0.324794 0.000000
0.264522 0.324794 0.000000
0.296679 0.324794 0.000000
0.328836 0.324794 0.000000
0.360994 0.324794 0.000000
0.393151 0.324794 0.000000
0.425309 0.324794 0.000000
0.457466 0.324794 0.000000
0.532200 0.324794 0.000000
0.567153 0.324794 0.000000
0.602107 0.324794 0.000000
0.637061 0.324794 0.000000
0.672014 0.324794 0.000000
0.706968 0.324794 0.000000
0.741922 0.324794 0.000000
0.776876 0.324794 0.000000
0.811829 0.324794 0.000000
0.846783 0.324794 0.000000
0.881737 0.324794 0.000000
0.916691 0.324794 0.000000
0.918805 0.324794 0.000000
0.918805 0.324794 0.000000
0.918805 0.324794 0.000000
0.918805 0.324794 0.000000
0.918805 0.324794 0.000000
0.918805 0.324794 0.000000
0.000000 0.359682 0.000000
0.038874 0.359682 0.000000
0.071577 0.359682 0.000000
0.103734 0.359682 0.000000
0.135892 0.359682 0.000000
0.168049 0.359682 0.000000
0.200207 0.359682 0.000000
0.232364 0.359682 0.000000
0.264522 0.359682 0.000000
0.296679 0.359682 0.000000
0.328836 0.359682 0.000000
0.360994 0.359682 0.000000
0.393151 0.359682 0.000000
0.425309 0.359682 0.000000
0.457466 0.359682 0.000000
0.532200 0.359682 0.000000
0.567153 0.359682 0.000000
0.602107 0.359682 0.000000
0.637061 0.359682 0.000000
0.672014 0.359682 0.000000
0.706968 0.359682 0.000000
0.741922 0.359682 0.000000
0.776876 0.359682 0.000000
0.811829 0.359682 0.000000
0.846783 0.359682 0.000000
0.881737 0.359682 0.000000
0.916691 0.359682 0.000000
0.918805 0.359682 0.000000
0.918805 0.359682 0.000000
0.918805 0.359682 0.000000
0.918805 0.359682 0.000000
0.918805 0.359682 0.000000
0.918805 0.359682 0.000000
0.000000 0.394570 0.000000
0.038874 0.394570 0.000000
0.071577 0.394570 0.000000
0.103734 0.394570 0.000000
0.135892 0.394570 0.000000
0.168049 0.394570 0.000000
0.200207 0.394570 0.000000
0.232364 0.394570 0.000000
0.264522 0.394570 0.000000
0.296679 0.394570 0.000000
0.328836 0.394570 0.000000
0.360994 0.394570 0.000000
0.393151 0.394570 0.000000
0.425309 0.394570 0.000000
0.457466 0.394570 0.000000
0.532200 0.394570 0.000000
0.567153 0.394570 0.000000
0.602107 0.394570 0.000000
0.637061 0.394570 0.000000
0.672014 0.394570 0.000000
0.706968 0.394570 0.000000
0.741922 0.394570 0.000000
0.776876 0.394570 0.000000
0.811829 0.394570 0.000000
0.846783 0.394570 0.000000
0.881737 0.394570 0.000000
0.916691 0.394570 0.000000
0.918805 0.394570 0.000000
0.918805 0.394570 0.000000
0.918805 0.394570 0.000000
0.918805 0.394570 0.000000
0.918805 0.394570 0.000000
0.918805 0.394570 0.000000
0.000000 0.429458 0.000000
0.038874 0.429458 0.000000
0.071577 0.429458 0.000000
0.103734 0.429458 0.000000
0.135892 0.429458 0.000000
0.168049 0.429458 0.000000
0.200207 0.429458 0.000000
0.232364 0.429458 0.000000
0.264522 0.429458 0.000000
0.296679 0.429458 0.000000
0.328836 0.429458 0.000000
0.360994 0.429458 0.000000
0.393151 0.429458 0.000000
0.425309 0.429458 0.000000
0.457466 0.429458 0.000000
0.532200 0.429458 0.000000
0.567153 0.429458 0.000000
0.602107 0.429458 0.000000
0.637061 0.429458 0.000000
0.672014 0.429458 0.000000
0.706968 0.429458 0.000000
0.741922 0.429458 0.000000
0.776876 0.429458 0.000000
0.811829 0.429458 0.000000
0.846783 0.429458 0.000000
0.881737 0.429458 0.000000
0.916691 0.429458 0.000000
0.918805 0.429458 0.000000
0.918805 0.429458 0.000000
0.918805 0.429458 0.000000
0.918805 0.429458 0.000000
0.918805 0.429458 0.000000
0.918805 0.429458 0.000000
0.000000 0.504724 0.000000
0.038874 0.504724 0.000000
0.071577 0.504724 0.000000
0.103734 0.504724 0.000000
0.135892 0.504724 0.000000
0.168049 0.504724 0.000000
0.200207 0.504724 0.000000
0.232364 0.504724 0.000000
0.264522 0.504724 0.000000
0.296679 0.504724 0.000000
0.328836 0.504724 0.000000
0.360994 0.504724 0.000000
0.393151 0.504724 0.000000
0.425309 0.504724 0.000000
0.457466 0.504724 0.000000
0.532200 0.504724 0.000000
0.567153 0.504724 0.000000
0.602107 0.504724 0.000000
0.637061 0.504724 0.000000
0.672014 0.504724 0.000000
0.706968 0.504724 0.000000
0.741922 0.504724 0.000000
0.776876 0.504724 0.000000
0.811829 0.504724 0.000000
0.846783 0.504724 0.000000
0.881737 0.504724 0.000000
0.916691 0.504724 0.000000
0.918805 0.504724 0.000000
0.918805 0.504724 0.000000
0.918805 0.504724 0.000000
0.918805 0.504724 0.000000
0.918805 0.504724 0.000000
0.918805 0.504724 0.000000
0.000000 0.542646 0.000000
0.038874 0.542646 0.000000
0.071577 0.542646 0.000000
0.103734 0.542646 0.000000
0.135892 0.542646 0.000000
0.168049 0.542646 0.000000
0.200207 0.542646 0.000000
0.232364 0.542646 0.000000
0.264522 0.542646 0.000000
0.296679 0.542646 0.000000
0.328836 0.542646 0.000000
0.360994 0.542646 0.000000
0.393151 0.542646 0.000000
0.425309 0.542646 0.000000
0.457466 0.542646 0.000000
0.532200 0.542646 0.000000
0.567153 0.542646 0.000000
0.602107 0.542646 0.000000
0.637061 0.542646 0.000000
0.672014 0.542646 0.000000
0.706968 0.542646 0.000000
0.741922 0.542646 0.000000
0.776876 0.542646 0.000000
0.811829 0.542646 0.000000
0.846783 0.542646 0.000000
0.881737 0.542646 0.000000
0.916691 0.542646 0.000000
0.918805 0.542646 0.000000
0.918805 0.542646 0.000000
0.918805 0.542646 0.000000
0.918805 0.542646 0.000000
0.918805 0.542646 0.000000
0.918805 0.542646 0.000000
0.000000 0.580567 0.000000
0.038874 0.580567 0.000000
0.071577 0.580567 0.000000
0.103734 0.580567 0.000000
0.135892 0.580567 0.000000
0.168049 0.580567 0.000000
0.200207 0.580567 0.000000
0.232364 0.580567 0.000000
0.264522 0.580567 0.000000
0.296679 0.580567 0.000000
0.328836 0.580567 0.000000
0.360994 0.580567 0.000000
0.393151 0.580567 0.000000
0.425309 0.580567 0.000000
0.457466 0.580567 0.000000
0.532200 0.580567 0.000000
0.567153 0.580567 0.000000
0.602107 0.580567 0.000000
0.637061 0.580567 0.000000
0.672014 0.580567 0.000000
0.706968 0.580567 0.000000
0.741922 0.580567 0.000000
0.776876 0.580567 0.000000
0.811829 0.580567 0.000000
0.846783 0.580567 0.000000
0.881737 0.580567 0.000000
0.916691 0.580567 0.000000
0.918805 0.580567 0.000000
0.918805 0.580567 0.000000
0.918805 0.580567 0.000000
0.918805 0.580567 0.000000
0.918805 0.580567 0.000000
0.918805 0.580567 0.000000
0.000000 0.618489 0.000000
0.038874 0.618489 0.000000
0.071577 0.618489 0.000000
0.103734 0.618489 0.000000
0.135892 0.618489 0.000000
0.168049 0.618489 0.000000
0.200207 0.618489 0.000000
0.232364 0.618489 0.000000
0.264522 0.618489 0.000000
0.296679 0.618489 0.000000
0.328836 0.618489 0.000000
0.360994 0.618489 0.000000
0.393151 0.618489 0.000000
0.425309 0.618489 0.000000
0.457466 0.618489 0.000000
0.532200 0.618489 0.000000
0.567153 0.618489 0.000000
0.602107 0.618489 0.000000
0.637061 0.618489 0.000000
0.672014 0.618489 0.000000
0.706968 0.618489 0.000000
0.741922 0.618489 0.000000
0.776876 0.618489 0.000000
0.811829 0.618489 0.000000
0.846783 0.618489 0.000000
0.881737 0.618489 0.000000
0.916691 0.618489 0.000000
0.918805 0.618489 0.000000
0.918805 0.618489 0.000000
0.918805 0.618489 0.000000
0.918805 0.618489 0.000000
0.918805 0.618489 0.000000
0.918805 0.618489 0.000000
0.000000 0.656411 0.000000
0.038874 0.656411 0.000000
0.071577 0.656411 0.000000
0.103734 0.656411 0.000000
0.135892 0.656411 0.000000
0.168049 0.656411 0.000000
0.200207 0.656411 0.000000
0.232364 0.656411 0.000000
0.264522 0.656411 0.000000
0.296679 0.656411 0.000000
0.328836 0.656411 0.000000
0.360994 0.656411 0.000000
0.393151 0.656411 0.000000
0.425309 0.656411 0.000000
0.457466 0.656411 0.000000
0.532200 0.656411 0.000000
0.567153 0.656411 0.000000
0.602107 0.656411 0.000000
0.637061 0.656411 0.000000
0.672014 0.656411 0.000000
0.706968 0.656411 0.000000
0.741922 0.656411 0.000000
0.776876 0.656411 0.000000
0.811829 0.656411 0.000000
0.846783 0.656411 0.000000
0.881737 0.656411 0.000000
0.916691 0.656411 0.000000
0.918805 0.656411 0.000000
0.918805 0.656411 0.000000
0.918805 0.656411 0.000000
0.918805 0.656411 0.000000
0.918805 0.656411 0.000000
0.918805 0.656411 0.000000
0.000000 0.694332 0.000000
0.038874 0.694332 0.000000
0.071577 0.694332 0.000000
0.103734 0.694332 0.000000
0.135892 0.694332 0.000000
0.168049 0.694332 0.000000
0.200207 0.694332 0.000000
0.232364 0.694332 0.000000
0.264522 0.694332 0.000000
0.296679 0.694332 0.000000
0.328836 0.694332 0.000000
0.360994 0.694332 0.000000
0.393151 0.694332 0.000000
0.425309 0.694332 0.000000
0.457466 0.694332 0.000000
0.532200 0.694332 0.000000
0.567153 0.694332 0.000000
0.602107 0.694332 0.000000
0.637061 0.694332 0.000000
0.672014 0.694332 0.000000
0.706968 0.694332 0.000000
0.741922 0.694332 0.000000
0.776876 0.694332 0.000000
0.811829 0.694332 0.000000
0.846783 0.694332 0.000000
0.881737 0.694332 0.000000
0.916691 0.694332 0.000000
0.918805 0.694332 0.000000
0.918805 0.694332 0.000000
0.918805 0.694332 0.000000
0.918805 0.694332 0.000000
0.918805 0.694332 0.000000
0.918805 0.694332 0.000000
0.000000 0.732254 0.000000
0.038874 0.732254 0.000000
0.071577 0.732254 0.000000
0.103734 0.732254 0.000000
0.135892 0.732254 0.000000
0.168049 0.732254 0.000000
0.200207 0.732254 0.000000
0.232364 0.732254 0.000000
0.264522 0.732254 0.000000
0.296679 0.732254 0.000000
0.328836 0.732254 0.000000
0.360994 0.732254 0.000000
0.393151 0.732254 0.000000
0.425309 0.732254 0.000000
0.457466 0.732254 0.000000
0.532200 0.732254 0.000000
0.567153 0.732254 0.000000
0.602107 0.732254 0.000000
0.637061 0.732254 0.000000
0.672014 0.732254 0.000000
0.706968 0.732254 0.000000
0.741922 0.732254 0.000000
0.776876 0.732254 0.000000
0.811829 0.732254 0.000000
0.846783 0.732254 0.000000
0.881737 0.732254 0.000000
0.916691 0.732254 0.000000
0.918805 0.732254 0.000000
0.918805 0.732254 0.000000
0.918805 0.732254 0.000000
0.918805 0.732254 0.000000
0.918805 0.732254 0.000000
0.918805 0.732254 0.000000
0.000000 0.770176 0.000000
0.038874 0.770176 0.000000
0.071577 0.770176 0.000000
0.103734 0.770176 0.000000
0.135892 0.770176 0.000000
0.168049 0.770176 0.000000
0.200207 0.770176 0.000000
0.232364 0.770176 0.000000
0.264522 0.770176 0.000000
0.296679 0.770176 0.000000
0.328836 0.770176 0.000000
0.360994 0.770176 0.000000
0.393151 0.770176 0.000000
0.425309 0.770176 0.000000
0.457466 0.770176 0.000000
0.532200 0.770176 0.000000
0.567153 0.770176 0.000000
0.602107 0.770176 0.000000
0.637061 0.770176 0.000000
0.672014 0.770176 0.000000
0.706968 0.770176 0.000000
0.741922 0.770176 0.000000
0.776876 0.770176 0.000000
0.811829 0.770176 0.000000
0.846783 0.770176 0.000000
0.881737 0.770176 0.000000
0.916691 0.770176 0.000000
0.918805 0.770176 0.000000
0.918805 0.770176 0.000000
0.918805 0.770176 0.000000
0.918805 0.770176 0.000000
0.918805 0.770176 0.000000
0.918805 0.770176 0.000000
0.000000 0.808097 0.000000
0.038874 0.808097 0.000000
0.071577 0.808097 0.000000
0.103734 0.808097 0.000000
0.135892 0.808097 0.000000
0.168049 0.808097 0.000000
0.200207 0.808097 0.000000
0.232364 0.808097 0.000000
0.264522 0.808097 0.000000
0.296679 0.808097 0.000000
0.328836 0.808097 0.000000
0.360994 0.808097 0.000000
0.393151 0.808097 0.000000
0.425309 0.808097 0.000000
0.457466 0.808097 0.000000
0.532200 0.808097 0.000000
0.567153 0.808097 0.000000
0.602107 0.808097 0.000000
0.637061 0.808097 0.000000
0.672014 0.808097 0.000000
0.706968 0.808097 0.000000
0.741922 0.808097 0.000000
0.776876 0.808097 0.000000
0.811829 0.808097 0.000000
0.846783 0.808097 0.000000
0.881737 0.808097 0.000000
0.916691 0.808097 0.000000
0.918805 0.808097 0.000000
0.918805 0.808097 0.000000
0.918805 0.808097 0.000000
0.918805 0.808097 0.000000
0.918805 0.808097 0.000000
0.918805 0.808097 0.000000
0.000000 0.846019 0.000000
0.038874 0.846019 0.000000
0.071577 0.846019 0.000000
0.103734 0.846019 0.000000
0.135892 0.846019 0.000000
0.168049 0.846019 0.000000
0.200207 0.846019 0.000000
0.232364 0.846019 0.000000
0.264522 0.846019 0.000000
0.296679 0.846019 0.000000
0.328836 0.846019 0.000000
0.360994 0.846019 0.000000
0.393151 0.846019 0.000000
0.425309 0.846019 0.000000
0.457466 0.846019 0.000000
0.532200 0.846019 0.000000
0.567153 0.846019 0.000000
0.602107 0.846019 0.000000
0.637061 0.846019 0.000000
0.672014 0.846019 0.000000
0.706968 0.846019 0.000000
0.741922 0.846019 0.000000
0.776876 0.846019 0.000000
0.811829 0.846019 0.000000
0.846783 0.846019 0.000000
0.881737 0.846019 0.000000
0.916691 0.846019 0.000000
0.918805 0.846019 0.000000
0.918805 0.846019 0.000000
0.918805 0.846019 0.000000
0.918805 0.846019 0.000000
0.918805 0.846019 0.000000
0.918805 0.846019 0.000000
0.000000 0.883941 0.000000
0.038874 0.883941 0.000000
0.071577 0.883941 0.000000
0.103734 0.883941 0.000000
0.135892 0.883941 0.000000
0.168049 0.883941 0.000000
0.200207 0.883941 0.000000
0.232364 0.883941 0.000000
0.264522 0.883941 0.000000
0.296679 0.883941 0.000000
0.328836 0.883941 0.000000
0.360994 0.883941 0.000000
0.393151 0.883941 0.000000
0.425309 0.883941 0.000000
0.457466 0.883941 0.000000
0.532200 0.883941 0.000000
0.567153 0.883941 0.000000
0.602107 0.883941 0.000000
0.637061 0.883941 0.000000
0.672014 0.883941 0.000000
0.706968 0.883941 0.000000
0.741922 0.883941 0.000000
0.776876 0.883941 0.000000
0.811829 0.883941 0.000000
0.846783 0.883941 0.000000
0.881737 0.883941 0.000000
0.916691 0.883941 0.000000
0.918805 0.883941 0.000000
0.918805 0.883941 0.000000
0.918805 0.883941 0.000000
0.918805 0.883941 0.000000
0.918805 0.883941 0.000000
0.918805 0.883941 0.000000
0.000000 0.921862 0.000000
0.038874 0.921862 0.000000
0.071577 0.921862 0.000000
0.103734 0.921862 0.000000
0.135892 0.921862 0.000000
0.168049 0.921862 0.000000
0.200207 0.921862 0.000000
0.232364 0.921862 0.000000
0.264522 0.921862 0.000000
0.296679 0.921862 0.000000
0.328836 0.921862 0.000000
0.360994 0.921862 0.000000
0.393151 0.921862 0.000000
0.425309 0.921862 0.000000
0.457466 0.921862 0.000000
0.532200 0.921862 0.000000
0.567153 0.921862 0.000000
0.602107 0.921862 0.000000
0.637061 0.921862 0.000000
0.672014 0.921862 0.000000
0.706968 0.921862 0.000000
0.741922 0.921862 0.000000
0.776876 0.921862 0.000000
0.811829 0.921862 0.000000
0.846783 0.921862 0.000000
0.881737 0.921862 0.000000
0.916691 0.921862 0.000000
0.918805 0.921862 0.000000
0.918805 0.921862 0.000000
0.918805 0.921862 0.000000
0.918805 0.921862 0.000000
0.918805 0.921862 0.000000
0.918805 0.921862 0.000000
0.000000 0.959784 0.000000
0.038874 0.959784 0.000000
0.071577 0.959784 0.000000
0.103734 0.959784 0.000000
0.135892 0.959784 0.000000
0.168049 0.959784 0.000000
0.200207 0.959784 0.000000
0.232364 0.959784 0.000000
0.264522 0.959784 0.000000
0.296679 0.959784 0.000000
0.328836 0.959784 0.000000
0.360994 0.959784 0.000000
0.393151 0.959784 0.000000
0.425309 0.959784 0.000000
0.457466 0.959784 0.000000
0.532200 0.959784 0.000000
0.567153 0.959784 0.000000
0.602107 0.959784 0.000000
0.637061 0.959784 0.000000
0.672014 0.959784 0.000000
0.706968 0.959784 0.000000
0.741922 0.959784 0.000000
0.776876 0.959784 0.000000
0.811829 0.959784 0.000000
0.846783 0.959784 0.000000
0.881737 0.959784 0.000000
0.916691 0.959784 0.000000
0.918805 0.959784 0.000000
0.918805 0.959784 0.000000
0.918805 0.959784 0.000000
0.918805 0.959784 0.000000
0.918805 0.959784 0.000000
0.918805 0.959784 0.000000
0.000000 0.997706 0.000000
0.038874 0.997706 0.000000
0.071577 0.997706 0.000000
0.103734 0.997706 0.000000
0.135892 0.997706 0.000000
0.168049 0.997706 0.000000
0.200207 0.997706 0.000000
0.232364 0.997706 0.000000
0.264522 0.997706 0.000000
0.296679 0.997706 0.000000
0.328836 0.997706 0.000000
0.360994 0.997706 0.000000
0.393151 0.997706 0.000000
0.425309 0.997706 0.000000
0.457466 0.997706 0.000000
0.532200 0.997706 0.000000
0.567153 0.997706 0.000000
0.602107 0.997706 0.000000
0.637061 0.997706 0.000000
0.672014 0.997706 0.000000
0.706968 0.997706 0.000000
0.741922 0.997706 0.000000
0.776876 0.997706 0.000000
0.811829 0.997706 0.000000
