docs/luts/fuji_recipes/Provia_GB_Balan_Colour.cube
TITLE "Fujifilm Recipe: GB Balan Colour (Provia)"
# FilmSim=Provia HL=-1 SH=-1 Col=0 WB=Auto WBR=0 WBB=0
LUT_3D_SIZE 5
DOMAIN_MIN 0.0 0.0 0.0
DOMAIN_MAX 1.0 1.0 1.0
0.040000 0.040000 0.040000
0.280000 0.040000 0.040000
0.520000 0.040000 0.040000
0.735000 0.040000 0.040000
0.970000 0.040000 0.040000
0.052471 0.280000 0.040000
0.280000 0.267529 0.040000
0.520000 0.265600 0.040000
0.735000 0.265247 0.040000
0.970000 0.280000 0.040000
0.064942 0.520000 0.040000
0.308800 0.520000 0.040000
0.520000 0.495058 0.040000
0.735000 0.492402 0.040000
0.970000 0.491288 0.040000
0.076113 0.735000 0.040000
0.321154 0.735000 0.040000
0.560872 0.735000 0.040000
0.735000 0.698887 0.040000
0.970000 0.695655 0.040000
0.088324 0.970000 0.040000
0.334019 0.970000 0.040000
0.575792 0.970000 0.040000
0.788939 0.970000 0.040000
0.970000 0.921676 0.040000
0.040000 0.052471 0.280000
0.267529 0.040000 0.280000
0.520000 0.040000 0.294400
0.735000 0.040000 0.294753
0.970000 0.040000 0.280000
0.040000 0.280000 0.280000
0.280000 0.280000 0.280000
0.520000 0.280000 0.280000
0.735000 0.280000 0.280000
0.970000 0.280000 0.280000
0.040000 0.520000 0.265600
0.292471 0.520000 0.280000
0.520000 0.507529 0.280000
0.735000 0.505676 0.280000
0.970000 0.505252 0.280000
0.040000 0.735000 0.253599
0.303642 0.735000 0.280000
0.547289 0.735000 0.280000
0.735000 0.711358 0.280000
0.970000 0.708630 0.280000
0.040000 0.970000 0.240878
0.315853 0.970000 0.280000
0.560875 0.970000 0.280000
0.775824 0.970000 0.280000
0.970000 0.934147 0.280000
0.040000 0.064942 0.520000
0.251200 0.040000 0.520000
0.495058 0.040000 0.520000
0.735000 0.040000 0.547598
0.970000 0.040000 0.548712
0.040000 0.294400 0.520000
0.280000 0.292471 0.520000
0.507529 0.280000 0.520000
0.735000 0.280000 0.534324
0.970000 0.280000 0.534748
0.040000 0.520000 0.520000
0.280000 0.520000 0.520000
0.520000 0.520000 0.520000
0.735000 0.520000 0.520000
0.970000 0.520000 0.520000
0.040000 0.735000 0.506726
0.280000 0.735000 0.507036
0.531172 0.735000 0.520000
0.735000 0.723828 0.520000
0.970000 0.722048 0.520000
0.040000 0.970000 0.492920
0.280000 0.970000 0.493873
0.543383 0.970000 0.520000
0.761993 0.970000 0.520000
0.970000 0.946617 0.520000
0.040000 0.076113 0.735000
0.238846 0.040000 0.735000
0.479128 0.040000 0.735000
0.698887 0.040000 0.735000
0.970000 0.040000 0.774345
0.040000 0.306401 0.735000
0.280000 0.303642 0.735000
0.492711 0.280000 0.735000
0.711358 0.280000 0.735000
0.970000 0.280000 0.761370
0.040000 0.533274 0.735000
0.280000 0.532964 0.735000
0.520000 0.531172 0.735000
0.723828 0.520000 0.735000
0.970000 0.520000 0.747952
0.040000 0.735000 0.735000
0.280000 0.735000 0.735000
0.520000 0.735000 0.735000
0.735000 0.735000 0.735000
0.970000 0.735000 0.735000
0.040000 0.970000 0.735000
0.280000 0.970000 0.720546
0.520000 0.970000 0.720960
0.747211 0.970000 0.735000
0.970000 0.957789 0.735000
0.040000 0.088324 0.970000
0.225981 0.040000 0.970000
0.464208 0.040000 0.970000
0.681061 0.040000 0.970000
0.921676 0.040000 0.970000
0.040000 0.319122 0.970000
0.280000 0.315853 0.970000
0.479125 0.280000 0.970000
0.694176 0.280000 0.970000
0.934147 0.280000 0.970000
0.040000 0.547080 0.970000
0.280000 0.546127 0.970000
0.520000 0.543383 0.970000
0.708007 0.520000 0.970000
0.946617 0.520000 0.970000
0.040000 0.735000 0.970000
0.280000 0.749454 0.970000
0.520000 0.749040 0.970000
0.735000 0.747211 0.970000
0.957789 0.735000 0.970000
0.040000 0.970000 0.970000
0.280000 0.970000 0.970000
0.520000 0.970000 0.970000
0.735000 0.970000 0.970000
0.970000 0.970000 0.970000
