docs/luts/fuji_recipes/Provia_RR_Cross_Process.cube
TITLE "Fujifilm Recipe: RR Cross Process (Provia)"
# FilmSim=Provia HL=2 SH=3 Col=4 WB=Auto WBR=-3 WBB=-8
LUT_3D_SIZE 33
DOMAIN_MIN 0.0 0.0 0.0
DOMAIN_MAX 1.0 1.0 1.0
0.000000 0.000000 0.000000
0.039903 0.000000 0.000000
0.071295 0.000000 0.000000
0.102163 0.000000 0.000000
0.133031 0.000000 0.000000
0.163899 0.000000 0.000000
0.194768 0.000000 0.000000
0.225636 0.000000 0.000000
0.256504 0.000000 0.000000
0.287372 0.000000 0.000000
0.318241 0.000000 0.000000
0.349109 0.000000 0.000000
0.379977 0.000000 0.000000
0.410845 0.000000 0.000000
0.502103 0.000000 0.000000
0.539987 0.000000 0.000000
0.577871 0.000000 0.000000
0.615754 0.000000 0.000000
0.653638 0.000000 0.000000
0.691522 0.000000 0.000000
0.729406 0.000000 0.000000
0.767289 0.000000 0.000000
0.805173 0.000000 0.000000
0.843057 0.000000 0.000000
0.880941 0.000000 0.000000
0.918824 0.000000 0.000000
0.956708 0.000000 0.000000
0.959000 0.000000 0.000000
0.959000 0.000000 0.000000
0.959000 0.000000 0.000000
0.959000 0.000000 0.000000
0.959000 0.000000 0.000000
0.959000 0.000000 0.000000
0.000000 0.043138 0.000000
0.039903 0.043138 0.000000
0.071295 0.043138 0.000000
0.102163 0.043138 0.000000
0.133031 0.043138 0.000000
0.163899 0.043138 0.000000
0.194768 0.043138 0.000000
0.225636 0.043138 0.000000
0.256504 0.043138 0.000000
0.287372 0.043138 0.000000
0.318241 0.043138 0.000000
0.349109 0.043138 0.000000
0.379977 0.043138 0.000000
0.410845 0.043138 0.000000
0.502103 0.043138 0.000000
0.539987 0.043138 0.000000
0.577871 0.043138 0.000000
0.615754 0.043138 0.000000
0.653638 0.043138 0.000000
0.691522 0.043138 0.000000
0.729406 0.043138 0.000000
0.767289 0.043138 0.000000
0.805173 0.043138 0.000000
0.843057 0.043138 0.000000
0.880941 0.043138 0.000000
0.918824 0.043138 0.000000
0.956708 0.043138 0.000000
0.959000 0.043138 0.000000
0.959000 0.043138 0.000000
0.959000 0.043138 0.000000
0.959000 0.043138 0.000000
0.959000 0.043138 0.000000
0.959000 0.043138 0.000000
0.000000 0.077075 0.000000
0.039903 0.077075 0.000000
0.071295 0.077075 0.000000
0.102163 0.077075 0.000000
0.133031 0.077075 0.000000
0.163899 0.077075 0.000000
0.194768 0.077075 0.000000
0.225636 0.077075 0.000000
0.256504 0.077075 0.000000
0.287372 0.077075 0.000000
0.318241 0.077075 0.000000
0.349109 0.077075 0.000000
0.379977 0.077075 0.000000
0.410845 0.077075 0.000000
0.502103 0.077075 0.000000
0.539987 0.077075 0.000000
0.577871 0.077075 0.000000
0.615754 0.077075 0.000000
0.653638 0.077075 0.000000
0.691522 0.077075 0.000000
0.729406 0.077075 0.000000
0.767289 0.077075 0.000000
0.805173 0.077075 0.000000
0.843057 0.077075 0.000000
0.880941 0.077075 0.000000
0.918824 0.077075 0.000000
0.956708 0.077075 0.000000
0.959000 0.077075 0.000000
0.959000 0.077075 0.000000
0.959000 0.077075 0.000000
0.959000 0.077075 0.000000
0.959000 0.077075 0.000000
0.959000 0.077075 0.000000
0.000000 0.110446 0.000000
0.039903 0.110446 0.000000
0.071295 0.110446 0.000000
0.102163 0.110446 0.000000
0.133031 0.110446 0.000000
0.163899 0.110446 0.000000
0.194768 0.110446 0.000000
0.225636 0.110446 0.000000
0.256504 0.110446 0.000000
0.287372 0.110446 0.000000
0.318241 0.110446 0.000000
0.349109 0.110446 0.000000
0.379977 0.110446 0.000000
0.410845 0.110446 0.000000
0.502103 0.110446 0.000000
0.539987 0.110446 0.000000
0.577871 0.110446 0.000000
0.615754 0.110446 0.000000
0.653638 0.110446 0.000000
0.691522 0.110446 0.000000
0.729406 0.110446 0.000000
0.767289 0.110446 0.000000
0.805173 0.110446 0.000000
0.843057 0.110446 0.000000
0.880941 0.110446 0.000000
0.918824 0.110446 0.000000
0.956708 0.110446 0.000000
0.959000 0.110446 0.000000
0.959000 0.110446 0.000000
0.959000 0.110446 0.000000
0.959000 0.110446 0.000000
0.959000 0.110446 0.000000
0.959000 0.110446 0.000000
0.000000 0.143817 0.000000
0.039903 0.143817 0.000000
0.071295 0.143817 0.000000
0.102163 0.143817 0.000000
0.133031 0.143817 0.000000
0.163899 0.143817 0.000000
0.194768 0.143817 0.000000
0.225636 0.143817 0.000000
0.256504 0.143817 0.000000
0.287372 0.143817 0.000000
0.318241 0.143817 0.000000
0.349109 0.143817 0.000000
0.379977 0.143817 0.000000
0.410845 0.143817 0.000000
0.502103 0.143817 0.000000
0.539987 0.143817 0.000000
0.577871 0.143817 0.000000
0.615754 0.143817 0.000000
0.653638 0.143817 0.000000
0.691522 0.143817 0.000000
0.729406 0.143817 0.000000
0.767289 0.143817 0.000000
0.805173 0.143817 0.000000
0.843057 0.143817 0.000000
0.880941 0.143817 0.000000
0.918824 0.143817 0.000000
0.956708 0.143817 0.000000
0.959000 0.143817 0.000000
0.959000 0.143817 0.000000
0.959000 0.143817 0.000000
0.959000 0.143817 0.000000
0.959000 0.143817 0.000000
0.959000 0.143817 0.000000
0.000000 0.177188 0.000000
0.039903 0.177188 0.000000
0.071295 0.177188 0.000000
0.102163 0.177188 0.000000
0.133031 0.177188 0.000000
0.163899 0.177188 0.000000
0.194768 0.177188 0.000000
0.225636 0.177188 0.000000
0.256504 0.177188 0.000000
0.287372 0.177188 0.000000
0.318241 0.177188 0.000000
0.349109 0.177188 0.000000
0.379977 0.177188 0.000000
0.410845 0.177188 0.000000
0.502103 0.177188 0.000000
0.539987 0.177188 0.000000
0.577871 0.177188 0.000000
0.615754 0.177188 0.000000
0.653638 0.177188 0.000000
0.691522 0.177188 0.000000
0.729406 0.177188 0.000000
0.767289 0.177188 0.000000
0.805173 0.177188 0.000000
0.843057 0.177188 0.000000
0.880941 0.177188 0.000000
0.918824 0.177188 0.000000
0.956708 0.177188 0.000000
0.959000 0.177188 0.000000
0.959000 0.177188 0.000000
0.959000 0.177188 0.000000
0.959000 0.177188 0.000000
0.959000 0.177188 0.000000
0.959000 0.177188 0.000000
0.000000 0.210560 0.000000
0.039903 0.210560 0.000000
0.071295 0.210560 0.000000
0.102163 0.210560 0.000000
0.133031 0.210560 0.000000
0.163899 0.210560 0.000000
0.194768 0.210560 0.000000
0.225636 0.210560 0.000000
0.256504 0.210560 0.000000
0.287372 0.210560 0.000000
0.318241 0.210560 0.000000
0.349109 0.210560 0.000000
0.379977 0.210560 0.000000
0.410845 0.210560 0.000000
0.502103 0.210560 0.000000
0.539987 0.210560 0.000000
0.577871 0.210560 0.000000
0.615754 0.210560 0.000000
0.653638 0.210560 0.000000
0.691522 0.210560 0.000000
0.729406 0.210560 0.000000
0.767289 0.210560 0.000000
0.805173 0.210560 0.000000
0.843057 0.210560 0.000000
0.880941 0.210560 0.000000
0.918824 0.210560 0.000000
0.956708 0.210560 0.000000
0.959000 0.210560 0.000000
0.959000 0.210560 0.000000
0.959000 0.210560 0.000000
0.959000 0.210560 0.000000
0.959000 0.210560 0.000000
0.959000 0.210560 0.000000
0.000000 0.243931 0.000000
0.039903 0.243931 0.000000
0.071295 0.243931 0.000000
0.102163 0.243931 0.000000
0.133031 0.243931 0.000000
0.163899 0.243931 0.000000
0.194768 0.243931 0.000000
0.225636 0.243931 0.000000
0.256504 0.243931 0.000000
0.287372 0.243931 0.000000
0.318241 0.243931 0.000000
0.349109 0.243931 0.000000
0.379977 0.243931 0.000000
0.410845 0.243931 0.000000
0.502103 0.243931 0.000000
0.539987 0.243931 0.000000
0.577871 0.243931 0.000000
0.615754 0.243931 0.000000
0.653638 0.243931 0.000000
0.691522 0.243931 0.000000
0.729406 0.243931 0.000000
0.767289 0.243931 0.000000
0.805173 0.243931 0.000000
0.843057 0.243931 0.000000
0.880941 0.243931 0.000000
0.918824 0.243931 0.000000
0.956708 0.243931 0.000000
0.959000 0.243931 0.000000
0.959000 0.243931 0.000000
0.959000 0.243931 0.000000
0.959000 0.243931 0.000000
0.959000 0.243931 0.000000
0.959000 0.243931 0.000000
0.000000 0.277302 0.000000
0.039903 0.277302 0.000000
0.071295 0.277302 0.000000
0.102163 0.277302 0.000000
0.133031 0.277302 0.000000
0.163899 0.277302 0.000000
0.194768 0.277302 0.000000
0.225636 0.277302 0.000000
0.256504 0.277302 0.000000
0.287372 0.277302 0.000000
0.318241 0.277302 0.000000
0.349109 0.277302 0.000000
0.379977 0.277302 0.000000
0.410845 0.277302 0.000000
0.502103 0.277302 0.000000
0.539987 0.277302 0.000000
0.577871 0.277302 0.000000
0.615754 0.277302 0.000000
0.653638 0.277302 0.000000
0.691522 0.277302 0.000000
0.729406 0.277302 0.000000
0.767289 0.277302 0.000000
0.805173 0.277302 0.000000
0.843057 0.277302 0.000000
0.880941 0.277302 0.000000
0.918824 0.277302 0.000000
0.956708 0.277302 0.000000
0.959000 0.277302 0.000000
0.959000 0.277302 0.000000
0.959000 0.277302 0.000000
0.959000 0.277302 0.000000
0.959000 0.277302 0.000000
0.959000 0.277302 0.000000
0.000000 0.310673 0.000000
0.039903 0.310673 0.000000
0.071295 0.310673 0.000000
0.102163 0.310673 0.000000
0.133031 0.310673 0.000000
0.163899 0.310673 0.000000
0.194768 0.310673 0.000000
0.225636 0.310673 0.000000
0.256504 0.310673 0.000000
0.287372 0.310673 0.000000
0.318241 0.310673 0.000000
0.349109 0.310673 0.000000
0.379977 0.310673 0.000000
0.410845 0.310673 0.000000
0.502103 0.310673 0.000000
0.539987 0.310673 0.000000
0.577871 0.310673 0.000000
0.615754 0.310673 0.000000
0.653638 0.310673 0.000000
0.691522 0.310673 0.000000
0.729406 0.310673 0.000000
0.767289 0.310673 0.000000
0.805173 0.310673 0.000000
0.843057 0.310673 0.000000
0.880941 0.310673 0.000000
0.918824 0.310673 0.000000
0.956708 0.310673 0.000000
0.959000 0.310673 0.000000
0.959000 0.310673 0.000000
0.959000 0.310673 0.000000
0.959000 0.310673 0.000000
0.959000 0.310673 0.000000
0.959000 0.310673 0.000000
0.000000 0.344044 0.000000
0.039903 0.344044 0.000000
0.071295 0.344044 0.000000
0.102163 0.344044 0.000000
0.133031 0.344044 0.000000
0.163899 0.344044 0.000000
0.194768 0.344044 0.000000
0.225636 0.344044 0.000000
0.256504 0.344044 0.000000
0.287372 0.344044 0.000000
0.318241 0.344044 0.000000
0.349109 0.344044 0.000000
0.379977 0.344044 0.000000
0.410845 0.344044 0.000000
0.502103 0.344044 0.000000
0.539987 0.344044 0.000000
0.577871 0.344044 0.000000
0.615754 0.344044 0.000000
0.653638 0.344044 0.000000
0.691522 0.344044 0.000000
0.729406 0.344044 0.000000
0.767289 0.344044 0.000000
0.805173 0.344044 0.000000
0.843057 0.344044 0.000000
0.880941 0.344044 0.000000
0.918824 0.344044 0.000000
0.956708 0.344044 0.000000
0.959000 0.344044 0.000000
0.959000 0.344044 0.000000
0.959000 0.344044 0.000000
0.959000 0.344044 0.000000
0.959000 0.344044 0.000000
0.959000 0.344044 0.000000
0.000000 0.377415 0.000000
0.039903 0.377415 0.000000
0.071295 0.377415 0.000000
0.102163 0.377415 0.000000
0.133031 0.377415 0.000000
0.163899 0.377415 0.000000
0.194768 0.377415 0.000000
0.225636 0.377415 0.000000
0.256504 0.377415 0.000000
0.287372 0.377415 0.000000
0.318241 0.377415 0.000000
0.349109 0.377415 0.000000
0.379977 0.377415 0.000000
0.410845 0.377415 0.000000
0.502103 0.377415 0.000000
0.539987 0.377415 0.000000
0.577871 0.377415 0.000000
0.615754 0.377415 0.000000
0.653638 0.377415 0.000000
0.691522 0.377415 0.000000
0.729406 0.377415 0.000000
0.767289 0.377415 0.000000
0.805173 0.377415 0.000000
0.843057 0.377415 0.000000
0.880941 0.377415 0.000000
0.918824 0.377415 0.000000
0.956708 0.377415 0.000000
0.959000 0.377415 0.000000
0.959000 0.377415 0.000000
0.959000 0.377415 0.000000
0.959000 0.377415 0.000000
0.959000 0.377415 0.000000
0.959000 0.377415 0.000000
0.000000 0.410786 0.000000
0.039903 0.410786 0.000000
0.071295 0.410786 0.000000
0.102163 0.410786 0.000000
0.133031 0.410786 0.000000
0.163899 0.410786 0.000000
0.194768 0.410786 0.000000
0.225636 0.410786 0.000000
0.256504 0.410786 0.000000
0.287372 0.410786 0.000000
0.318241 0.410786 0.000000
0.349109 0.410786 0.000000
0.379977 0.410786 0.000000
0.410845 0.410786 0.000000
0.502103 0.410786 0.000000
0.539987 0.410786 0.000000
0.577871 0.410786 0.000000
0.615754 0.410786 0.000000
0.653638 0.410786 0.000000
0.691522 0.410786 0.000000
0.729406 0.410786 0.000000
0.767289 0.410786 0.000000
0.805173 0.410786 0.000000
0.843057 0.410786 0.000000
0.880941 0.410786 0.000000
0.918824 0.410786 0.000000
0.956708 0.410786 0.000000
0.959000 0.410786 0.000000
0.959000 0.410786 0.000000
0.959000 0.410786 0.000000
0.959000 0.410786 0.000000
0.959000 0.410786 0.000000
0.959000 0.410786 0.000000
0.000000 0.505102 0.000000
0.039903 0.505102 0.000000
0.071295 0.505102 0.000000
0.102163 0.505102 0.000000
0.133031 0.505102 0.000000
0.163899 0.505102 0.000000
0.194768 0.505102 0.000000
0.225636 0.505102 0.000000
0.256504 0.505102 0.000000
0.287372 0.505102 0.000000
0.318241 0.505102 0.000000
0.349109 0.505102 0.000000
0.379977 0.505102 0.000000
0.410845 0.505102 0.000000
0.502103 0.505102 0.000000
0.539987 0.505102 0.000000
0.577871 0.505102 0.000000
0.615754 0.505102 0.000000
0.653638 0.505102 0.000000
0.691522 0.505102 0.000000
0.729406 0.505102 0.000000
0.767289 0.505102 0.000000
0.805173 0.505102 0.000000
0.843057 0.505102 0.000000
0.880941 0.505102 0.000000
0.918824 0.505102 0.000000
0.956708 0.505102 0.000000
0.959000 0.505102 0.000000
0.959000 0.505102 0.000000
0.959000 0.505102 0.000000
0.959000 0.505102 0.000000
0.959000 0.505102 0.000000
0.959000 0.505102 0.000000
0.000000 0.546057 0.000000
0.039903 0.546057 0.000000
0.071295 0.546057 0.000000
0.102163 0.546057 0.000000
0.133031 0.546057 0.000000
0.163899 0.546057 0.000000
0.194768 0.546057 0.000000
0.225636 0.546057 0.000000
0.256504 0.546057 0.000000
0.287372 0.546057 0.000000
0.318241 0.546057 0.000000
0.349109 0.546057 0.000000
0.379977 0.546057 0.000000
0.410845 0.546057 0.000000
0.502103 0.546057 0.000000
0.539987 0.546057 0.000000
0.577871 0.546057 0.000000
0.615754 0.546057 0.000000
0.653638 0.546057 0.000000
0.691522 0.546057 0.000000
0.729406 0.546057 0.000000
0.767289 0.546057 0.000000
0.805173 0.546057 0.000000
0.843057 0.546057 0.000000
0.880941 0.546057 0.000000
0.918824 0.546057 0.000000
0.956708 0.546057 0.000000
0.959000 0.546057 0.000000
0.959000 0.546057 0.000000
0.959000 0.546057 0.000000
0.959000 0.546057 0.000000
0.959000 0.546057 0.000000
0.959000 0.546057 0.000000
0.000000 0.587013 0.000000
0.039903 0.587013 0.000000
0.071295 0.587013 0.000000
0.102163 0.587013 0.000000
0.133031 0.587013 0.000000
0.163899 0.587013 0.000000
0.194768 0.587013 0.000000
0.225636 0.587013 0.000000
0.256504 0.587013 0.000000
0.287372 0.587013 0.000000
0.318241 0.587013 0.000000
0.349109 0.587013 0.000000
0.379977 0.587013 0.000000
0.410845 0.587013 0.000000
0.502103 0.587013 0.000000
0.539987 0.587013 0.000000
0.577871 0.587013 0.000000
0.615754 0.587013 0.000000
0.653638 0.587013 0.000000
0.691522 0.587013 0.000000
0.729406 0.587013 0.000000
0.767289 0.587013 0.000000
0.805173 0.587013 0.000000
0.843057 0.587013 0.000000
0.880941 0.587013 0.000000
0.918824 0.587013 0.000000
0.956708 0.587013 0.000000
0.959000 0.587013 0.000000
0.959000 0.587013 0.000000
0.959000 0.587013 0.000000
0.959000 0.587013 0.000000
0.959000 0.587013 0.000000
0.959000 0.587013 0.000000
0.000000 0.627968 0.000000
0.039903 0.627968 0.000000
0.071295 0.627968 0.000000
0.102163 0.627968 0.000000
0.133031 0.627968 0.000000
0.163899 0.627968 0.000000
0.194768 0.627968 0.000000
0.225636 0.627968 0.000000
0.256504 0.627968 0.000000
0.287372 0.627968 0.000000
0.318241 0.627968 0.000000
0.349109 0.627968 0.000000
0.379977 0.627968 0.000000
0.410845 0.627968 0.000000
0.502103 0.627968 0.000000
0.539987 0.627968 0.000000
0.577871 0.627968 0.000000
0.615754 0.627968 0.000000
0.653638 0.627968 0.000000
0.691522 0.627968 0.000000
0.729406 0.627968 0.000000
0.767289 0.627968 0.000000
0.805173 0.627968 0.000000
0.843057 0.627968 0.000000
0.880941 0.627968 0.000000
0.918824 0.627968 0.000000
0.956708 0.627968 0.000000
0.959000 0.627968 0.000000
0.959000 0.627968 0.000000
0.959000 0.627968 0.000000
0.959000 0.627968 0.000000
0.959000 0.627968 0.000000
0.959000 0.627968 0.000000
0.000000 0.668924 0.000000
0.039903 0.668924 0.000000
0.071295 0.668924 0.000000
0.102163 0.668924 0.000000
0.133031 0.668924 0.000000
0.163899 0.668924 0.000000
0.194768 0.668924 0.000000
0.225636 0.668924 0.000000
0.256504 0.668924 0.000000
0.287372 0.668924 0.000000
0.318241 0.668924 0.000000
0.349109 0.668924 0.000000
0.379977 0.668924 0.000000
0.410845 0.668924 0.000000
0.502103 0.668924 0.000000
0.539987 0.668924 0.000000
0.577871 0.668924 0.000000
0.615754 0.668924 0.000000
0.653638 0.668924 0.000000
0.691522 0.668924 0.000000
0.729406 0.668924 0.000000
0.767289 0.668924 0.000000
0.805173 0.668924 0.000000
0.843057 0.668924 0.000000
0.880941 0.668924 0.000000
0.918824 0.668924 0.000000
0.956708 0.668924 0.000000
0.959000 0.668924 0.000000
0.959000 0.668924 0.000000
0.959000 0.668924 0.000000
0.959000 0.668924 0.000000
0.959000 0.668924 0.000000
0.959000 0.668924 0.000000
0.000000 0.709879 0.000000
0.039903 0.709879 0.000000
0.071295 0.709879 0.000000
0.102163 0.709879 0.000000
0.133031 0.709879 0.000000
0.163899 0.709879 0.000000
0.194768 0.709879 0.000000
0.225636 0.709879 0.000000
0.256504 0.709879 0.000000
0.287372 0.709879 0.000000
0.318241 0.709879 0.000000
0.349109 0.709879 0.000000
0.379977 0.709879 0.000000
0.410845 0.709879 0.000000
0.502103 0.709879 0.000000
0.539987 0.709879 0.000000
0.577871 0.709879 0.000000
0.615754 0.709879 0.000000
0.653638 0.709879 0.000000
0.691522 0.709879 0.000000
0.729406 0.709879 0.000000
0.767289 0.709879 0.000000
0.805173 0.709879 0.000000
0.843057 0.709879 0.000000
0.880941 0.709879 0.000000
0.918824 0.709879 0.000000
0.956708 0.709879 0.000000
0.959000 0.709879 0.000000
0.959000 0.709879 0.000000
0.959000 0.709879 0.000000
0.959000 0.709879 0.000000
0.959000 0.709879 0.000000
0.959000 0.709879 0.000000
0.000000 0.750834 0.000000
0.039903 0.750834 0.000000
0.071295 0.750834 0.000000
0.102163 0.750834 0.000000
0.133031 0.750834 0.000000
0.163899 0.750834 0.000000
0.194768 0.750834 0.000000
0.225636 0.750834 0.000000
0.256504 0.750834 0.000000
0.287372 0.750834 0.000000
0.318241 0.750834 0.000000
0.349109 0.750834 0.000000
0.379977 0.750834 0.000000
0.410845 0.750834 0.000000
0.502103 0.750834 0.000000
0.539987 0.750834 0.000000
0.577871 0.750834 0.000000
0.615754 0.750834 0.000000
0.653638 0.750834 0.000000
0.691522 0.750834 0.000000
0.729406 0.750834 0.000000
0.767289 0.750834 0.000000
0.805173 0.750834 0.000000
0.843057 0.750834 0.000000
0.880941 0.750834 0.000000
0.918824 0.750834 0.000000
0.956708 0.750834 0.000000
0.959000 0.750834 0.000000
0.959000 0.750834 0.000000
0.959000 0.750834 0.000000
0.959000 0.750834 0.000000
0.959000 0.750834 0.000000
0.959000 0.750834 0.000000
0.000000 0.791790 0.000000
0.039903 0.791790 0.000000
0.071295 0.791790 0.000000
0.102163 0.791790 0.000000
0.133031 0.791790 0.000000
0.163899 0.791790 0.000000
0.194768 0.791790 0.000000
0.225636 0.791790 0.000000
0.256504 0.791790 0.000000
0.287372 0.791790 0.000000
0.318241 0.791790 0.000000
0.349109 0.791790 0.000000
0.379977 0.791790 0.000000
0.410845 0.791790 0.000000
0.502103 0.791790 0.000000
0.539987 0.791790 0.000000
0.577871 0.791790 0.000000
0.615754 0.791790 0.000000
0.653638 0.791790 0.000000
0.691522 0.791790 0.000000
0.729406 0.791790 0.000000
0.767289 0.791790 0.000000
0.805173 0.791790 0.000000
0.843057 0.791790 0.000000
0.880941 0.791790 0.000000
0.918824 0.791790 0.000000
0.956708 0.791790 0.000000
0.959000 0.791790 0.000000
0.959000 0.791790 0.000000
0.959000 0.791790 0.000000
0.959000 0.791790 0.000000
0.959000 0.791790 0.000000
0.959000 0.791790 0.000000
0.000000 0.832745 0.000000
0.039903 0.832745 0.000000
0.071295 0.832745 0.000000
0.102163 0.832745 0.000000
0.133031 0.832745 0.000000
0.163899 0.832745 0.000000
0.194768 0.832745 0.000000
0.225636 0.832745 0.000000
0.256504 0.832745 0.000000
0.287372 0.832745 0.000000
0.318241 0.832745 0.000000
0.349109 0.832745 0.000000
0.379977 0.832745 0.000000
0.410845 0.832745 0.000000
0.502103 0.832745 0.000000
0.539987 0.832745 0.000000
0.577871 0.832745 0.000000
0.615754 0.832745 0.000000
0.653638 0.832745 0.000000
0.691522 0.832745 0.000000
0.729406 0.832745 0.000000
0.767289 0.832745 0.000000
0.805173 0.832745 0.000000
0.843057 0.832745 0.000000
0.880941 0.832745 0.000000
0.918824 0.832745 0.000000
0.956708 0.832745 0.000000
0.959000 0.832745 0.000000
0.959000 0.832745 0.000000
0.959000 0.832745 0.000000
0.959000 0.832745 0.000000
0.959000 0.832745 0.000000
0.959000 0.832745 0.000000
0.000000 0.873701 0.000000
0.039903 0.873701 0.000000
0.071295 0.873701 0.000000
0.102163 0.873701 0.000000
0.133031 0.873701 0.000000
0.163899 0.873701 0.000000
0.194768 0.873701 0.000000
0.225636 0.873701 0.000000
0.256504 0.873701 0.000000
0.287372 0.873701 0.000000
0.318241 0.873701 0.000000
0.349109 0.873701 0.000000
0.379977 0.873701 0.000000
0.410845 0.873701 0.000000
0.502103 0.873701 0.000000
0.539987 0.873701 0.000000
0.577871 0.873701 0.000000
0.615754 0.873701 0.000000
0.653638 0.873701 0.000000
0.691522 0.873701 0.000000
0.729406 0.873701 0.000000
0.767289 0.873701 0.000000
0.805173 0.873701 0.000000
0.843057 0.873701 0.000000
0.880941 0.873701 0.000000
0.918824 0.873701 0.000000
0.956708 0.873701 0.000000
0.959000 0.873701 0.000000
0.959000 0.873701 0.000000
0.959000 0.873701 0.000000
0.959000 0.873701 0.000000
0.959000 0.873701 0.000000
0.959000 0.873701 0.000000
0.000000 0.914656 0.000000
0.039903 0.914656 0.000000
0.071295 0.914656 0.000000
0.102163 0.914656 0.000000
0.133031 0.914656 0.000000
0.163899 0.914656 0.000000
0.194768 0.914656 0.000000
0.225636 0.914656 0.000000
0.256504 0.914656 0.000000
0.287372 0.914656 0.000000
0.318241 0.914656 0.000000
0.349109 0.914656 0.000000
0.379977 0.914656 0.000000
0.410845 0.914656 0.000000
0.502103 0.914656 0.000000
0.539987 0.914656 0.000000
0.577871 0.914656 0.000000
0.615754 0.914656 0.000000
0.653638 0.914656 0.000000
0.691522 0.914656 0.000000
0.729406 0.914656 0.000000
0.767289 0.914656 0.000000
0.805173 0.914656 0.000000
0.843057 0.914656 0.000000
0.880941 0.914656 0.000000
0.918824 0.914656 0.000000
0.956708 0.914656 0.000000
0.959000 0.914656 0.000000
0.959000 0.914656 0.000000
0.959000 0.914656 0.000000
0.959000 0.914656 0.000000
0.959000 0.914656 0.000000
0.959000 0.914656 0.000000
0.000000 0.955611 0.000000
0.039903 0.955611 0.000000
0.071295 0.955611 0.000000
0.102163 0.955611 0.000000
0.133031 0.955611 0.000000
0.163899 0.955611 0.000000
0.194768 0.955611 0.000000
0.225636 0.955611 0.000000
0.256504 0.955611 0.000000
0.287372 0.955611 0.000000
0.318241 0.955611 0.000000
0.349109 0.955611 0.000000
0.379977 0.955611 0.000000
0.410845 0.955611 0.000000
0.502103 0.955611 0.000000
0.539987 0.955611 0.000000
0.577871 0.955611 0.000000
0.615754 0.955611 0.000000
0.653638 0.955611 0.000000
0.691522 0.955611 0.000000
0.729406 0.955611 0.000000
0.767289 0.955611 0.000000
0.805173 0.955611 0.000000
0.843057 0.955611 0.000000
0.880941 0.955611 0.000000
0.918824 0.955611 0.000000
0.956708 0.955611 0.000000
0.959000 0.955611 0.000000
0.959000 0.955611 0.000000
0.959000 0.955611 0.000000
0.959000 0.955611 0.000000
0.959000 0.955611 0.000000
0.959000 0.955611 0.000000
0.000000 0.996567 0.000000
0.039903 0.996567 0.000000
0.071295 0.996567 0.000000
0.102163 0.996567 0.000000
0.133031 0.996567 0.000000
0.163899 0.996567 0.000000
0.194768 0.996567 0.000000
0.225636 0.996567 0.000000
0.256504 0.996567 0.000000
0.287372 0.996567 0.000000
0.318241 0.996567 0.000000
0.349109 0.996567 0.000000
0.379977 0.996567 0.000000
0.410845 0.996567 0.000000
0.502103 0.996567 0.000000
0.539987 0.996567 0.000000
0.577871 0.996567 0.000000
0.615754 0.996567 0.000000
0.653638 0.996567 0.000000
0.691522 0.996567 0.000000
0.729406 0.996567 0.000000
0.767289 0.996567 0.000000
0.805173 0.996567 0.000000
0.843057 0.996567 0.000000
0.880941 0.996567 0.000000
0.918824 0.996567 0.000000
0.956708 0.996567 0.000000
0.959000 0.996567 0.000000
0.959000 0.996567 0.000000
0.959000 0.996567 0.000000
0.959000 0.996567 0.000000
0.959000 0.996567 0.000000
0.959000 0.996567 0.000000
0.000000 1.000000 0.000000
0.039903 1.000000 0.000000
0.071295 1.000000 0.000000
0.102163 1.000000 0.000000
0.133031 1.000000 0.000000
0.163899 1.000000 0.000000
0.194768 1.000000 0.000000
0.225636 1.000000 0.000000
0.256504 1.000000 0.000000
0.287372 1.000000 0.000000
0.318241 1.000000 0.000000
0.349109 1.000000 0.000000
0.379977 1.000000 0.000000
0.410845 1.000000 0.000000
0.502103 1.000000 0.000000
0.539987 1.000000 0.000000
0.577871 1.000000 0.000000
0.615754 1.000000 0.000000
0.653638 1.000000 0.000000
0.691522 1.000000 0.000000
0.729406 1.000000 0.000000
0.767289 1.000000 0.000000
0.805173 1.000000 0.000000
0.843057 1.000000 0.000000
