docs/luts/fuji_recipes/Provia_RR_Cross_Process.cube
TITLE "Fujifilm Recipe: RR Cross Process (Provia)"
# FilmSim=Provia HL=2 SH=3 Col=4 WB=Auto WBR=-3 WBB=-8
LUT_3D_SIZE 5
DOMAIN_MIN 0.0 0.0 0.0
DOMAIN_MAX 1.0 1.0 1.0
0.000000 0.000000 0.000000
0.256504 0.000000 0.000000
0.577871 0.000000 0.000000
0.880941 0.000000 0.000000
0.959000 0.000000 0.000000
0.000000 0.277302 0.000000
0.256504 0.277302 0.000000
0.577871 0.277302 0.000000
0.880941 0.277302 0.000000
0.959000 0.277302 0.000000
0.000000 0.627968 0.000000
0.256504 0.627968 0.000000
0.577871 0.627968 0.000000
0.880941 0.627968 0.000000
0.959000 0.627968 0.000000
0.000000 0.955611 0.000000
0.256504 0.955611 0.000000
0.577871 0.955611 0.000000
0.880941 0.955611 0.000000
0.959000 0.955611 0.000000
0.000000 1.000000 0.000000
0.256504 1.000000 0.000000
0.577871 1.000000 0.000000
0.880941 1.000000 0.000000
0.959000 1.000000 0.000000
0.000000 0.000000 0.221841
0.256504 0.000000 0.221841
0.577871 0.000000 0.221841
0.880941 0.000000 0.221841
0.959000 0.000000 0.221841
0.000000 0.277302 0.221841
0.261496 0.297267 0.201876
0.706041 0.189063 0.093671
1.000000 0.178279 0.102782
1.000000 0.242471 0.180841
0.000000 0.627968 0.221841
0.135256 0.774174 0.075636
0.688006 0.774174 0.075636
1.000000 0.655634 0.102782
1.000000 0.632145 0.180841
0.000000 0.955611 0.221841
0.216309 1.000000 0.177453
0.576557 1.000000 0.177453
0.916295 1.000000 0.177453
1.000000 0.996235 0.180841
0.000000 1.000000 0.221841
0.256504 1.000000 0.221841
0.577871 1.000000 0.221841
0.880941 1.000000 0.221841
0.959000 1.000000 0.221841
0.000000 0.000000 0.435416
0.256504 0.000000 0.435416
0.577871 0.000000 0.435416
0.880941 0.000000 0.435416
0.959000 0.000000 0.435416
0.000000 0.277302 0.435416
0.192096 0.227868 0.499825
0.686075 0.169097 0.441054
1.000000 0.158242 0.378729
1.000000 0.236302 0.413436
0.000000 0.627968 0.435416
0.122777 0.761695 0.430506
0.611119 0.697287 0.366098
1.000000 0.611822 0.316357
1.000000 0.617124 0.394416
0.000000 0.955611 0.435416
0.212116 1.000000 0.413747
0.557793 1.000000 0.391028
0.912586 1.000000 0.391028
1.000000 0.996081 0.394416
0.000000 1.000000 0.435416
0.256504 1.000000 0.435416
0.577871 1.000000 0.435416
0.880941 1.000000 0.435416
0.959000 1.000000 0.435416
0.000000 0.000000 0.756489
0.256504 0.000000 0.756489
0.577871 0.000000 0.756489
0.880941 0.000000 0.756489
0.959000 0.000000 0.756489
0.000000 0.277302 0.756489
0.076509 0.112281 0.936484
0.621773 0.104794 0.928997
1.000000 0.158242 0.826456
1.000000 0.236302 0.773130
0.000000 0.627968 0.756489
0.076509 0.715428 0.936484
0.513568 0.599736 0.820792
0.972011 0.536898 0.757954
1.000000 0.586968 0.747325
0.000000 0.955611 0.756489
0.212116 1.000000 0.775592
0.533482 1.000000 0.754080
0.892038 1.000000 0.712101
1.000000 0.995239 0.715489
0.000000 1.000000 0.756489
0.256504 1.000000 0.756489
0.577871 1.000000 0.756489
0.880941 1.000000 0.756489
0.959000 1.000000 0.756489
0.000000 0.000000 0.824000
0.256504 0.000000 0.824000
0.577871 0.000000 0.824000
0.880941 0.000000 0.824000
0.959000 0.000000 0.824000
0.000000 0.277302 0.824000
0.080504 0.114202 1.000000
0.595396 0.101302 1.000000
1.000000 0.158242 0.920598
1.000000 0.236302 0.848761
0.000000 0.627968 0.824000
0.080504 0.682376 1.000000
0.489264 0.575432 0.912607
0.972011 0.536898 0.874073
1.000000 0.586968 0.831559
0.000000 0.955611 0.824000
0.212116 1.000000 0.851676
0.533482 1.000000 0.837457
0.874961 1.000000 0.779611
1.000000 0.994553 0.783000
0.000000 1.000000 0.824000
0.256504 1.000000 0.824000
0.577871 1.000000 0.824000
0.880941 1.000000 0.824000
0.959000 1.000000 0.824000
