docs/luts/fuji_recipes/Provia_GB_Balan_Colour.cube
TITLE "Fujifilm Recipe: GB Balan Colour (Provia)"
# FilmSim=Provia HL=-1 SH=-1 Col=0 WB=Auto WBR=0 WBB=0
LUT_3D_SIZE 9
DOMAIN_MIN 0.0 0.0 0.0
DOMAIN_MAX 1.0 1.0 1.0
0.040000 0.040000 0.040000
0.160000 0.040000 0.040000
0.280000 0.040000 0.040000
0.400000 0.040000 0.040000
0.520000 0.040000 0.040000
0.617500 0.040000 0.040000
0.735000 0.040000 0.040000
0.852500 0.040000 0.040000
0.970000 0.040000 0.040000
0.046235 0.160000 0.040000
0.160000 0.153765 0.040000
0.280000 0.152800 0.040000
0.400000 0.152612 0.040000
0.520000 0.160000 0.040000
0.617500 0.160000 0.040000
0.735000 0.160000 0.040000
0.852500 0.160000 0.040000
0.970000 0.160000 0.040000
0.052471 0.280000 0.040000
0.174400 0.280000 0.040000
0.280000 0.267529 0.040000
0.400000 0.266116 0.040000
0.520000 0.265600 0.040000
0.617500 0.265392 0.040000
0.735000 0.265247 0.040000
0.852500 0.265160 0.040000
0.970000 0.280000 0.040000
0.058706 0.400000 0.040000
0.181272 0.400000 0.040000
0.301272 0.400000 0.040000
0.400000 0.381294 0.040000
0.520000 0.379635 0.040000
0.617500 0.378953 0.040000
0.735000 0.378474 0.040000
0.852500 0.378183 0.040000
0.970000 0.377995 0.040000
0.064942 0.520000 0.040000
0.187819 0.520000 0.040000
0.308800 0.520000 0.040000
0.427819 0.520000 0.040000
0.520000 0.495058 0.040000
0.617500 0.493507 0.040000
0.735000 0.492402 0.040000
0.852500 0.491728 0.040000
0.970000 0.491288 0.040000
0.070008 0.617500 0.040000
0.193040 0.617500 0.040000
0.314515 0.617500 0.040000
0.434361 0.617500 0.040000
0.552587 0.617500 0.040000
0.617500 0.587492 0.040000
0.735000 0.585623 0.040000
0.852500 0.584473 0.040000
0.970000 0.583718 0.040000
0.076113 0.735000 0.040000
0.199274 0.735000 0.040000
0.321154 0.735000 0.040000
0.441693 0.735000 0.040000
0.560872 0.735000 0.040000
0.656721 0.735000 0.040000
0.735000 0.698887 0.040000
0.852500 0.696942 0.040000
0.970000 0.695655 0.040000
0.082219 0.852500 0.040000
0.205470 0.852500 0.040000
0.327635 0.852500 0.040000
0.448663 0.852500 0.040000
0.568530 0.852500 0.040000
0.665067 0.852500 0.040000
0.780413 0.852500 0.040000
0.852500 0.810281 0.040000
0.970000 0.808279 0.040000
0.088324 0.970000 0.040000
0.211642 0.970000 0.040000
0.334019 0.970000 0.040000
0.455410 0.970000 0.040000
0.575792 0.970000 0.040000
0.672853 0.970000 0.040000
0.788939 0.970000 0.040000
0.904082 0.970000 0.040000
0.970000 0.921676 0.040000
0.040000 0.046235 0.160000
0.153765 0.040000 0.160000
0.280000 0.040000 0.167200
0.400000 0.040000 0.167388
0.520000 0.040000 0.160000
0.617500 0.040000 0.160000
0.735000 0.040000 0.160000
0.852500 0.040000 0.160000
0.970000 0.040000 0.160000
0.040000 0.160000 0.160000
0.160000 0.160000 0.160000
0.280000 0.160000 0.160000
0.400000 0.160000 0.160000
0.520000 0.160000 0.160000
0.617500 0.160000 0.160000
0.735000 0.160000 0.160000
0.852500 0.160000 0.160000
0.970000 0.160000 0.160000
0.040000 0.280000 0.152800
0.166235 0.280000 0.160000
0.280000 0.273765 0.160000
0.400000 0.272800 0.160000
0.520000 0.272612 0.160000
0.617500 0.280000 0.160000
0.735000 0.280000 0.160000
0.852500 0.280000 0.160000
0.970000 0.280000 0.160000
0.040000 0.400000 0.146116
0.172471 0.400000 0.160000
0.294400 0.400000 0.160000
0.400000 0.387529 0.160000
0.520000 0.386116 0.160000
0.617500 0.385667 0.160000
0.735000 0.385396 0.160000
0.852500 0.385249 0.160000
0.970000 0.385161 0.160000
0.040000 0.520000 0.139635
0.178706 0.520000 0.160000
0.301272 0.520000 0.160000
0.421272 0.520000 0.160000
0.520000 0.501294 0.160000
0.617500 0.499855 0.160000
0.735000 0.498967 0.160000
0.852500 0.498481 0.160000
0.970000 0.498188 0.160000
0.040000 0.617500 0.134440
0.183772 0.617500 0.160000
0.306604 0.617500 0.160000
0.427441 0.617500 0.160000
0.546221 0.617500 0.160000
0.617500 0.593728 0.160000
0.735000 0.591967 0.160000
0.852500 0.590993 0.160000
0.970000 0.590401 0.160000
0.040000 0.735000 0.128225
0.189878 0.735000 0.160000
0.312907 0.735000 0.160000
0.434371 0.735000 0.160000
0.554200 0.735000 0.160000
0.650360 0.735000 0.160000
0.735000 0.705122 0.160000
0.852500 0.703255 0.160000
0.970000 0.702108 0.160000
0.040000 0.852500 0.122040
0.195983 0.852500 0.160000
0.319142 0.852500 0.160000
0.441015 0.852500 0.160000
0.561541 0.852500 0.160000
0.658463 0.852500 0.160000
0.774089 0.852500 0.160000
0.852500 0.816517 0.160000
0.970000 0.814573 0.160000
0.040000 0.970000 0.115875
0.202089 0.970000 0.160000
0.325338 0.970000 0.160000
0.447498 0.970000 0.160000
0.568518 0.970000 0.160000
0.665988 0.970000 0.160000
0.782431 0.970000 0.160000
0.897781 0.970000 0.160000
0.970000 0.927911 0.160000
0.040000 0.052471 0.280000
0.145600 0.040000 0.280000
0.267529 0.040000 0.280000
0.400000 0.040000 0.293884
0.520000 0.040000 0.294400
0.617500 0.040000 0.294608
0.735000 0.040000 0.294753
0.852500 0.040000 0.294840
0.970000 0.040000 0.280000
0.040000 0.167200 0.280000
0.160000 0.166235 0.280000
0.273765 0.160000 0.280000
0.400000 0.160000 0.287200
0.520000 0.160000 0.287388
0.617500 0.160000 0.280000
0.735000 0.160000 0.280000
0.852500 0.160000 0.280000
0.970000 0.160000 0.280000
0.040000 0.280000 0.280000
0.160000 0.280000 0.280000
0.280000 0.280000 0.280000
0.400000 0.280000 0.280000
0.520000 0.280000 0.280000
0.617500 0.280000 0.280000
0.735000 0.280000 0.280000
0.852500 0.280000 0.280000
0.970000 0.280000 0.280000
0.040000 0.400000 0.272612
0.160000 0.400000 0.272800
0.286235 0.400000 0.280000
0.400000 0.393765 0.280000
0.520000 0.392800 0.280000
0.617500 0.392633 0.280000
0.735000 0.400000 0.280000
0.852500 0.400000 0.280000
0.970000 0.400000 0.280000
0.040000 0.520000 0.265600
0.160000 0.520000 0.266116
0.292471 0.520000 0.280000
0.414400 0.520000 0.280000
0.520000 0.507529 0.280000
0.617500 0.506276 0.280000
0.735000 0.505676 0.280000
0.852500 0.505400 0.280000
0.970000 0.505252 0.280000
0.040000 0.617500 0.260093
0.160000 0.617500 0.260841
0.297537 0.617500 0.280000
0.420019 0.617500 0.280000
0.539757 0.617500 0.280000
0.617500 0.599963 0.280000
0.735000 0.598363 0.280000
0.852500 0.597616 0.280000
0.970000 0.597209 0.280000
0.040000 0.735000 0.253599
0.160000 0.735000 0.254573
0.303642 0.735000 0.280000
0.426469 0.735000 0.280000
0.547289 0.735000 0.280000
0.643930 0.735000 0.280000
0.735000 0.711358 0.280000
0.852500 0.709599 0.280000
0.970000 0.708630 0.280000
0.040000 0.852500 0.247205
0.160000 0.852500 0.248357
0.309748 0.852500 0.280000
0.432774 0.852500 0.280000
0.554227 0.852500 0.280000
0.651699 0.852500 0.280000
0.767727 0.852500 0.280000
0.852500 0.822752 0.280000
0.970000 0.820887 0.280000
0.040000 0.970000 0.240878
0.160000 0.970000 0.242171
0.315853 0.970000 0.280000
0.439010 0.970000 0.280000
0.560875 0.970000 0.280000
0.658897 0.970000 0.280000
0.775824 0.970000 0.280000
0.891457 0.970000 0.280000
0.970000 0.934147 0.280000
0.040000 0.058706 0.400000
0.138728 0.040000 0.400000
0.258728 0.040000 0.400000
0.381294 0.040000 0.400000
0.520000 0.040000 0.420365
0.617500 0.040000 0.421047
0.735000 0.040000 0.421526
0.852500 0.040000 0.421817
0.970000 0.040000 0.422005
0.040000 0.173884 0.400000
0.160000 0.172471 0.400000
0.265600 0.160000 0.400000
0.387529 0.160000 0.400000
0.520000 0.160000 0.413884
0.617500 0.160000 0.414333
0.735000 0.160000 0.414604
0.852500 0.160000 0.414751
0.970000 0.160000 0.414839
0.040000 0.287388 0.400000
0.160000 0.287200 0.400000
0.280000 0.286235 0.400000
0.393765 0.280000 0.400000
0.520000 0.280000 0.407200
0.617500 0.280000 0.407367
0.735000 0.280000 0.400000
0.852500 0.280000 0.400000
0.970000 0.280000 0.400000
0.040000 0.400000 0.400000
0.160000 0.400000 0.400000
0.280000 0.400000 0.400000
0.400000 0.400000 0.400000
0.520000 0.400000 0.400000
0.617500 0.400000 0.400000
0.735000 0.400000 0.400000
0.852500 0.400000 0.400000
0.970000 0.400000 0.400000
0.040000 0.520000 0.400000
0.160000 0.520000 0.392612
0.280000 0.520000 0.392800
0.406235 0.520000 0.400000
0.520000 0.513765 0.400000
0.617500 0.512873 0.400000
0.735000 0.512636 0.400000
0.852500 0.520000 0.400000
0.970000 0.520000 0.400000
0.040000 0.617500 0.386686
0.160000 0.617500 0.386892
0.280000 0.617500 0.387348
0.411302 0.617500 0.400000
0.533031 0.617500 0.400000
0.617500 0.606198 0.400000
0.735000 0.604863 0.400000
0.852500 0.604404 0.400000
0.970000 0.604195 0.400000
0.040000 0.735000 0.379834
0.160000 0.735000 0.380233
0.280000 0.735000 0.380976
0.417407 0.735000 0.400000
0.539879 0.735000 0.400000
0.637355 0.735000 0.400000
0.735000 0.717593 0.400000
0.852500 0.715997 0.400000
0.970000 0.715255 0.400000
0.040000 0.852500 0.373153
0.160000 0.852500 0.373736
0.280000 0.852500 0.374705
0.423513 0.852500 0.400000
0.546333 0.852500 0.400000
0.644644 0.852500 0.400000
0.761295 0.852500 0.400000
0.852500 0.828987 0.400000
0.970000 0.827232 0.400000
0.040000 0.970000 0.366595
0.160000 0.970000 0.367340
0.280000 0.970000 0.368489
0.429618 0.970000 0.400000
0.552641 0.970000 0.400000
0.651437 0.970000 0.400000
0.769056 0.970000 0.400000
0.885093 0.970000 0.400000
0.970000 0.940382 0.400000
0.040000 0.064942 0.520000
0.132181 0.040000 0.520000
0.251200 0.040000 0.520000
0.372181 0.040000 0.520000
0.495058 0.040000 0.520000
0.617500 0.040000 0.546493
0.735000 0.040000 0.547598
0.852500 0.040000 0.548272
0.970000 0.040000 0.548712
0.040000 0.180365 0.520000
0.160000 0.178706 0.520000
0.258728 0.160000 0.520000
0.378728 0.160000 0.520000
0.501294 0.160000 0.520000
0.617500 0.160000 0.540145
0.735000 0.160000 0.541033
0.852500 0.160000 0.541519
0.970000 0.160000 0.541812
0.040000 0.294400 0.520000
0.160000 0.293884 0.520000
0.280000 0.292471 0.520000
0.385600 0.280000 0.520000
0.507529 0.280000 0.520000
0.617500 0.280000 0.533724
0.735000 0.280000 0.534324
0.852500 0.280000 0.534600
0.970000 0.280000 0.534748
0.040000 0.400000 0.520000
0.160000 0.407388 0.520000
0.280000 0.407200 0.520000
0.400000 0.406235 0.520000
0.513765 0.400000 0.520000
0.617500 0.400000 0.527127
0.735000 0.400000 0.527364
0.852500 0.400000 0.520000
0.970000 0.400000 0.520000
0.040000 0.520000 0.520000
0.160000 0.520000 0.520000
0.280000 0.520000 0.520000
0.400000 0.520000 0.520000
0.520000 0.520000 0.520000
0.617500 0.520000 0.520000
0.735000 0.520000 0.520000
0.852500 0.520000 0.520000
0.970000 0.520000 0.520000
0.040000 0.617500 0.520000
0.160000 0.617500 0.520000
0.280000 0.617500 0.520000
0.400000 0.617500 0.514096
0.525066 0.617500 0.520000
0.617500 0.612434 0.520000
0.735000 0.611602 0.520000
0.852500 0.611470 0.520000
0.970000 0.617500 0.520000
0.040000 0.735000 0.506726
0.160000 0.735000 0.506834
0.280000 0.735000 0.507036
0.400000 0.735000 0.507485
0.531172 0.735000 0.520000
0.630385 0.735000 0.520000
0.735000 0.723828 0.520000
0.852500 0.722500 0.520000
0.970000 0.722048 0.520000
0.040000 0.852500 0.499742
0.160000 0.852500 0.499978
0.280000 0.852500 0.500373
0.400000 0.852500 0.501110
0.537277 0.852500 0.520000
0.636984 0.852500 0.520000
0.754715 0.852500 0.520000
0.852500 0.835223 0.520000
0.970000 0.833632 0.520000
0.040000 0.970000 0.492920
0.160000 0.970000 0.493294
0.280000 0.970000 0.493873
0.400000 0.970000 0.494838
0.543383 0.970000 0.520000
0.643320 0.970000 0.520000
0.761993 0.970000 0.520000
0.878660 0.970000 0.520000
0.970000 0.946617 0.520000
0.040000 0.070008 0.617500
0.126960 0.040000 0.617500
0.245485 0.040000 0.617500
0.365639 0.040000 0.617500
0.487413 0.040000 0.617500
0.587492 0.040000 0.617500
0.735000 0.040000 0.649377
0.852500 0.040000 0.650527
0.970000 0.040000 0.651282
0.040000 0.185560 0.617500
0.160000 0.183772 0.617500
0.253396 0.160000 0.617500
0.372559 0.160000 0.617500
0.493779 0.160000 0.617500
0.593728 0.160000 0.617500
0.735000 0.160000 0.643033
0.852500 0.160000 0.644007
0.970000 0.160000 0.644599
0.040000 0.299907 0.617500
0.160000 0.299159 0.617500
0.280000 0.297537 0.617500
0.379981 0.280000 0.617500
0.500243 0.280000 0.617500
0.599963 0.280000 0.617500
0.735000 0.280000 0.636637
0.852500 0.280000 0.637384
0.970000 0.280000 0.637791
0.040000 0.413314 0.617500
0.160000 0.413108 0.617500
0.280000 0.412652 0.617500
0.400000 0.411302 0.617500
0.506969 0.400000 0.617500
0.606198 0.400000 0.617500
0.735000 0.400000 0.630137
0.852500 0.400000 0.630596
0.970000 0.400000 0.630805
0.040000 0.520000 0.617500
0.160000 0.520000 0.617500
0.280000 0.520000 0.617500
0.400000 0.525904 0.617500
0.520000 0.525066 0.617500
0.612434 0.520000 0.617500
0.735000 0.520000 0.623398
0.852500 0.520000 0.623530
0.970000 0.520000 0.617500
0.040000 0.617500 0.617500
0.160000 0.617500 0.617500
0.280000 0.617500 0.617500
0.400000 0.617500 0.617500
0.520000 0.617500 0.617500
0.617500 0.617500 0.617500
0.735000 0.617500 0.617500
0.852500 0.617500 0.617500
0.970000 0.617500 0.617500
0.040000 0.735000 0.617500
0.160000 0.735000 0.617500
0.280000 0.735000 0.617500
0.400000 0.735000 0.610282
0.520000 0.735000 0.610514
0.623605 0.735000 0.617500
0.735000 0.728895 0.617500
0.852500 0.727950 0.617500
0.970000 0.727766 0.617500
0.040000 0.852500 0.617500
0.160000 0.852500 0.603043
0.280000 0.852500 0.603185
0.400000 0.852500 0.603452
0.520000 0.852500 0.604046
0.629711 0.852500 0.617500
0.749100 0.852500 0.617500
0.852500 0.840289 0.617500
0.970000 0.838905 0.617500
0.040000 0.970000 0.595929
0.160000 0.970000 0.596110
0.280000 0.970000 0.596393
0.400000 0.970000 0.596868
0.520000 0.970000 0.597753
0.635816 0.970000 0.617500
0.755829 0.970000 0.617500
0.873329 0.970000 0.617500
0.970000 0.951684 0.617500
0.040000 0.076113 0.735000
0.120726 0.040000 0.735000
0.238846 0.040000 0.735000
0.358307 0.040000 0.735000
0.479128 0.040000 0.735000
0.578279 0.040000 0.735000
0.698887 0.040000 0.735000
0.852500 0.040000 0.773058
0.970000 0.040000 0.774345
0.040000 0.191775 0.735000
0.160000 0.189878 0.735000
0.247093 0.160000 0.735000
0.365629 0.160000 0.735000
0.485800 0.160000 0.735000
0.584640 0.160000 0.735000
0.705122 0.160000 0.735000
0.852500 0.160000 0.766745
0.970000 0.160000 0.767892
0.040000 0.306401 0.735000
0.160000 0.305427 0.735000
0.280000 0.303642 0.735000
0.373531 0.280000 0.735000
0.492711 0.280000 0.735000
0.591070 0.280000 0.735000
0.711358 0.280000 0.735000
0.852500 0.280000 0.760401
0.970000 0.280000 0.761370
0.040000 0.420166 0.735000
0.160000 0.419767 0.735000
0.280000 0.419024 0.735000
0.400000 0.417407 0.735000
0.500121 0.400000 0.735000
0.597645 0.400000 0.735000
0.717593 0.400000 0.735000
0.852500 0.400000 0.754003
0.970000 0.400000 0.754745
0.040000 0.533274 0.735000
0.160000 0.533166 0.735000
0.280000 0.532964 0.735000
0.400000 0.532515 0.735000
0.520000 0.531172 0.735000
0.604615 0.520000 0.735000
0.723828 0.520000 0.735000
0.852500 0.520000 0.747500
0.970000 0.520000 0.747952
0.040000 0.617500 0.735000
0.160000 0.617500 0.735000
0.280000 0.617500 0.735000
0.400000 0.624718 0.735000
0.520000 0.624486 0.735000
0.617500 0.623605 0.735000
0.728895 0.617500 0.735000
0.852500 0.617500 0.742050
0.970000 0.617500 0.742234
0.040000 0.735000 0.735000
0.160000 0.735000 0.735000
0.280000 0.735000 0.735000
0.400000 0.735000 0.735000
0.520000 0.735000 0.735000
0.617500 0.735000 0.735000
0.735000 0.735000 0.735000
0.852500 0.735000 0.735000
0.970000 0.735000 0.735000
0.040000 0.852500 0.735000
0.160000 0.852500 0.735000
0.280000 0.852500 0.735000
0.400000 0.852500 0.735000
0.520000 0.852500 0.727785
0.617500 0.852500 0.727950
0.741105 0.852500 0.735000
0.852500 0.846395 0.735000
0.970000 0.845450 0.735000
0.040000 0.970000 0.735000
0.160000 0.970000 0.735000
0.280000 0.970000 0.720546
0.400000 0.970000 0.720689
0.520000 0.970000 0.720960
0.617500 0.970000 0.721405
0.747211 0.970000 0.735000
0.866600 0.970000 0.735000
0.970000 0.957789 0.735000
0.040000 0.082219 0.852500
0.114530 0.040000 0.852500
0.232365 0.040000 0.852500
0.351337 0.040000 0.852500
0.471470 0.040000 0.852500
0.569933 0.040000 0.852500
0.689587 0.040000 0.852500
0.810281 0.040000 0.852500
0.970000 0.040000 0.896721
0.040000 0.197960 0.852500
0.160000 0.195983 0.852500
0.240858 0.160000 0.852500
0.358985 0.160000 0.852500
0.478459 0.160000 0.852500
0.576537 0.160000 0.852500
0.695911 0.160000 0.852500
0.816517 0.160000 0.852500
0.970000 0.160000 0.890427
0.040000 0.312795 0.852500
0.160000 0.311643 0.852500
0.280000 0.309748 0.852500
0.367226 0.280000 0.852500
0.485773 0.280000 0.852500
0.583301 0.280000 0.852500
0.702273 0.280000 0.852500
0.822752 0.280000 0.852500
0.970000 0.280000 0.884113
0.040000 0.426847 0.852500
0.160000 0.426264 0.852500
0.280000 0.425295 0.852500
0.400000 0.423513 0.852500
0.493667 0.400000 0.852500
0.590356 0.400000 0.852500
0.708705 0.400000 0.852500
0.828987 0.400000 0.852500
0.970000 0.400000 0.877768
0.040000 0.540258 0.852500
0.160000 0.540022 0.852500
0.280000 0.539627 0.852500
0.400000 0.538890 0.852500
0.520000 0.537277 0.852500
0.598016 0.520000 0.852500
0.715285 0.520000 0.852500
0.835223 0.520000 0.852500
0.970000 0.520000 0.871368
0.040000 0.617500 0.852500
0.160000 0.631957 0.852500
0.280000 0.631815 0.852500
0.400000 0.631548 0.852500
0.520000 0.630954 0.852500
0.617500 0.629711 0.852500
0.720900 0.617500 0.852500
0.840289 0.617500 0.852500
0.970000 0.617500 0.866095
0.040000 0.735000 0.852500
0.160000 0.735000 0.852500
0.280000 0.735000 0.852500
0.400000 0.735000 0.852500
0.520000 0.742215 0.852500
0.617500 0.742050 0.852500
0.735000 0.741105 0.852500
0.846395 0.735000 0.852500
0.970000 0.735000 0.859550
0.040000 0.852500 0.852500
0.160000 0.852500 0.852500
0.280000 0.852500 0.852500
0.400000 0.852500 0.852500
0.520000 0.852500 0.852500
0.617500 0.852500 0.852500
0.735000 0.852500 0.852500
0.852500 0.852500 0.852500
0.970000 0.852500 0.852500
0.040000 0.970000 0.852500
0.160000 0.970000 0.852500
0.280000 0.970000 0.852500
0.400000 0.970000 0.852500
0.520000 0.970000 0.852500
0.617500 0.970000 0.845266
0.735000 0.970000 0.845450
0.858605 0.970000 0.852500
0.970000 0.963895 0.852500
0.040000 0.088324 0.970000
0.108358 0.040000 0.970000
0.225981 0.040000 0.970000
0.344590 0.040000 0.970000
0.464208 0.040000 0.970000
0.562147 0.040000 0.970000
0.681061 0.040000 0.970000
0.800918 0.040000 0.970000
0.921676 0.040000 0.970000
0.040000 0.204125 0.970000
0.160000 0.202089 0.970000
0.234662 0.160000 0.970000
0.352502 0.160000 0.970000
0.471482 0.160000 0.970000
0.569012 0.160000 0.970000
0.687569 0.160000 0.970000
0.807219 0.160000 0.970000
0.927911 0.160000 0.970000
0.040000 0.319122 0.970000
0.160000 0.317829 0.970000
0.280000 0.315853 0.970000
0.360990 0.280000 0.970000
0.479125 0.280000 0.970000
0.576103 0.280000 0.970000
0.694176 0.280000 0.970000
0.813543 0.280000 0.970000
0.934147 0.280000 0.970000
0.040000 0.433405 0.970000
0.160000 0.432660 0.970000
0.280000 0.431511 0.970000
0.400000 0.429618 0.970000
0.487359 0.400000 0.970000
0.583563 0.400000 0.970000
0.700944 0.400000 0.970000
0.819907 0.400000 0.970000
0.940382 0.400000 0.970000
0.040000 0.547080 0.970000
0.160000 0.546706 0.970000
0.280000 0.546127 0.970000
0.400000 0.545162 0.970000
0.520000 0.543383 0.970000
0.591680 0.520000 0.970000
0.708007 0.520000 0.970000
0.826340 0.520000 0.970000
0.946617 0.520000 0.970000
0.040000 0.639071 0.970000
0.160000 0.638890 0.970000
0.280000 0.638607 0.970000
0.400000 0.638132 0.970000
0.520000 0.637247 0.970000
0.617500 0.635816 0.970000
0.714171 0.617500 0.970000
0.831671 0.617500 0.970000
0.951684 0.617500 0.970000
0.040000 0.735000 0.970000
0.160000 0.735000 0.970000
0.280000 0.749454 0.970000
0.400000 0.749311 0.970000
0.520000 0.749040 0.970000
0.617500 0.748595 0.970000
0.735000 0.747211 0.970000
0.838400 0.735000 0.970000
0.957789 0.735000 0.970000
0.040000 0.852500 0.970000
0.160000 0.852500 0.970000
0.280000 0.852500 0.970000
0.400000 0.852500 0.970000
0.520000 0.852500 0.970000
0.617500 0.859734 0.970000
0.735000 0.859550 0.970000
0.852500 0.858605 0.970000
0.963895 0.852500 0.970000
0.040000 0.970000 0.970000
0.160000 0.970000 0.970000
0.280000 0.970000 0.970000
0.400000 0.970000 0.970000
0.520000 0.970000 0.970000
0.617500 0.970000 0.970000
0.735000 0.970000 0.970000
0.852500 0.970000 0.970000
0.970000 0.970000 0.970000
