docs/luts/fuji_recipes/Provia_PE_Provia_Sternfeld.cube
TITLE "Fujifilm Recipe: PE Provia Sternfeld (Provia)"
# FilmSim=Provia HL=-2 SH=-1 Col=-3 WB=Auto WBR=0 WBB=0
LUT_3D_SIZE 5
DOMAIN_MIN 0.0 0.0 0.0
DOMAIN_MAX 1.0 1.0 1.0
0.040000 0.040000 0.040000
0.215200 0.104800 0.104800
0.390400 0.169600 0.169600
0.536400 0.223600 0.223600
0.697000 0.283000 0.283000
0.104800 0.215200 0.104800
0.215200 0.215200 0.104800
0.390400 0.280000 0.169600
0.536400 0.334000 0.223600
0.697000 0.393400 0.283000
0.169600 0.390400 0.169600
0.280000 0.390400 0.169600
0.390400 0.390400 0.169600
0.536400 0.444400 0.223600
0.697000 0.503800 0.283000
0.223600 0.536400 0.223600
0.334000 0.536400 0.223600
0.444400 0.536400 0.223600
0.536400 0.536400 0.223600
0.697000 0.595800 0.283000
0.283000 0.697000 0.283000
0.393400 0.697000 0.283000
0.503800 0.697000 0.283000
0.595800 0.697000 0.283000
0.697000 0.697000 0.283000
0.104800 0.104800 0.215200
0.215200 0.104800 0.215200
0.390400 0.169600 0.280000
0.536400 0.223600 0.334000
0.697000 0.283000 0.393400
0.104800 0.215200 0.215200
0.280000 0.280000 0.280000
0.455200 0.344800 0.344800
0.601200 0.398800 0.398800
0.761800 0.458200 0.458200
0.169600 0.390400 0.280000
0.344800 0.455200 0.344800
0.455200 0.455200 0.344800
0.601200 0.509200 0.398800
0.761800 0.568600 0.458200
0.223600 0.536400 0.334000
0.398800 0.601200 0.398800
0.509200 0.601200 0.398800
0.601200 0.601200 0.398800
0.761800 0.660600 0.458200
0.283000 0.697000 0.393400
0.458200 0.761800 0.458200
0.568600 0.761800 0.458200
0.660600 0.761800 0.458200
0.761800 0.761800 0.458200
0.169600 0.169600 0.390400
0.280000 0.169600 0.390400
0.390400 0.169600 0.390400
0.536400 0.223600 0.444400
0.697000 0.283000 0.503800
0.169600 0.280000 0.390400
0.344800 0.344800 0.455200
0.455200 0.344800 0.455200
0.601200 0.398800 0.509200
0.761800 0.458200 0.568600
0.169600 0.390400 0.390400
0.344800 0.455200 0.455200
0.520000 0.520000 0.520000
0.666000 0.574000 0.574000
0.826600 0.633400 0.633400
0.223600 0.536400 0.444400
0.398800 0.601200 0.509200
0.574000 0.666000 0.574000
0.666000 0.666000 0.574000
0.826600 0.725400 0.633400
0.283000 0.697000 0.503800
0.458200 0.761800 0.568600
0.633400 0.826600 0.633400
0.725400 0.826600 0.633400
0.826600 0.826600 0.633400
0.223600 0.223600 0.536400
0.334000 0.223600 0.536400
0.444400 0.223600 0.536400
0.536400 0.223600 0.536400
0.697000 0.283000 0.595800
0.223600 0.334000 0.536400
0.398800 0.398800 0.601200
0.509200 0.398800 0.601200
0.601200 0.398800 0.601200
0.761800 0.458200 0.660600
0.223600 0.444400 0.536400
0.398800 0.509200 0.601200
0.574000 0.574000 0.666000
0.666000 0.574000 0.666000
0.826600 0.633400 0.725400
0.223600 0.536400 0.536400
0.398800 0.601200 0.601200
0.574000 0.666000 0.666000
0.720000 0.720000 0.720000
0.880600 0.779400 0.779400
0.283000 0.697000 0.595800
0.458200 0.761800 0.660600
0.633400 0.826600 0.725400
0.779400 0.880600 0.779400
0.880600 0.880600 0.779400
0.283000 0.283000 0.697000
0.393400 0.283000 0.697000
0.503800 0.283000 0.697000
0.595800 0.283000 0.697000
0.697000 0.283000 0.697000
0.283000 0.393400 0.697000
0.458200 0.458200 0.761800
0.568600 0.458200 0.761800
0.660600 0.458200 0.761800
0.761800 0.458200 0.761800
0.283000 0.503800 0.697000
0.458200 0.568600 0.761800
0.633400 0.633400 0.826600
0.725400 0.633400 0.826600
0.826600 0.633400 0.826600
0.283000 0.595800 0.697000
0.458200 0.660600 0.761800
0.633400 0.725400 0.826600
0.779400 0.779400 0.880600
0.880600 0.779400 0.880600
0.283000 0.697000 0.697000
0.458200 0.761800 0.761800
0.633400 0.826600 0.826600
0.779400 0.880600 0.880600
0.940000 0.940000 0.940000
