docs/luts/fuji_recipes/Velvia_BT_Velvia_Travel.cube
TITLE "Fujifilm Recipe: BT Velvia Travel (Velvia)"
# FilmSim=Velvia HL=0 SH=3 Col=1 WB=Auto WBR=0 WBB=0
LUT_3D_SIZE 5
DOMAIN_MIN 0.0 0.0 0.0
DOMAIN_MAX 1.0 1.0 1.0
0.000000 0.000000 0.000000
0.217966 0.000000 0.000000
0.506933 0.000000 0.000000
0.762056 0.000000 0.000000
1.000000 0.000000 0.000000
0.000000 0.214720 0.000000
0.217966 0.214720 0.000000
0.506933 0.214720 0.000000
0.762056 0.214720 0.000000
1.000000 0.214720 0.000000
0.000000 0.429440 0.000000
0.217966 0.429440 0.000000
0.506933 0.429440 0.000000
0.762056 0.429440 0.000000
1.000000 0.429440 0.000000
0.000000 0.752000 0.000000
0.217966 0.752000 0.000000
0.506933 0.752000 0.000000
0.762056 0.752000 0.000000
1.000000 0.752000 0.000000
0.000000 1.000000 0.000000
0.217966 1.000000 0.000000
0.506933 1.000000 0.000000
0.762056 1.000000 0.000000
1.000000 1.000000 0.000000
0.000000 0.000000 0.212524
0.217966 0.000000 0.212524
0.506933 0.000000 0.212524
0.762056 0.000000 0.212524
1.000000 0.000000 0.212524
0.000000 0.214720 0.212524
0.219323 0.214458 0.211167
0.575325 0.151722 0.148432
0.893678 0.092625 0.089334
1.000000 0.214720 0.212524
0.000000 0.429440 0.212524
0.160973 0.551700 0.152817
0.575325 0.546953 0.148432
0.893678 0.414405 0.089334
1.000000 0.429440 0.212524
0.000000 0.752000 0.212524
0.099819 0.881130 0.091664
0.513873 0.881130 0.091664
0.893678 0.878609 0.089334
1.000000 0.752000 0.212524
0.000000 1.000000 0.212524
0.217966 1.000000 0.212524
0.506933 1.000000 0.212524
0.762056 1.000000 0.212524
1.000000 1.000000 0.212524
0.000000 0.000000 0.425444
0.217966 0.000000 0.425444
0.506933 0.000000 0.425444
0.762056 0.000000 0.425444
1.000000 0.000000 0.425444
0.000000 0.214720 0.425444
0.161481 0.156616 0.545443
0.574734 0.151179 0.539557
0.893087 0.092081 0.407873
1.000000 0.214720 0.425444
0.000000 0.429440 0.425444
0.159625 0.550234 0.543430
0.517972 0.420773 0.414785
0.836325 0.361676 0.355688
1.000000 0.429440 0.425444
0.000000 0.752000 0.425444
0.098472 0.879665 0.409398
0.388974 0.823777 0.358018
0.836325 0.821255 0.355688
1.000000 0.752000 0.425444
0.000000 1.000000 0.425444
0.217966 1.000000 0.425444
0.506933 1.000000 0.425444
0.762056 1.000000 0.425444
1.000000 1.000000 0.425444
0.000000 0.000000 0.745198
0.217966 0.000000 0.745198
0.506933 0.000000 0.745198
0.762056 0.000000 0.745198
1.000000 0.000000 0.745198
0.000000 0.214720 0.745198
0.100851 0.095986 0.872051
0.514987 0.095986 0.872051
0.893087 0.092081 0.867824
1.000000 0.214720 0.745198
0.000000 0.429440 0.745198
0.100047 0.416962 0.871177
0.389560 0.364592 0.814213
0.835249 0.360687 0.809986
1.000000 0.429440 0.745198
0.000000 0.752000 0.745198
0.098472 0.879665 0.869471
0.383858 0.818213 0.808020
0.766258 0.751189 0.740996
1.000000 0.752000 0.745198
0.000000 1.000000 0.745198
0.217966 1.000000 0.745198
0.506933 1.000000 0.745198
0.762056 1.000000 0.745198
1.000000 1.000000 0.745198
0.000000 0.000000 0.995086
0.217966 0.000000 0.995086
0.506933 0.000000 0.995086
0.762056 0.000000 0.995086
1.000000 0.000000 0.995086
0.000000 0.214720 0.995086
0.213684 0.210395 1.000000
0.505459 0.210395 1.000000
0.763921 0.210395 1.000000
1.000000 0.214720 0.995086
0.000000 0.429440 0.995086
0.213642 0.427896 1.000000
0.502385 0.425115 1.000000
0.762453 0.425115 1.000000
1.000000 0.429440 0.995086
0.000000 0.752000 0.995086
0.213642 0.753718 1.000000
0.502019 0.752020 1.000000
0.757548 0.747086 1.000000
1.000000 0.752000 0.995086
0.000000 1.000000 0.995086
0.217966 1.000000 0.995086
0.506933 1.000000 0.995086
0.762056 1.000000 0.995086
1.000000 1.000000 0.995086
