docs/luts/fuji_recipes/Velvia_GB_Taste_Rainbows.cube
TITLE "Fujifilm Recipe: GB Taste Rainbows (Velvia)"
# FilmSim=Velvia HL=0 SH=2 Col=2 WB=Daylight WBR=0 WBB=0
LUT_3D_SIZE 5
DOMAIN_MIN 0.0 0.0 0.0
DOMAIN_MAX 1.0 1.0 1.0
0.000000 0.000000 0.000000
0.227874 0.000000 0.000000
0.506933 0.000000 0.000000
0.762056 0.000000 0.000000
1.000000 0.000000 0.000000
0.000000 0.224480 0.000000
0.227874 0.224480 0.000000
0.506933 0.224480 0.000000
0.762056 0.224480 0.000000
1.000000 0.224480 0.000000
0.000000 0.448960 0.000000
0.227874 0.448960 0.000000
0.506933 0.448960 0.000000
0.762056 0.448960 0.000000
1.000000 0.448960 0.000000
0.000000 0.752000 0.000000
0.227874 0.752000 0.000000
0.506933 0.752000 0.000000
0.762056 0.752000 0.000000
1.000000 0.752000 0.000000
0.000000 1.000000 0.000000
0.227874 1.000000 0.000000
0.506933 1.000000 0.000000
0.762056 1.000000 0.000000
1.000000 1.000000 0.000000
0.000000 0.000000 0.222184
0.227874 0.000000 0.222184
0.506933 0.000000 0.222184
0.762056 0.000000 0.222184
1.000000 0.000000 0.222184
0.000000 0.224480 0.222184
0.229943 0.224081 0.220116
0.606404 0.129545 0.125580
0.953794 0.040033 0.036068
1.000000 0.224480 0.222184
0.000000 0.448960 0.222184
0.142049 0.580624 0.132222
0.606404 0.573703 0.125580
0.953794 0.427755 0.036068
1.000000 0.448960 0.222184
0.000000 0.752000 0.222184
0.049423 0.940101 0.039596
0.516821 0.940101 0.039596
0.953794 0.936426 0.036068
1.000000 0.752000 0.222184
0.000000 1.000000 0.222184
0.227874 1.000000 0.222184
0.506933 1.000000 0.222184
0.762056 1.000000 0.222184
1.000000 1.000000 0.222184
0.000000 0.000000 0.444783
0.227874 0.000000 0.444783
0.506933 0.000000 0.444783
0.762056 0.000000 0.444783
1.000000 0.000000 0.444783
0.000000 0.224480 0.444783
0.142812 0.136951 0.573575
0.605538 0.128715 0.564994
0.952927 0.039203 0.419710
1.000000 0.224480 0.444783
0.000000 0.448960 0.444783
0.139993 0.578477 0.570634
0.522384 0.436800 0.429585
0.869773 0.347289 0.340074
1.000000 0.448960 0.444783
0.000000 0.752000 0.444783
0.047367 0.937954 0.422011
0.380901 0.856081 0.343602
0.869773 0.852405 0.340074
1.000000 0.752000 0.444783
0.000000 1.000000 0.444783
0.227874 1.000000 0.444783
0.506933 1.000000 0.444783
0.762056 1.000000 0.444783
1.000000 1.000000 0.444783
0.000000 0.000000 0.745198
0.227874 0.000000 0.745198
0.506933 0.000000 0.745198
0.762056 0.000000 0.745198
1.000000 0.000000 0.745198
0.000000 0.224480 0.745198
0.050980 0.045118 0.929973
0.518441 0.045118 0.929973
0.952927 0.039203 0.923811
1.000000 0.224480 0.745198
0.000000 0.448960 0.745198
0.049753 0.431613 0.928692
0.381778 0.351693 0.845243
0.868197 0.345779 0.839080
1.000000 0.448960 0.745198
0.000000 0.752000 0.745198
0.047367 0.937954 0.926206
0.373095 0.847930 0.836182
0.768185 0.750817 0.739069
1.000000 0.752000 0.745198
0.000000 1.000000 0.745198
0.227874 1.000000 0.745198
0.506933 1.000000 0.745198
0.762056 1.000000 0.745198
1.000000 1.000000 0.745198
0.000000 0.000000 0.995086
0.227874 0.000000 0.995086
0.506933 0.000000 0.995086
0.762056 0.000000 0.995086
1.000000 0.000000 0.995086
0.000000 0.224480 0.995086
0.223397 0.219959 1.000000
0.505459 0.219959 1.000000
0.763921 0.219959 1.000000
1.000000 0.224480 0.995086
0.000000 0.448960 0.995086
0.223353 0.447346 1.000000
0.502385 0.444439 1.000000
0.762453 0.444439 1.000000
1.000000 0.448960 0.995086
0.000000 0.752000 0.995086
0.223353 0.753718 1.000000
0.502019 0.752020 1.000000
0.757548 0.747086 1.000000
1.000000 0.752000 0.995086
0.000000 1.000000 0.995086
0.227874 1.000000 0.995086
0.506933 1.000000 0.995086
0.762056 1.000000 0.995086
1.000000 1.000000 0.995086
