docs/luts/fuji_recipes/Velvia_VM_Valvia_Fujipro_Color_Cast.cube
TITLE "Fujifilm Recipe: VM Valvia Fujipro Color Cast (Velvia)"
# FilmSim=Velvia HL=-2 SH=-1 Col=-4 WB=Auto WBR=-2 WBB=-3
LUT_3D_SIZE 9
DOMAIN_MIN 0.0 0.0 0.0
DOMAIN_MAX 1.0 1.0 1.0
0.040000 0.040000 0.040000
0.134663 0.093248 0.093248
0.222146 0.142457 0.142457
0.309628 0.191666 0.191666
0.388631 0.236105 0.236105
0.471453 0.282692 0.282692
0.554274 0.329279 0.329279
0.596938 0.353278 0.353278
0.596938 0.353278 0.353278
0.095125 0.138001 0.095125
0.136541 0.138001 0.095125
0.222146 0.185332 0.142457
0.309628 0.234541 0.191666
0.388631 0.278981 0.236105
0.471453 0.325568 0.282692
0.554274 0.372155 0.329279
0.596938 0.396153 0.353278
0.596938 0.396153 0.353278
0.146290 0.228960 0.146290
0.187705 0.228960 0.146290
0.225979 0.228960 0.146290
0.309628 0.274336 0.191666
0.388631 0.318775 0.236105
0.471453 0.365362 0.282692
0.554274 0.411950 0.329279
0.596938 0.435948 0.353278
0.596938 0.435948 0.353278
0.197455 0.319920 0.197455
0.238870 0.319920 0.197455
0.277144 0.319920 0.197455
0.315417 0.319920 0.197455
0.388631 0.358570 0.236105
0.471453 0.405157 0.282692
0.554274 0.451744 0.329279
0.596938 0.475743 0.353278
0.596938 0.475743 0.353278
0.243438 0.401667 0.243438
0.284853 0.401667 0.243438
0.323126 0.401667 0.243438
0.361400 0.401667 0.243438
0.395964 0.401667 0.243438
0.471453 0.440922 0.282692
0.554274 0.487509 0.329279
0.596938 0.511507 0.353278
0.596938 0.511507 0.353278
0.291876 0.487780 0.291876
0.333292 0.487780 0.291876
0.371565 0.487780 0.291876
0.409839 0.487780 0.291876
0.444403 0.487780 0.291876
0.480637 0.487780 0.291876
0.554274 0.525183 0.329279
0.596938 0.549181 0.353278
0.596938 0.549181 0.353278
0.340315 0.573894 0.340315
0.381730 0.573894 0.340315
0.420004 0.573894 0.340315
0.458278 0.573894 0.340315
0.492841 0.573894 0.340315
0.529076 0.573894 0.340315
0.565310 0.573894 0.340315
0.596938 0.586856 0.353278
0.596938 0.586856 0.353278
0.364000 0.616000 0.364000
0.405415 0.616000 0.364000
0.443689 0.616000 0.364000
0.481962 0.616000 0.364000
0.516526 0.616000 0.364000
0.552761 0.616000 0.364000
0.588995 0.616000 0.364000
0.607660 0.616000 0.364000
0.607660 0.616000 0.364000
0.364000 0.616000 0.364000
0.405415 0.616000 0.364000
0.443689 0.616000 0.364000
0.481962 0.616000 0.364000
0.516526 0.616000 0.364000
0.552761 0.616000 0.364000
0.588995 0.616000 0.364000
0.607660 0.616000 0.364000
0.607660 0.616000 0.364000
0.090408 0.090408 0.129614
0.134663 0.093248 0.132454
0.222146 0.142457 0.181663
0.309628 0.191666 0.230872
0.388631 0.236105 0.275312
0.471453 0.282692 0.321899
0.554274 0.329279 0.368486
0.596938 0.353278 0.392484
0.596938 0.353278 0.392484
0.095125 0.138001 0.134332
0.187050 0.188904 0.184245
0.278019 0.231266 0.226606
0.370668 0.275308 0.270648
0.452272 0.312283 0.307623
0.539413 0.352962 0.348302
0.626554 0.393641 0.388981
0.654711 0.436791 0.432819
0.654711 0.436791 0.432819
0.146290 0.228960 0.185497
0.232842 0.285236 0.230037
0.281450 0.285236 0.230037
0.370668 0.325847 0.270648
0.452272 0.362822 0.307623
0.539413 0.403501 0.348302
0.626554 0.444180 0.388981
0.654711 0.479870 0.432819
0.654711 0.479870 0.432819
0.197455 0.319920 0.236661
0.278635 0.381568 0.275830
0.327242 0.381568 0.275830
0.375850 0.381568 0.275830
0.452272 0.413362 0.307623
0.539413 0.454041 0.348302
0.626554 0.494720 0.388981
0.654711 0.522949 0.432819
0.654711 0.522949 0.432819
0.243438 0.401667 0.282644
0.316831 0.465987 0.314026
0.365438 0.465987 0.314026
0.414046 0.465987 0.314026
0.458744 0.465987 0.314026
0.539413 0.500638 0.348302
0.626554 0.541762 0.388981
0.654711 0.562230 0.432819
0.654711 0.562230 0.432819
0.291876 0.487780 0.331083
0.359127 0.556592 0.356321
0.407734 0.556592 0.356321
0.456342 0.556592 0.356321
0.501502 0.556592 0.356321
0.547520 0.556592 0.356321
0.626554 0.589609 0.388981
0.654711 0.603014 0.432819
0.654711 0.603014 0.432819
0.340315 0.573894 0.379522
0.410313 0.640570 0.407680
0.455929 0.640570 0.407680
0.501546 0.640570 0.407680
0.543968 0.640570 0.407680
0.587154 0.640570 0.407680
0.630340 0.640570 0.407680
0.654711 0.643797 0.432819
0.654711 0.643797 0.432819
0.364000 0.616000 0.403206
0.455823 0.666408 0.453614
0.494097 0.666408 0.453614
0.532370 0.666408 0.453614
0.566934 0.666408 0.453614
0.603169 0.666408 0.453614
0.639403 0.666408 0.453614
0.658068 0.666408 0.453614
0.658068 0.666408 0.453614
0.364000 0.616000 0.403206
0.455823 0.666408 0.453614
0.494097 0.666408 0.453614
0.532370 0.666408 0.453614
0.566934 0.666408 0.453614
0.603169 0.666408 0.453614
0.639403 0.666408 0.453614
0.658068 0.666408 0.453614
0.658068 0.666408 0.453614
0.137339 0.137339 0.213047
0.178754 0.137339 0.213047
0.222146 0.142457 0.218165
0.309628 0.191666 0.267374
0.388631 0.236105 0.311813
0.471453 0.282692 0.358400
0.554274 0.329279 0.404987
0.596938 0.353278 0.428986
0.596938 0.353278 0.428986
0.137339 0.180214 0.213047
0.227373 0.229227 0.270924
0.282241 0.235488 0.277185
0.374890 0.279530 0.321227
0.456588 0.316558 0.358255
0.543729 0.357237 0.398934
0.630871 0.397916 0.439613
0.659428 0.441206 0.476794
0.659428 0.441206 0.476794
0.146290 0.228960 0.221998
0.235384 0.287778 0.278936
0.323453 0.327239 0.318397
0.412671 0.367850 0.359008
0.495213 0.405353 0.396511
0.582355 0.446032 0.437190
0.669496 0.486711 0.477869
0.701642 0.523903 0.516252
0.701642 0.523903 0.516252
0.197455 0.319920 0.273163
0.281177 0.384110 0.324728
0.369245 0.423571 0.364190
0.417853 0.423571 0.364190
0.495213 0.455892 0.396511
0.582355 0.496571 0.437190
0.669496 0.537250 0.477869
0.701642 0.567633 0.516252
0.701642 0.567633 0.516252
0.243438 0.401667 0.319146
0.319404 0.468585 0.362956
0.407969 0.508928 0.402914
0.456577 0.508928 0.402914
0.501686 0.508928 0.402914
0.582355 0.543580 0.437190
0.669496 0.584703 0.477869
0.701642 0.607762 0.516252
0.701642 0.607762 0.516252
0.291876 0.487780 0.367584
0.361700 0.559190 0.405252
0.450265 0.599533 0.445209
0.498872 0.599533 0.445209
0.544444 0.599533 0.445209
0.590462 0.599533 0.445209
0.669496 0.632550 0.477869
0.701642 0.649162 0.516252
0.701642 0.649162 0.516252
0.340315 0.573894 0.416023
0.412729 0.643410 0.453671
0.496018 0.687501 0.491113
0.543184 0.687501 0.491113
0.587618 0.687501 0.491113
0.632270 0.687501 0.491113
0.676923 0.687501 0.491113
0.701642 0.690563 0.516252
0.701642 0.690563 0.516252
0.364000 0.616000 0.439708
0.458663 0.669248 0.492956
0.541028 0.713339 0.537047
0.579301 0.713339 0.537047
0.613865 0.713339 0.537047
0.650100 0.713339 0.537047
0.686334 0.713339 0.537047
0.704999 0.713339 0.537047
0.704999 0.713339 0.537047
0.364000 0.616000 0.439708
0.458663 0.669248 0.492956
0.541028 0.713339 0.537047
0.579301 0.713339 0.537047
0.613865 0.713339 0.537047
0.650100 0.713339 0.537047
0.686334 0.713339 0.537047
0.704999 0.713339 0.537047
0.704999 0.713339 0.537047
0.184270 0.184270 0.296479
0.225685 0.184270 0.296479
0.263958 0.184270 0.296479
0.309628 0.191666 0.303875
0.388631 0.236105 0.348315
0.471453 0.282692 0.394902
0.554274 0.329279 0.441489
0.596938 0.353278 0.465487
0.596938 0.353278 0.465487
0.184270 0.227145 0.296479
0.269376 0.271230 0.359284
0.319663 0.272910 0.360965
0.374890 0.279530 0.367584
0.456588 0.316558 0.404612
0.543729 0.357237 0.445291
0.630871 0.397916 0.485970
0.659428 0.441206 0.516358
0.659428 0.441206 0.516358
0.184270 0.266940 0.296479
0.269376 0.321769 0.359284
0.362025 0.365811 0.403326
0.420683 0.375862 0.413377
0.503404 0.413465 0.450980
0.590545 0.454144 0.491659
0.677687 0.494823 0.532338
0.710593 0.532165 0.564741
0.710593 0.532165 0.564741
0.197455 0.319920 0.309665
0.281177 0.384110 0.371086
0.373826 0.428152 0.415127
0.459856 0.465574 0.452550
0.538155 0.498423 0.485399
0.625296 0.539102 0.526078
0.712438 0.579781 0.566757
0.748572 0.611205 0.599684
0.748572 0.611205 0.599684
0.243438 0.401667 0.355647
0.319404 0.468585 0.409313
0.412607 0.513612 0.453909
0.499108 0.551870 0.491802
0.544627 0.551870 0.491802
0.625296 0.586521 0.526078
0.712438 0.627645 0.566757
0.748572 0.652602 0.599684
0.748572 0.652602 0.599684
0.291876 0.487780 0.404086
0.361700 0.559190 0.451609
0.454903 0.604217 0.496205
0.541403 0.642475 0.534097
0.587386 0.642475 0.534097
0.633403 0.642475 0.534097
0.712438 0.675492 0.566757
0.748572 0.694924 0.599684
0.748572 0.694924 0.599684
0.340315 0.573894 0.452525
0.412729 0.643410 0.497250
0.500212 0.692619 0.540466
0.583699 0.733080 0.576393
0.630144 0.733080 0.576393
0.676161 0.733080 0.576393
0.722179 0.733080 0.576393
0.748572 0.737247 0.599684
0.748572 0.737247 0.599684
0.364000 0.616000 0.476210
0.458663 0.669248 0.529458
0.546146 0.718457 0.578667
0.626232 0.760270 0.620479
0.660796 0.760270 0.620479
0.697030 0.760270 0.620479
0.733265 0.760270 0.620479
0.751930 0.760270 0.620479
0.751930 0.760270 0.620479
0.364000 0.616000 0.476210
0.458663 0.669248 0.529458
0.546146 0.718457 0.578667
0.626232 0.760270 0.620479
0.660796 0.760270 0.620479
0.697030 0.760270 0.620479
0.733265 0.760270 0.620479
0.751930 0.760270 0.620479
0.751930 0.760270 0.620479
0.226946 0.226946 0.372349
0.268361 0.226946 0.372349
0.306635 0.226946 0.372349
0.344908 0.226946 0.372349
0.388631 0.236105 0.381508
0.471453 0.282692 0.428095
0.554274 0.329279 0.474682
0.596938 0.353278 0.498680
0.596938 0.353278 0.498680
0.226946 0.269821 0.372349
0.305004 0.306859 0.437738
0.355313 0.308560 0.439456
0.403921 0.308560 0.439456
0.456588 0.316558 0.447541
0.543729 0.357237 0.488665
0.630871 0.397916 0.529788
0.659428 0.441206 0.552925
0.659428 0.441206 0.552925
0.226946 0.309616 0.372349
0.305004 0.357398 0.437738
0.398207 0.401994 0.482764
0.450289 0.405468 0.486272
0.503404 0.413465 0.494357
0.590545 0.454144 0.535480
0.677687 0.494823 0.576604
0.710593 0.532165 0.602236
0.710593 0.532165 0.602236
0.226946 0.349411 0.372349
0.305004 0.407938 0.437738
0.398207 0.452533 0.482764
0.491410 0.497129 0.527790
0.550219 0.510373 0.541172
0.637361 0.551052 0.582296
0.724502 0.591731 0.623420
0.761758 0.623125 0.650472
0.761758 0.623125 0.650472
0.243438 0.401667 0.388840
0.319404 0.468585 0.452296
0.412607 0.513612 0.497322
0.505810 0.558638 0.542348
0.583102 0.590345 0.574055
0.664252 0.625478 0.609188
0.751966 0.667173 0.650883
0.792224 0.692291 0.677287
0.792224 0.692291 0.677287
0.291876 0.487780 0.437279
0.361700 0.559190 0.495054
0.454903 0.604217 0.540080
0.548106 0.649243 0.585106
0.626455 0.681544 0.617407
0.672472 0.681544 0.617407
0.751966 0.715020 0.650883
0.792224 0.736361 0.677287
0.792224 0.736361 0.677287
0.340315 0.573894 0.485718
0.412729 0.643410 0.538137
0.500212 0.692619 0.583474
0.590402 0.739848 0.627864
0.669807 0.772744 0.660760
0.715825 0.772744 0.660760
0.761843 0.772744 0.660760
0.792224 0.780430 0.677287
0.792224 0.780430 0.677287
0.364000 0.616000 0.509403
0.458663 0.669248 0.562651
0.546146 0.718457 0.611860
0.633628 0.767666 0.661068
0.703472 0.802946 0.696349
0.739707 0.802946 0.696349
0.775941 0.802946 0.696349
0.794606 0.802946 0.696349
0.794606 0.802946 0.696349
0.364000 0.616000 0.509403
0.458663 0.669248 0.562651
0.546146 0.718457 0.611860
0.633628 0.767666 0.661068
0.703472 0.802946 0.696349
0.739707 0.802946 0.696349
0.775941 0.802946 0.696349
0.794606 0.802946 0.696349
0.794606 0.802946 0.696349
0.271376 0.271376 0.451336
0.312792 0.271376 0.451336
0.351065 0.271376 0.451336
0.389339 0.271376 0.451336
0.423903 0.271376 0.451336
0.471453 0.282692 0.462652
0.554274 0.329279 0.509239
0.596938 0.353278 0.533237
0.596938 0.353278 0.533237
0.271376 0.314252 0.451336
0.343800 0.345655 0.520845
0.394109 0.347356 0.522563
0.442716 0.347356 0.522563
0.487723 0.347356 0.522563
0.543729 0.357237 0.532552
0.630871 0.397916 0.573675
0.659428 0.441206 0.590382
0.659428 0.441206 0.590382
0.271376 0.354047 0.451336
0.343800 0.396194 0.520845
0.437003 0.440790 0.565871
0.489084 0.444263 0.569379
0.534539 0.444263 0.569379
0.590545 0.454144 0.579368
0.677687 0.494823 0.620491
0.710593 0.532165 0.640345
0.710593 0.532165 0.640345
0.271376 0.393841 0.451336
0.343800 0.446733 0.520845
0.437003 0.491329 0.565871
0.530206 0.535925 0.610897
0.581354 0.541171 0.616194
0.637361 0.551052 0.626183
0.724502 0.591731 0.667307
0.761758 0.623125 0.689611
0.761758 0.623125 0.689611
0.271376 0.429606 0.451336
0.343800 0.493248 0.520845
0.437003 0.538274 0.565871
0.530206 0.583300 0.610897
0.616304 0.623547 0.651145
0.679012 0.640237 0.667835
0.766726 0.681933 0.709530
0.808715 0.706605 0.732577
0.808715 0.706605 0.732577
0.291876 0.487780 0.471836
0.361700 0.559190 0.538941
0.454903 0.604217 0.583967
0.548106 0.649243 0.628993
0.634652 0.689741 0.669492
0.712237 0.721309 0.701060
0.791731 0.754785 0.734535
0.836654 0.776393 0.756274
0.836654 0.776393 0.756274
0.340315 0.573894 0.520275
0.412729 0.643410 0.579395
0.500212 0.692619 0.626249
0.590402 0.739848 0.671752
0.678005 0.780941 0.712845
0.755590 0.812509 0.744412
0.801608 0.812509 0.744412
0.836654 0.823932 0.756274
0.836654 0.823932 0.756274
0.364000 0.616000 0.543959
0.458663 0.669248 0.597208
0.546146 0.718457 0.646416
0.633628 0.767666 0.695625
0.712631 0.812105 0.740065
0.784137 0.847376 0.775336
0.820372 0.847376 0.775336
0.839037 0.847376 0.775336
0.839037 0.847376 0.775336
0.364000 0.616000 0.543959
0.458663 0.669248 0.597208
0.546146 0.718457 0.646416
0.633628 0.767666 0.695625
0.712631 0.812105 0.740065
0.784137 0.847376 0.775336
0.820372 0.847376 0.775336
0.839037 0.847376 0.775336
0.839037 0.847376 0.775336
0.315807 0.315807 0.530323
0.357222 0.315807 0.530323
0.395495 0.315807 0.530323
0.433769 0.315807 0.530323
0.468333 0.315807 0.530323
0.504567 0.315807 0.530323
0.554274 0.329279 0.543796
0.596938 0.353278 0.567794
0.596938 0.353278 0.567794
0.315807 0.358682 0.530323
0.382596 0.384450 0.603952
0.432905 0.386152 0.605670
0.481512 0.386152 0.605670
0.526943 0.386152 0.605670
0.572960 0.386152 0.605670
0.630871 0.397916 0.617563
0.659428 0.441206 0.627839
0.659428 0.441206 0.627839
0.315807 0.398477 0.530323
0.382596 0.434990 0.603952
0.475799 0.479585 0.648978
0.527880 0.483059 0.652486
0.573758 0.483059 0.652486
0.619776 0.483059 0.652486
0.677687 0.494823 0.664379
0.710593 0.532165 0.678454
0.710593 0.532165 0.678454
0.315807 0.438272 0.530323
0.382596 0.485529 0.603952
0.475799 0.530125 0.648978
0.569002 0.574720 0.694004
0.620574 0.579967 0.699302
0.666592 0.579967 0.699302
0.724502 0.591731 0.711194
0.761758 0.623125 0.728750
0.761758 0.623125 0.728750
0.315807 0.474036 0.530323
0.382596 0.532468 0.603952
0.475799 0.577494 0.648978
0.569002 0.622520 0.694004
0.656070 0.663312 0.734797
0.708650 0.669875 0.741359
0.766726 0.681933 0.753417
0.808715 0.706605 0.773881
0.808715 0.706605 0.773881
0.315807 0.511711 0.530323
0.382596 0.580314 0.603952
0.475799 0.625341 0.648978
0.569002 0.670367 0.694004
0.656070 0.711159 0.734797
0.743783 0.752855 0.776492
0.810078 0.773132 0.796770
0.855261 0.794611 0.818249
0.855261 0.794611 0.818249
0.340315 0.573894 0.554832
0.412729 0.643410 0.620652
0.500212 0.692619 0.669024
0.590402 0.739848 0.715639
0.678005 0.780941 0.756732
0.765718 0.822636 0.798427
0.841373 0.852274 0.828065
0.876679 0.863875 0.839666
0.876679 0.863875 0.839666
0.364000 0.616000 0.578516
0.458663 0.669248 0.631764
0.546146 0.718457 0.680973
0.633628 0.767666 0.730182
0.712631 0.812105 0.774622
0.795453 0.858692 0.821209
0.864802 0.891807 0.854323
0.883467 0.891807 0.854323
0.883467 0.891807 0.854323
0.364000 0.616000 0.578516
0.458663 0.669248 0.631764
0.546146 0.718457 0.680973
0.633628 0.767666 0.730182
0.712631 0.812105 0.774622
0.795453 0.858692 0.821209
0.864802 0.891807 0.854323
0.883467 0.891807 0.854323
0.883467 0.891807 0.854323
0.338694 0.338694 0.571011
0.380109 0.338694 0.571011
0.418383 0.338694 0.571011
0.456656 0.338694 0.571011
0.491220 0.338694 0.571011
0.527455 0.338694 0.571011
0.563689 0.338694 0.571011
0.596938 0.353278 0.585595
0.596938 0.353278 0.585595
0.338694 0.381569 0.571011
0.409585 0.411349 0.641641
0.457468 0.412922 0.643519
0.503781 0.412922 0.643519
0.546968 0.412922 0.643519
0.590813 0.412922 0.643519
0.634658 0.412922 0.643519
0.659428 0.441206 0.647134
0.659428 0.441206 0.647134
0.338694 0.421364 0.571011
0.409585 0.459444 0.641641
0.497067 0.500812 0.690850
0.548378 0.503882 0.694684
0.594082 0.503882 0.694684
0.639767 0.503882 0.694684
0.685451 0.503882 0.694684
0.710593 0.532165 0.698084
0.710593 0.532165 0.698084
0.338694 0.461159 0.571011
0.409585 0.507538 0.641641
0.497067 0.550801 0.690850
0.588986 0.594705 0.736815
0.640777 0.599951 0.742112
0.686795 0.599951 0.742112
0.732813 0.599951 0.742112
0.761758 0.623125 0.748911
0.761758 0.623125 0.748911
0.338694 0.496923 0.571011
0.409585 0.552102 0.641641
0.497067 0.597783 0.690850
0.588986 0.642723 0.736815
0.676554 0.683796 0.777888
0.729134 0.690359 0.784451
0.775151 0.690359 0.784451
0.808715 0.706605 0.795158
0.808715 0.706605 0.795158
0.338694 0.534598 0.571011
0.409585 0.597634 0.641641
0.497067 0.645109 0.690850
0.588986 0.690570 0.736815
0.676554 0.731643 0.777888
0.764267 0.773339 0.819584
0.818504 0.781558 0.827804
0.855261 0.794611 0.840856
0.855261 0.794611 0.840856
0.340315 0.573894 0.572633
0.412729 0.643410 0.641905
0.500212 0.692619 0.691058
0.590402 0.739848 0.738246
0.678005 0.780941 0.779339
0.765718 0.822636 0.821035
0.853431 0.864332 0.862730
0.897163 0.884359 0.882758
0.897163 0.884359 0.882758
0.364000 0.616000 0.596317
0.458663 0.669248 0.649566
0.546146 0.718457 0.698774
0.633628 0.767666 0.747983
0.712631 0.812105 0.792423
0.795453 0.858692 0.839010
0.878274 0.905279 0.885597
0.906354 0.914694 0.895011
0.906354 0.914694 0.895011
0.364000 0.616000 0.596317
0.458663 0.669248 0.649566
0.546146 0.718457 0.698774
0.633628 0.767666 0.747983
0.712631 0.812105 0.792423
0.795453 0.858692 0.839010
0.878274 0.905279 0.885597
0.906354 0.914694 0.895011
0.906354 0.914694 0.895011
0.338694 0.338694 0.571011
0.380109 0.338694 0.571011
0.418383 0.338694 0.571011
0.456656 0.338694 0.571011
0.491220 0.338694 0.571011
0.527455 0.338694 0.571011
0.563689 0.338694 0.571011
0.596938 0.353278 0.585595
0.596938 0.353278 0.585595
0.338694 0.381569 0.571011
0.409585 0.411349 0.641641
0.457468 0.412922 0.643519
0.503781 0.412922 0.643519
0.546968 0.412922 0.643519
0.590813 0.412922 0.643519
0.634658 0.412922 0.643519
0.659428 0.441206 0.647134
0.659428 0.441206 0.647134
0.338694 0.421364 0.571011
0.409585 0.459444 0.641641
0.497067 0.500812 0.690850
0.548378 0.503882 0.694684
0.594082 0.503882 0.694684
0.639767 0.503882 0.694684
0.685451 0.503882 0.694684
0.710593 0.532165 0.698084
0.710593 0.532165 0.698084
0.338694 0.461159 0.571011
0.409585 0.507538 0.641641
0.497067 0.550801 0.690850
0.588986 0.594705 0.736815
0.640777 0.599951 0.742112
0.686795 0.599951 0.742112
0.732813 0.599951 0.742112
0.761758 0.623125 0.748911
0.761758 0.623125 0.748911
0.338694 0.496923 0.571011
0.409585 0.552102 0.641641
0.497067 0.597783 0.690850
0.588986 0.642723 0.736815
0.676554 0.683796 0.777888
0.729134 0.690359 0.784451
0.775151 0.690359 0.784451
0.808715 0.706605 0.795158
0.808715 0.706605 0.795158
0.338694 0.534598 0.571011
0.409585 0.597634 0.641641
0.497067 0.645109 0.690850
0.588986 0.690570 0.736815
0.676554 0.731643 0.777888
0.764267 0.773339 0.819584
0.818504 0.781558 0.827804
0.855261 0.794611 0.840856
0.855261 0.794611 0.840856
0.340315 0.573894 0.572633
0.412729 0.643410 0.641905
0.500212 0.692619 0.691058
0.590402 0.739848 0.738246
0.678005 0.780941 0.779339
0.765718 0.822636 0.821035
0.853431 0.864332 0.862730
0.897163 0.884359 0.882758
0.897163 0.884359 0.882758
0.364000 0.616000 0.596317
0.458663 0.669248 0.649566
0.546146 0.718457 0.698774
0.633628 0.767666 0.747983
0.712631 0.812105 0.792423
0.795453 0.858692 0.839010
0.878274 0.905279 0.885597
0.906354 0.914694 0.895011
0.906354 0.914694 0.895011
0.364000 0.616000 0.596317
0.458663 0.669248 0.649566
0.546146 0.718457 0.698774
0.633628 0.767666 0.747983
0.712631 0.812105 0.792423
0.795453 0.858692 0.839010
0.878274 0.905279 0.885597
0.906354 0.914694 0.895011
0.906354 0.914694 0.895011
