docs/luts/fuji_recipes/Velvia_RR_Lomography_Color_100.cube
TITLE "Fujifilm Recipe: RR Lomography Color 100 (Velvia)"
# FilmSim=Velvia HL=1 SH=1 Col=-3 WB=Shade WBR=-3 WBB=7
LUT_3D_SIZE 33
DOMAIN_MIN 0.0 0.0 0.0
DOMAIN_MAX 1.0 1.0 1.0
0.000000 0.000000 0.000000
0.029113 0.010028 0.010028
0.052555 0.018102 0.018102
0.075606 0.026042 0.026042
0.098657 0.033982 0.033982
0.121708 0.041922 0.041922
0.144759 0.049862 0.049862
0.167810 0.057802 0.057802
0.190861 0.065741 0.065741
0.213912 0.073681 0.073681
0.236962 0.081621 0.081621
0.260013 0.089561 0.089561
0.283064 0.097501 0.097501
0.306115 0.105441 0.105441
0.329166 0.113380 0.113380
0.376770 0.129777 0.129777
0.402561 0.138661 0.138661
0.428351 0.147544 0.147544
0.454142 0.156428 0.156428
0.479932 0.165311 0.165311
0.505723 0.174195 0.174195
0.531513 0.183078 0.183078
0.557304 0.191962 0.191962
0.583095 0.200845 0.200845
0.608885 0.209729 0.209729
0.634676 0.218612 0.218612
0.660466 0.227496 0.227496
0.686257 0.236379 0.236379
0.686530 0.236473 0.236473
0.686530 0.236473 0.236473
0.686530 0.236473 0.236473
0.686530 0.236473 0.236473
0.686530 0.236473 0.236473
0.009083 0.026368 0.009083
0.029113 0.027314 0.010028
0.052555 0.035388 0.018102
0.075606 0.043328 0.026042
0.098657 0.051268 0.033982
0.121708 0.059208 0.041922
0.144759 0.067148 0.049862
0.167810 0.075087 0.057802
0.190861 0.083027 0.065741
0.213912 0.090967 0.073681
0.236962 0.098907 0.081621
0.260013 0.106847 0.089561
0.283064 0.114787 0.097501
0.306115 0.122726 0.105441
0.329166 0.130666 0.113380
0.376770 0.147063 0.129777
0.402561 0.155947 0.138661
0.428351 0.164830 0.147544
0.454142 0.173714 0.156428
0.479932 0.182597 0.165311
0.505723 0.191481 0.174195
0.531513 0.200364 0.183078
0.557304 0.209248 0.191962
0.583095 0.218131 0.200845
0.608885 0.227015 0.209729
0.634676 0.235898 0.218612
0.660466 0.244782 0.227496
0.686257 0.253665 0.236379
0.686530 0.253759 0.236473
0.686530 0.253759 0.236473
0.686530 0.253759 0.236473
0.686530 0.253759 0.236473
0.686530 0.253759 0.236473
0.017168 0.049841 0.017168
0.036253 0.049841 0.017168
0.052555 0.050776 0.018102
0.075606 0.058716 0.026042
0.098657 0.066656 0.033982
0.121708 0.074595 0.041922
0.144759 0.082535 0.049862
0.167810 0.090475 0.057802
0.190861 0.098415 0.065741
0.213912 0.106355 0.073681
0.236962 0.114295 0.081621
0.260013 0.122234 0.089561
0.283064 0.130174 0.097501
0.306115 0.138114 0.105441
0.329166 0.146054 0.113380
0.376770 0.162451 0.129777
0.402561 0.171334 0.138661
0.428351 0.180218 0.147544
0.454142 0.189101 0.156428
0.479932 0.197985 0.165311
0.505723 0.206868 0.174195
0.531513 0.215752 0.183078
0.557304 0.224635 0.191962
0.583095 0.233519 0.200845
0.608885 0.242402 0.209729
0.634676 0.251286 0.218612
0.660466 0.260169 0.227496
0.686257 0.269053 0.236379
0.686530 0.269147 0.236473
0.686530 0.269147 0.236473
0.686530 0.269147 0.236473
0.686530 0.269147 0.236473
0.686530 0.269147 0.236473
0.025116 0.072916 0.025116
0.044201 0.072916 0.025116
0.059568 0.072916 0.025116
0.075606 0.073842 0.026042
0.098657 0.081782 0.033982
0.121708 0.089722 0.041922
0.144759 0.097662 0.049862
0.167810 0.105602 0.057802
0.190861 0.113542 0.065741
0.213912 0.121481 0.073681
0.236962 0.129421 0.081621
0.260013 0.137361 0.089561
0.283064 0.145301 0.097501
0.306115 0.153241 0.105441
0.329166 0.161181 0.113380
0.376770 0.177578 0.129777
0.402561 0.186461 0.138661
0.428351 0.195345 0.147544
0.454142 0.204228 0.156428
0.479932 0.213112 0.165311
0.505723 0.221995 0.174195
0.531513 0.230879 0.183078
0.557304 0.239762 0.191962
0.583095 0.248646 0.200845
0.608885 0.257529 0.209729
0.634676 0.266413 0.218612
0.660466 0.275296 0.227496
0.686257 0.284180 0.236379
0.686530 0.284274 0.236473
0.686530 0.284274 0.236473
0.686530 0.284274 0.236473
0.686530 0.284274 0.236473
0.686530 0.284274 0.236473
0.033064 0.095991 0.033064
0.052149 0.095991 0.033064
0.067516 0.095991 0.033064
0.082627 0.095991 0.033064
0.098657 0.096909 0.033982
0.121708 0.104849 0.041922
0.144759 0.112789 0.049862
0.167810 0.120728 0.057802
0.190861 0.128668 0.065741
0.213912 0.136608 0.073681
0.236962 0.144548 0.081621
0.260013 0.152488 0.089561
0.283064 0.160428 0.097501
0.306115 0.168367 0.105441
0.329166 0.176307 0.113380
0.376770 0.192704 0.129777
0.402561 0.201588 0.138661
0.428351 0.210471 0.147544
0.454142 0.219355 0.156428
0.479932 0.228238 0.165311
0.505723 0.237122 0.174195
0.531513 0.246005 0.183078
0.557304 0.254889 0.191962
0.583095 0.263772 0.200845
0.608885 0.272656 0.209729
0.634676 0.281539 0.218612
0.660466 0.290423 0.227496
0.686257 0.299306 0.236379
0.686530 0.299400 0.236473
0.686530 0.299400 0.236473
0.686530 0.299400 0.236473
0.686530 0.299400 0.236473
0.686530 0.299400 0.236473
0.041012 0.119065 0.041012
0.060097 0.119065 0.041012
0.075464 0.119065 0.041012
0.090575 0.119065 0.041012
0.105687 0.119065 0.041012
0.121708 0.119975 0.041922
0.144759 0.127915 0.049862
0.167810 0.135855 0.057802
0.190861 0.143795 0.065741
0.213912 0.151735 0.073681
0.236962 0.159675 0.081621
0.260013 0.167614 0.089561
0.283064 0.175554 0.097501
0.306115 0.183494 0.105441
0.329166 0.191434 0.113380
0.376770 0.207831 0.129777
0.402561 0.216714 0.138661
0.428351 0.225598 0.147544
0.454142 0.234481 0.156428
0.479932 0.243365 0.165311
0.505723 0.252248 0.174195
0.531513 0.261132 0.183078
0.557304 0.270015 0.191962
0.583095 0.278899 0.200845
0.608885 0.287782 0.209729
0.634676 0.296666 0.218612
0.660466 0.305549 0.227496
0.686257 0.314433 0.236379
0.686530 0.314527 0.236473
0.686530 0.314527 0.236473
0.686530 0.314527 0.236473
0.686530 0.314527 0.236473
0.686530 0.314527 0.236473
0.048960 0.142140 0.048960
0.068045 0.142140 0.048960
0.083412 0.142140 0.048960
0.098523 0.142140 0.048960
0.113635 0.142140 0.048960
0.128746 0.142140 0.048960
0.144759 0.143042 0.049862
0.167810 0.150982 0.057802
0.190861 0.158922 0.065741
0.213912 0.166861 0.073681
0.236962 0.174801 0.081621
0.260013 0.182741 0.089561
0.283064 0.190681 0.097501
0.306115 0.198621 0.105441
0.329166 0.206561 0.113380
0.376770 0.222958 0.129777
0.402561 0.231841 0.138661
0.428351 0.240725 0.147544
0.454142 0.249608 0.156428
0.479932 0.258492 0.165311
0.505723 0.267375 0.174195
0.531513 0.276259 0.183078
0.557304 0.285142 0.191962
0.583095 0.294026 0.200845
0.608885 0.302909 0.209729
0.634676 0.311793 0.218612
0.660466 0.320676 0.227496
0.686257 0.329560 0.236379
0.686530 0.329654 0.236473
0.686530 0.329654 0.236473
0.686530 0.329654 0.236473
0.686530 0.329654 0.236473
0.686530 0.329654 0.236473
0.056908 0.165214 0.056908
0.075993 0.165214 0.056908
0.091360 0.165214 0.056908
0.106471 0.165214 0.056908
0.121583 0.165214 0.056908
0.136694 0.165214 0.056908
0.151805 0.165214 0.056908
0.167810 0.166108 0.057802
0.190861 0.174048 0.065741
0.213912 0.181988 0.073681
0.236962 0.189928 0.081621
0.260013 0.197868 0.089561
0.283064 0.205808 0.097501
0.306115 0.213747 0.105441
0.329166 0.221687 0.113380
0.376770 0.238084 0.129777
0.402561 0.246968 0.138661
0.428351 0.255851 0.147544
0.454142 0.264735 0.156428
0.479932 0.273618 0.165311
0.505723 0.282502 0.174195
0.531513 0.291385 0.183078
0.557304 0.300269 0.191962
0.583095 0.309152 0.200845
0.608885 0.318036 0.209729
0.634676 0.326919 0.218612
0.660466 0.335803 0.227496
0.686257 0.344686 0.236379
0.686530 0.344780 0.236473
0.686530 0.344780 0.236473
0.686530 0.344780 0.236473
0.686530 0.344780 0.236473
0.686530 0.344780 0.236473
0.064856 0.188289 0.064856
0.083941 0.188289 0.064856
0.099308 0.188289 0.064856
0.114419 0.188289 0.064856
0.129531 0.188289 0.064856
0.144642 0.188289 0.064856
0.159753 0.188289 0.064856
0.174864 0.188289 0.064856
0.190861 0.189175 0.065741
0.213912 0.197115 0.073681
0.236962 0.205055 0.081621
0.260013 0.212994 0.089561
0.283064 0.220934 0.097501
0.306115 0.228874 0.105441
0.329166 0.236814 0.113380
0.376770 0.253211 0.129777
0.402561 0.262094 0.138661
0.428351 0.270978 0.147544
0.454142 0.279861 0.156428
0.479932 0.288745 0.165311
0.505723 0.297628 0.174195
0.531513 0.306512 0.183078
0.557304 0.315395 0.191962
0.583095 0.324279 0.200845
0.608885 0.333162 0.209729
0.634676 0.342046 0.218612
0.660466 0.350929 0.227496
0.686257 0.359813 0.236379
0.686530 0.359907 0.236473
0.686530 0.359907 0.236473
0.686530 0.359907 0.236473
0.686530 0.359907 0.236473
0.686530 0.359907 0.236473
0.072804 0.211364 0.072804
0.091889 0.211364 0.072804
0.107256 0.211364 0.072804
0.122367 0.211364 0.072804
0.137479 0.211364 0.072804
0.152590 0.211364 0.072804
0.167701 0.211364 0.072804
0.182812 0.211364 0.072804
0.197923 0.211364 0.072804
0.213912 0.212241 0.073681
0.236962 0.220181 0.081621
0.260013 0.228121 0.089561
0.283064 0.236061 0.097501
0.306115 0.244001 0.105441
0.329166 0.251941 0.113380
0.376770 0.268338 0.129777
0.402561 0.277221 0.138661
0.428351 0.286105 0.147544
0.454142 0.294988 0.156428
0.479932 0.303872 0.165311
0.505723 0.312755 0.174195
0.531513 0.321639 0.183078
0.557304 0.330522 0.191962
0.583095 0.339406 0.200845
0.608885 0.348289 0.209729
0.634676 0.357172 0.218612
0.660466 0.366056 0.227496
0.686257 0.374939 0.236379
0.686530 0.375033 0.236473
0.686530 0.375033 0.236473
0.686530 0.375033 0.236473
0.686530 0.375033 0.236473
0.686530 0.375033 0.236473
0.080752 0.234438 0.080752
0.099837 0.234438 0.080752
0.115204 0.234438 0.080752
0.130315 0.234438 0.080752
0.145427 0.234438 0.080752
0.160538 0.234438 0.080752
0.175649 0.234438 0.080752
0.190760 0.234438 0.080752
0.205871 0.234438 0.080752
0.220982 0.234438 0.080752
0.236962 0.235308 0.081621
0.260013 0.243248 0.089561
0.283064 0.251188 0.097501
0.306115 0.259127 0.105441
0.329166 0.267067 0.113380
0.376770 0.283464 0.129777
0.402561 0.292348 0.138661
0.428351 0.301231 0.147544
0.454142 0.310115 0.156428
0.479932 0.318998 0.165311
0.505723 0.327882 0.174195
0.531513 0.336765 0.183078
0.557304 0.345649 0.191962
0.583095 0.354532 0.200845
0.608885 0.363416 0.209729
0.634676 0.372299 0.218612
0.660466 0.381183 0.227496
0.686257 0.390066 0.236379
0.686530 0.390160 0.236473
0.686530 0.390160 0.236473
0.686530 0.390160 0.236473
0.686530 0.390160 0.236473
0.686530 0.390160 0.236473
0.088700 0.257513 0.088700
0.107785 0.257513 0.088700
0.123152 0.257513 0.088700
0.138263 0.257513 0.088700
0.153375 0.257513 0.088700
0.168486 0.257513 0.088700
0.183597 0.257513 0.088700
0.198708 0.257513 0.088700
0.213819 0.257513 0.088700
0.228930 0.257513 0.088700
0.244041 0.257513 0.088700
0.260013 0.258374 0.089561
0.283064 0.266314 0.097501
0.306115 0.274254 0.105441
0.329166 0.282194 0.113380
0.376770 0.298591 0.129777
0.402561 0.307474 0.138661
0.428351 0.316358 0.147544
0.454142 0.325241 0.156428
0.479932 0.334125 0.165311
0.505723 0.343008 0.174195
0.531513 0.351892 0.183078
0.557304 0.360775 0.191962
0.583095 0.369659 0.200845
0.608885 0.378542 0.209729
0.634676 0.387426 0.218612
0.660466 0.396309 0.227496
0.686257 0.405193 0.236379
0.686530 0.405287 0.236473
0.686530 0.405287 0.236473
0.686530 0.405287 0.236473
0.686530 0.405287 0.236473
0.686530 0.405287 0.236473
0.096648 0.280588 0.096648
0.115733 0.280588 0.096648
0.131100 0.280588 0.096648
0.146212 0.280588 0.096648
0.161323 0.280588 0.096648
0.176434 0.280588 0.096648
0.191545 0.280588 0.096648
0.206656 0.280588 0.096648
0.221767 0.280588 0.096648
0.236878 0.280588 0.096648
0.251989 0.280588 0.096648
0.267100 0.280588 0.096648
0.283064 0.281441 0.097501
0.306115 0.289381 0.105441
0.329166 0.297320 0.113380
0.376770 0.313718 0.129777
0.402561 0.322601 0.138661
0.428351 0.331484 0.147544
0.454142 0.340368 0.156428
0.479932 0.349251 0.165311
0.505723 0.358135 0.174195
0.531513 0.367018 0.183078
0.557304 0.375902 0.191962
0.583095 0.384785 0.200845
0.608885 0.393669 0.209729
0.634676 0.402552 0.218612
0.660466 0.411436 0.227496
0.686257 0.420319 0.236379
0.686530 0.420413 0.236473
0.686530 0.420413 0.236473
0.686530 0.420413 0.236473
0.686530 0.420413 0.236473
0.686530 0.420413 0.236473
0.104596 0.303662 0.104596
0.123681 0.303662 0.104596
0.139048 0.303662 0.104596
0.154160 0.303662 0.104596
0.169271 0.303662 0.104596
0.184382 0.303662 0.104596
0.199493 0.303662 0.104596
0.214604 0.303662 0.104596
0.229715 0.303662 0.104596
0.244826 0.303662 0.104596
0.259937 0.303662 0.104596
0.275048 0.303662 0.104596
0.290159 0.303662 0.104596
0.306115 0.304507 0.105441
0.329166 0.312447 0.113380
0.376770 0.328844 0.129777
0.402561 0.337728 0.138661
0.428351 0.346611 0.147544
0.454142 0.355495 0.156428
0.479932 0.364378 0.165311
0.505723 0.373262 0.174195
0.531513 0.382145 0.183078
0.557304 0.391029 0.191962
0.583095 0.399912 0.200845
0.608885 0.408796 0.209729
0.634676 0.417679 0.218612
0.660466 0.426563 0.227496
0.686257 0.435446 0.236379
0.686530 0.435540 0.236473
0.686530 0.435540 0.236473
0.686530 0.435540 0.236473
0.686530 0.435540 0.236473
0.686530 0.435540 0.236473
0.112544 0.326737 0.112544
0.131629 0.326737 0.112544
0.146996 0.326737 0.112544
0.162108 0.326737 0.112544
0.177219 0.326737 0.112544
0.192330 0.326737 0.112544
0.207441 0.326737 0.112544
0.222552 0.326737 0.112544
0.237663 0.326737 0.112544
0.252774 0.326737 0.112544
0.267885 0.326737 0.112544
0.282996 0.326737 0.112544
0.298107 0.326737 0.112544
0.313218 0.326737 0.112544
0.329166 0.327574 0.113380
0.376770 0.343971 0.129777
0.402561 0.352854 0.138661
0.428351 0.361738 0.147544
0.454142 0.370621 0.156428
0.479932 0.379505 0.165311
0.505723 0.388388 0.174195
0.531513 0.397272 0.183078
0.557304 0.406155 0.191962
0.583095 0.415039 0.200845
0.608885 0.423922 0.209729
0.634676 0.432806 0.218612
0.660466 0.441689 0.227496
0.686257 0.450573 0.236379
0.686530 0.450667 0.236473
0.686530 0.450667 0.236473
0.686530 0.450667 0.236473
0.686530 0.450667 0.236473
0.686530 0.450667 0.236473
0.128851 0.374079 0.128851
0.147936 0.374079 0.128851
0.163303 0.374079 0.128851
0.178414 0.374079 0.128851
0.193525 0.374079 0.128851
0.208636 0.374079 0.128851
0.223748 0.374079 0.128851
0.238859 0.374079 0.128851
0.253970 0.374079 0.128851
0.269081 0.374079 0.128851
0.284192 0.374079 0.128851
0.299303 0.374079 0.128851
0.314414 0.374079 0.128851
0.329525 0.374079 0.128851
0.344636 0.374079 0.128851
0.376770 0.375006 0.129777
0.402561 0.383889 0.138661
0.428351 0.392773 0.147544
0.454142 0.401656 0.156428
0.479932 0.410540 0.165311
0.505723 0.419423 0.174195
0.531513 0.428307 0.183078
0.557304 0.437190 0.191962
0.583095 0.446074 0.200845
0.608885 0.454957 0.209729
0.634676 0.463841 0.218612
0.660466 0.472724 0.227496
0.686257 0.481608 0.236379
0.686530 0.481702 0.236473
0.686530 0.481702 0.236473
0.686530 0.481702 0.236473
0.686530 0.481702 0.236473
0.686530 0.481702 0.236473
0.137743 0.399896 0.137743
0.156828 0.399896 0.137743
0.172196 0.399896 0.137743
0.187307 0.399896 0.137743
0.202418 0.399896 0.137743
0.217529 0.399896 0.137743
0.232640 0.399896 0.137743
0.247751 0.399896 0.137743
0.262862 0.399896 0.137743
0.277973 0.399896 0.137743
0.293085 0.399896 0.137743
0.308196 0.399896 0.137743
0.323307 0.399896 0.137743
0.338418 0.399896 0.137743
0.353529 0.399896 0.137743
0.384736 0.399896 0.137743
0.402561 0.400814 0.138661
0.428351 0.409697 0.147544
0.454142 0.418581 0.156428
0.479932 0.427464 0.165311
0.505723 0.436348 0.174195
0.531513 0.445231 0.183078
0.557304 0.454115 0.191962
0.583095 0.462998 0.200845
0.608885 0.471882 0.209729
0.634676 0.480765 0.218612
0.660466 0.489649 0.227496
0.686257 0.498532 0.236379
0.686530 0.498626 0.236473
0.686530 0.498626 0.236473
0.686530 0.498626 0.236473
0.686530 0.498626 0.236473
0.686530 0.498626 0.236473
0.146636 0.425713 0.146636
0.165721 0.425713 0.146636
0.181088 0.425713 0.146636
0.196200 0.425713 0.146636
0.211311 0.425713 0.146636
0.226422 0.425713 0.146636
0.241533 0.425713 0.146636
0.256644 0.425713 0.146636
0.271755 0.425713 0.146636
0.286866 0.425713 0.146636
0.301977 0.425713 0.146636
0.317088 0.425713 0.146636
0.332199 0.425713 0.146636
0.347310 0.425713 0.146636
0.362421 0.425713 0.146636
0.393628 0.425713 0.146636
0.410535 0.425713 0.146636
0.428351 0.426622 0.147544
0.454142 0.435505 0.156428
0.479932 0.444389 0.165311
0.505723 0.453272 0.174195
0.531513 0.462156 0.183078
0.557304 0.471039 0.191962
0.583095 0.479923 0.200845
0.608885 0.488806 0.209729
0.634676 0.497690 0.218612
0.660466 0.506573 0.227496
0.686257 0.515457 0.236379
0.686530 0.515551 0.236473
0.686530 0.515551 0.236473
0.686530 0.515551 0.236473
0.686530 0.515551 0.236473
0.686530 0.515551 0.236473
0.155528 0.451530 0.155528
0.174614 0.451530 0.155528
0.189981 0.451530 0.155528
0.205092 0.451530 0.155528
0.220203 0.451530 0.155528
0.235314 0.451530 0.155528
0.250425 0.451530 0.155528
0.265537 0.451530 0.155528
0.280648 0.451530 0.155528
0.295759 0.451530 0.155528
0.310870 0.451530 0.155528
0.325981 0.451530 0.155528
0.341092 0.451530 0.155528
0.356203 0.451530 0.155528
0.371314 0.451530 0.155528
0.402521 0.451530 0.155528
0.419428 0.451530 0.155528
0.436335 0.451530 0.155528
0.454142 0.452430 0.156428
0.479932 0.461313 0.165311
0.505723 0.470197 0.174195
0.531513 0.479080 0.183078
0.557304 0.487964 0.191962
0.583095 0.496847 0.200845
0.608885 0.505731 0.209729
0.634676 0.514614 0.218612
0.660466 0.523498 0.227496
0.686257 0.532381 0.236379
0.686530 0.532475 0.236473
0.686530 0.532475 0.236473
0.686530 0.532475 0.236473
0.686530 0.532475 0.236473
0.686530 0.532475 0.236473
0.164421 0.477347 0.164421
0.183506 0.477347 0.164421
0.198874 0.477347 0.164421
0.213985 0.477347 0.164421
0.229096 0.477347 0.164421
0.244207 0.477347 0.164421
0.259318 0.477347 0.164421
0.274429 0.477347 0.164421
0.289540 0.477347 0.164421
0.304651 0.477347 0.164421
0.319762 0.477347 0.164421
0.334874 0.477347 0.164421
0.349985 0.477347 0.164421
0.365096 0.477347 0.164421
0.380207 0.477347 0.164421
0.411414 0.477347 0.164421
0.428321 0.477347 0.164421
0.445228 0.477347 0.164421
0.462135 0.477347 0.164421
0.479932 0.478238 0.165311
0.505723 0.487121 0.174195
0.531513 0.496005 0.183078
0.557304 0.504888 0.191962
0.583095 0.513772 0.200845
0.608885 0.522655 0.209729
0.634676 0.531539 0.218612
0.660466 0.540422 0.227496
0.686257 0.549306 0.236379
0.686530 0.549400 0.236473
0.686530 0.549400 0.236473
0.686530 0.549400 0.236473
0.686530 0.549400 0.236473
0.686530 0.549400 0.236473
0.173314 0.503165 0.173314
0.192399 0.503165 0.173314
0.207766 0.503165 0.173314
0.222878 0.503165 0.173314
0.237989 0.503165 0.173314
0.253100 0.503165 0.173314
0.268211 0.503165 0.173314
0.283322 0.503165 0.173314
0.298433 0.503165 0.173314
0.313544 0.503165 0.173314
0.328655 0.503165 0.173314
0.343766 0.503165 0.173314
0.358877 0.503165 0.173314
0.373988 0.503165 0.173314
0.389099 0.503165 0.173314
0.420306 0.503165 0.173314
0.437213 0.503165 0.173314
0.454120 0.503165 0.173314
0.471027 0.503165 0.173314
0.487935 0.503165 0.173314
0.505723 0.504046 0.174195
0.531513 0.512929 0.183078
0.557304 0.521813 0.191962
0.583095 0.530696 0.200845
0.608885 0.539580 0.209729
0.634676 0.548463 0.218612
0.660466 0.557347 0.227496
0.686257 0.566230 0.236379
0.686530 0.566324 0.236473
0.686530 0.566324 0.236473
0.686530 0.566324 0.236473
0.686530 0.566324 0.236473
0.686530 0.566324 0.236473
0.182206 0.528982 0.182206
0.201292 0.528982 0.182206
0.216659 0.528982 0.182206
0.231770 0.528982 0.182206
0.246881 0.528982 0.182206
0.261992 0.528982 0.182206
0.277103 0.528982 0.182206
0.292214 0.528982 0.182206
0.307326 0.528982 0.182206
0.322437 0.528982 0.182206
0.337548 0.528982 0.182206
0.352659 0.528982 0.182206
0.367770 0.528982 0.182206
0.382881 0.528982 0.182206
0.397992 0.528982 0.182206
0.429199 0.528982 0.182206
0.446106 0.528982 0.182206
0.463013 0.528982 0.182206
0.479920 0.528982 0.182206
0.496827 0.528982 0.182206
0.513734 0.528982 0.182206
0.531513 0.529854 0.183078
0.557304 0.538737 0.191962
0.583095 0.547621 0.200845
0.608885 0.556504 0.209729
0.634676 0.565388 0.218612
0.660466 0.574271 0.227496
0.686257 0.583155 0.236379
0.686530 0.583249 0.236473
0.686530 0.583249 0.236473
0.686530 0.583249 0.236473
0.686530 0.583249 0.236473
0.686530 0.583249 0.236473
0.191099 0.554799 0.191099
0.210184 0.554799 0.191099
0.225552 0.554799 0.191099
0.240663 0.554799 0.191099
0.255774 0.554799 0.191099
0.270885 0.554799 0.191099
0.285996 0.554799 0.191099
0.301107 0.554799 0.191099
0.316218 0.554799 0.191099
0.331329 0.554799 0.191099
0.346440 0.554799 0.191099
0.361551 0.554799 0.191099
0.376663 0.554799 0.191099
0.391774 0.554799 0.191099
0.406885 0.554799 0.191099
0.438092 0.554799 0.191099
0.454999 0.554799 0.191099
0.471906 0.554799 0.191099
0.488813 0.554799 0.191099
0.505720 0.554799 0.191099
0.522627 0.554799 0.191099
0.539534 0.554799 0.191099
0.557304 0.555662 0.191962
0.583095 0.564545 0.200845
0.608885 0.573429 0.209729
0.634676 0.582312 0.218612
0.660466 0.591196 0.227496
0.686257 0.600079 0.236379
0.686530 0.600173 0.236473
0.686530 0.600173 0.236473
0.686530 0.600173 0.236473
0.686530 0.600173 0.236473
0.686530 0.600173 0.236473
0.199992 0.580616 0.199992
0.219077 0.580616 0.199992
0.234444 0.580616 0.199992
0.249555 0.580616 0.199992
0.264667 0.580616 0.199992
0.279778 0.580616 0.199992
0.294889 0.580616 0.199992
0.310000 0.580616 0.199992
0.325111 0.580616 0.199992
0.340222 0.580616 0.199992
0.355333 0.580616 0.199992
0.370444 0.580616 0.199992
0.385555 0.580616 0.199992
0.400666 0.580616 0.199992
0.415777 0.580616 0.199992
0.446984 0.580616 0.199992
0.463891 0.580616 0.199992
0.480798 0.580616 0.199992
0.497705 0.580616 0.199992
0.514613 0.580616 0.199992
0.531520 0.580616 0.199992
0.548427 0.580616 0.199992
0.565334 0.580616 0.199992
0.583095 0.581470 0.200845
0.608885 0.590353 0.209729
0.634676 0.599237 0.218612
0.660466 0.608120 0.227496
0.686257 0.617004 0.236379
0.686530 0.617098 0.236473
0.686530 0.617098 0.236473
0.686530 0.617098 0.236473
0.686530 0.617098 0.236473
0.686530 0.617098 0.236473
0.208884 0.606433 0.208884
0.227969 0.606433 0.208884
0.243337 0.606433 0.208884
0.258448 0.606433 0.208884
0.273559 0.606433 0.208884
0.288670 0.606433 0.208884
0.303781 0.606433 0.208884
0.318892 0.606433 0.208884
0.334004 0.606433 0.208884
0.349115 0.606433 0.208884
0.364226 0.606433 0.208884
0.379337 0.606433 0.208884
0.394448 0.606433 0.208884
0.409559 0.606433 0.208884
0.424670 0.606433 0.208884
0.455877 0.606433 0.208884
0.472784 0.606433 0.208884
0.489691 0.606433 0.208884
0.506598 0.606433 0.208884
0.523505 0.606433 0.208884
0.540412 0.606433 0.208884
0.557319 0.606433 0.208884
0.574226 0.606433 0.208884
0.591133 0.606433 0.208884
0.608885 0.607278 0.209729
0.634676 0.616161 0.218612
0.660466 0.625045 0.227496
0.686257 0.633928 0.236379
0.686530 0.634022 0.236473
0.686530 0.634022 0.236473
0.686530 0.634022 0.236473
0.686530 0.634022 0.236473
0.686530 0.634022 0.236473
0.217777 0.632250 0.217777
0.236862 0.632250 0.217777
0.252230 0.632250 0.217777
0.267341 0.632250 0.217777
0.282452 0.632250 0.217777
0.297563 0.632250 0.217777
0.312674 0.632250 0.217777
0.327785 0.632250 0.217777
0.342896 0.632250 0.217777
0.358007 0.632250 0.217777
0.373118 0.632250 0.217777
0.388229 0.632250 0.217777
0.403341 0.632250 0.217777
0.418452 0.632250 0.217777
0.433563 0.632250 0.217777
0.464770 0.632250 0.217777
0.481677 0.632250 0.217777
0.498584 0.632250 0.217777
0.515491 0.632250 0.217777
0.532398 0.632250 0.217777
0.549305 0.632250 0.217777
0.566212 0.632250 0.217777
0.583119 0.632250 0.217777
0.600026 0.632250 0.217777
0.616933 0.632250 0.217777
0.634676 0.633086 0.218612
0.660466 0.641969 0.227496
0.686257 0.650853 0.236379
0.686530 0.650947 0.236473
0.686530 0.650947 0.236473
0.686530 0.650947 0.236473
0.686530 0.650947 0.236473
0.686530 0.650947 0.236473
0.226670 0.658067 0.226670
0.245755 0.658067 0.226670
0.261122 0.658067 0.226670
0.276233 0.658067 0.226670
0.291344 0.658067 0.226670
0.306456 0.658067 0.226670
0.321567 0.658067 0.226670
0.336678 0.658067 0.226670
0.351789 0.658067 0.226670
0.366900 0.658067 0.226670
0.382011 0.658067 0.226670
0.397122 0.658067 0.226670
0.412233 0.658067 0.226670
0.427344 0.658067 0.226670
0.442455 0.658067 0.226670
0.473662 0.658067 0.226670
0.490569 0.658067 0.226670
0.507476 0.658067 0.226670
0.524383 0.658067 0.226670
0.541290 0.658067 0.226670
0.558198 0.658067 0.226670
0.575105 0.658067 0.226670
0.592012 0.658067 0.226670
0.608919 0.658067 0.226670
