docs/luts/fuji_recipes/Velvia_RR_Velvia.cube
TITLE "Fujifilm Recipe: RR Velvia (Velvia)"
# FilmSim=Velvia HL=-1 SH=0 Col=2 WB=Auto WBR=1 WBB=-1
LUT_3D_SIZE 33
DOMAIN_MIN 0.0 0.0 0.0
DOMAIN_MAX 1.0 1.0 1.0
0.000000 0.000000 0.000000
0.050313 0.000000 0.000000
0.089372 0.000000 0.000000
0.127779 0.000000 0.000000
0.166186 0.000000 0.000000
0.204593 0.000000 0.000000
0.242999 0.000000 0.000000
0.281406 0.000000 0.000000
0.319813 0.000000 0.000000
0.358220 0.000000 0.000000
0.396627 0.000000 0.000000
0.435034 0.000000 0.000000
0.473441 0.000000 0.000000
0.523152 0.000000 0.000000
0.560439 0.000000 0.000000
0.597725 0.000000 0.000000
0.635011 0.000000 0.000000
0.672297 0.000000 0.000000
0.709584 0.000000 0.000000
0.746870 0.000000 0.000000
0.784156 0.000000 0.000000
0.821442 0.000000 0.000000
0.858729 0.000000 0.000000
0.896015 0.000000 0.000000
0.933301 0.000000 0.000000
0.970000 0.000000 0.000000
0.970000 0.000000 0.000000
0.970000 0.000000 0.000000
0.970000 0.000000 0.000000
0.970000 0.000000 0.000000
0.970000 0.000000 0.000000
0.970000 0.000000 0.000000
0.970000 0.000000 0.000000
0.000000 0.047844 0.000000
0.050313 0.047844 0.000000
0.089372 0.047844 0.000000
0.127779 0.047844 0.000000
0.166186 0.047844 0.000000
0.204593 0.047844 0.000000
0.242999 0.047844 0.000000
0.281406 0.047844 0.000000
0.319813 0.047844 0.000000
0.358220 0.047844 0.000000
0.396627 0.047844 0.000000
0.435034 0.047844 0.000000
0.473441 0.047844 0.000000
0.523152 0.047844 0.000000
0.560439 0.047844 0.000000
0.597725 0.047844 0.000000
0.635011 0.047844 0.000000
0.672297 0.047844 0.000000
0.709584 0.047844 0.000000
0.746870 0.047844 0.000000
0.784156 0.047844 0.000000
0.821442 0.047844 0.000000
0.858729 0.047844 0.000000
0.896015 0.047844 0.000000
0.933301 0.047844 0.000000
0.970000 0.047844 0.000000
0.970000 0.047844 0.000000
0.970000 0.047844 0.000000
0.970000 0.047844 0.000000
0.970000 0.047844 0.000000
0.970000 0.047844 0.000000
0.970000 0.047844 0.000000
0.970000 0.047844 0.000000
0.000000 0.085483 0.000000
0.050313 0.085483 0.000000
0.089372 0.085483 0.000000
0.127779 0.085483 0.000000
0.166186 0.085483 0.000000
0.204593 0.085483 0.000000
0.242999 0.085483 0.000000
0.281406 0.085483 0.000000
0.319813 0.085483 0.000000
0.358220 0.085483 0.000000
0.396627 0.085483 0.000000
0.435034 0.085483 0.000000
0.473441 0.085483 0.000000
0.523152 0.085483 0.000000
0.560439 0.085483 0.000000
0.597725 0.085483 0.000000
0.635011 0.085483 0.000000
0.672297 0.085483 0.000000
0.709584 0.085483 0.000000
0.746870 0.085483 0.000000
0.784156 0.085483 0.000000
0.821442 0.085483 0.000000
0.858729 0.085483 0.000000
0.896015 0.085483 0.000000
0.933301 0.085483 0.000000
0.970000 0.085483 0.000000
0.970000 0.085483 0.000000
0.970000 0.085483 0.000000
0.970000 0.085483 0.000000
0.970000 0.085483 0.000000
0.970000 0.085483 0.000000
0.970000 0.085483 0.000000
0.970000 0.085483 0.000000
0.000000 0.122495 0.000000
0.050313 0.122495 0.000000
0.089372 0.122495 0.000000
0.127779 0.122495 0.000000
0.166186 0.122495 0.000000
0.204593 0.122495 0.000000
0.242999 0.122495 0.000000
0.281406 0.122495 0.000000
0.319813 0.122495 0.000000
0.358220 0.122495 0.000000
0.396627 0.122495 0.000000
0.435034 0.122495 0.000000
0.473441 0.122495 0.000000
0.523152 0.122495 0.000000
0.560439 0.122495 0.000000
0.597725 0.122495 0.000000
0.635011 0.122495 0.000000
0.672297 0.122495 0.000000
0.709584 0.122495 0.000000
0.746870 0.122495 0.000000
0.784156 0.122495 0.000000
0.821442 0.122495 0.000000
0.858729 0.122495 0.000000
0.896015 0.122495 0.000000
0.933301 0.122495 0.000000
0.970000 0.122495 0.000000
0.970000 0.122495 0.000000
0.970000 0.122495 0.000000
0.970000 0.122495 0.000000
0.970000 0.122495 0.000000
0.970000 0.122495 0.000000
0.970000 0.122495 0.000000
0.970000 0.122495 0.000000
0.000000 0.159507 0.000000
0.050313 0.159507 0.000000
0.089372 0.159507 0.000000
0.127779 0.159507 0.000000
0.166186 0.159507 0.000000
0.204593 0.159507 0.000000
0.242999 0.159507 0.000000
0.281406 0.159507 0.000000
0.319813 0.159507 0.000000
0.358220 0.159507 0.000000
0.396627 0.159507 0.000000
0.435034 0.159507 0.000000
0.473441 0.159507 0.000000
0.523152 0.159507 0.000000
0.560439 0.159507 0.000000
0.597725 0.159507 0.000000
0.635011 0.159507 0.000000
0.672297 0.159507 0.000000
0.709584 0.159507 0.000000
0.746870 0.159507 0.000000
0.784156 0.159507 0.000000
0.821442 0.159507 0.000000
0.858729 0.159507 0.000000
0.896015 0.159507 0.000000
0.933301 0.159507 0.000000
0.970000 0.159507 0.000000
0.970000 0.159507 0.000000
0.970000 0.159507 0.000000
0.970000 0.159507 0.000000
0.970000 0.159507 0.000000
0.970000 0.159507 0.000000
0.970000 0.159507 0.000000
0.970000 0.159507 0.000000
0.000000 0.196518 0.000000
0.050313 0.196518 0.000000
0.089372 0.196518 0.000000
0.127779 0.196518 0.000000
0.166186 0.196518 0.000000
0.204593 0.196518 0.000000
0.242999 0.196518 0.000000
0.281406 0.196518 0.000000
0.319813 0.196518 0.000000
0.358220 0.196518 0.000000
0.396627 0.196518 0.000000
0.435034 0.196518 0.000000
0.473441 0.196518 0.000000
0.523152 0.196518 0.000000
0.560439 0.196518 0.000000
0.597725 0.196518 0.000000
0.635011 0.196518 0.000000
0.672297 0.196518 0.000000
0.709584 0.196518 0.000000
0.746870 0.196518 0.000000
0.784156 0.196518 0.000000
0.821442 0.196518 0.000000
0.858729 0.196518 0.000000
0.896015 0.196518 0.000000
0.933301 0.196518 0.000000
0.970000 0.196518 0.000000
0.970000 0.196518 0.000000
0.970000 0.196518 0.000000
0.970000 0.196518 0.000000
0.970000 0.196518 0.000000
0.970000 0.196518 0.000000
0.970000 0.196518 0.000000
0.970000 0.196518 0.000000
0.000000 0.233530 0.000000
0.050313 0.233530 0.000000
0.089372 0.233530 0.000000
0.127779 0.233530 0.000000
0.166186 0.233530 0.000000
0.204593 0.233530 0.000000
0.242999 0.233530 0.000000
0.281406 0.233530 0.000000
0.319813 0.233530 0.000000
0.358220 0.233530 0.000000
0.396627 0.233530 0.000000
0.435034 0.233530 0.000000
0.473441 0.233530 0.000000
0.523152 0.233530 0.000000
0.560439 0.233530 0.000000
0.597725 0.233530 0.000000
0.635011 0.233530 0.000000
0.672297 0.233530 0.000000
0.709584 0.233530 0.000000
0.746870 0.233530 0.000000
0.784156 0.233530 0.000000
0.821442 0.233530 0.000000
0.858729 0.233530 0.000000
0.896015 0.233530 0.000000
0.933301 0.233530 0.000000
0.970000 0.233530 0.000000
0.970000 0.233530 0.000000
0.970000 0.233530 0.000000
0.970000 0.233530 0.000000
0.970000 0.233530 0.000000
0.970000 0.233530 0.000000
0.970000 0.233530 0.000000
0.970000 0.233530 0.000000
0.000000 0.270541 0.000000
0.050313 0.270541 0.000000
0.089372 0.270541 0.000000
0.127779 0.270541 0.000000
0.166186 0.270541 0.000000
0.204593 0.270541 0.000000
0.242999 0.270541 0.000000
0.281406 0.270541 0.000000
0.319813 0.270541 0.000000
0.358220 0.270541 0.000000
0.396627 0.270541 0.000000
0.435034 0.270541 0.000000
0.473441 0.270541 0.000000
0.523152 0.270541 0.000000
0.560439 0.270541 0.000000
0.597725 0.270541 0.000000
0.635011 0.270541 0.000000
0.672297 0.270541 0.000000
0.709584 0.270541 0.000000
0.746870 0.270541 0.000000
0.784156 0.270541 0.000000
0.821442 0.270541 0.000000
0.858729 0.270541 0.000000
0.896015 0.270541 0.000000
0.933301 0.270541 0.000000
0.970000 0.270541 0.000000
0.970000 0.270541 0.000000
0.970000 0.270541 0.000000
0.970000 0.270541 0.000000
0.970000 0.270541 0.000000
0.970000 0.270541 0.000000
0.970000 0.270541 0.000000
0.970000 0.270541 0.000000
0.000000 0.307553 0.000000
0.050313 0.307553 0.000000
0.089372 0.307553 0.000000
0.127779 0.307553 0.000000
0.166186 0.307553 0.000000
0.204593 0.307553 0.000000
0.242999 0.307553 0.000000
0.281406 0.307553 0.000000
0.319813 0.307553 0.000000
0.358220 0.307553 0.000000
0.396627 0.307553 0.000000
0.435034 0.307553 0.000000
0.473441 0.307553 0.000000
0.523152 0.307553 0.000000
0.560439 0.307553 0.000000
0.597725 0.307553 0.000000
0.635011 0.307553 0.000000
0.672297 0.307553 0.000000
0.709584 0.307553 0.000000
0.746870 0.307553 0.000000
0.784156 0.307553 0.000000
0.821442 0.307553 0.000000
0.858729 0.307553 0.000000
0.896015 0.307553 0.000000
0.933301 0.307553 0.000000
0.970000 0.307553 0.000000
0.970000 0.307553 0.000000
0.970000 0.307553 0.000000
0.970000 0.307553 0.000000
0.970000 0.307553 0.000000
0.970000 0.307553 0.000000
0.970000 0.307553 0.000000
0.970000 0.307553 0.000000
0.000000 0.344564 0.000000
0.050313 0.344564 0.000000
0.089372 0.344564 0.000000
0.127779 0.344564 0.000000
0.166186 0.344564 0.000000
0.204593 0.344564 0.000000
0.242999 0.344564 0.000000
0.281406 0.344564 0.000000
0.319813 0.344564 0.000000
0.358220 0.344564 0.000000
0.396627 0.344564 0.000000
0.435034 0.344564 0.000000
0.473441 0.344564 0.000000
0.523152 0.344564 0.000000
0.560439 0.344564 0.000000
0.597725 0.344564 0.000000
0.635011 0.344564 0.000000
0.672297 0.344564 0.000000
0.709584 0.344564 0.000000
0.746870 0.344564 0.000000
0.784156 0.344564 0.000000
0.821442 0.344564 0.000000
0.858729 0.344564 0.000000
0.896015 0.344564 0.000000
0.933301 0.344564 0.000000
0.970000 0.344564 0.000000
0.970000 0.344564 0.000000
0.970000 0.344564 0.000000
0.970000 0.344564 0.000000
0.970000 0.344564 0.000000
0.970000 0.344564 0.000000
0.970000 0.344564 0.000000
0.970000 0.344564 0.000000
0.000000 0.381576 0.000000
0.050313 0.381576 0.000000
0.089372 0.381576 0.000000
0.127779 0.381576 0.000000
0.166186 0.381576 0.000000
0.204593 0.381576 0.000000
0.242999 0.381576 0.000000
0.281406 0.381576 0.000000
0.319813 0.381576 0.000000
0.358220 0.381576 0.000000
0.396627 0.381576 0.000000
0.435034 0.381576 0.000000
0.473441 0.381576 0.000000
0.523152 0.381576 0.000000
0.560439 0.381576 0.000000
0.597725 0.381576 0.000000
0.635011 0.381576 0.000000
0.672297 0.381576 0.000000
0.709584 0.381576 0.000000
0.746870 0.381576 0.000000
0.784156 0.381576 0.000000
0.821442 0.381576 0.000000
0.858729 0.381576 0.000000
0.896015 0.381576 0.000000
0.933301 0.381576 0.000000
0.970000 0.381576 0.000000
0.970000 0.381576 0.000000
0.970000 0.381576 0.000000
0.970000 0.381576 0.000000
0.970000 0.381576 0.000000
0.970000 0.381576 0.000000
0.970000 0.381576 0.000000
0.970000 0.381576 0.000000
0.000000 0.418587 0.000000
0.050313 0.418587 0.000000
0.089372 0.418587 0.000000
0.127779 0.418587 0.000000
0.166186 0.418587 0.000000
0.204593 0.418587 0.000000
0.242999 0.418587 0.000000
0.281406 0.418587 0.000000
0.319813 0.418587 0.000000
0.358220 0.418587 0.000000
0.396627 0.418587 0.000000
0.435034 0.418587 0.000000
0.473441 0.418587 0.000000
0.523152 0.418587 0.000000
0.560439 0.418587 0.000000
0.597725 0.418587 0.000000
0.635011 0.418587 0.000000
0.672297 0.418587 0.000000
0.709584 0.418587 0.000000
0.746870 0.418587 0.000000
0.784156 0.418587 0.000000
0.821442 0.418587 0.000000
0.858729 0.418587 0.000000
0.896015 0.418587 0.000000
0.933301 0.418587 0.000000
0.970000 0.418587 0.000000
0.970000 0.418587 0.000000
0.970000 0.418587 0.000000
0.970000 0.418587 0.000000
0.970000 0.418587 0.000000
0.970000 0.418587 0.000000
0.970000 0.418587 0.000000
0.970000 0.418587 0.000000
0.000000 0.455599 0.000000
0.050313 0.455599 0.000000
0.089372 0.455599 0.000000
0.127779 0.455599 0.000000
0.166186 0.455599 0.000000
0.204593 0.455599 0.000000
0.242999 0.455599 0.000000
0.281406 0.455599 0.000000
0.319813 0.455599 0.000000
0.358220 0.455599 0.000000
0.396627 0.455599 0.000000
0.435034 0.455599 0.000000
0.473441 0.455599 0.000000
0.523152 0.455599 0.000000
0.560439 0.455599 0.000000
0.597725 0.455599 0.000000
0.635011 0.455599 0.000000
0.672297 0.455599 0.000000
0.709584 0.455599 0.000000
0.746870 0.455599 0.000000
0.784156 0.455599 0.000000
0.821442 0.455599 0.000000
0.858729 0.455599 0.000000
0.896015 0.455599 0.000000
0.933301 0.455599 0.000000
0.970000 0.455599 0.000000
0.970000 0.455599 0.000000
0.970000 0.455599 0.000000
0.970000 0.455599 0.000000
0.970000 0.455599 0.000000
0.970000 0.455599 0.000000
0.970000 0.455599 0.000000
0.970000 0.455599 0.000000
0.000000 0.504476 0.000000
0.050313 0.504476 0.000000
0.089372 0.504476 0.000000
0.127779 0.504476 0.000000
0.166186 0.504476 0.000000
0.204593 0.504476 0.000000
0.242999 0.504476 0.000000
0.281406 0.504476 0.000000
0.319813 0.504476 0.000000
0.358220 0.504476 0.000000
0.396627 0.504476 0.000000
0.435034 0.504476 0.000000
0.473441 0.504476 0.000000
0.523152 0.504476 0.000000
0.560439 0.504476 0.000000
0.597725 0.504476 0.000000
0.635011 0.504476 0.000000
0.672297 0.504476 0.000000
0.709584 0.504476 0.000000
0.746870 0.504476 0.000000
0.784156 0.504476 0.000000
0.821442 0.504476 0.000000
0.858729 0.504476 0.000000
0.896015 0.504476 0.000000
0.933301 0.504476 0.000000
0.970000 0.504476 0.000000
0.970000 0.504476 0.000000
0.970000 0.504476 0.000000
0.970000 0.504476 0.000000
0.970000 0.504476 0.000000
0.970000 0.504476 0.000000
0.970000 0.504476 0.000000
0.970000 0.504476 0.000000
0.000000 0.540408 0.000000
0.050313 0.540408 0.000000
0.089372 0.540408 0.000000
0.127779 0.540408 0.000000
0.166186 0.540408 0.000000
0.204593 0.540408 0.000000
0.242999 0.540408 0.000000
0.281406 0.540408 0.000000
0.319813 0.540408 0.000000
0.358220 0.540408 0.000000
0.396627 0.540408 0.000000
0.435034 0.540408 0.000000
0.473441 0.540408 0.000000
0.523152 0.540408 0.000000
0.560439 0.540408 0.000000
0.597725 0.540408 0.000000
0.635011 0.540408 0.000000
0.672297 0.540408 0.000000
0.709584 0.540408 0.000000
0.746870 0.540408 0.000000
0.784156 0.540408 0.000000
0.821442 0.540408 0.000000
0.858729 0.540408 0.000000
0.896015 0.540408 0.000000
0.933301 0.540408 0.000000
0.970000 0.540408 0.000000
0.970000 0.540408 0.000000
0.970000 0.540408 0.000000
0.970000 0.540408 0.000000
0.970000 0.540408 0.000000
0.970000 0.540408 0.000000
0.970000 0.540408 0.000000
0.970000 0.540408 0.000000
0.000000 0.576339 0.000000
0.050313 0.576339 0.000000
0.089372 0.576339 0.000000
0.127779 0.576339 0.000000
0.166186 0.576339 0.000000
0.204593 0.576339 0.000000
0.242999 0.576339 0.000000
0.281406 0.576339 0.000000
0.319813 0.576339 0.000000
0.358220 0.576339 0.000000
0.396627 0.576339 0.000000
0.435034 0.576339 0.000000
0.473441 0.576339 0.000000
0.523152 0.576339 0.000000
0.560439 0.576339 0.000000
0.597725 0.576339 0.000000
0.635011 0.576339 0.000000
0.672297 0.576339 0.000000
0.709584 0.576339 0.000000
0.746870 0.576339 0.000000
0.784156 0.576339 0.000000
0.821442 0.576339 0.000000
0.858729 0.576339 0.000000
0.896015 0.576339 0.000000
0.933301 0.576339 0.000000
0.970000 0.576339 0.000000
0.970000 0.576339 0.000000
0.970000 0.576339 0.000000
0.970000 0.576339 0.000000
0.970000 0.576339 0.000000
0.970000 0.576339 0.000000
0.970000 0.576339 0.000000
0.970000 0.576339 0.000000
0.000000 0.612271 0.000000
0.050313 0.612271 0.000000
0.089372 0.612271 0.000000
0.127779 0.612271 0.000000
0.166186 0.612271 0.000000
0.204593 0.612271 0.000000
0.242999 0.612271 0.000000
0.281406 0.612271 0.000000
0.319813 0.612271 0.000000
0.358220 0.612271 0.000000
0.396627 0.612271 0.000000
0.435034 0.612271 0.000000
0.473441 0.612271 0.000000
0.523152 0.612271 0.000000
0.560439 0.612271 0.000000
0.597725 0.612271 0.000000
0.635011 0.612271 0.000000
0.672297 0.612271 0.000000
0.709584 0.612271 0.000000
0.746870 0.612271 0.000000
0.784156 0.612271 0.000000
0.821442 0.612271 0.000000
0.858729 0.612271 0.000000
0.896015 0.612271 0.000000
0.933301 0.612271 0.000000
0.970000 0.612271 0.000000
0.970000 0.612271 0.000000
0.970000 0.612271 0.000000
0.970000 0.612271 0.000000
0.970000 0.612271 0.000000
0.970000 0.612271 0.000000
0.970000 0.612271 0.000000
0.970000 0.612271 0.000000
0.000000 0.648202 0.000000
0.050313 0.648202 0.000000
0.089372 0.648202 0.000000
0.127779 0.648202 0.000000
0.166186 0.648202 0.000000
0.204593 0.648202 0.000000
0.242999 0.648202 0.000000
0.281406 0.648202 0.000000
0.319813 0.648202 0.000000
0.358220 0.648202 0.000000
0.396627 0.648202 0.000000
0.435034 0.648202 0.000000
0.473441 0.648202 0.000000
0.523152 0.648202 0.000000
0.560439 0.648202 0.000000
0.597725 0.648202 0.000000
0.635011 0.648202 0.000000
0.672297 0.648202 0.000000
0.709584 0.648202 0.000000
0.746870 0.648202 0.000000
0.784156 0.648202 0.000000
0.821442 0.648202 0.000000
0.858729 0.648202 0.000000
0.896015 0.648202 0.000000
0.933301 0.648202 0.000000
0.970000 0.648202 0.000000
0.970000 0.648202 0.000000
0.970000 0.648202 0.000000
0.970000 0.648202 0.000000
0.970000 0.648202 0.000000
0.970000 0.648202 0.000000
0.970000 0.648202 0.000000
0.970000 0.648202 0.000000
0.000000 0.684134 0.000000
0.050313 0.684134 0.000000
0.089372 0.684134 0.000000
0.127779 0.684134 0.000000
0.166186 0.684134 0.000000
0.204593 0.684134 0.000000
0.242999 0.684134 0.000000
0.281406 0.684134 0.000000
0.319813 0.684134 0.000000
0.358220 0.684134 0.000000
0.396627 0.684134 0.000000
0.435034 0.684134 0.000000
0.473441 0.684134 0.000000
0.523152 0.684134 0.000000
0.560439 0.684134 0.000000
0.597725 0.684134 0.000000
0.635011 0.684134 0.000000
0.672297 0.684134 0.000000
0.709584 0.684134 0.000000
0.746870 0.684134 0.000000
0.784156 0.684134 0.000000
0.821442 0.684134 0.000000
0.858729 0.684134 0.000000
0.896015 0.684134 0.000000
0.933301 0.684134 0.000000
0.970000 0.684134 0.000000
0.970000 0.684134 0.000000
0.970000 0.684134 0.000000
0.970000 0.684134 0.000000
0.970000 0.684134 0.000000
0.970000 0.684134 0.000000
0.970000 0.684134 0.000000
0.970000 0.684134 0.000000
0.000000 0.720065 0.000000
0.050313 0.720065 0.000000
0.089372 0.720065 0.000000
0.127779 0.720065 0.000000
0.166186 0.720065 0.000000
0.204593 0.720065 0.000000
0.242999 0.720065 0.000000
0.281406 0.720065 0.000000
0.319813 0.720065 0.000000
0.358220 0.720065 0.000000
0.396627 0.720065 0.000000
0.435034 0.720065 0.000000
0.473441 0.720065 0.000000
0.523152 0.720065 0.000000
0.560439 0.720065 0.000000
0.597725 0.720065 0.000000
0.635011 0.720065 0.000000
0.672297 0.720065 0.000000
0.709584 0.720065 0.000000
0.746870 0.720065 0.000000
0.784156 0.720065 0.000000
0.821442 0.720065 0.000000
0.858729 0.720065 0.000000
0.896015 0.720065 0.000000
0.933301 0.720065 0.000000
0.970000 0.720065 0.000000
0.970000 0.720065 0.000000
0.970000 0.720065 0.000000
0.970000 0.720065 0.000000
0.970000 0.720065 0.000000
0.970000 0.720065 0.000000
0.970000 0.720065 0.000000
0.970000 0.720065 0.000000
0.000000 0.755997 0.000000
0.050313 0.755997 0.000000
0.089372 0.755997 0.000000
0.127779 0.755997 0.000000
0.166186 0.755997 0.000000
0.204593 0.755997 0.000000
0.242999 0.755997 0.000000
0.281406 0.755997 0.000000
0.319813 0.755997 0.000000
0.358220 0.755997 0.000000
0.396627 0.755997 0.000000
0.435034 0.755997 0.000000
0.473441 0.755997 0.000000
0.523152 0.755997 0.000000
0.560439 0.755997 0.000000
0.597725 0.755997 0.000000
0.635011 0.755997 0.000000
0.672297 0.755997 0.000000
0.709584 0.755997 0.000000
0.746870 0.755997 0.000000
0.784156 0.755997 0.000000
0.821442 0.755997 0.000000
0.858729 0.755997 0.000000
0.896015 0.755997 0.000000
0.933301 0.755997 0.000000
0.970000 0.755997 0.000000
0.970000 0.755997 0.000000
0.970000 0.755997 0.000000
0.970000 0.755997 0.000000
0.970000 0.755997 0.000000
0.970000 0.755997 0.000000
0.970000 0.755997 0.000000
0.970000 0.755997 0.000000
0.000000 0.791928 0.000000
0.050313 0.791928 0.000000
0.089372 0.791928 0.000000
0.127779 0.791928 0.000000
0.166186 0.791928 0.000000
0.204593 0.791928 0.000000
0.242999 0.791928 0.000000
0.281406 0.791928 0.000000
0.319813 0.791928 0.000000
0.358220 0.791928 0.000000
0.396627 0.791928 0.000000
0.435034 0.791928 0.000000
0.473441 0.791928 0.000000
0.523152 0.791928 0.000000
0.560439 0.791928 0.000000
0.597725 0.791928 0.000000
0.635011 0.791928 0.000000
0.672297 0.791928 0.000000
0.709584 0.791928 0.000000
0.746870 0.791928 0.000000
0.784156 0.791928 0.000000
0.821442 0.791928 0.000000
0.858729 0.791928 0.000000
0.896015 0.791928 0.000000
0.933301 0.791928 0.000000
0.970000 0.791928 0.000000
0.970000 0.791928 0.000000
0.970000 0.791928 0.000000
0.970000 0.791928 0.000000
0.970000 0.791928 0.000000
0.970000 0.791928 0.000000
0.970000 0.791928 0.000000
0.970000 0.791928 0.000000
0.000000 0.827860 0.000000
0.050313 0.827860 0.000000
0.089372 0.827860 0.000000
0.127779 0.827860 0.000000
0.166186 0.827860 0.000000
0.204593 0.827860 0.000000
0.242999 0.827860 0.000000
0.281406 0.827860 0.000000
0.319813 0.827860 0.000000
0.358220 0.827860 0.000000
0.396627 0.827860 0.000000
0.435034 0.827860 0.000000
0.473441 0.827860 0.000000
0.523152 0.827860 0.000000
0.560439 0.827860 0.000000
0.597725 0.827860 0.000000
0.635011 0.827860 0.000000
0.672297 0.827860 0.000000
0.709584 0.827860 0.000000
0.746870 0.827860 0.000000
0.784156 0.827860 0.000000
0.821442 0.827860 0.000000
0.858729 0.827860 0.000000
0.896015 0.827860 0.000000
0.933301 0.827860 0.000000
0.970000 0.827860 0.000000
0.970000 0.827860 0.000000
0.970000 0.827860 0.000000
0.970000 0.827860 0.000000
0.970000 0.827860 0.000000
0.970000 0.827860 0.000000
0.970000 0.827860 0.000000
0.970000 0.827860 0.000000
0.000000 0.863792 0.000000
0.050313 0.863792 0.000000
0.089372 0.863792 0.000000
0.127779 0.863792 0.000000
0.166186 0.863792 0.000000
0.204593 0.863792 0.000000
0.242999 0.863792 0.000000
0.281406 0.863792 0.000000
0.319813 0.863792 0.000000
0.358220 0.863792 0.000000
0.396627 0.863792 0.000000
0.435034 0.863792 0.000000
0.473441 0.863792 0.000000
0.523152 0.863792 0.000000
0.560439 0.863792 0.000000
0.597725 0.863792 0.000000
0.635011 0.863792 0.000000
0.672297 0.863792 0.000000
0.709584 0.863792 0.000000
0.746870 0.863792 0.000000
0.784156 0.863792 0.000000
0.821442 0.863792 0.000000
0.858729 0.863792 0.000000
0.896015 0.863792 0.000000
0.933301 0.863792 0.000000
0.970000 0.863792 0.000000
0.970000 0.863792 0.000000
0.970000 0.863792 0.000000
0.970000 0.863792 0.000000
0.970000 0.863792 0.000000
0.970000 0.863792 0.000000
0.970000 0.863792 0.000000
0.970000 0.863792 0.000000
0.000000 0.899723 0.000000
0.050313 0.899723 0.000000
0.089372 0.899723 0.000000
0.127779 0.899723 0.000000
0.166186 0.899723 0.000000
0.204593 0.899723 0.000000
0.242999 0.899723 0.000000
0.281406 0.899723 0.000000
0.319813 0.899723 0.000000
0.358220 0.899723 0.000000
0.396627 0.899723 0.000000
0.435034 0.899723 0.000000
0.473441 0.899723 0.000000
0.523152 0.899723 0.000000
0.560439 0.899723 0.000000
0.597725 0.899723 0.000000
0.635011 0.899723 0.000000
0.672297 0.899723 0.000000
0.709584 0.899723 0.000000
0.746870 0.899723 0.000000
0.784156 0.899723 0.000000
0.821442 0.899723 0.000000
0.858729 0.899723 0.000000
0.896015 0.899723 0.000000
0.933301 0.899723 0.000000
0.970000 0.899723 0.000000
0.970000 0.899723 0.000000
0.970000 0.899723 0.000000
0.970000 0.899723 0.000000
0.970000 0.899723 0.000000
0.970000 0.899723 0.000000
0.970000 0.899723 0.000000
0.970000 0.899723 0.000000
0.000000 0.935655 0.000000
0.050313 0.935655 0.000000
0.089372 0.935655 0.000000
0.127779 0.935655 0.000000
0.166186 0.935655 0.000000
0.204593 0.935655 0.000000
0.242999 0.935655 0.000000
0.281406 0.935655 0.000000
0.319813 0.935655 0.000000
0.358220 0.935655 0.000000
0.396627 0.935655 0.000000
0.435034 0.935655 0.000000
0.473441 0.935655 0.000000
0.523152 0.935655 0.000000
0.560439 0.935655 0.000000
0.597725 0.935655 0.000000
0.635011 0.935655 0.000000
0.672297 0.935655 0.000000
0.709584 0.935655 0.000000
0.746870 0.935655 0.000000
0.784156 0.935655 0.000000
0.821442 0.935655 0.000000
0.858729 0.935655 0.000000
0.896015 0.935655 0.000000
0.933301 0.935655 0.000000
0.970000 0.935655 0.000000
0.970000 0.935655 0.000000
0.970000 0.935655 0.000000
0.970000 0.935655 0.000000
0.970000 0.935655 0.000000
0.970000 0.935655 0.000000
0.970000 0.935655 0.000000
0.970000 0.935655 0.000000
0.000000 0.970000 0.000000
0.050313 0.970000 0.000000
0.089372 0.970000 0.000000
0.127779 0.970000 0.000000
0.166186 0.970000 0.000000
0.204593 0.970000 0.000000
0.242999 0.970000 0.000000
0.281406 0.970000 0.000000
0.319813 0.970000 0.000000
0.358220 0.970000 0.000000
0.396627 0.970000 0.000000
0.435034 0.970000 0.000000
0.473441 0.970000 0.000000
0.523152 0.970000 0.000000
0.560439 0.970000 0.000000
0.597725 0.970000 0.000000
0.635011 0.970000 0.000000
0.672297 0.970000 0.000000
0.709584 0.970000 0.000000
0.746870 0.970000 0.000000
0.784156 0.970000 0.000000
0.821442 0.970000 0.000000
0.858729 0.970000 0.000000
0.896015 0.970000 0.000000
