docs/luts/fuji_recipes/Velvia_MT_Velvia.cube
TITLE "Fujifilm Recipe: MT Velvia (Velvia)"
# FilmSim=Velvia HL=0 SH=0 Col=-4 WB=Auto WBR=2 WBB=0
LUT_3D_SIZE 33
DOMAIN_MIN 0.0 0.0 0.0
DOMAIN_MAX 1.0 1.0 1.0
0.000000 0.000000 0.000000
0.020909 0.011338 0.011338
0.041525 0.022517 0.022517
0.062076 0.033661 0.033661
0.082627 0.044805 0.044805
0.103179 0.055950 0.055950
0.123730 0.067094 0.067094
0.144282 0.078238 0.078238
0.164833 0.089382 0.089382
0.185385 0.100526 0.100526
0.205936 0.111670 0.111670
0.226487 0.122815 0.122815
0.247039 0.133959 0.133959
0.267590 0.145103 0.145103
0.288142 0.156247 0.156247
0.308693 0.167391 0.167391
0.337504 0.183014 0.183014
0.358729 0.194524 0.194524
0.379955 0.206033 0.206033
0.401180 0.217543 0.217543
0.422405 0.229052 0.229052
0.443630 0.240562 0.240562
0.464856 0.252072 0.252072
0.486081 0.263581 0.263581
0.507306 0.275091 0.275091
0.528531 0.286600 0.286600
0.549757 0.298110 0.298110
0.570982 0.309619 0.309619
0.592207 0.321129 0.321129
0.613432 0.332639 0.332639
0.633876 0.343724 0.343724
0.633876 0.343724 0.343724
0.633876 0.343724 0.343724
0.010484 0.019333 0.010484
0.020909 0.020188 0.011338
0.041525 0.031367 0.022517
0.062076 0.042511 0.033661
0.082627 0.053655 0.044805
0.103179 0.064799 0.055950
0.123730 0.075943 0.067094
0.144282 0.087088 0.078238
0.164833 0.098232 0.089382
0.185385 0.109376 0.100526
0.205936 0.120520 0.111670
0.226487 0.131664 0.122815
0.247039 0.142808 0.133959
0.267590 0.153953 0.145103
0.288142 0.165097 0.156247
0.308693 0.176241 0.167391
0.337504 0.191864 0.183014
0.358729 0.203373 0.194524
0.379955 0.214883 0.206033
0.401180 0.226393 0.217543
0.422405 0.237902 0.229052
0.443630 0.249412 0.240562
0.464856 0.260921 0.252072
0.486081 0.272431 0.263581
0.507306 0.283940 0.275091
0.528531 0.295450 0.286600
0.549757 0.306959 0.298110
0.570982 0.318469 0.309619
0.592207 0.329979 0.321129
0.613432 0.341488 0.332639
0.633876 0.352574 0.343724
0.633876 0.352574 0.343724
0.633876 0.352574 0.343724
0.020967 0.038666 0.020967
0.030538 0.038666 0.020967
0.041525 0.040216 0.022517
0.062076 0.051360 0.033661
0.082627 0.062505 0.044805
0.103179 0.073649 0.055950
0.123730 0.084793 0.067094
0.144282 0.095937 0.078238
0.164833 0.107081 0.089382
0.185385 0.118226 0.100526
0.205936 0.129370 0.111670
0.226487 0.140514 0.122815
0.247039 0.151658 0.133959
0.267590 0.162802 0.145103
0.288142 0.173946 0.156247
0.308693 0.185091 0.167391
0.337504 0.200713 0.183014
0.358729 0.212223 0.194524
0.379955 0.223733 0.206033
0.401180 0.235242 0.217543
0.422405 0.246752 0.229052
0.443630 0.258261 0.240562
0.464856 0.269771 0.252072
0.486081 0.281280 0.263581
0.507306 0.292790 0.275091
0.528531 0.304300 0.286600
0.549757 0.315809 0.298110
0.570982 0.327319 0.309619
0.592207 0.338828 0.321129
0.613432 0.350338 0.332639
0.633876 0.361423 0.343724
0.633876 0.361423 0.343724
0.633876 0.361423 0.343724
0.031451 0.058000 0.031451
0.041022 0.058000 0.031451
0.050458 0.058000 0.031451
0.062076 0.060210 0.033661
0.082627 0.071354 0.044805
0.103179 0.082498 0.055950
0.123730 0.093643 0.067094
0.144282 0.104787 0.078238
0.164833 0.115931 0.089382
0.185385 0.127075 0.100526
0.205936 0.138219 0.111670
0.226487 0.149363 0.122815
0.247039 0.160508 0.133959
0.267590 0.171652 0.145103
0.288142 0.182796 0.156247
0.308693 0.193940 0.167391
0.337504 0.209563 0.183014
0.358729 0.221073 0.194524
0.379955 0.232582 0.206033
0.401180 0.244092 0.217543
0.422405 0.255601 0.229052
0.443630 0.267111 0.240562
0.464856 0.278620 0.252072
0.486081 0.290130 0.263581
0.507306 0.301640 0.275091
0.528531 0.313149 0.286600
0.549757 0.324659 0.298110
0.570982 0.336168 0.309619
0.592207 0.347678 0.321129
0.613432 0.359187 0.332639
0.633876 0.370273 0.343724
0.633876 0.370273 0.343724
0.633876 0.370273 0.343724
0.041934 0.077333 0.041934
0.051505 0.077333 0.041934
0.060942 0.077333 0.041934
0.070349 0.077333 0.041934
0.082627 0.080204 0.044805
0.103179 0.091348 0.055950
0.123730 0.102492 0.067094
0.144282 0.113636 0.078238
0.164833 0.124781 0.089382
0.185385 0.135925 0.100526
0.205936 0.147069 0.111670
0.226487 0.158213 0.122815
0.247039 0.169357 0.133959
0.267590 0.180501 0.145103
0.288142 0.191646 0.156247
0.308693 0.202790 0.167391
0.337504 0.218413 0.183014
0.358729 0.229922 0.194524
0.379955 0.241432 0.206033
0.401180 0.252941 0.217543
0.422405 0.264451 0.229052
0.443630 0.275961 0.240562
0.464856 0.287470 0.252072
0.486081 0.298980 0.263581
0.507306 0.310489 0.275091
0.528531 0.321999 0.286600
0.549757 0.333508 0.298110
0.570982 0.345018 0.309619
0.592207 0.356527 0.321129
0.613432 0.368037 0.332639
0.633876 0.379123 0.343724
0.633876 0.379123 0.343724
0.633876 0.379123 0.343724
0.052418 0.096666 0.052418
0.061989 0.096666 0.052418
0.071425 0.096666 0.052418
0.080833 0.096666 0.052418
0.090240 0.096666 0.052418
0.103179 0.100198 0.055950
0.123730 0.111342 0.067094
0.144282 0.122486 0.078238
0.164833 0.133630 0.089382
0.185385 0.144774 0.100526
0.205936 0.155919 0.111670
0.226487 0.167063 0.122815
0.247039 0.178207 0.133959
0.267590 0.189351 0.145103
0.288142 0.200495 0.156247
0.308693 0.211639 0.167391
0.337504 0.227262 0.183014
0.358729 0.238772 0.194524
0.379955 0.250281 0.206033
0.401180 0.261791 0.217543
0.422405 0.273301 0.229052
0.443630 0.284810 0.240562
0.464856 0.296320 0.252072
0.486081 0.307829 0.263581
0.507306 0.319339 0.275091
0.528531 0.330848 0.286600
0.549757 0.342358 0.298110
0.570982 0.353868 0.309619
0.592207 0.365377 0.321129
0.613432 0.376887 0.332639
0.633876 0.387972 0.343724
0.633876 0.387972 0.343724
0.633876 0.387972 0.343724
0.062902 0.115999 0.062902
0.072472 0.115999 0.062902
0.081909 0.115999 0.062902
0.091316 0.115999 0.062902
0.100724 0.115999 0.062902
0.110131 0.115999 0.062902
0.123730 0.120191 0.067094
0.144282 0.131336 0.078238
0.164833 0.142480 0.089382
0.185385 0.153624 0.100526
0.205936 0.164768 0.111670
0.226487 0.175912 0.122815
0.247039 0.187057 0.133959
0.267590 0.198201 0.145103
0.288142 0.209345 0.156247
0.308693 0.220489 0.167391
0.337504 0.236112 0.183014
0.358729 0.247622 0.194524
0.379955 0.259131 0.206033
0.401180 0.270641 0.217543
0.422405 0.282150 0.229052
0.443630 0.293660 0.240562
0.464856 0.305169 0.252072
0.486081 0.316679 0.263581
0.507306 0.328188 0.275091
0.528531 0.339698 0.286600
0.549757 0.351208 0.298110
0.570982 0.362717 0.309619
0.592207 0.374227 0.321129
0.613432 0.385736 0.332639
0.633876 0.396822 0.343724
0.633876 0.396822 0.343724
0.633876 0.396822 0.343724
0.073385 0.135332 0.073385
0.082956 0.135332 0.073385
0.092393 0.135332 0.073385
0.101800 0.135332 0.073385
0.111207 0.135332 0.073385
0.120614 0.135332 0.073385
0.130022 0.135332 0.073385
0.144282 0.140185 0.078238
0.164833 0.151329 0.089382
0.185385 0.162474 0.100526
0.205936 0.173618 0.111670
0.226487 0.184762 0.122815
0.247039 0.195906 0.133959
0.267590 0.207050 0.145103
0.288142 0.218195 0.156247
0.308693 0.229339 0.167391
0.337504 0.244962 0.183014
0.358729 0.256471 0.194524
0.379955 0.267981 0.206033
0.401180 0.279490 0.217543
0.422405 0.291000 0.229052
0.443630 0.302509 0.240562
0.464856 0.314019 0.252072
0.486081 0.325529 0.263581
0.507306 0.337038 0.275091
0.528531 0.348548 0.286600
0.549757 0.360057 0.298110
0.570982 0.371567 0.309619
0.592207 0.383076 0.321129
0.613432 0.394586 0.332639
0.633876 0.405672 0.343724
0.633876 0.405672 0.343724
0.633876 0.405672 0.343724
0.083869 0.154666 0.083869
0.093440 0.154666 0.083869
0.102876 0.154666 0.083869
0.112283 0.154666 0.083869
0.121691 0.154666 0.083869
0.131098 0.154666 0.083869
0.140505 0.154666 0.083869
0.149913 0.154666 0.083869
0.164833 0.160179 0.089382
0.185385 0.171323 0.100526
0.205936 0.182467 0.111670
0.226487 0.193612 0.122815
0.247039 0.204756 0.133959
0.267590 0.215900 0.145103
0.288142 0.227044 0.156247
0.308693 0.238188 0.167391
0.337504 0.253811 0.183014
0.358729 0.265321 0.194524
0.379955 0.276830 0.206033
0.401180 0.288340 0.217543
0.422405 0.299849 0.229052
0.443630 0.311359 0.240562
0.464856 0.322869 0.252072
0.486081 0.334378 0.263581
0.507306 0.345888 0.275091
0.528531 0.357397 0.286600
0.549757 0.368907 0.298110
0.570982 0.380416 0.309619
0.592207 0.391926 0.321129
0.613432 0.403436 0.332639
0.633876 0.414521 0.343724
0.633876 0.414521 0.343724
0.633876 0.414521 0.343724
0.094352 0.173999 0.094352
0.103923 0.173999 0.094352
0.113360 0.173999 0.094352
0.122767 0.173999 0.094352
0.132174 0.173999 0.094352
0.141582 0.173999 0.094352
0.150989 0.173999 0.094352
0.160396 0.173999 0.094352
0.169803 0.173999 0.094352
0.185385 0.180173 0.100526
0.205936 0.191317 0.111670
0.226487 0.202461 0.122815
0.247039 0.213605 0.133959
0.267590 0.224750 0.145103
0.288142 0.235894 0.156247
0.308693 0.247038 0.167391
0.337504 0.262661 0.183014
0.358729 0.274170 0.194524
0.379955 0.285680 0.206033
0.401180 0.297190 0.217543
0.422405 0.308699 0.229052
0.443630 0.320209 0.240562
0.464856 0.331718 0.252072
0.486081 0.343228 0.263581
0.507306 0.354737 0.275091
0.528531 0.366247 0.286600
0.549757 0.377756 0.298110
0.570982 0.389266 0.309619
0.592207 0.400776 0.321129
0.613432 0.412285 0.332639
0.633876 0.423371 0.343724
0.633876 0.423371 0.343724
0.633876 0.423371 0.343724
0.104836 0.193332 0.104836
0.114407 0.193332 0.104836
0.123843 0.193332 0.104836
0.133251 0.193332 0.104836
0.142658 0.193332 0.104836
0.152065 0.193332 0.104836
0.161472 0.193332 0.104836
0.170880 0.193332 0.104836
0.180287 0.193332 0.104836
0.189694 0.193332 0.104836
0.205936 0.200167 0.111670
0.226487 0.211311 0.122815
0.247039 0.222455 0.133959
0.267590 0.233599 0.145103
0.288142 0.244743 0.156247
0.308693 0.255888 0.167391
0.337504 0.271510 0.183014
0.358729 0.283020 0.194524
0.379955 0.294530 0.206033
0.401180 0.306039 0.217543
0.422405 0.317549 0.229052
0.443630 0.329058 0.240562
0.464856 0.340568 0.252072
0.486081 0.352077 0.263581
0.507306 0.363587 0.275091
0.528531 0.375097 0.286600
0.549757 0.386606 0.298110
0.570982 0.398116 0.309619
0.592207 0.409625 0.321129
0.613432 0.421135 0.332639
0.633876 0.432220 0.343724
0.633876 0.432220 0.343724
0.633876 0.432220 0.343724
0.115319 0.212665 0.115319
0.124890 0.212665 0.115319
0.134327 0.212665 0.115319
0.143734 0.212665 0.115319
0.153142 0.212665 0.115319
0.162549 0.212665 0.115319
0.171956 0.212665 0.115319
0.181363 0.212665 0.115319
0.190771 0.212665 0.115319
0.200178 0.212665 0.115319
0.209585 0.212665 0.115319
0.226487 0.220160 0.122815
0.247039 0.231305 0.133959
0.267590 0.242449 0.145103
0.288142 0.253593 0.156247
0.308693 0.264737 0.167391
0.337504 0.280360 0.183014
0.358729 0.291870 0.194524
0.379955 0.303379 0.206033
0.401180 0.314889 0.217543
0.422405 0.326398 0.229052
0.443630 0.337908 0.240562
0.464856 0.349417 0.252072
0.486081 0.360927 0.263581
0.507306 0.372437 0.275091
0.528531 0.383946 0.286600
0.549757 0.395456 0.298110
0.570982 0.406965 0.309619
0.592207 0.418475 0.321129
0.613432 0.429984 0.332639
0.633876 0.441070 0.343724
0.633876 0.441070 0.343724
0.633876 0.441070 0.343724
0.125803 0.231999 0.125803
0.135374 0.231999 0.125803
0.144811 0.231999 0.125803
0.154218 0.231999 0.125803
0.163625 0.231999 0.125803
0.173032 0.231999 0.125803
0.182440 0.231999 0.125803
0.191847 0.231999 0.125803
0.201254 0.231999 0.125803
0.210661 0.231999 0.125803
0.220069 0.231999 0.125803
0.229476 0.231999 0.125803
0.247039 0.240154 0.133959
0.267590 0.251298 0.145103
0.288142 0.262443 0.156247
0.308693 0.273587 0.167391
0.337504 0.289210 0.183014
0.358729 0.300719 0.194524
0.379955 0.312229 0.206033
0.401180 0.323738 0.217543
0.422405 0.335248 0.229052
0.443630 0.346758 0.240562
0.464856 0.358267 0.252072
0.486081 0.369777 0.263581
0.507306 0.381286 0.275091
0.528531 0.392796 0.286600
0.549757 0.404305 0.298110
0.570982 0.415815 0.309619
0.592207 0.427324 0.321129
0.613432 0.438834 0.332639
0.633876 0.449920 0.343724
0.633876 0.449920 0.343724
0.633876 0.449920 0.343724
0.136287 0.251332 0.136287
0.145858 0.251332 0.136287
0.155294 0.251332 0.136287
0.164701 0.251332 0.136287
0.174109 0.251332 0.136287
0.183516 0.251332 0.136287
0.192923 0.251332 0.136287
0.202330 0.251332 0.136287
0.211738 0.251332 0.136287
0.221145 0.251332 0.136287
0.230552 0.251332 0.136287
0.239959 0.251332 0.136287
0.249367 0.251332 0.136287
0.267590 0.260148 0.145103
0.288142 0.271292 0.156247
0.308693 0.282436 0.167391
0.337504 0.298059 0.183014
0.358729 0.309569 0.194524
0.379955 0.321078 0.206033
0.401180 0.332588 0.217543
0.422405 0.344098 0.229052
0.443630 0.355607 0.240562
0.464856 0.367117 0.252072
0.486081 0.378626 0.263581
0.507306 0.390136 0.275091
0.528531 0.401645 0.286600
0.549757 0.413155 0.298110
0.570982 0.424665 0.309619
0.592207 0.436174 0.321129
0.613432 0.447684 0.332639
0.633876 0.458769 0.343724
0.633876 0.458769 0.343724
0.633876 0.458769 0.343724
0.146770 0.270665 0.146770
0.156341 0.270665 0.146770
0.165778 0.270665 0.146770
0.175185 0.270665 0.146770
0.184592 0.270665 0.146770
0.194000 0.270665 0.146770
0.203407 0.270665 0.146770
0.212814 0.270665 0.146770
0.222221 0.270665 0.146770
0.231629 0.270665 0.146770
0.241036 0.270665 0.146770
0.250443 0.270665 0.146770
0.259850 0.270665 0.146770
0.269258 0.270665 0.146770
0.288142 0.280142 0.156247
0.308693 0.291286 0.167391
0.337504 0.306909 0.183014
0.358729 0.318419 0.194524
0.379955 0.329928 0.206033
0.401180 0.341438 0.217543
0.422405 0.352947 0.229052
0.443630 0.364457 0.240562
0.464856 0.375966 0.252072
0.486081 0.387476 0.263581
0.507306 0.398985 0.275091
0.528531 0.410495 0.286600
0.549757 0.422005 0.298110
0.570982 0.433514 0.309619
0.592207 0.445024 0.321129
0.613432 0.456533 0.332639
0.633876 0.467619 0.343724
0.633876 0.467619 0.343724
0.633876 0.467619 0.343724
0.157254 0.289998 0.157254
0.166825 0.289998 0.157254
0.176261 0.289998 0.157254
0.185669 0.289998 0.157254
0.195076 0.289998 0.157254
0.204483 0.289998 0.157254
0.213890 0.289998 0.157254
0.223298 0.289998 0.157254
0.232705 0.289998 0.157254
0.242112 0.289998 0.157254
0.251519 0.289998 0.157254
0.260927 0.289998 0.157254
0.270334 0.289998 0.157254
0.279741 0.289998 0.157254
0.289148 0.289998 0.157254
0.308693 0.300136 0.167391
0.337504 0.315759 0.183014
0.358729 0.327268 0.194524
0.379955 0.338778 0.206033
0.401180 0.350287 0.217543
0.422405 0.361797 0.229052
0.443630 0.373306 0.240562
0.464856 0.384816 0.252072
0.486081 0.396326 0.263581
0.507306 0.407835 0.275091
0.528531 0.419345 0.286600
0.549757 0.430854 0.298110
0.570982 0.442364 0.309619
0.592207 0.453873 0.321129
0.613432 0.465383 0.332639
0.633876 0.476469 0.343724
0.633876 0.476469 0.343724
0.633876 0.476469 0.343724
0.167737 0.309331 0.167737
0.177308 0.309331 0.167737
0.186745 0.309331 0.167737
0.196152 0.309331 0.167737
0.205559 0.309331 0.167737
0.214967 0.309331 0.167737
0.224374 0.309331 0.167737
0.233781 0.309331 0.167737
0.243188 0.309331 0.167737
0.252596 0.309331 0.167737
0.262003 0.309331 0.167737
0.271410 0.309331 0.167737
0.280818 0.309331 0.167737
0.290225 0.309331 0.167737
0.299632 0.309331 0.167737
0.309039 0.309331 0.167737
0.337504 0.324608 0.183014
0.358729 0.336118 0.194524
0.379955 0.347627 0.206033
0.401180 0.359137 0.217543
0.422405 0.370646 0.229052
0.443630 0.382156 0.240562
0.464856 0.393666 0.252072
0.486081 0.405175 0.263581
0.507306 0.416685 0.275091
0.528531 0.428194 0.286600
0.549757 0.439704 0.298110
0.570982 0.451213 0.309619
0.592207 0.462723 0.321129
0.613432 0.474233 0.332639
0.633876 0.485318 0.343724
0.633876 0.485318 0.343724
0.633876 0.485318 0.343724
0.182689 0.336905 0.182689
0.192260 0.336905 0.182689
0.201697 0.336905 0.182689
0.211104 0.336905 0.182689
0.220511 0.336905 0.182689
0.229919 0.336905 0.182689
0.239326 0.336905 0.182689
0.248733 0.336905 0.182689
0.258140 0.336905 0.182689
0.267548 0.336905 0.182689
0.276955 0.336905 0.182689
0.286362 0.336905 0.182689
0.295770 0.336905 0.182689
0.305177 0.336905 0.182689
0.314584 0.336905 0.182689
0.323991 0.336905 0.182689
0.337504 0.337230 0.183014
0.358729 0.348739 0.194524
0.379955 0.360249 0.206033
0.401180 0.371759 0.217543
0.422405 0.383268 0.229052
0.443630 0.394778 0.240562
0.464856 0.406287 0.252072
0.486081 0.417797 0.263581
0.507306 0.429306 0.275091
0.528531 0.440816 0.286600
0.549757 0.452325 0.298110
0.570982 0.463835 0.309619
0.592207 0.475345 0.321129
0.613432 0.486854 0.332639
0.633876 0.497940 0.343724
0.633876 0.497940 0.343724
0.633876 0.497940 0.343724
0.193517 0.356872 0.193517
0.203088 0.356872 0.193517
0.212524 0.356872 0.193517
0.221931 0.356872 0.193517
0.231339 0.356872 0.193517
0.240746 0.356872 0.193517
0.250153 0.356872 0.193517
0.259561 0.356872 0.193517
0.268968 0.356872 0.193517
0.278375 0.356872 0.193517
0.287782 0.356872 0.193517
0.297190 0.356872 0.193517
0.306597 0.356872 0.193517
0.316004 0.356872 0.193517
0.325411 0.356872 0.193517
0.334819 0.356872 0.193517
0.348007 0.356872 0.193517
0.358729 0.357879 0.194524
0.379955 0.369389 0.206033
0.401180 0.380898 0.217543
0.422405 0.392408 0.229052
0.443630 0.403917 0.240562
0.464856 0.415427 0.252072
0.486081 0.426937 0.263581
0.507306 0.438446 0.275091
0.528531 0.449956 0.286600
0.549757 0.461465 0.298110
0.570982 0.472975 0.309619
0.592207 0.484484 0.321129
0.613432 0.495994 0.332639
0.633876 0.507080 0.343724
0.633876 0.507080 0.343724
0.633876 0.507080 0.343724
0.204344 0.376839 0.204344
0.213915 0.376839 0.204344
0.223352 0.376839 0.204344
0.232759 0.376839 0.204344
0.242166 0.376839 0.204344
0.251573 0.376839 0.204344
0.260981 0.376839 0.204344
0.270388 0.376839 0.204344
0.279795 0.376839 0.204344
0.289202 0.376839 0.204344
0.298610 0.376839 0.204344
0.308017 0.376839 0.204344
0.317424 0.376839 0.204344
0.326831 0.376839 0.204344
0.336239 0.376839 0.204344
0.345646 0.376839 0.204344
0.358834 0.376839 0.204344
0.368550 0.376839 0.204344
0.379955 0.378529 0.206033
0.401180 0.390038 0.217543
0.422405 0.401548 0.229052
0.443630 0.413057 0.240562
0.464856 0.424567 0.252072
0.486081 0.436076 0.263581
0.507306 0.447586 0.275091
0.528531 0.459095 0.286600
0.549757 0.470605 0.298110
0.570982 0.482115 0.309619
0.592207 0.493624 0.321129
0.613432 0.505134 0.332639
0.633876 0.516219 0.343724
0.633876 0.516219 0.343724
0.633876 0.516219 0.343724
0.215171 0.396806 0.215171
0.224742 0.396806 0.215171
0.234179 0.396806 0.215171
0.243586 0.396806 0.215171
0.252993 0.396806 0.215171
0.262401 0.396806 0.215171
0.271808 0.396806 0.215171
0.281215 0.396806 0.215171
0.290622 0.396806 0.215171
0.300030 0.396806 0.215171
0.309437 0.396806 0.215171
0.318844 0.396806 0.215171
0.328251 0.396806 0.215171
0.337659 0.396806 0.215171
0.347066 0.396806 0.215171
0.356473 0.396806 0.215171
0.369661 0.396806 0.215171
0.379377 0.396806 0.215171
0.389093 0.396806 0.215171
0.401180 0.399178 0.217543
0.422405 0.410687 0.229052
0.443630 0.422197 0.240562
0.464856 0.433707 0.252072
0.486081 0.445216 0.263581
0.507306 0.456726 0.275091
0.528531 0.468235 0.286600
0.549757 0.479745 0.298110
0.570982 0.491254 0.309619
0.592207 0.502764 0.321129
0.613432 0.514273 0.332639
0.633876 0.525359 0.343724
0.633876 0.525359 0.343724
0.633876 0.525359 0.343724
0.225999 0.416773 0.225999
0.235570 0.416773 0.225999
0.245006 0.416773 0.225999
0.254413 0.416773 0.225999
0.263821 0.416773 0.225999
0.273228 0.416773 0.225999
0.282635 0.416773 0.225999
0.292042 0.416773 0.225999
0.301450 0.416773 0.225999
0.310857 0.416773 0.225999
0.320264 0.416773 0.225999
0.329671 0.416773 0.225999
0.339079 0.416773 0.225999
0.348486 0.416773 0.225999
0.357893 0.416773 0.225999
0.367301 0.416773 0.225999
0.380488 0.416773 0.225999
0.390204 0.416773 0.225999
0.399920 0.416773 0.225999
0.409636 0.416773 0.225999
0.422405 0.419827 0.229052
0.443630 0.431337 0.240562
0.464856 0.442846 0.252072
0.486081 0.454356 0.263581
0.507306 0.465865 0.275091
0.528531 0.477375 0.286600
0.549757 0.488885 0.298110
0.570982 0.500394 0.309619
0.592207 0.511904 0.321129
0.613432 0.523413 0.332639
0.633876 0.534499 0.343724
0.633876 0.534499 0.343724
0.633876 0.534499 0.343724
0.236826 0.436740 0.236826
0.246397 0.436740 0.236826
0.255833 0.436740 0.236826
0.265241 0.436740 0.236826
0.274648 0.436740 0.236826
0.284055 0.436740 0.236826
0.293463 0.436740 0.236826
0.302870 0.436740 0.236826
0.312277 0.436740 0.236826
0.321684 0.436740 0.236826
0.331092 0.436740 0.236826
0.340499 0.436740 0.236826
0.349906 0.436740 0.236826
0.359313 0.436740 0.236826
0.368721 0.436740 0.236826
0.378128 0.436740 0.236826
0.391316 0.436740 0.236826
0.401031 0.436740 0.236826
0.410747 0.436740 0.236826
0.420463 0.436740 0.236826
0.430179 0.436740 0.236826
0.443630 0.440477 0.240562
0.464856 0.451986 0.252072
0.486081 0.463496 0.263581
0.507306 0.475005 0.275091
0.528531 0.486515 0.286600
0.549757 0.498024 0.298110
0.570982 0.509534 0.309619
0.592207 0.521043 0.321129
0.613432 0.532553 0.332639
0.633876 0.543639 0.343724
0.633876 0.543639 0.343724
0.633876 0.543639 0.343724
0.247653 0.456708 0.247653
0.257224 0.456708 0.247653
0.266661 0.456708 0.247653
0.276068 0.456708 0.247653
0.285475 0.456708 0.247653
0.294883 0.456708 0.247653
0.304290 0.456708 0.247653
0.313697 0.456708 0.247653
0.323104 0.456708 0.247653
0.332512 0.456708 0.247653
0.341919 0.456708 0.247653
0.351326 0.456708 0.247653
0.360733 0.456708 0.247653
0.370141 0.456708 0.247653
0.379548 0.456708 0.247653
0.388955 0.456708 0.247653
0.402143 0.456708 0.247653
0.411859 0.456708 0.247653
0.421574 0.456708 0.247653
0.431290 0.456708 0.247653
0.441006 0.456708 0.247653
0.450722 0.456708 0.247653
0.464856 0.461126 0.252072
0.486081 0.472635 0.263581
0.507306 0.484145 0.275091
0.528531 0.495655 0.286600
0.549757 0.507164 0.298110
0.570982 0.518674 0.309619
0.592207 0.530183 0.321129
0.613432 0.541693 0.332639
0.633876 0.552778 0.343724
0.633876 0.552778 0.343724
0.633876 0.552778 0.343724
0.258481 0.476675 0.258481
0.268051 0.476675 0.258481
0.277488 0.476675 0.258481
0.286895 0.476675 0.258481
0.296303 0.476675 0.258481
0.305710 0.476675 0.258481
0.315117 0.476675 0.258481
0.324524 0.476675 0.258481
0.333932 0.476675 0.258481
0.343339 0.476675 0.258481
0.352746 0.476675 0.258481
0.362153 0.476675 0.258481
0.371561 0.476675 0.258481
0.380968 0.476675 0.258481
0.390375 0.476675 0.258481
0.399782 0.476675 0.258481
0.412970 0.476675 0.258481
0.422686 0.476675 0.258481
0.432402 0.476675 0.258481
0.442117 0.476675 0.258481
0.451833 0.476675 0.258481
0.461549 0.476675 0.258481
0.471265 0.476675 0.258481
0.486081 0.481775 0.263581
0.507306 0.493285 0.275091
0.528531 0.504794 0.286600
0.549757 0.516304 0.298110
0.570982 0.527813 0.309619
0.592207 0.539323 0.321129
0.613432 0.550833 0.332639
0.633876 0.561918 0.343724
0.633876 0.561918 0.343724
0.633876 0.561918 0.343724
0.269308 0.496642 0.269308
0.278879 0.496642 0.269308
0.288315 0.496642 0.269308
0.297723 0.496642 0.269308
0.307130 0.496642 0.269308
0.316537 0.496642 0.269308
0.325944 0.496642 0.269308
0.335352 0.496642 0.269308
0.344759 0.496642 0.269308
0.354166 0.496642 0.269308
0.363573 0.496642 0.269308
0.372981 0.496642 0.269308
0.382388 0.496642 0.269308
0.391795 0.496642 0.269308
0.401203 0.496642 0.269308
0.410610 0.496642 0.269308
0.423798 0.496642 0.269308
0.433513 0.496642 0.269308
0.443229 0.496642 0.269308
0.452945 0.496642 0.269308
0.462660 0.496642 0.269308
0.472376 0.496642 0.269308
0.482092 0.496642 0.269308
0.491808 0.496642 0.269308
0.507306 0.502425 0.275091
0.528531 0.513934 0.286600
0.549757 0.525444 0.298110
0.570982 0.536953 0.309619
0.592207 0.548463 0.321129
0.613432 0.559972 0.332639
0.633876 0.571058 0.343724
0.633876 0.571058 0.343724
0.633876 0.571058 0.343724
0.280135 0.516609 0.280135
0.289706 0.516609 0.280135
0.299143 0.516609 0.280135
0.308550 0.516609 0.280135
0.317957 0.516609 0.280135
0.327364 0.516609 0.280135
0.336772 0.516609 0.280135
0.346179 0.516609 0.280135
0.355586 0.516609 0.280135
0.364994 0.516609 0.280135
0.374401 0.516609 0.280135
0.383808 0.516609 0.280135
0.393215 0.516609 0.280135
0.402623 0.516609 0.280135
0.412030 0.516609 0.280135
0.421437 0.516609 0.280135
0.434625 0.516609 0.280135
0.444341 0.516609 0.280135
0.454056 0.516609 0.280135
0.463772 0.516609 0.280135
0.473488 0.516609 0.280135
0.483203 0.516609 0.280135
0.492919 0.516609 0.280135
0.502635 0.516609 0.280135
0.512351 0.516609 0.280135
