docs/luts/fuji_recipes/Velvia_RR_Split-Tones_B_W_2_2.cube
TITLE "Fujifilm Recipe: RR Split-Tones B&W 2/2 (Velvia)"
# FilmSim=Velvia HL=4 SH=4 Col=2 WB=Auto WBR=0 WBB=0
LUT_3D_SIZE 33
DOMAIN_MIN 0.0 0.0 0.0
DOMAIN_MAX 1.0 1.0 1.0
0.000000 0.000000 0.000000
0.011083 0.000000 0.000000
0.023625 0.000000 0.000000
0.039817 0.000000 0.000000
0.056139 0.000000 0.000000
0.072461 0.000000 0.000000
0.088783 0.000000 0.000000
0.105106 0.000000 0.000000
0.121428 0.000000 0.000000
0.137750 0.000000 0.000000
0.154072 0.000000 0.000000
0.170394 0.000000 0.000000
0.186717 0.000000 0.000000
0.203039 0.000000 0.000000
0.219361 0.000000 0.000000
0.235683 0.000000 0.000000
0.252005 0.000000 0.000000
0.268327 0.000000 0.000000
0.284650 0.000000 0.000000
0.300972 0.000000 0.000000
0.317294 0.000000 0.000000
0.333616 0.000000 0.000000
0.427995 0.000000 0.000000
0.451274 0.000000 0.000000
0.474553 0.000000 0.000000
0.497832 0.000000 0.000000
0.521111 0.000000 0.000000
0.544391 0.000000 0.000000
0.567670 0.000000 0.000000
0.590949 0.000000 0.000000
0.614228 0.000000 0.000000
0.637507 0.000000 0.000000
0.660786 0.000000 0.000000
0.000000 0.010760 0.000000
0.011083 0.010760 0.000000
0.023625 0.010760 0.000000
0.039817 0.010760 0.000000
0.056139 0.010760 0.000000
0.072461 0.010760 0.000000
0.088783 0.010760 0.000000
0.105106 0.010760 0.000000
0.121428 0.010760 0.000000
0.137750 0.010760 0.000000
0.154072 0.010760 0.000000
0.170394 0.010760 0.000000
0.186717 0.010760 0.000000
0.203039 0.010760 0.000000
0.219361 0.010760 0.000000
0.235683 0.010760 0.000000
0.252005 0.010760 0.000000
0.268327 0.010760 0.000000
0.284650 0.010760 0.000000
0.300972 0.010760 0.000000
0.317294 0.010760 0.000000
0.333616 0.010760 0.000000
0.427995 0.010760 0.000000
0.451274 0.010760 0.000000
0.474553 0.010760 0.000000
0.497832 0.010760 0.000000
0.521111 0.010760 0.000000
0.544391 0.010760 0.000000
0.567670 0.010760 0.000000
0.590949 0.010760 0.000000
0.614228 0.010760 0.000000
0.637507 0.010760 0.000000
0.660786 0.010760 0.000000
0.000000 0.022936 0.000000
0.011083 0.022936 0.000000
0.023625 0.022936 0.000000
0.039817 0.022936 0.000000
0.056139 0.022936 0.000000
0.072461 0.022936 0.000000
0.088783 0.022936 0.000000
0.105106 0.022936 0.000000
0.121428 0.022936 0.000000
0.137750 0.022936 0.000000
0.154072 0.022936 0.000000
0.170394 0.022936 0.000000
0.186717 0.022936 0.000000
0.203039 0.022936 0.000000
0.219361 0.022936 0.000000
0.235683 0.022936 0.000000
0.252005 0.022936 0.000000
0.268327 0.022936 0.000000
0.284650 0.022936 0.000000
0.300972 0.022936 0.000000
0.317294 0.022936 0.000000
0.333616 0.022936 0.000000
0.427995 0.022936 0.000000
0.451274 0.022936 0.000000
0.474553 0.022936 0.000000
0.497832 0.022936 0.000000
0.521111 0.022936 0.000000
0.544391 0.022936 0.000000
0.567670 0.022936 0.000000
0.590949 0.022936 0.000000
0.614228 0.022936 0.000000
0.637507 0.022936 0.000000
0.660786 0.022936 0.000000
0.000000 0.038866 0.000000
0.011083 0.038866 0.000000
0.023625 0.038866 0.000000
0.039817 0.038866 0.000000
0.056139 0.038866 0.000000
0.072461 0.038866 0.000000
0.088783 0.038866 0.000000
0.105106 0.038866 0.000000
0.121428 0.038866 0.000000
0.137750 0.038866 0.000000
0.154072 0.038866 0.000000
0.170394 0.038866 0.000000
0.186717 0.038866 0.000000
0.203039 0.038866 0.000000
0.219361 0.038866 0.000000
0.235683 0.038866 0.000000
0.252005 0.038866 0.000000
0.268327 0.038866 0.000000
0.284650 0.038866 0.000000
0.300972 0.038866 0.000000
0.317294 0.038866 0.000000
0.333616 0.038866 0.000000
0.427995 0.038866 0.000000
0.451274 0.038866 0.000000
0.474553 0.038866 0.000000
0.497832 0.038866 0.000000
0.521111 0.038866 0.000000
0.544391 0.038866 0.000000
0.567670 0.038866 0.000000
0.590949 0.038866 0.000000
0.614228 0.038866 0.000000
0.637507 0.038866 0.000000
0.660786 0.038866 0.000000
0.000000 0.054988 0.000000
0.011083 0.054988 0.000000
0.023625 0.054988 0.000000
0.039817 0.054988 0.000000
0.056139 0.054988 0.000000
0.072461 0.054988 0.000000
0.088783 0.054988 0.000000
0.105106 0.054988 0.000000
0.121428 0.054988 0.000000
0.137750 0.054988 0.000000
0.154072 0.054988 0.000000
0.170394 0.054988 0.000000
0.186717 0.054988 0.000000
0.203039 0.054988 0.000000
0.219361 0.054988 0.000000
0.235683 0.054988 0.000000
0.252005 0.054988 0.000000
0.268327 0.054988 0.000000
0.284650 0.054988 0.000000
0.300972 0.054988 0.000000
0.317294 0.054988 0.000000
0.333616 0.054988 0.000000
0.427995 0.054988 0.000000
0.451274 0.054988 0.000000
0.474553 0.054988 0.000000
0.497832 0.054988 0.000000
0.521111 0.054988 0.000000
0.544391 0.054988 0.000000
0.567670 0.054988 0.000000
0.590949 0.054988 0.000000
0.614228 0.054988 0.000000
0.637507 0.054988 0.000000
0.660786 0.054988 0.000000
0.000000 0.071111 0.000000
0.011083 0.071111 0.000000
0.023625 0.071111 0.000000
0.039817 0.071111 0.000000
0.056139 0.071111 0.000000
0.072461 0.071111 0.000000
0.088783 0.071111 0.000000
0.105106 0.071111 0.000000
0.121428 0.071111 0.000000
0.137750 0.071111 0.000000
0.154072 0.071111 0.000000
0.170394 0.071111 0.000000
0.186717 0.071111 0.000000
0.203039 0.071111 0.000000
0.219361 0.071111 0.000000
0.235683 0.071111 0.000000
0.252005 0.071111 0.000000
0.268327 0.071111 0.000000
0.284650 0.071111 0.000000
0.300972 0.071111 0.000000
0.317294 0.071111 0.000000
0.333616 0.071111 0.000000
0.427995 0.071111 0.000000
0.451274 0.071111 0.000000
0.474553 0.071111 0.000000
0.497832 0.071111 0.000000
0.521111 0.071111 0.000000
0.544391 0.071111 0.000000
0.567670 0.071111 0.000000
0.590949 0.071111 0.000000
0.614228 0.071111 0.000000
0.637507 0.071111 0.000000
0.660786 0.071111 0.000000
0.000000 0.087233 0.000000
0.011083 0.087233 0.000000
0.023625 0.087233 0.000000
0.039817 0.087233 0.000000
0.056139 0.087233 0.000000
0.072461 0.087233 0.000000
0.088783 0.087233 0.000000
0.105106 0.087233 0.000000
0.121428 0.087233 0.000000
0.137750 0.087233 0.000000
0.154072 0.087233 0.000000
0.170394 0.087233 0.000000
0.186717 0.087233 0.000000
0.203039 0.087233 0.000000
0.219361 0.087233 0.000000
0.235683 0.087233 0.000000
0.252005 0.087233 0.000000
0.268327 0.087233 0.000000
0.284650 0.087233 0.000000
0.300972 0.087233 0.000000
0.317294 0.087233 0.000000
0.333616 0.087233 0.000000
0.427995 0.087233 0.000000
0.451274 0.087233 0.000000
0.474553 0.087233 0.000000
0.497832 0.087233 0.000000
0.521111 0.087233 0.000000
0.544391 0.087233 0.000000
0.567670 0.087233 0.000000
0.590949 0.087233 0.000000
0.614228 0.087233 0.000000
0.637507 0.087233 0.000000
0.660786 0.087233 0.000000
0.000000 0.103355 0.000000
0.011083 0.103355 0.000000
0.023625 0.103355 0.000000
0.039817 0.103355 0.000000
0.056139 0.103355 0.000000
0.072461 0.103355 0.000000
0.088783 0.103355 0.000000
0.105106 0.103355 0.000000
0.121428 0.103355 0.000000
0.137750 0.103355 0.000000
0.154072 0.103355 0.000000
0.170394 0.103355 0.000000
0.186717 0.103355 0.000000
0.203039 0.103355 0.000000
0.219361 0.103355 0.000000
0.235683 0.103355 0.000000
0.252005 0.103355 0.000000
0.268327 0.103355 0.000000
0.284650 0.103355 0.000000
0.300972 0.103355 0.000000
0.317294 0.103355 0.000000
0.333616 0.103355 0.000000
0.427995 0.103355 0.000000
0.451274 0.103355 0.000000
0.474553 0.103355 0.000000
0.497832 0.103355 0.000000
0.521111 0.103355 0.000000
0.544391 0.103355 0.000000
0.567670 0.103355 0.000000
0.590949 0.103355 0.000000
0.614228 0.103355 0.000000
0.637507 0.103355 0.000000
0.660786 0.103355 0.000000
0.000000 0.119478 0.000000
0.011083 0.119478 0.000000
0.023625 0.119478 0.000000
0.039817 0.119478 0.000000
0.056139 0.119478 0.000000
0.072461 0.119478 0.000000
0.088783 0.119478 0.000000
0.105106 0.119478 0.000000
0.121428 0.119478 0.000000
0.137750 0.119478 0.000000
0.154072 0.119478 0.000000
0.170394 0.119478 0.000000
0.186717 0.119478 0.000000
0.203039 0.119478 0.000000
0.219361 0.119478 0.000000
0.235683 0.119478 0.000000
0.252005 0.119478 0.000000
0.268327 0.119478 0.000000
0.284650 0.119478 0.000000
0.300972 0.119478 0.000000
0.317294 0.119478 0.000000
0.333616 0.119478 0.000000
0.427995 0.119478 0.000000
0.451274 0.119478 0.000000
0.474553 0.119478 0.000000
0.497832 0.119478 0.000000
0.521111 0.119478 0.000000
0.544391 0.119478 0.000000
0.567670 0.119478 0.000000
0.590949 0.119478 0.000000
0.614228 0.119478 0.000000
0.637507 0.119478 0.000000
0.660786 0.119478 0.000000
0.000000 0.135600 0.000000
0.011083 0.135600 0.000000
0.023625 0.135600 0.000000
0.039817 0.135600 0.000000
0.056139 0.135600 0.000000
0.072461 0.135600 0.000000
0.088783 0.135600 0.000000
0.105106 0.135600 0.000000
0.121428 0.135600 0.000000
0.137750 0.135600 0.000000
0.154072 0.135600 0.000000
0.170394 0.135600 0.000000
0.186717 0.135600 0.000000
0.203039 0.135600 0.000000
0.219361 0.135600 0.000000
0.235683 0.135600 0.000000
0.252005 0.135600 0.000000
0.268327 0.135600 0.000000
0.284650 0.135600 0.000000
0.300972 0.135600 0.000000
0.317294 0.135600 0.000000
0.333616 0.135600 0.000000
0.427995 0.135600 0.000000
0.451274 0.135600 0.000000
0.474553 0.135600 0.000000
0.497832 0.135600 0.000000
0.521111 0.135600 0.000000
0.544391 0.135600 0.000000
0.567670 0.135600 0.000000
0.590949 0.135600 0.000000
0.614228 0.135600 0.000000
0.637507 0.135600 0.000000
0.660786 0.135600 0.000000
0.000000 0.151723 0.000000
0.011083 0.151723 0.000000
0.023625 0.151723 0.000000
0.039817 0.151723 0.000000
0.056139 0.151723 0.000000
0.072461 0.151723 0.000000
0.088783 0.151723 0.000000
0.105106 0.151723 0.000000
0.121428 0.151723 0.000000
0.137750 0.151723 0.000000
0.154072 0.151723 0.000000
0.170394 0.151723 0.000000
0.186717 0.151723 0.000000
0.203039 0.151723 0.000000
0.219361 0.151723 0.000000
0.235683 0.151723 0.000000
0.252005 0.151723 0.000000
0.268327 0.151723 0.000000
0.284650 0.151723 0.000000
0.300972 0.151723 0.000000
0.317294 0.151723 0.000000
0.333616 0.151723 0.000000
0.427995 0.151723 0.000000
0.451274 0.151723 0.000000
0.474553 0.151723 0.000000
0.497832 0.151723 0.000000
0.521111 0.151723 0.000000
0.544391 0.151723 0.000000
0.567670 0.151723 0.000000
0.590949 0.151723 0.000000
0.614228 0.151723 0.000000
0.637507 0.151723 0.000000
0.660786 0.151723 0.000000
0.000000 0.167845 0.000000
0.011083 0.167845 0.000000
0.023625 0.167845 0.000000
0.039817 0.167845 0.000000
0.056139 0.167845 0.000000
0.072461 0.167845 0.000000
0.088783 0.167845 0.000000
0.105106 0.167845 0.000000
0.121428 0.167845 0.000000
0.137750 0.167845 0.000000
0.154072 0.167845 0.000000
0.170394 0.167845 0.000000
0.186717 0.167845 0.000000
0.203039 0.167845 0.000000
0.219361 0.167845 0.000000
0.235683 0.167845 0.000000
0.252005 0.167845 0.000000
0.268327 0.167845 0.000000
0.284650 0.167845 0.000000
0.300972 0.167845 0.000000
0.317294 0.167845 0.000000
0.333616 0.167845 0.000000
0.427995 0.167845 0.000000
0.451274 0.167845 0.000000
0.474553 0.167845 0.000000
0.497832 0.167845 0.000000
0.521111 0.167845 0.000000
0.544391 0.167845 0.000000
0.567670 0.167845 0.000000
0.590949 0.167845 0.000000
0.614228 0.167845 0.000000
0.637507 0.167845 0.000000
0.660786 0.167845 0.000000
0.000000 0.183967 0.000000
0.011083 0.183967 0.000000
0.023625 0.183967 0.000000
0.039817 0.183967 0.000000
0.056139 0.183967 0.000000
0.072461 0.183967 0.000000
0.088783 0.183967 0.000000
0.105106 0.183967 0.000000
0.121428 0.183967 0.000000
0.137750 0.183967 0.000000
0.154072 0.183967 0.000000
0.170394 0.183967 0.000000
0.186717 0.183967 0.000000
0.203039 0.183967 0.000000
0.219361 0.183967 0.000000
0.235683 0.183967 0.000000
0.252005 0.183967 0.000000
0.268327 0.183967 0.000000
0.284650 0.183967 0.000000
0.300972 0.183967 0.000000
0.317294 0.183967 0.000000
0.333616 0.183967 0.000000
0.427995 0.183967 0.000000
0.451274 0.183967 0.000000
0.474553 0.183967 0.000000
0.497832 0.183967 0.000000
0.521111 0.183967 0.000000
0.544391 0.183967 0.000000
0.567670 0.183967 0.000000
0.590949 0.183967 0.000000
0.614228 0.183967 0.000000
0.637507 0.183967 0.000000
0.660786 0.183967 0.000000
0.000000 0.200090 0.000000
0.011083 0.200090 0.000000
0.023625 0.200090 0.000000
0.039817 0.200090 0.000000
0.056139 0.200090 0.000000
0.072461 0.200090 0.000000
0.088783 0.200090 0.000000
0.105106 0.200090 0.000000
0.121428 0.200090 0.000000
0.137750 0.200090 0.000000
0.154072 0.200090 0.000000
0.170394 0.200090 0.000000
0.186717 0.200090 0.000000
0.203039 0.200090 0.000000
0.219361 0.200090 0.000000
0.235683 0.200090 0.000000
0.252005 0.200090 0.000000
0.268327 0.200090 0.000000
0.284650 0.200090 0.000000
0.300972 0.200090 0.000000
0.317294 0.200090 0.000000
0.333616 0.200090 0.000000
0.427995 0.200090 0.000000
0.451274 0.200090 0.000000
0.474553 0.200090 0.000000
0.497832 0.200090 0.000000
0.521111 0.200090 0.000000
0.544391 0.200090 0.000000
0.567670 0.200090 0.000000
0.590949 0.200090 0.000000
0.614228 0.200090 0.000000
0.637507 0.200090 0.000000
0.660786 0.200090 0.000000
0.000000 0.216212 0.000000
0.011083 0.216212 0.000000
0.023625 0.216212 0.000000
0.039817 0.216212 0.000000
0.056139 0.216212 0.000000
0.072461 0.216212 0.000000
0.088783 0.216212 0.000000
0.105106 0.216212 0.000000
0.121428 0.216212 0.000000
0.137750 0.216212 0.000000
0.154072 0.216212 0.000000
0.170394 0.216212 0.000000
0.186717 0.216212 0.000000
0.203039 0.216212 0.000000
0.219361 0.216212 0.000000
0.235683 0.216212 0.000000
0.252005 0.216212 0.000000
0.268327 0.216212 0.000000
0.284650 0.216212 0.000000
0.300972 0.216212 0.000000
0.317294 0.216212 0.000000
0.333616 0.216212 0.000000
0.427995 0.216212 0.000000
0.451274 0.216212 0.000000
0.474553 0.216212 0.000000
0.497832 0.216212 0.000000
0.521111 0.216212 0.000000
0.544391 0.216212 0.000000
0.567670 0.216212 0.000000
0.590949 0.216212 0.000000
0.614228 0.216212 0.000000
0.637507 0.216212 0.000000
0.660786 0.216212 0.000000
0.000000 0.232335 0.000000
0.011083 0.232335 0.000000
0.023625 0.232335 0.000000
0.039817 0.232335 0.000000
0.056139 0.232335 0.000000
0.072461 0.232335 0.000000
0.088783 0.232335 0.000000
0.105106 0.232335 0.000000
0.121428 0.232335 0.000000
0.137750 0.232335 0.000000
0.154072 0.232335 0.000000
0.170394 0.232335 0.000000
0.186717 0.232335 0.000000
0.203039 0.232335 0.000000
0.219361 0.232335 0.000000
0.235683 0.232335 0.000000
0.252005 0.232335 0.000000
0.268327 0.232335 0.000000
0.284650 0.232335 0.000000
0.300972 0.232335 0.000000
0.317294 0.232335 0.000000
0.333616 0.232335 0.000000
0.427995 0.232335 0.000000
0.451274 0.232335 0.000000
0.474553 0.232335 0.000000
0.497832 0.232335 0.000000
0.521111 0.232335 0.000000
0.544391 0.232335 0.000000
0.567670 0.232335 0.000000
0.590949 0.232335 0.000000
0.614228 0.232335 0.000000
0.637507 0.232335 0.000000
0.660786 0.232335 0.000000
0.000000 0.248457 0.000000
0.011083 0.248457 0.000000
0.023625 0.248457 0.000000
0.039817 0.248457 0.000000
0.056139 0.248457 0.000000
0.072461 0.248457 0.000000
0.088783 0.248457 0.000000
0.105106 0.248457 0.000000
0.121428 0.248457 0.000000
0.137750 0.248457 0.000000
0.154072 0.248457 0.000000
0.170394 0.248457 0.000000
0.186717 0.248457 0.000000
0.203039 0.248457 0.000000
0.219361 0.248457 0.000000
0.235683 0.248457 0.000000
0.252005 0.248457 0.000000
0.268327 0.248457 0.000000
0.284650 0.248457 0.000000
0.300972 0.248457 0.000000
0.317294 0.248457 0.000000
0.333616 0.248457 0.000000
0.427995 0.248457 0.000000
0.451274 0.248457 0.000000
0.474553 0.248457 0.000000
0.497832 0.248457 0.000000
0.521111 0.248457 0.000000
0.544391 0.248457 0.000000
0.567670 0.248457 0.000000
0.590949 0.248457 0.000000
0.614228 0.248457 0.000000
0.637507 0.248457 0.000000
0.660786 0.248457 0.000000
0.000000 0.264579 0.000000
0.011083 0.264579 0.000000
0.023625 0.264579 0.000000
0.039817 0.264579 0.000000
0.056139 0.264579 0.000000
0.072461 0.264579 0.000000
0.088783 0.264579 0.000000
0.105106 0.264579 0.000000
0.121428 0.264579 0.000000
0.137750 0.264579 0.000000
0.154072 0.264579 0.000000
0.170394 0.264579 0.000000
0.186717 0.264579 0.000000
0.203039 0.264579 0.000000
0.219361 0.264579 0.000000
0.235683 0.264579 0.000000
0.252005 0.264579 0.000000
0.268327 0.264579 0.000000
0.284650 0.264579 0.000000
0.300972 0.264579 0.000000
0.317294 0.264579 0.000000
0.333616 0.264579 0.000000
0.427995 0.264579 0.000000
0.451274 0.264579 0.000000
0.474553 0.264579 0.000000
0.497832 0.264579 0.000000
0.521111 0.264579 0.000000
0.544391 0.264579 0.000000
0.567670 0.264579 0.000000
0.590949 0.264579 0.000000
0.614228 0.264579 0.000000
0.637507 0.264579 0.000000
0.660786 0.264579 0.000000
0.000000 0.280702 0.000000
0.011083 0.280702 0.000000
0.023625 0.280702 0.000000
0.039817 0.280702 0.000000
0.056139 0.280702 0.000000
0.072461 0.280702 0.000000
0.088783 0.280702 0.000000
0.105106 0.280702 0.000000
0.121428 0.280702 0.000000
0.137750 0.280702 0.000000
0.154072 0.280702 0.000000
0.170394 0.280702 0.000000
0.186717 0.280702 0.000000
0.203039 0.280702 0.000000
0.219361 0.280702 0.000000
0.235683 0.280702 0.000000
0.252005 0.280702 0.000000
0.268327 0.280702 0.000000
0.284650 0.280702 0.000000
0.300972 0.280702 0.000000
0.317294 0.280702 0.000000
0.333616 0.280702 0.000000
0.427995 0.280702 0.000000
0.451274 0.280702 0.000000
0.474553 0.280702 0.000000
0.497832 0.280702 0.000000
0.521111 0.280702 0.000000
0.544391 0.280702 0.000000
0.567670 0.280702 0.000000
0.590949 0.280702 0.000000
0.614228 0.280702 0.000000
0.637507 0.280702 0.000000
0.660786 0.280702 0.000000
0.000000 0.296824 0.000000
0.011083 0.296824 0.000000
0.023625 0.296824 0.000000
0.039817 0.296824 0.000000
0.056139 0.296824 0.000000
0.072461 0.296824 0.000000
0.088783 0.296824 0.000000
0.105106 0.296824 0.000000
0.121428 0.296824 0.000000
0.137750 0.296824 0.000000
0.154072 0.296824 0.000000
0.170394 0.296824 0.000000
0.186717 0.296824 0.000000
0.203039 0.296824 0.000000
0.219361 0.296824 0.000000
0.235683 0.296824 0.000000
0.252005 0.296824 0.000000
0.268327 0.296824 0.000000
0.284650 0.296824 0.000000
0.300972 0.296824 0.000000
0.317294 0.296824 0.000000
0.333616 0.296824 0.000000
0.427995 0.296824 0.000000
0.451274 0.296824 0.000000
0.474553 0.296824 0.000000
0.497832 0.296824 0.000000
0.521111 0.296824 0.000000
0.544391 0.296824 0.000000
0.567670 0.296824 0.000000
0.590949 0.296824 0.000000
0.614228 0.296824 0.000000
0.637507 0.296824 0.000000
0.660786 0.296824 0.000000
0.000000 0.312946 0.000000
0.011083 0.312946 0.000000
0.023625 0.312946 0.000000
0.039817 0.312946 0.000000
0.056139 0.312946 0.000000
0.072461 0.312946 0.000000
0.088783 0.312946 0.000000
0.105106 0.312946 0.000000
0.121428 0.312946 0.000000
0.137750 0.312946 0.000000
0.154072 0.312946 0.000000
0.170394 0.312946 0.000000
0.186717 0.312946 0.000000
0.203039 0.312946 0.000000
0.219361 0.312946 0.000000
0.235683 0.312946 0.000000
0.252005 0.312946 0.000000
0.268327 0.312946 0.000000
0.284650 0.312946 0.000000
0.300972 0.312946 0.000000
0.317294 0.312946 0.000000
0.333616 0.312946 0.000000
0.427995 0.312946 0.000000
0.451274 0.312946 0.000000
0.474553 0.312946 0.000000
0.497832 0.312946 0.000000
0.521111 0.312946 0.000000
0.544391 0.312946 0.000000
0.567670 0.312946 0.000000
0.590949 0.312946 0.000000
0.614228 0.312946 0.000000
0.637507 0.312946 0.000000
0.660786 0.312946 0.000000
0.000000 0.329069 0.000000
0.011083 0.329069 0.000000
0.023625 0.329069 0.000000
0.039817 0.329069 0.000000
0.056139 0.329069 0.000000
0.072461 0.329069 0.000000
0.088783 0.329069 0.000000
0.105106 0.329069 0.000000
0.121428 0.329069 0.000000
0.137750 0.329069 0.000000
0.154072 0.329069 0.000000
0.170394 0.329069 0.000000
0.186717 0.329069 0.000000
0.203039 0.329069 0.000000
0.219361 0.329069 0.000000
0.235683 0.329069 0.000000
0.252005 0.329069 0.000000
0.268327 0.329069 0.000000
0.284650 0.329069 0.000000
0.300972 0.329069 0.000000
0.317294 0.329069 0.000000
0.333616 0.329069 0.000000
0.427995 0.329069 0.000000
0.451274 0.329069 0.000000
0.474553 0.329069 0.000000
0.497832 0.329069 0.000000
0.521111 0.329069 0.000000
0.544391 0.329069 0.000000
0.567670 0.329069 0.000000
0.590949 0.329069 0.000000
0.614228 0.329069 0.000000
0.637507 0.329069 0.000000
0.660786 0.329069 0.000000
0.000000 0.421224 0.000000
0.011083 0.421224 0.000000
0.023625 0.421224 0.000000
0.039817 0.421224 0.000000
0.056139 0.421224 0.000000
0.072461 0.421224 0.000000
0.088783 0.421224 0.000000
0.105106 0.421224 0.000000
0.121428 0.421224 0.000000
0.137750 0.421224 0.000000
0.154072 0.421224 0.000000
0.170394 0.421224 0.000000
0.186717 0.421224 0.000000
0.203039 0.421224 0.000000
0.219361 0.421224 0.000000
0.235683 0.421224 0.000000
0.252005 0.421224 0.000000
0.268327 0.421224 0.000000
0.284650 0.421224 0.000000
0.300972 0.421224 0.000000
0.317294 0.421224 0.000000
0.333616 0.421224 0.000000
0.427995 0.421224 0.000000
0.451274 0.421224 0.000000
0.474553 0.421224 0.000000
0.497832 0.421224 0.000000
0.521111 0.421224 0.000000
0.544391 0.421224 0.000000
0.567670 0.421224 0.000000
0.590949 0.421224 0.000000
0.614228 0.421224 0.000000
0.637507 0.421224 0.000000
0.660786 0.421224 0.000000
0.000000 0.444219 0.000000
0.011083 0.444219 0.000000
0.023625 0.444219 0.000000
0.039817 0.444219 0.000000
0.056139 0.444219 0.000000
0.072461 0.444219 0.000000
0.088783 0.444219 0.000000
0.105106 0.444219 0.000000
0.121428 0.444219 0.000000
0.137750 0.444219 0.000000
0.154072 0.444219 0.000000
0.170394 0.444219 0.000000
0.186717 0.444219 0.000000
0.203039 0.444219 0.000000
0.219361 0.444219 0.000000
0.235683 0.444219 0.000000
0.252005 0.444219 0.000000
0.268327 0.444219 0.000000
0.284650 0.444219 0.000000
0.300972 0.444219 0.000000
0.317294 0.444219 0.000000
0.333616 0.444219 0.000000
0.427995 0.444219 0.000000
0.451274 0.444219 0.000000
0.474553 0.444219 0.000000
0.497832 0.444219 0.000000
0.521111 0.444219 0.000000
0.544391 0.444219 0.000000
0.567670 0.444219 0.000000
0.590949 0.444219 0.000000
0.614228 0.444219 0.000000
0.637507 0.444219 0.000000
0.660786 0.444219 0.000000
0.000000 0.467213 0.000000
0.011083 0.467213 0.000000
0.023625 0.467213 0.000000
0.039817 0.467213 0.000000
0.056139 0.467213 0.000000
0.072461 0.467213 0.000000
0.088783 0.467213 0.000000
0.105106 0.467213 0.000000
0.121428 0.467213 0.000000
0.137750 0.467213 0.000000
0.154072 0.467213 0.000000
0.170394 0.467213 0.000000
0.186717 0.467213 0.000000
0.203039 0.467213 0.000000
0.219361 0.467213 0.000000
0.235683 0.467213 0.000000
0.252005 0.467213 0.000000
0.268327 0.467213 0.000000
0.284650 0.467213 0.000000
0.300972 0.467213 0.000000
0.317294 0.467213 0.000000
0.333616 0.467213 0.000000
0.427995 0.467213 0.000000
0.451274 0.467213 0.000000
0.474553 0.467213 0.000000
0.497832 0.467213 0.000000
0.521111 0.467213 0.000000
0.544391 0.467213 0.000000
0.567670 0.467213 0.000000
0.590949 0.467213 0.000000
0.614228 0.467213 0.000000
0.637507 0.467213 0.000000
0.660786 0.467213 0.000000
0.000000 0.490207 0.000000
0.011083 0.490207 0.000000
0.023625 0.490207 0.000000
0.039817 0.490207 0.000000
0.056139 0.490207 0.000000
0.072461 0.490207 0.000000
0.088783 0.490207 0.000000
0.105106 0.490207 0.000000
0.121428 0.490207 0.000000
0.137750 0.490207 0.000000
0.154072 0.490207 0.000000
0.170394 0.490207 0.000000
0.186717 0.490207 0.000000
0.203039 0.490207 0.000000
0.219361 0.490207 0.000000
0.235683 0.490207 0.000000
0.252005 0.490207 0.000000
0.268327 0.490207 0.000000
0.284650 0.490207 0.000000
0.300972 0.490207 0.000000
0.317294 0.490207 0.000000
0.333616 0.490207 0.000000
0.427995 0.490207 0.000000
0.451274 0.490207 0.000000
0.474553 0.490207 0.000000
0.497832 0.490207 0.000000
0.521111 0.490207 0.000000
0.544391 0.490207 0.000000
0.567670 0.490207 0.000000
0.590949 0.490207 0.000000
0.614228 0.490207 0.000000
0.637507 0.490207 0.000000
0.660786 0.490207 0.000000
0.000000 0.513201 0.000000
0.011083 0.513201 0.000000
0.023625 0.513201 0.000000
0.039817 0.513201 0.000000
0.056139 0.513201 0.000000
0.072461 0.513201 0.000000
0.088783 0.513201 0.000000
0.105106 0.513201 0.000000
0.121428 0.513201 0.000000
0.137750 0.513201 0.000000
0.154072 0.513201 0.000000
0.170394 0.513201 0.000000
0.186717 0.513201 0.000000
0.203039 0.513201 0.000000
0.219361 0.513201 0.000000
0.235683 0.513201 0.000000
0.252005 0.513201 0.000000
0.268327 0.513201 0.000000
0.284650 0.513201 0.000000
0.300972 0.513201 0.000000
0.317294 0.513201 0.000000
0.333616 0.513201 0.000000
0.427995 0.513201 0.000000
0.451274 0.513201 0.000000
