docs/luts/fuji_recipes/Velvia_PE_Velvia_Bulmer.cube
TITLE "Fujifilm Recipe: PE Velvia Bulmer (Velvia)"
# FilmSim=Velvia HL=-2 SH=2 Col=-2 WB=Auto WBR=0 WBB=0
LUT_3D_SIZE 33
DOMAIN_MIN 0.0 0.0 0.0
DOMAIN_MAX 1.0 1.0 1.0
0.000000 0.000000 0.000000
0.023699 0.005202 0.005202
0.047091 0.010337 0.010337
0.070385 0.015450 0.015450
0.093679 0.020564 0.020564
0.116974 0.025677 0.025677
0.140268 0.030791 0.030791
0.163562 0.035904 0.035904
0.186857 0.041017 0.041017
0.210151 0.046131 0.046131
0.233445 0.051244 0.051244
0.256740 0.056357 0.056357
0.280034 0.061471 0.061471
0.303328 0.066584 0.066584
0.326623 0.071698 0.071698
0.349917 0.076811 0.076811
0.415003 0.091098 0.091098
0.438015 0.096150 0.096150
0.461027 0.101201 0.101201
0.484039 0.106252 0.106252
0.507051 0.111304 0.111304
0.530063 0.116355 0.116355
0.553075 0.121407 0.121407
0.576087 0.126458 0.126458
0.599099 0.131510 0.131510
0.622111 0.136561 0.136561
0.645124 0.141612 0.141612
0.668136 0.146664 0.146664
0.691148 0.151715 0.151715
0.714160 0.156767 0.156767
0.737172 0.161818 0.161818
0.760184 0.166870 0.166870
0.770800 0.169200 0.169200
0.005051 0.023009 0.005051
0.023699 0.023161 0.005202
0.047091 0.028295 0.010337
0.070385 0.033409 0.015450
0.093679 0.038522 0.020564
0.116974 0.043636 0.025677
0.140268 0.048749 0.030791
0.163562 0.053862 0.035904
0.186857 0.058976 0.041017
0.210151 0.064089 0.046131
0.233445 0.069202 0.051244
0.256740 0.074316 0.056357
0.280034 0.079429 0.061471
0.303328 0.084543 0.066584
0.326623 0.089656 0.071698
0.349917 0.094769 0.076811
0.415003 0.109057 0.091098
0.438015 0.114108 0.096150
0.461027 0.119159 0.101201
0.484039 0.124211 0.106252
0.507051 0.129262 0.111304
0.530063 0.134314 0.116355
0.553075 0.139365 0.121407
0.576087 0.144417 0.126458
0.599099 0.149468 0.131510
0.622111 0.154519 0.136561
0.645124 0.159571 0.141612
0.668136 0.164622 0.146664
0.691148 0.169674 0.151715
0.714160 0.174725 0.156767
0.737172 0.179777 0.161818
0.760184 0.184828 0.166870
0.770800 0.187158 0.169200
0.010102 0.046018 0.010102
0.028599 0.046018 0.010102
0.047091 0.046254 0.010337
0.070385 0.051367 0.015450
0.093679 0.056481 0.020564
0.116974 0.061594 0.025677
0.140268 0.066707 0.030791
0.163562 0.071821 0.035904
0.186857 0.076934 0.041017
0.210151 0.082047 0.046131
0.233445 0.087161 0.051244
0.256740 0.092274 0.056357
0.280034 0.097388 0.061471
0.303328 0.102501 0.066584
0.326623 0.107614 0.071698
0.349917 0.112728 0.076811
0.415003 0.127015 0.091098
0.438015 0.132066 0.096150
0.461027 0.137118 0.101201
0.484039 0.142169 0.106252
0.507051 0.147221 0.111304
0.530063 0.152272 0.116355
0.553075 0.157324 0.121407
0.576087 0.162375 0.126458
0.599099 0.167426 0.131510
0.622111 0.172478 0.136561
0.645124 0.177529 0.141612
0.668136 0.182581 0.146664
0.691148 0.187632 0.151715
0.714160 0.192684 0.156767
0.737172 0.197735 0.161818
0.760184 0.202786 0.166870
0.770800 0.205117 0.169200
0.015152 0.069028 0.015152
0.033650 0.069028 0.015152
0.051906 0.069028 0.015152
0.070385 0.069326 0.015450
0.093679 0.074439 0.020564
0.116974 0.079552 0.025677
0.140268 0.084666 0.030791
0.163562 0.089779 0.035904
0.186857 0.094892 0.041017
0.210151 0.100006 0.046131
0.233445 0.105119 0.051244
0.256740 0.110233 0.056357
0.280034 0.115346 0.061471
0.303328 0.120459 0.066584
0.326623 0.125573 0.071698
0.349917 0.130686 0.076811
0.415003 0.144973 0.091098
0.438015 0.150025 0.096150
0.461027 0.155076 0.101201
0.484039 0.160128 0.106252
0.507051 0.165179 0.111304
0.530063 0.170231 0.116355
0.553075 0.175282 0.121407
0.576087 0.180333 0.126458
0.599099 0.185385 0.131510
0.622111 0.190436 0.136561
0.645124 0.195488 0.141612
0.668136 0.200539 0.146664
0.691148 0.205591 0.151715
0.714160 0.210642 0.156767
0.737172 0.215693 0.161818
0.760184 0.220745 0.166870
0.770800 0.223075 0.169200
0.020203 0.092037 0.020203
0.038700 0.092037 0.020203
0.056957 0.092037 0.020203
0.075138 0.092037 0.020203
0.093679 0.092397 0.020564
0.116974 0.097511 0.025677
0.140268 0.102624 0.030791
0.163562 0.107737 0.035904
0.186857 0.112851 0.041017
0.210151 0.117964 0.046131
0.233445 0.123078 0.051244
0.256740 0.128191 0.056357
0.280034 0.133304 0.061471
0.303328 0.138418 0.066584
0.326623 0.143531 0.071698
0.349917 0.148645 0.076811
0.415003 0.162932 0.091098
0.438015 0.167983 0.096150
0.461027 0.173035 0.101201
0.484039 0.178086 0.106252
0.507051 0.183137 0.111304
0.530063 0.188189 0.116355
0.553075 0.193240 0.121407
0.576087 0.198292 0.126458
0.599099 0.203343 0.131510
0.622111 0.208395 0.136561
0.645124 0.213446 0.141612
0.668136 0.218498 0.146664
0.691148 0.223549 0.151715
0.714160 0.228600 0.156767
0.737172 0.233652 0.161818
0.760184 0.238703 0.166870
0.770800 0.241034 0.169200
0.025254 0.115046 0.025254
0.043751 0.115046 0.025254
0.062008 0.115046 0.025254
0.080189 0.115046 0.025254
0.098369 0.115046 0.025254
0.116974 0.115469 0.025677
0.140268 0.120583 0.030791
0.163562 0.125696 0.035904
0.186857 0.130809 0.041017
0.210151 0.135923 0.046131
0.233445 0.141036 0.051244
0.256740 0.146149 0.056357
0.280034 0.151263 0.061471
0.303328 0.156376 0.066584
0.326623 0.161490 0.071698
0.349917 0.166603 0.076811
0.415003 0.180890 0.091098
0.438015 0.185942 0.096150
0.461027 0.190993 0.101201
0.484039 0.196044 0.106252
0.507051 0.201096 0.111304
0.530063 0.206147 0.116355
0.553075 0.211199 0.121407
0.576087 0.216250 0.126458
0.599099 0.221302 0.131510
0.622111 0.226353 0.136561
0.645124 0.231404 0.141612
0.668136 0.236456 0.146664
0.691148 0.241507 0.151715
0.714160 0.246559 0.156767
0.737172 0.251610 0.161818
0.760184 0.256662 0.166870
0.770800 0.258992 0.169200
0.030305 0.138055 0.030305
0.048802 0.138055 0.030305
0.067058 0.138055 0.030305
0.085239 0.138055 0.030305
0.103420 0.138055 0.030305
0.121601 0.138055 0.030305
0.140268 0.138541 0.030791
0.163562 0.143654 0.035904
0.186857 0.148768 0.041017
0.210151 0.153881 0.046131
0.233445 0.158994 0.051244
0.256740 0.164108 0.056357
0.280034 0.169221 0.061471
0.303328 0.174335 0.066584
0.326623 0.179448 0.071698
0.349917 0.184561 0.076811
0.415003 0.198849 0.091098
0.438015 0.203900 0.096150
0.461027 0.208951 0.101201
0.484039 0.214003 0.106252
0.507051 0.219054 0.111304
0.530063 0.224106 0.116355
0.553075 0.229157 0.121407
0.576087 0.234209 0.126458
0.599099 0.239260 0.131510
0.622111 0.244311 0.136561
0.645124 0.249363 0.141612
0.668136 0.254414 0.146664
0.691148 0.259466 0.151715
0.714160 0.264517 0.156767
0.737172 0.269569 0.161818
0.760184 0.274620 0.166870
0.770800 0.276950 0.169200
0.035356 0.161064 0.035356
0.053853 0.161064 0.035356
0.072109 0.161064 0.035356
0.090290 0.161064 0.035356
0.108471 0.161064 0.035356
0.126652 0.161064 0.035356
0.144833 0.161064 0.035356
0.163562 0.161613 0.035904
0.186857 0.166726 0.041017
0.210151 0.171839 0.046131
0.233445 0.176953 0.051244
0.256740 0.182066 0.056357
0.280034 0.187180 0.061471
0.303328 0.192293 0.066584
0.326623 0.197406 0.071698
0.349917 0.202520 0.076811
0.415003 0.216807 0.091098
0.438015 0.221858 0.096150
0.461027 0.226910 0.101201
0.484039 0.231961 0.106252
0.507051 0.237013 0.111304
0.530063 0.242064 0.116355
0.553075 0.247116 0.121407
0.576087 0.252167 0.126458
0.599099 0.257218 0.131510
0.622111 0.262270 0.136561
0.645124 0.267321 0.141612
0.668136 0.272373 0.146664
0.691148 0.277424 0.151715
0.714160 0.282476 0.156767
0.737172 0.287527 0.161818
0.760184 0.292578 0.166870
0.770800 0.294909 0.169200
0.040406 0.184074 0.040406
0.058904 0.184074 0.040406
0.077160 0.184074 0.040406
0.095341 0.184074 0.040406
0.113522 0.184074 0.040406
0.131703 0.184074 0.040406
0.149884 0.184074 0.040406
0.168065 0.184074 0.040406
0.186857 0.184684 0.041017
0.210151 0.189798 0.046131
0.233445 0.194911 0.051244
0.256740 0.200025 0.056357
0.280034 0.205138 0.061471
0.303328 0.210251 0.066584
0.326623 0.215365 0.071698
0.349917 0.220478 0.076811
0.415003 0.234765 0.091098
0.438015 0.239817 0.096150
0.461027 0.244868 0.101201
0.484039 0.249920 0.106252
0.507051 0.254971 0.111304
0.530063 0.260023 0.116355
0.553075 0.265074 0.121407
0.576087 0.270125 0.126458
0.599099 0.275177 0.131510
0.622111 0.280228 0.136561
0.645124 0.285280 0.141612
0.668136 0.290331 0.146664
0.691148 0.295383 0.151715
0.714160 0.300434 0.156767
0.737172 0.305485 0.161818
0.760184 0.310537 0.166870
0.770800 0.312867 0.169200
0.045457 0.207083 0.045457
0.063954 0.207083 0.045457
0.082211 0.207083 0.045457
0.100392 0.207083 0.045457
0.118573 0.207083 0.045457
0.136754 0.207083 0.045457
0.154935 0.207083 0.045457
0.173116 0.207083 0.045457
0.191296 0.207083 0.045457
0.210151 0.207756 0.046131
0.233445 0.212870 0.051244
0.256740 0.217983 0.056357
0.280034 0.223096 0.061471
0.303328 0.228210 0.066584
0.326623 0.233323 0.071698
0.349917 0.238437 0.076811
0.415003 0.252724 0.091098
0.438015 0.257775 0.096150
0.461027 0.262827 0.101201
0.484039 0.267878 0.106252
0.507051 0.272929 0.111304
0.530063 0.277981 0.116355
0.553075 0.283032 0.121407
0.576087 0.288084 0.126458
0.599099 0.293135 0.131510
0.622111 0.298187 0.136561
0.645124 0.303238 0.141612
0.668136 0.308290 0.146664
0.691148 0.313341 0.151715
0.714160 0.318392 0.156767
0.737172 0.323444 0.161818
0.760184 0.328495 0.166870
0.770800 0.330826 0.169200
0.050508 0.230092 0.050508
0.069005 0.230092 0.050508
0.087262 0.230092 0.050508
0.105443 0.230092 0.050508
0.123623 0.230092 0.050508
0.141804 0.230092 0.050508
0.159985 0.230092 0.050508
0.178166 0.230092 0.050508
0.196347 0.230092 0.050508
0.214528 0.230092 0.050508
0.233445 0.230828 0.051244
0.256740 0.235941 0.056357
0.280034 0.241055 0.061471
0.303328 0.246168 0.066584
0.326623 0.251282 0.071698
0.349917 0.256395 0.076811
0.415003 0.270682 0.091098
0.438015 0.275734 0.096150
0.461027 0.280785 0.101201
0.484039 0.285836 0.106252
0.507051 0.290888 0.111304
0.530063 0.295939 0.116355
0.553075 0.300991 0.121407
0.576087 0.306042 0.126458
0.599099 0.311094 0.131510
0.622111 0.316145 0.136561
0.645124 0.321196 0.141612
0.668136 0.326248 0.146664
0.691148 0.331299 0.151715
0.714160 0.336351 0.156767
0.737172 0.341402 0.161818
0.760184 0.346454 0.166870
0.770800 0.348784 0.169200
0.055559 0.253101 0.055559
0.074056 0.253101 0.055559
0.092312 0.253101 0.055559
0.110493 0.253101 0.055559
0.128674 0.253101 0.055559
0.146855 0.253101 0.055559
0.165036 0.253101 0.055559
0.183217 0.253101 0.055559
0.201398 0.253101 0.055559
0.219579 0.253101 0.055559
0.237760 0.253101 0.055559
0.256740 0.253900 0.056357
0.280034 0.259013 0.061471
0.303328 0.264127 0.066584
0.326623 0.269240 0.071698
0.349917 0.274353 0.076811
0.415003 0.288641 0.091098
0.438015 0.293692 0.096150
0.461027 0.298743 0.101201
0.484039 0.303795 0.106252
0.507051 0.308846 0.111304
0.530063 0.313898 0.116355
0.553075 0.318949 0.121407
0.576087 0.324001 0.126458
0.599099 0.329052 0.131510
0.622111 0.334103 0.136561
0.645124 0.339155 0.141612
0.668136 0.344206 0.146664
0.691148 0.349258 0.151715
0.714160 0.354309 0.156767
0.737172 0.359361 0.161818
0.760184 0.364412 0.166870
0.770800 0.366742 0.169200
0.060610 0.276110 0.060610
0.079107 0.276110 0.060610
0.097363 0.276110 0.060610
0.115544 0.276110 0.060610
0.133725 0.276110 0.060610
0.151906 0.276110 0.060610
0.170087 0.276110 0.060610
0.188268 0.276110 0.060610
0.206449 0.276110 0.060610
0.224630 0.276110 0.060610
0.242811 0.276110 0.060610
0.260992 0.276110 0.060610
0.280034 0.276972 0.061471
0.303328 0.282085 0.066584
0.326623 0.287198 0.071698
0.349917 0.292312 0.076811
0.415003 0.306599 0.091098
0.438015 0.311650 0.096150
0.461027 0.316702 0.101201
0.484039 0.321753 0.106252
0.507051 0.326805 0.111304
0.530063 0.331856 0.116355
0.553075 0.336908 0.121407
0.576087 0.341959 0.126458
0.599099 0.347010 0.131510
0.622111 0.352062 0.136561
0.645124 0.357113 0.141612
0.668136 0.362165 0.146664
0.691148 0.367216 0.151715
0.714160 0.372268 0.156767
0.737172 0.377319 0.161818
0.760184 0.382370 0.166870
0.770800 0.384701 0.169200
0.065660 0.299120 0.065660
0.084158 0.299120 0.065660
0.102414 0.299120 0.065660
0.120595 0.299120 0.065660
0.138776 0.299120 0.065660
0.156957 0.299120 0.065660
0.175138 0.299120 0.065660
0.193319 0.299120 0.065660
0.211500 0.299120 0.065660
0.229681 0.299120 0.065660
0.247862 0.299120 0.065660
0.266042 0.299120 0.065660
0.284223 0.299120 0.065660
0.303328 0.300043 0.066584
0.326623 0.305157 0.071698
0.349917 0.310270 0.076811
0.415003 0.324557 0.091098
0.438015 0.329609 0.096150
0.461027 0.334660 0.101201
0.484039 0.339712 0.106252
0.507051 0.344763 0.111304
0.530063 0.349815 0.116355
0.553075 0.354866 0.121407
0.576087 0.359917 0.126458
0.599099 0.364969 0.131510
0.622111 0.370020 0.136561
0.645124 0.375072 0.141612
0.668136 0.380123 0.146664
0.691148 0.385175 0.151715
0.714160 0.390226 0.156767
0.737172 0.395277 0.161818
0.760184 0.400329 0.166870
0.770800 0.402659 0.169200
0.070711 0.322129 0.070711
0.089208 0.322129 0.070711
0.107465 0.322129 0.070711
0.125646 0.322129 0.070711
0.143827 0.322129 0.070711
0.162008 0.322129 0.070711
0.180189 0.322129 0.070711
0.198370 0.322129 0.070711
0.216550 0.322129 0.070711
0.234731 0.322129 0.070711
0.252912 0.322129 0.070711
0.271093 0.322129 0.070711
0.289274 0.322129 0.070711
0.307455 0.322129 0.070711
0.326623 0.323115 0.071698
0.349917 0.328229 0.076811
0.415003 0.342516 0.091098
0.438015 0.347567 0.096150
0.461027 0.352619 0.101201
0.484039 0.357670 0.106252
0.507051 0.362721 0.111304
0.530063 0.367773 0.116355
0.553075 0.372824 0.121407
0.576087 0.377876 0.126458
0.599099 0.382927 0.131510
0.622111 0.387979 0.136561
0.645124 0.393030 0.141612
0.668136 0.398082 0.146664
0.691148 0.403133 0.151715
0.714160 0.408184 0.156767
0.737172 0.413236 0.161818
0.760184 0.418287 0.166870
0.770800 0.420618 0.169200
0.075762 0.345138 0.075762
0.094259 0.345138 0.075762
0.112516 0.345138 0.075762
0.130697 0.345138 0.075762
0.148877 0.345138 0.075762
0.167058 0.345138 0.075762
0.185239 0.345138 0.075762
0.203420 0.345138 0.075762
0.221601 0.345138 0.075762
0.239782 0.345138 0.075762
0.257963 0.345138 0.075762
0.276144 0.345138 0.075762
0.294325 0.345138 0.075762
0.312506 0.345138 0.075762
0.330687 0.345138 0.075762
0.349917 0.346187 0.076811
0.415003 0.360474 0.091098
0.438015 0.365526 0.096150
0.461027 0.370577 0.101201
0.484039 0.375628 0.106252
0.507051 0.380680 0.111304
0.530063 0.385731 0.116355
0.553075 0.390783 0.121407
0.576087 0.395834 0.126458
0.599099 0.400886 0.131510
0.622111 0.405937 0.136561
0.645124 0.410988 0.141612
0.668136 0.416040 0.146664
0.691148 0.421091 0.151715
0.714160 0.426143 0.156767
0.737172 0.431194 0.161818
0.760184 0.436246 0.166870
0.770800 0.438576 0.169200
0.080813 0.368147 0.080813
0.099310 0.368147 0.080813
0.117566 0.368147 0.080813
0.135747 0.368147 0.080813
0.153928 0.368147 0.080813
0.172109 0.368147 0.080813
0.190290 0.368147 0.080813
0.208471 0.368147 0.080813
0.226652 0.368147 0.080813
0.244833 0.368147 0.080813
0.263014 0.368147 0.080813
0.281195 0.368147 0.080813
0.299376 0.368147 0.080813
0.317557 0.368147 0.080813
0.335738 0.368147 0.080813
0.353919 0.368147 0.080813
0.415003 0.378433 0.091098
0.438015 0.383484 0.096150
0.461027 0.388535 0.101201
0.484039 0.393587 0.106252
0.507051 0.398638 0.111304
0.530063 0.403690 0.116355
0.553075 0.408741 0.121407
0.576087 0.413793 0.126458
0.599099 0.418844 0.131510
0.622111 0.423895 0.136561
0.645124 0.428947 0.141612
0.668136 0.433998 0.146664
0.691148 0.439050 0.151715
0.714160 0.444101 0.156767
0.737172 0.449153 0.161818
0.760184 0.454204 0.166870
0.770800 0.456534 0.169200
0.094990 0.432730 0.094990
0.113487 0.432730 0.094990
0.131743 0.432730 0.094990
0.149924 0.432730 0.094990
0.168105 0.432730 0.094990
0.186286 0.432730 0.094990
0.204467 0.432730 0.094990
0.222648 0.432730 0.094990
0.240829 0.432730 0.094990
0.259010 0.432730 0.094990
0.277191 0.432730 0.094990
0.295372 0.432730 0.094990
0.313553 0.432730 0.094990
0.331734 0.432730 0.094990
0.349915 0.432730 0.094990
0.368095 0.432730 0.094990
0.418894 0.432730 0.094990
0.438015 0.433890 0.096150
0.461027 0.438942 0.101201
0.484039 0.443993 0.106252
0.507051 0.449045 0.111304
0.530063 0.454096 0.116355
0.553075 0.459148 0.121407
0.576087 0.464199 0.126458
0.599099 0.469250 0.131510
0.622111 0.474302 0.136561
0.645124 0.479353 0.141612
0.668136 0.484405 0.146664
0.691148 0.489456 0.151715
0.714160 0.494508 0.156767
0.737172 0.499559 0.161818
0.760184 0.504610 0.166870
0.770800 0.506941 0.169200
0.099979 0.455461 0.099979
0.118476 0.455461 0.099979
0.136733 0.455461 0.099979
0.154914 0.455461 0.099979
0.173095 0.455461 0.099979
0.191276 0.455461 0.099979
0.209457 0.455461 0.099979
0.227638 0.455461 0.099979
0.245818 0.455461 0.099979
0.263999 0.455461 0.099979
0.282180 0.455461 0.099979
0.300361 0.455461 0.099979
0.318542 0.455461 0.099979
0.336723 0.455461 0.099979
0.354904 0.455461 0.099979
0.373085 0.455461 0.099979
0.423884 0.455461 0.099979
0.441844 0.455461 0.099979
0.461027 0.456683 0.101201
0.484039 0.461734 0.106252
0.507051 0.466785 0.111304
0.530063 0.471837 0.116355
0.553075 0.476888 0.121407
0.576087 0.481940 0.126458
0.599099 0.486991 0.131510
0.622111 0.492043 0.136561
0.645124 0.497094 0.141612
0.668136 0.502146 0.146664
0.691148 0.507197 0.151715
0.714160 0.512248 0.156767
0.737172 0.517300 0.161818
0.760184 0.522351 0.166870
0.770800 0.524682 0.169200
0.104969 0.478191 0.104969
0.123466 0.478191 0.104969
0.141722 0.478191 0.104969
0.159903 0.478191 0.104969
0.178084 0.478191 0.104969
0.196265 0.478191 0.104969
0.214446 0.478191 0.104969
0.232627 0.478191 0.104969
0.250808 0.478191 0.104969
0.268989 0.478191 0.104969
0.287170 0.478191 0.104969
0.305351 0.478191 0.104969
0.323532 0.478191 0.104969
0.341713 0.478191 0.104969
0.359894 0.478191 0.104969
0.378075 0.478191 0.104969
0.428873 0.478191 0.104969
0.446834 0.478191 0.104969
0.464795 0.478191 0.104969
0.484039 0.479475 0.106252
0.507051 0.484526 0.111304
0.530063 0.489578 0.116355
0.553075 0.494629 0.121407
0.576087 0.499681 0.126458
0.599099 0.504732 0.131510
0.622111 0.509783 0.136561
0.645124 0.514835 0.141612
0.668136 0.519886 0.146664
0.691148 0.524938 0.151715
0.714160 0.529989 0.156767
0.737172 0.535041 0.161818
0.760184 0.540092 0.166870
0.770800 0.542422 0.169200
0.109958 0.500922 0.109958
0.128456 0.500922 0.109958
0.146712 0.500922 0.109958
0.164893 0.500922 0.109958
0.183074 0.500922 0.109958
0.201255 0.500922 0.109958
0.219436 0.500922 0.109958
0.237617 0.500922 0.109958
0.255798 0.500922 0.109958
0.273979 0.500922 0.109958
0.292160 0.500922 0.109958
0.310340 0.500922 0.109958
0.328521 0.500922 0.109958
0.346702 0.500922 0.109958
0.364883 0.500922 0.109958
0.383064 0.500922 0.109958
0.433863 0.500922 0.109958
0.451824 0.500922 0.109958
0.469784 0.500922 0.109958
0.487745 0.500922 0.109958
0.507051 0.502267 0.111304
0.530063 0.507319 0.116355
0.553075 0.512370 0.121407
0.576087 0.517421 0.126458
0.599099 0.522473 0.131510
0.622111 0.527524 0.136561
0.645124 0.532576 0.141612
0.668136 0.537627 0.146664
0.691148 0.542679 0.151715
0.714160 0.547730 0.156767
0.737172 0.552781 0.161818
0.760184 0.557833 0.166870
0.770800 0.560163 0.169200
0.114948 0.523652 0.114948
0.133445 0.523652 0.114948
0.151702 0.523652 0.114948
0.169883 0.523652 0.114948
0.188063 0.523652 0.114948
0.206244 0.523652 0.114948
0.224425 0.523652 0.114948
0.242606 0.523652 0.114948
0.260787 0.523652 0.114948
0.278968 0.523652 0.114948
0.297149 0.523652 0.114948
0.315330 0.523652 0.114948
0.333511 0.523652 0.114948
0.351692 0.523652 0.114948
0.369873 0.523652 0.114948
0.388054 0.523652 0.114948
0.438853 0.523652 0.114948
0.456813 0.523652 0.114948
0.474774 0.523652 0.114948
0.492734 0.523652 0.114948
0.510695 0.523652 0.114948
0.530063 0.525059 0.116355
0.553075 0.530111 0.121407
0.576087 0.535162 0.126458
0.599099 0.540214 0.131510
0.622111 0.545265 0.136561
0.645124 0.550316 0.141612
0.668136 0.555368 0.146664
0.691148 0.560419 0.151715
0.714160 0.565471 0.156767
0.737172 0.570522 0.161818
0.760184 0.575574 0.166870
0.770800 0.577904 0.169200
0.119938 0.546382 0.119938
0.138435 0.546382 0.119938
0.156691 0.546382 0.119938
0.174872 0.546382 0.119938
0.193053 0.546382 0.119938
0.211234 0.546382 0.119938
0.229415 0.546382 0.119938
0.247596 0.546382 0.119938
0.265777 0.546382 0.119938
0.283958 0.546382 0.119938
0.302139 0.546382 0.119938
0.320320 0.546382 0.119938
0.338501 0.546382 0.119938
0.356682 0.546382 0.119938
0.374863 0.546382 0.119938
0.393043 0.546382 0.119938
0.443842 0.546382 0.119938
0.461803 0.546382 0.119938
0.479763 0.546382 0.119938
0.497724 0.546382 0.119938
0.515685 0.546382 0.119938
0.533645 0.546382 0.119938
0.553075 0.547852 0.121407
0.576087 0.552903 0.126458
0.599099 0.557954 0.131510
0.622111 0.563006 0.136561
0.645124 0.568057 0.141612
0.668136 0.573109 0.146664
0.691148 0.578160 0.151715
0.714160 0.583212 0.156767
0.737172 0.588263 0.161818
0.760184 0.593314 0.166870
0.770800 0.595645 0.169200
0.124927 0.569113 0.124927
0.143424 0.569113 0.124927
0.161681 0.569113 0.124927
0.179862 0.569113 0.124927
0.198043 0.569113 0.124927
0.216224 0.569113 0.124927
0.234405 0.569113 0.124927
0.252586 0.569113 0.124927
0.270766 0.569113 0.124927
0.288947 0.569113 0.124927
0.307128 0.569113 0.124927
0.325309 0.569113 0.124927
0.343490 0.569113 0.124927
0.361671 0.569113 0.124927
0.379852 0.569113 0.124927
0.398033 0.569113 0.124927
0.448832 0.569113 0.124927
0.466792 0.569113 0.124927
0.484753 0.569113 0.124927
0.502714 0.569113 0.124927
0.520674 0.569113 0.124927
0.538635 0.569113 0.124927
0.556596 0.569113 0.124927
0.576087 0.570644 0.126458
0.599099 0.575695 0.131510
0.622111 0.580747 0.136561
0.645124 0.585798 0.141612
0.668136 0.590850 0.146664
0.691148 0.595901 0.151715
0.714160 0.600952 0.156767
0.737172 0.606004 0.161818
0.760184 0.611055 0.166870
0.770800 0.613386 0.169200
0.129917 0.591843 0.129917
0.148414 0.591843 0.129917
0.166670 0.591843 0.129917
0.184851 0.591843 0.129917
0.203032 0.591843 0.129917
0.221213 0.591843 0.129917
0.239394 0.591843 0.129917
0.257575 0.591843 0.129917
0.275756 0.591843 0.129917
0.293937 0.591843 0.129917
0.312118 0.591843 0.129917
0.330299 0.591843 0.129917
0.348480 0.591843 0.129917
0.366661 0.591843 0.129917
0.384842 0.591843 0.129917
0.403023 0.591843 0.129917
0.453821 0.591843 0.129917
0.471782 0.591843 0.129917
0.489743 0.591843 0.129917
0.507703 0.591843 0.129917
0.525664 0.591843 0.129917
0.543625 0.591843 0.129917
0.561585 0.591843 0.129917
0.579546 0.591843 0.129917
0.599099 0.593436 0.131510
0.622111 0.598487 0.136561
0.645124 0.603539 0.141612
0.668136 0.608590 0.146664
0.691148 0.613642 0.151715
0.714160 0.618693 0.156767
0.737172 0.623745 0.161818
0.760184 0.628796 0.166870
0.770800 0.631126 0.169200
0.134906 0.614574 0.134906
0.153404 0.614574 0.134906
0.171660 0.614574 0.134906
0.189841 0.614574 0.134906
0.208022 0.614574 0.134906
0.226203 0.614574 0.134906
0.244384 0.614574 0.134906
0.262565 0.614574 0.134906
0.280746 0.614574 0.134906
0.298927 0.614574 0.134906
0.317108 0.614574 0.134906
0.335288 0.614574 0.134906
0.353469 0.614574 0.134906
0.371650 0.614574 0.134906
0.389831 0.614574 0.134906
0.408012 0.614574 0.134906
0.458811 0.614574 0.134906
0.476772 0.614574 0.134906
0.494732 0.614574 0.134906
0.512693 0.614574 0.134906
0.530654 0.614574 0.134906
0.548614 0.614574 0.134906
0.566575 0.614574 0.134906
0.584535 0.614574 0.134906
0.602496 0.614574 0.134906
0.622111 0.616228 0.136561
0.645124 0.621280 0.141612
0.668136 0.626331 0.146664
0.691148 0.631383 0.151715
0.714160 0.636434 0.156767
0.737172 0.641485 0.161818
0.760184 0.646537 0.166870
0.770800 0.648867 0.169200
0.139896 0.637304 0.139896
0.158393 0.637304 0.139896
0.176650 0.637304 0.139896
0.194831 0.637304 0.139896
0.213011 0.637304 0.139896
0.231192 0.637304 0.139896
0.249373 0.637304 0.139896
0.267554 0.637304 0.139896
0.285735 0.637304 0.139896
0.303916 0.637304 0.139896
0.322097 0.637304 0.139896
0.340278 0.637304 0.139896
0.358459 0.637304 0.139896
0.376640 0.637304 0.139896
0.394821 0.637304 0.139896
0.413002 0.637304 0.139896
0.463801 0.637304 0.139896
0.481761 0.637304 0.139896
0.499722 0.637304 0.139896
0.517682 0.637304 0.139896
0.535643 0.637304 0.139896
0.553604 0.637304 0.139896
0.571564 0.637304 0.139896
0.589525 0.637304 0.139896
