docs/luts/fuji_recipes/Velvia_BT_Velvia_Travel.cube
TITLE "Fujifilm Recipe: BT Velvia Travel (Velvia)"
# FilmSim=Velvia HL=0 SH=3 Col=1 WB=Auto WBR=0 WBB=0
LUT_3D_SIZE 33
DOMAIN_MIN 0.0 0.0 0.0
DOMAIN_MAX 1.0 1.0 1.0
0.000000 0.000000 0.000000
0.027645 0.000000 0.000000
0.054931 0.000000 0.000000
0.082103 0.000000 0.000000
0.109276 0.000000 0.000000
0.136448 0.000000 0.000000
0.163621 0.000000 0.000000
0.190794 0.000000 0.000000
0.217966 0.000000 0.000000
0.245139 0.000000 0.000000
0.272311 0.000000 0.000000
0.299484 0.000000 0.000000
0.326657 0.000000 0.000000
0.353829 0.000000 0.000000
0.381002 0.000000 0.000000
0.408175 0.000000 0.000000
0.506933 0.000000 0.000000
0.538823 0.000000 0.000000
0.570713 0.000000 0.000000
0.602604 0.000000 0.000000
0.634494 0.000000 0.000000
0.666385 0.000000 0.000000
0.698275 0.000000 0.000000
0.730165 0.000000 0.000000
0.762056 0.000000 0.000000
0.793946 0.000000 0.000000
0.825836 0.000000 0.000000
0.857727 0.000000 0.000000
0.889617 0.000000 0.000000
0.921507 0.000000 0.000000
0.953398 0.000000 0.000000
0.985288 0.000000 0.000000
1.000000 0.000000 0.000000
0.000000 0.026840 0.000000
0.027645 0.026840 0.000000
0.054931 0.026840 0.000000
0.082103 0.026840 0.000000
0.109276 0.026840 0.000000
0.136448 0.026840 0.000000
0.163621 0.026840 0.000000
0.190794 0.026840 0.000000
0.217966 0.026840 0.000000
0.245139 0.026840 0.000000
0.272311 0.026840 0.000000
0.299484 0.026840 0.000000
0.326657 0.026840 0.000000
0.353829 0.026840 0.000000
0.381002 0.026840 0.000000
0.408175 0.026840 0.000000
0.506933 0.026840 0.000000
0.538823 0.026840 0.000000
0.570713 0.026840 0.000000
0.602604 0.026840 0.000000
0.634494 0.026840 0.000000
0.666385 0.026840 0.000000
0.698275 0.026840 0.000000
0.730165 0.026840 0.000000
0.762056 0.026840 0.000000
0.793946 0.026840 0.000000
0.825836 0.026840 0.000000
0.857727 0.026840 0.000000
0.889617 0.026840 0.000000
0.921507 0.026840 0.000000
0.953398 0.026840 0.000000
0.985288 0.026840 0.000000
1.000000 0.026840 0.000000
0.000000 0.053680 0.000000
0.027645 0.053680 0.000000
0.054931 0.053680 0.000000
0.082103 0.053680 0.000000
0.109276 0.053680 0.000000
0.136448 0.053680 0.000000
0.163621 0.053680 0.000000
0.190794 0.053680 0.000000
0.217966 0.053680 0.000000
0.245139 0.053680 0.000000
0.272311 0.053680 0.000000
0.299484 0.053680 0.000000
0.326657 0.053680 0.000000
0.353829 0.053680 0.000000
0.381002 0.053680 0.000000
0.408175 0.053680 0.000000
0.506933 0.053680 0.000000
0.538823 0.053680 0.000000
0.570713 0.053680 0.000000
0.602604 0.053680 0.000000
0.634494 0.053680 0.000000
0.666385 0.053680 0.000000
0.698275 0.053680 0.000000
0.730165 0.053680 0.000000
0.762056 0.053680 0.000000
0.793946 0.053680 0.000000
0.825836 0.053680 0.000000
0.857727 0.053680 0.000000
0.889617 0.053680 0.000000
0.921507 0.053680 0.000000
0.953398 0.053680 0.000000
0.985288 0.053680 0.000000
1.000000 0.053680 0.000000
0.000000 0.080520 0.000000
0.027645 0.080520 0.000000
0.054931 0.080520 0.000000
0.082103 0.080520 0.000000
0.109276 0.080520 0.000000
0.136448 0.080520 0.000000
0.163621 0.080520 0.000000
0.190794 0.080520 0.000000
0.217966 0.080520 0.000000
0.245139 0.080520 0.000000
0.272311 0.080520 0.000000
0.299484 0.080520 0.000000
0.326657 0.080520 0.000000
0.353829 0.080520 0.000000
0.381002 0.080520 0.000000
0.408175 0.080520 0.000000
0.506933 0.080520 0.000000
0.538823 0.080520 0.000000
0.570713 0.080520 0.000000
0.602604 0.080520 0.000000
0.634494 0.080520 0.000000
0.666385 0.080520 0.000000
0.698275 0.080520 0.000000
0.730165 0.080520 0.000000
0.762056 0.080520 0.000000
0.793946 0.080520 0.000000
0.825836 0.080520 0.000000
0.857727 0.080520 0.000000
0.889617 0.080520 0.000000
0.921507 0.080520 0.000000
0.953398 0.080520 0.000000
0.985288 0.080520 0.000000
1.000000 0.080520 0.000000
0.000000 0.107360 0.000000
0.027645 0.107360 0.000000
0.054931 0.107360 0.000000
0.082103 0.107360 0.000000
0.109276 0.107360 0.000000
0.136448 0.107360 0.000000
0.163621 0.107360 0.000000
0.190794 0.107360 0.000000
0.217966 0.107360 0.000000
0.245139 0.107360 0.000000
0.272311 0.107360 0.000000
0.299484 0.107360 0.000000
0.326657 0.107360 0.000000
0.353829 0.107360 0.000000
0.381002 0.107360 0.000000
0.408175 0.107360 0.000000
0.506933 0.107360 0.000000
0.538823 0.107360 0.000000
0.570713 0.107360 0.000000
0.602604 0.107360 0.000000
0.634494 0.107360 0.000000
0.666385 0.107360 0.000000
0.698275 0.107360 0.000000
0.730165 0.107360 0.000000
0.762056 0.107360 0.000000
0.793946 0.107360 0.000000
0.825836 0.107360 0.000000
0.857727 0.107360 0.000000
0.889617 0.107360 0.000000
0.921507 0.107360 0.000000
0.953398 0.107360 0.000000
0.985288 0.107360 0.000000
1.000000 0.107360 0.000000
0.000000 0.134200 0.000000
0.027645 0.134200 0.000000
0.054931 0.134200 0.000000
0.082103 0.134200 0.000000
0.109276 0.134200 0.000000
0.136448 0.134200 0.000000
0.163621 0.134200 0.000000
0.190794 0.134200 0.000000
0.217966 0.134200 0.000000
0.245139 0.134200 0.000000
0.272311 0.134200 0.000000
0.299484 0.134200 0.000000
0.326657 0.134200 0.000000
0.353829 0.134200 0.000000
0.381002 0.134200 0.000000
0.408175 0.134200 0.000000
0.506933 0.134200 0.000000
0.538823 0.134200 0.000000
0.570713 0.134200 0.000000
0.602604 0.134200 0.000000
0.634494 0.134200 0.000000
0.666385 0.134200 0.000000
0.698275 0.134200 0.000000
0.730165 0.134200 0.000000
0.762056 0.134200 0.000000
0.793946 0.134200 0.000000
0.825836 0.134200 0.000000
0.857727 0.134200 0.000000
0.889617 0.134200 0.000000
0.921507 0.134200 0.000000
0.953398 0.134200 0.000000
0.985288 0.134200 0.000000
1.000000 0.134200 0.000000
0.000000 0.161040 0.000000
0.027645 0.161040 0.000000
0.054931 0.161040 0.000000
0.082103 0.161040 0.000000
0.109276 0.161040 0.000000
0.136448 0.161040 0.000000
0.163621 0.161040 0.000000
0.190794 0.161040 0.000000
0.217966 0.161040 0.000000
0.245139 0.161040 0.000000
0.272311 0.161040 0.000000
0.299484 0.161040 0.000000
0.326657 0.161040 0.000000
0.353829 0.161040 0.000000
0.381002 0.161040 0.000000
0.408175 0.161040 0.000000
0.506933 0.161040 0.000000
0.538823 0.161040 0.000000
0.570713 0.161040 0.000000
0.602604 0.161040 0.000000
0.634494 0.161040 0.000000
0.666385 0.161040 0.000000
0.698275 0.161040 0.000000
0.730165 0.161040 0.000000
0.762056 0.161040 0.000000
0.793946 0.161040 0.000000
0.825836 0.161040 0.000000
0.857727 0.161040 0.000000
0.889617 0.161040 0.000000
0.921507 0.161040 0.000000
0.953398 0.161040 0.000000
0.985288 0.161040 0.000000
1.000000 0.161040 0.000000
0.000000 0.187880 0.000000
0.027645 0.187880 0.000000
0.054931 0.187880 0.000000
0.082103 0.187880 0.000000
0.109276 0.187880 0.000000
0.136448 0.187880 0.000000
0.163621 0.187880 0.000000
0.190794 0.187880 0.000000
0.217966 0.187880 0.000000
0.245139 0.187880 0.000000
0.272311 0.187880 0.000000
0.299484 0.187880 0.000000
0.326657 0.187880 0.000000
0.353829 0.187880 0.000000
0.381002 0.187880 0.000000
0.408175 0.187880 0.000000
0.506933 0.187880 0.000000
0.538823 0.187880 0.000000
0.570713 0.187880 0.000000
0.602604 0.187880 0.000000
0.634494 0.187880 0.000000
0.666385 0.187880 0.000000
0.698275 0.187880 0.000000
0.730165 0.187880 0.000000
0.762056 0.187880 0.000000
0.793946 0.187880 0.000000
0.825836 0.187880 0.000000
0.857727 0.187880 0.000000
0.889617 0.187880 0.000000
0.921507 0.187880 0.000000
0.953398 0.187880 0.000000
0.985288 0.187880 0.000000
1.000000 0.187880 0.000000
0.000000 0.214720 0.000000
0.027645 0.214720 0.000000
0.054931 0.214720 0.000000
0.082103 0.214720 0.000000
0.109276 0.214720 0.000000
0.136448 0.214720 0.000000
0.163621 0.214720 0.000000
0.190794 0.214720 0.000000
0.217966 0.214720 0.000000
0.245139 0.214720 0.000000
0.272311 0.214720 0.000000
0.299484 0.214720 0.000000
0.326657 0.214720 0.000000
0.353829 0.214720 0.000000
0.381002 0.214720 0.000000
0.408175 0.214720 0.000000
0.506933 0.214720 0.000000
0.538823 0.214720 0.000000
0.570713 0.214720 0.000000
0.602604 0.214720 0.000000
0.634494 0.214720 0.000000
0.666385 0.214720 0.000000
0.698275 0.214720 0.000000
0.730165 0.214720 0.000000
0.762056 0.214720 0.000000
0.793946 0.214720 0.000000
0.825836 0.214720 0.000000
0.857727 0.214720 0.000000
0.889617 0.214720 0.000000
0.921507 0.214720 0.000000
0.953398 0.214720 0.000000
0.985288 0.214720 0.000000
1.000000 0.214720 0.000000
0.000000 0.241560 0.000000
0.027645 0.241560 0.000000
0.054931 0.241560 0.000000
0.082103 0.241560 0.000000
0.109276 0.241560 0.000000
0.136448 0.241560 0.000000
0.163621 0.241560 0.000000
0.190794 0.241560 0.000000
0.217966 0.241560 0.000000
0.245139 0.241560 0.000000
0.272311 0.241560 0.000000
0.299484 0.241560 0.000000
0.326657 0.241560 0.000000
0.353829 0.241560 0.000000
0.381002 0.241560 0.000000
0.408175 0.241560 0.000000
0.506933 0.241560 0.000000
0.538823 0.241560 0.000000
0.570713 0.241560 0.000000
0.602604 0.241560 0.000000
0.634494 0.241560 0.000000
0.666385 0.241560 0.000000
0.698275 0.241560 0.000000
0.730165 0.241560 0.000000
0.762056 0.241560 0.000000
0.793946 0.241560 0.000000
0.825836 0.241560 0.000000
0.857727 0.241560 0.000000
0.889617 0.241560 0.000000
0.921507 0.241560 0.000000
0.953398 0.241560 0.000000
0.985288 0.241560 0.000000
1.000000 0.241560 0.000000
0.000000 0.268400 0.000000
0.027645 0.268400 0.000000
0.054931 0.268400 0.000000
0.082103 0.268400 0.000000
0.109276 0.268400 0.000000
0.136448 0.268400 0.000000
0.163621 0.268400 0.000000
0.190794 0.268400 0.000000
0.217966 0.268400 0.000000
0.245139 0.268400 0.000000
0.272311 0.268400 0.000000
0.299484 0.268400 0.000000
0.326657 0.268400 0.000000
0.353829 0.268400 0.000000
0.381002 0.268400 0.000000
0.408175 0.268400 0.000000
0.506933 0.268400 0.000000
0.538823 0.268400 0.000000
0.570713 0.268400 0.000000
0.602604 0.268400 0.000000
0.634494 0.268400 0.000000
0.666385 0.268400 0.000000
0.698275 0.268400 0.000000
0.730165 0.268400 0.000000
0.762056 0.268400 0.000000
0.793946 0.268400 0.000000
0.825836 0.268400 0.000000
0.857727 0.268400 0.000000
0.889617 0.268400 0.000000
0.921507 0.268400 0.000000
0.953398 0.268400 0.000000
0.985288 0.268400 0.000000
1.000000 0.268400 0.000000
0.000000 0.295240 0.000000
0.027645 0.295240 0.000000
0.054931 0.295240 0.000000
0.082103 0.295240 0.000000
0.109276 0.295240 0.000000
0.136448 0.295240 0.000000
0.163621 0.295240 0.000000
0.190794 0.295240 0.000000
0.217966 0.295240 0.000000
0.245139 0.295240 0.000000
0.272311 0.295240 0.000000
0.299484 0.295240 0.000000
0.326657 0.295240 0.000000
0.353829 0.295240 0.000000
0.381002 0.295240 0.000000
0.408175 0.295240 0.000000
0.506933 0.295240 0.000000
0.538823 0.295240 0.000000
0.570713 0.295240 0.000000
0.602604 0.295240 0.000000
0.634494 0.295240 0.000000
0.666385 0.295240 0.000000
0.698275 0.295240 0.000000
0.730165 0.295240 0.000000
0.762056 0.295240 0.000000
0.793946 0.295240 0.000000
0.825836 0.295240 0.000000
0.857727 0.295240 0.000000
0.889617 0.295240 0.000000
0.921507 0.295240 0.000000
0.953398 0.295240 0.000000
0.985288 0.295240 0.000000
1.000000 0.295240 0.000000
0.000000 0.322080 0.000000
0.027645 0.322080 0.000000
0.054931 0.322080 0.000000
0.082103 0.322080 0.000000
0.109276 0.322080 0.000000
0.136448 0.322080 0.000000
0.163621 0.322080 0.000000
0.190794 0.322080 0.000000
0.217966 0.322080 0.000000
0.245139 0.322080 0.000000
0.272311 0.322080 0.000000
0.299484 0.322080 0.000000
0.326657 0.322080 0.000000
0.353829 0.322080 0.000000
0.381002 0.322080 0.000000
0.408175 0.322080 0.000000
0.506933 0.322080 0.000000
0.538823 0.322080 0.000000
0.570713 0.322080 0.000000
0.602604 0.322080 0.000000
0.634494 0.322080 0.000000
0.666385 0.322080 0.000000
0.698275 0.322080 0.000000
0.730165 0.322080 0.000000
0.762056 0.322080 0.000000
0.793946 0.322080 0.000000
0.825836 0.322080 0.000000
0.857727 0.322080 0.000000
0.889617 0.322080 0.000000
0.921507 0.322080 0.000000
0.953398 0.322080 0.000000
0.985288 0.322080 0.000000
1.000000 0.322080 0.000000
0.000000 0.348920 0.000000
0.027645 0.348920 0.000000
0.054931 0.348920 0.000000
0.082103 0.348920 0.000000
0.109276 0.348920 0.000000
0.136448 0.348920 0.000000
0.163621 0.348920 0.000000
0.190794 0.348920 0.000000
0.217966 0.348920 0.000000
0.245139 0.348920 0.000000
0.272311 0.348920 0.000000
0.299484 0.348920 0.000000
0.326657 0.348920 0.000000
0.353829 0.348920 0.000000
0.381002 0.348920 0.000000
0.408175 0.348920 0.000000
0.506933 0.348920 0.000000
0.538823 0.348920 0.000000
0.570713 0.348920 0.000000
0.602604 0.348920 0.000000
0.634494 0.348920 0.000000
0.666385 0.348920 0.000000
0.698275 0.348920 0.000000
0.730165 0.348920 0.000000
0.762056 0.348920 0.000000
0.793946 0.348920 0.000000
0.825836 0.348920 0.000000
0.857727 0.348920 0.000000
0.889617 0.348920 0.000000
0.921507 0.348920 0.000000
0.953398 0.348920 0.000000
0.985288 0.348920 0.000000
1.000000 0.348920 0.000000
0.000000 0.375760 0.000000
0.027645 0.375760 0.000000
0.054931 0.375760 0.000000
0.082103 0.375760 0.000000
0.109276 0.375760 0.000000
0.136448 0.375760 0.000000
0.163621 0.375760 0.000000
0.190794 0.375760 0.000000
0.217966 0.375760 0.000000
0.245139 0.375760 0.000000
0.272311 0.375760 0.000000
0.299484 0.375760 0.000000
0.326657 0.375760 0.000000
0.353829 0.375760 0.000000
0.381002 0.375760 0.000000
0.408175 0.375760 0.000000
0.506933 0.375760 0.000000
0.538823 0.375760 0.000000
0.570713 0.375760 0.000000
0.602604 0.375760 0.000000
0.634494 0.375760 0.000000
0.666385 0.375760 0.000000
0.698275 0.375760 0.000000
0.730165 0.375760 0.000000
0.762056 0.375760 0.000000
0.793946 0.375760 0.000000
0.825836 0.375760 0.000000
0.857727 0.375760 0.000000
0.889617 0.375760 0.000000
0.921507 0.375760 0.000000
0.953398 0.375760 0.000000
0.985288 0.375760 0.000000
1.000000 0.375760 0.000000
0.000000 0.402600 0.000000
0.027645 0.402600 0.000000
0.054931 0.402600 0.000000
0.082103 0.402600 0.000000
0.109276 0.402600 0.000000
0.136448 0.402600 0.000000
0.163621 0.402600 0.000000
0.190794 0.402600 0.000000
0.217966 0.402600 0.000000
0.245139 0.402600 0.000000
0.272311 0.402600 0.000000
0.299484 0.402600 0.000000
0.326657 0.402600 0.000000
0.353829 0.402600 0.000000
0.381002 0.402600 0.000000
0.408175 0.402600 0.000000
0.506933 0.402600 0.000000
0.538823 0.402600 0.000000
0.570713 0.402600 0.000000
0.602604 0.402600 0.000000
0.634494 0.402600 0.000000
0.666385 0.402600 0.000000
0.698275 0.402600 0.000000
0.730165 0.402600 0.000000
0.762056 0.402600 0.000000
0.793946 0.402600 0.000000
0.825836 0.402600 0.000000
0.857727 0.402600 0.000000
0.889617 0.402600 0.000000
0.921507 0.402600 0.000000
0.953398 0.402600 0.000000
0.985288 0.402600 0.000000
1.000000 0.402600 0.000000
0.000000 0.429440 0.000000
0.027645 0.429440 0.000000
0.054931 0.429440 0.000000
0.082103 0.429440 0.000000
0.109276 0.429440 0.000000
0.136448 0.429440 0.000000
0.163621 0.429440 0.000000
0.190794 0.429440 0.000000
0.217966 0.429440 0.000000
0.245139 0.429440 0.000000
0.272311 0.429440 0.000000
0.299484 0.429440 0.000000
0.326657 0.429440 0.000000
0.353829 0.429440 0.000000
0.381002 0.429440 0.000000
0.408175 0.429440 0.000000
0.506933 0.429440 0.000000
0.538823 0.429440 0.000000
0.570713 0.429440 0.000000
0.602604 0.429440 0.000000
0.634494 0.429440 0.000000
0.666385 0.429440 0.000000
0.698275 0.429440 0.000000
0.730165 0.429440 0.000000
0.762056 0.429440 0.000000
0.793946 0.429440 0.000000
0.825836 0.429440 0.000000
0.857727 0.429440 0.000000
0.889617 0.429440 0.000000
0.921507 0.429440 0.000000
0.953398 0.429440 0.000000
0.985288 0.429440 0.000000
1.000000 0.429440 0.000000
0.000000 0.531500 0.000000
0.027645 0.531500 0.000000
0.054931 0.531500 0.000000
0.082103 0.531500 0.000000
0.109276 0.531500 0.000000
0.136448 0.531500 0.000000
0.163621 0.531500 0.000000
0.190794 0.531500 0.000000
0.217966 0.531500 0.000000
0.245139 0.531500 0.000000
0.272311 0.531500 0.000000
0.299484 0.531500 0.000000
0.326657 0.531500 0.000000
0.353829 0.531500 0.000000
0.381002 0.531500 0.000000
0.408175 0.531500 0.000000
0.506933 0.531500 0.000000
0.538823 0.531500 0.000000
0.570713 0.531500 0.000000
0.602604 0.531500 0.000000
0.634494 0.531500 0.000000
0.666385 0.531500 0.000000
0.698275 0.531500 0.000000
0.730165 0.531500 0.000000
0.762056 0.531500 0.000000
0.793946 0.531500 0.000000
0.825836 0.531500 0.000000
0.857727 0.531500 0.000000
0.889617 0.531500 0.000000
0.921507 0.531500 0.000000
0.953398 0.531500 0.000000
0.985288 0.531500 0.000000
1.000000 0.531500 0.000000
0.000000 0.563000 0.000000
0.027645 0.563000 0.000000
0.054931 0.563000 0.000000
0.082103 0.563000 0.000000
0.109276 0.563000 0.000000
0.136448 0.563000 0.000000
0.163621 0.563000 0.000000
0.190794 0.563000 0.000000
0.217966 0.563000 0.000000
0.245139 0.563000 0.000000
0.272311 0.563000 0.000000
0.299484 0.563000 0.000000
0.326657 0.563000 0.000000
0.353829 0.563000 0.000000
0.381002 0.563000 0.000000
0.408175 0.563000 0.000000
0.506933 0.563000 0.000000
0.538823 0.563000 0.000000
0.570713 0.563000 0.000000
0.602604 0.563000 0.000000
0.634494 0.563000 0.000000
0.666385 0.563000 0.000000
0.698275 0.563000 0.000000
0.730165 0.563000 0.000000
0.762056 0.563000 0.000000
0.793946 0.563000 0.000000
0.825836 0.563000 0.000000
0.857727 0.563000 0.000000
0.889617 0.563000 0.000000
0.921507 0.563000 0.000000
0.953398 0.563000 0.000000
0.985288 0.563000 0.000000
1.000000 0.563000 0.000000
0.000000 0.594500 0.000000
0.027645 0.594500 0.000000
0.054931 0.594500 0.000000
0.082103 0.594500 0.000000
0.109276 0.594500 0.000000
0.136448 0.594500 0.000000
0.163621 0.594500 0.000000
0.190794 0.594500 0.000000
0.217966 0.594500 0.000000
0.245139 0.594500 0.000000
0.272311 0.594500 0.000000
0.299484 0.594500 0.000000
0.326657 0.594500 0.000000
0.353829 0.594500 0.000000
0.381002 0.594500 0.000000
0.408175 0.594500 0.000000
0.506933 0.594500 0.000000
0.538823 0.594500 0.000000
0.570713 0.594500 0.000000
0.602604 0.594500 0.000000
0.634494 0.594500 0.000000
0.666385 0.594500 0.000000
0.698275 0.594500 0.000000
0.730165 0.594500 0.000000
0.762056 0.594500 0.000000
0.793946 0.594500 0.000000
0.825836 0.594500 0.000000
0.857727 0.594500 0.000000
0.889617 0.594500 0.000000
0.921507 0.594500 0.000000
0.953398 0.594500 0.000000
0.985288 0.594500 0.000000
1.000000 0.594500 0.000000
0.000000 0.626000 0.000000
0.027645 0.626000 0.000000
0.054931 0.626000 0.000000
0.082103 0.626000 0.000000
0.109276 0.626000 0.000000
0.136448 0.626000 0.000000
0.163621 0.626000 0.000000
0.190794 0.626000 0.000000
0.217966 0.626000 0.000000
0.245139 0.626000 0.000000
0.272311 0.626000 0.000000
0.299484 0.626000 0.000000
0.326657 0.626000 0.000000
0.353829 0.626000 0.000000
0.381002 0.626000 0.000000
0.408175 0.626000 0.000000
0.506933 0.626000 0.000000
0.538823 0.626000 0.000000
0.570713 0.626000 0.000000
0.602604 0.626000 0.000000
0.634494 0.626000 0.000000
0.666385 0.626000 0.000000
0.698275 0.626000 0.000000
0.730165 0.626000 0.000000
0.762056 0.626000 0.000000
0.793946 0.626000 0.000000
0.825836 0.626000 0.000000
0.857727 0.626000 0.000000
0.889617 0.626000 0.000000
0.921507 0.626000 0.000000
0.953398 0.626000 0.000000
0.985288 0.626000 0.000000
1.000000 0.626000 0.000000
0.000000 0.657500 0.000000
0.027645 0.657500 0.000000
0.054931 0.657500 0.000000
0.082103 0.657500 0.000000
0.109276 0.657500 0.000000
0.136448 0.657500 0.000000
0.163621 0.657500 0.000000
0.190794 0.657500 0.000000
0.217966 0.657500 0.000000
0.245139 0.657500 0.000000
0.272311 0.657500 0.000000
0.299484 0.657500 0.000000
0.326657 0.657500 0.000000
0.353829 0.657500 0.000000
0.381002 0.657500 0.000000
0.408175 0.657500 0.000000
0.506933 0.657500 0.000000
0.538823 0.657500 0.000000
0.570713 0.657500 0.000000
0.602604 0.657500 0.000000
0.634494 0.657500 0.000000
0.666385 0.657500 0.000000
0.698275 0.657500 0.000000
0.730165 0.657500 0.000000
0.762056 0.657500 0.000000
0.793946 0.657500 0.000000
0.825836 0.657500 0.000000
0.857727 0.657500 0.000000
0.889617 0.657500 0.000000
0.921507 0.657500 0.000000
0.953398 0.657500 0.000000
0.985288 0.657500 0.000000
1.000000 0.657500 0.000000
0.000000 0.689000 0.000000
0.027645 0.689000 0.000000
0.054931 0.689000 0.000000
0.082103 0.689000 0.000000
0.109276 0.689000 0.000000
0.136448 0.689000 0.000000
0.163621 0.689000 0.000000
0.190794 0.689000 0.000000
0.217966 0.689000 0.000000
0.245139 0.689000 0.000000
0.272311 0.689000 0.000000
0.299484 0.689000 0.000000
0.326657 0.689000 0.000000
0.353829 0.689000 0.000000
0.381002 0.689000 0.000000
0.408175 0.689000 0.000000
0.506933 0.689000 0.000000
0.538823 0.689000 0.000000
0.570713 0.689000 0.000000
0.602604 0.689000 0.000000
0.634494 0.689000 0.000000
0.666385 0.689000 0.000000
0.698275 0.689000 0.000000
0.730165 0.689000 0.000000
0.762056 0.689000 0.000000
0.793946 0.689000 0.000000
0.825836 0.689000 0.000000
0.857727 0.689000 0.000000
0.889617 0.689000 0.000000
0.921507 0.689000 0.000000
0.953398 0.689000 0.000000
0.985288 0.689000 0.000000
1.000000 0.689000 0.000000
0.000000 0.720500 0.000000
0.027645 0.720500 0.000000
0.054931 0.720500 0.000000
0.082103 0.720500 0.000000
0.109276 0.720500 0.000000
0.136448 0.720500 0.000000
0.163621 0.720500 0.000000
0.190794 0.720500 0.000000
0.217966 0.720500 0.000000
0.245139 0.720500 0.000000
0.272311 0.720500 0.000000
0.299484 0.720500 0.000000
0.326657 0.720500 0.000000
0.353829 0.720500 0.000000
0.381002 0.720500 0.000000
0.408175 0.720500 0.000000
0.506933 0.720500 0.000000
0.538823 0.720500 0.000000
0.570713 0.720500 0.000000
0.602604 0.720500 0.000000
0.634494 0.720500 0.000000
0.666385 0.720500 0.000000
0.698275 0.720500 0.000000
0.730165 0.720500 0.000000
0.762056 0.720500 0.000000
0.793946 0.720500 0.000000
0.825836 0.720500 0.000000
0.857727 0.720500 0.000000
0.889617 0.720500 0.000000
0.921507 0.720500 0.000000
0.953398 0.720500 0.000000
0.985288 0.720500 0.000000
1.000000 0.720500 0.000000
0.000000 0.752000 0.000000
0.027645 0.752000 0.000000
0.054931 0.752000 0.000000
0.082103 0.752000 0.000000
0.109276 0.752000 0.000000
0.136448 0.752000 0.000000
0.163621 0.752000 0.000000
0.190794 0.752000 0.000000
0.217966 0.752000 0.000000
0.245139 0.752000 0.000000
0.272311 0.752000 0.000000
0.299484 0.752000 0.000000
0.326657 0.752000 0.000000
0.353829 0.752000 0.000000
0.381002 0.752000 0.000000
0.408175 0.752000 0.000000
0.506933 0.752000 0.000000
0.538823 0.752000 0.000000
0.570713 0.752000 0.000000
0.602604 0.752000 0.000000
0.634494 0.752000 0.000000
0.666385 0.752000 0.000000
0.698275 0.752000 0.000000
0.730165 0.752000 0.000000
0.762056 0.752000 0.000000
0.793946 0.752000 0.000000
0.825836 0.752000 0.000000
0.857727 0.752000 0.000000
0.889617 0.752000 0.000000
0.921507 0.752000 0.000000
0.953398 0.752000 0.000000
0.985288 0.752000 0.000000
1.000000 0.752000 0.000000
0.000000 0.783500 0.000000
0.027645 0.783500 0.000000
0.054931 0.783500 0.000000
0.082103 0.783500 0.000000
0.109276 0.783500 0.000000
0.136448 0.783500 0.000000
0.163621 0.783500 0.000000
0.190794 0.783500 0.000000
0.217966 0.783500 0.000000
0.245139 0.783500 0.000000
0.272311 0.783500 0.000000
0.299484 0.783500 0.000000
0.326657 0.783500 0.000000
0.353829 0.783500 0.000000
0.381002 0.783500 0.000000
0.408175 0.783500 0.000000
0.506933 0.783500 0.000000
0.538823 0.783500 0.000000
0.570713 0.783500 0.000000
0.602604 0.783500 0.000000
0.634494 0.783500 0.000000
0.666385 0.783500 0.000000
0.698275 0.783500 0.000000
0.730165 0.783500 0.000000
0.762056 0.783500 0.000000
0.793946 0.783500 0.000000
0.825836 0.783500 0.000000
0.857727 0.783500 0.000000
0.889617 0.783500 0.000000
0.921507 0.783500 0.000000
0.953398 0.783500 0.000000
0.985288 0.783500 0.000000
1.000000 0.783500 0.000000
0.000000 0.815000 0.000000
0.027645 0.815000 0.000000
0.054931 0.815000 0.000000
0.082103 0.815000 0.000000
0.109276 0.815000 0.000000
0.136448 0.815000 0.000000
0.163621 0.815000 0.000000
0.190794 0.815000 0.000000
0.217966 0.815000 0.000000
0.245139 0.815000 0.000000
0.272311 0.815000 0.000000
0.299484 0.815000 0.000000
0.326657 0.815000 0.000000
0.353829 0.815000 0.000000
0.381002 0.815000 0.000000
0.408175 0.815000 0.000000
0.506933 0.815000 0.000000
0.538823 0.815000 0.000000
0.570713 0.815000 0.000000
0.602604 0.815000 0.000000
0.634494 0.815000 0.000000
0.666385 0.815000 0.000000
0.698275 0.815000 0.000000
0.730165 0.815000 0.000000
