docs/luts/fuji_recipes/Velvia_MT_Velvia.cube
TITLE "Fujifilm Recipe: MT Velvia (Velvia)"
# FilmSim=Velvia HL=0 SH=0 Col=-4 WB=Auto WBR=2 WBB=0
LUT_3D_SIZE 9
DOMAIN_MIN 0.0 0.0 0.0
DOMAIN_MAX 1.0 1.0 1.0
0.000000 0.000000 0.000000
0.082627 0.044805 0.044805
0.164833 0.089382 0.089382
0.247039 0.133959 0.133959
0.337504 0.183014 0.183014
0.422405 0.229052 0.229052
0.507306 0.275091 0.275091
0.592207 0.321129 0.321129
0.633876 0.343724 0.343724
0.041934 0.077333 0.041934
0.082627 0.080204 0.044805
0.164833 0.124781 0.089382
0.247039 0.169357 0.133959
0.337504 0.218413 0.183014
0.422405 0.264451 0.229052
0.507306 0.310489 0.275091
0.592207 0.356527 0.321129
0.633876 0.379123 0.343724
0.083869 0.154666 0.083869
0.121691 0.154666 0.083869
0.164833 0.160179 0.089382
0.247039 0.204756 0.133959
0.337504 0.253811 0.183014
0.422405 0.299849 0.229052
0.507306 0.345888 0.275091
0.592207 0.391926 0.321129
0.633876 0.414521 0.343724
0.125803 0.231999 0.125803
0.163625 0.231999 0.125803
0.201254 0.231999 0.125803
0.247039 0.240154 0.133959
0.337504 0.289210 0.183014
0.422405 0.335248 0.229052
0.507306 0.381286 0.275091
0.592207 0.427324 0.321129
0.633876 0.449920 0.343724
0.167737 0.309331 0.167737
0.205559 0.309331 0.167737
0.243188 0.309331 0.167737
0.280818 0.309331 0.167737
0.337504 0.324608 0.183014
0.422405 0.370646 0.229052
0.507306 0.416685 0.275091
0.592207 0.462723 0.321129
0.633876 0.485318 0.343724
0.215171 0.396806 0.215171
0.252993 0.396806 0.215171
0.290622 0.396806 0.215171
0.328251 0.396806 0.215171
0.369661 0.396806 0.215171
0.422405 0.410687 0.229052
0.507306 0.456726 0.275091
0.592207 0.502764 0.321129
0.633876 0.525359 0.343724
0.258481 0.476675 0.258481
0.296303 0.476675 0.258481
0.333932 0.476675 0.258481
0.371561 0.476675 0.258481
0.412970 0.476675 0.258481
0.451833 0.476675 0.258481
0.507306 0.493285 0.275091
0.592207 0.539323 0.321129
0.633876 0.561918 0.343724
0.301790 0.556543 0.301790
0.339612 0.556543 0.301790
0.377241 0.556543 0.301790
0.414870 0.556543 0.301790
0.456280 0.556543 0.301790
0.495142 0.556543 0.301790
0.534005 0.556543 0.301790
0.592207 0.575882 0.321129
0.633876 0.598477 0.343724
0.343724 0.633876 0.343724
0.381546 0.633876 0.343724
0.419175 0.633876 0.343724
0.456804 0.633876 0.343724
0.498214 0.633876 0.343724
0.537077 0.633876 0.343724
0.575940 0.633876 0.343724
0.614802 0.633876 0.343724
0.633876 0.633876 0.343724
0.041428 0.041428 0.076399
0.082627 0.044805 0.079777
0.164833 0.089382 0.124353
0.247039 0.133959 0.168930
0.337504 0.183014 0.217985
0.422405 0.229052 0.264024
0.507306 0.275091 0.310062
0.592207 0.321129 0.356100
0.633876 0.343724 0.378695
0.041934 0.077333 0.076906
0.127187 0.124217 0.123693
0.214319 0.162829 0.162280
0.301273 0.201871 0.201324
0.396867 0.244932 0.244387
0.486538 0.285389 0.284845
0.576186 0.325870 0.325327
0.660220 0.373917 0.373398
0.683851 0.417423 0.416976
0.083869 0.154666 0.118840
0.161129 0.203554 0.157461
0.214319 0.208336 0.162280
0.301273 0.247167 0.201324
0.396867 0.290093 0.244387
0.486538 0.330468 0.284845
0.576186 0.370891 0.325327
0.660220 0.416919 0.373398
0.683851 0.454444 0.416976
0.125803 0.231999 0.160774
0.197823 0.285372 0.194172
0.246005 0.285372 0.194172
0.301273 0.292463 0.201324
0.396867 0.335254 0.244387
0.486538 0.375547 0.284845
0.576186 0.415911 0.325327
0.660220 0.459921 0.373398
0.683851 0.491465 0.416976
0.167737 0.309331 0.202709
0.234610 0.367104 0.230970
0.282654 0.367104 0.230970
0.330698 0.367104 0.230970
0.396867 0.380415 0.244387
0.486538 0.420625 0.284845
0.576186 0.460932 0.325327
0.660220 0.502923 0.373398
0.683851 0.528485 0.416976
0.215171 0.396806 0.250143
0.276276 0.459504 0.272643
0.324218 0.459504 0.272643
0.372160 0.459504 0.272643
0.424919 0.459504 0.272643
0.486538 0.471616 0.284845
0.576186 0.511856 0.325327
0.660220 0.551565 0.373398
0.683851 0.570361 0.416976
0.258481 0.476675 0.293452
0.314347 0.543844 0.310720
0.362224 0.543844 0.310720
0.410102 0.543844 0.310720
0.462789 0.543844 0.310720
0.512237 0.543844 0.310720
0.576186 0.558353 0.325327
0.660220 0.595977 0.373398
0.683851 0.608596 0.416976
0.301790 0.556543 0.336761
0.352434 0.628168 0.348811
0.400263 0.628168 0.348811
0.448092 0.628168 0.348811
0.500727 0.628168 0.348811
0.550124 0.628168 0.348811
0.599521 0.628168 0.348811
0.660220 0.640389 0.373398
0.683851 0.646830 0.416976
0.343724 0.633876 0.378695
0.419958 0.683851 0.416976
0.459311 0.683851 0.416976
0.498665 0.683851 0.416976
0.541972 0.683851 0.416976
0.582616 0.683851 0.416976
0.623260 0.683851 0.416976
0.663903 0.683851 0.416976
0.683851 0.683851 0.416976
0.083011 0.083011 0.153084
0.120833 0.083011 0.153084
0.164833 0.089382 0.159455
0.247039 0.133959 0.204032
0.337504 0.183014 0.253087
0.422405 0.229052 0.299125
0.507306 0.275091 0.345164
0.592207 0.321129 0.391202
0.633876 0.343724 0.413797
0.083011 0.118410 0.153084
0.160859 0.157740 0.202365
0.214805 0.163308 0.207890
0.301763 0.202349 0.246724
0.397360 0.245409 0.289651
0.487033 0.285865 0.330026
0.576681 0.326346 0.370449
0.660750 0.374374 0.416507
0.684380 0.417953 0.454216
0.083869 0.154666 0.153942
0.164326 0.206794 0.205861
0.254068 0.248364 0.247477
0.341970 0.290149 0.289262
0.437083 0.329520 0.328590
0.526911 0.369819 0.368891
0.620033 0.406855 0.405899
0.703709 0.454498 0.453597
0.727339 0.497932 0.497175
0.125803 0.231999 0.195876
0.201012 0.288637 0.242344
0.288208 0.325888 0.281617
0.341970 0.333533 0.289262
0.437083 0.375015 0.328590
0.526911 0.415193 0.368891
0.620033 0.453604 0.405899
0.703709 0.498544 0.453597
0.727339 0.534953 0.497175
0.167737 0.309331 0.237810
0.237793 0.370385 0.279001
0.322156 0.407256 0.315236
0.370570 0.407256 0.315236
0.437083 0.420509 0.328590
0.526911 0.460567 0.368891
0.620033 0.500353 0.405899
0.703709 0.542591 0.453597
0.727339 0.571974 0.497175
0.215171 0.396806 0.285244
0.279454 0.462798 0.320570
0.363631 0.499835 0.356732
0.411898 0.499835 0.356732
0.465015 0.499835 0.356732
0.526911 0.511892 0.368891
0.620033 0.553233 0.405899
0.703709 0.592414 0.453597
0.727339 0.613850 0.497175
0.258481 0.476675 0.328554
0.317522 0.547146 0.358579
0.401570 0.584297 0.394685
0.449739 0.584297 0.394685
0.502748 0.584297 0.394685
0.552497 0.584297 0.394685
0.620033 0.601515 0.405899
0.703709 0.637905 0.453597
0.727339 0.652084 0.497175
0.301790 0.556543 0.371863
0.353283 0.633801 0.394987
0.435403 0.673125 0.428273
0.485292 0.673125 0.428273
0.540194 0.673125 0.428273
0.591719 0.673125 0.428273
0.643244 0.673125 0.428273
0.703709 0.683395 0.453597
0.727339 0.690319 0.497175
0.343724 0.633876 0.413797
0.423490 0.687383 0.457219
0.502800 0.727339 0.497175
0.542153 0.727339 0.497175
0.585461 0.727339 0.497175
0.626104 0.727339 0.497175
0.666748 0.727339 0.497175
0.707392 0.727339 0.497175
0.727339 0.727339 0.497175
0.124594 0.124594 0.229769
0.162416 0.124594 0.229769
0.200045 0.124594 0.229769
0.247039 0.133959 0.239134
0.337504 0.183014 0.288189
0.422405 0.229052 0.334227
0.507306 0.275091 0.380265
0.592207 0.321129 0.426304
0.633876 0.343724 0.448899
0.124594 0.159992 0.229769
0.197241 0.194137 0.283504
0.245435 0.194137 0.283504
0.301763 0.202349 0.291646
0.397360 0.245409 0.334438
0.487033 0.285865 0.374731
0.576681 0.326346 0.415096
0.660750 0.374374 0.459160
0.684380 0.417953 0.490926
0.124594 0.195391 0.229769
0.199953 0.242217 0.286278
0.287879 0.282175 0.324307
0.342774 0.290953 0.333086
0.437908 0.330332 0.374520
0.527740 0.370629 0.414700
0.620834 0.407663 0.453063
0.704606 0.455251 0.498052
0.728236 0.498829 0.534783
0.125803 0.231999 0.230978
0.201012 0.288637 0.287329
0.294180 0.331860 0.330609
0.380949 0.372512 0.371261
0.477683 0.418495 0.417244
0.567896 0.453663 0.452325
0.658922 0.492774 0.491428
0.747197 0.535109 0.533796
0.770828 0.578441 0.577374
0.167737 0.309331 0.272912
0.237793 0.370385 0.323851
0.328187 0.413368 0.366466
0.412612 0.447558 0.402924
0.477683 0.461878 0.417244
0.567896 0.500058 0.452325
0.658922 0.539444 0.491428
0.747197 0.580642 0.533796
0.770828 0.615462 0.577374
0.215171 0.396806 0.320346
0.279454 0.462798 0.365321
0.369653 0.505976 0.407814
0.457076 0.541095 0.447388
0.507826 0.541095 0.447388
0.567896 0.552538 0.452325
0.658922 0.592235 0.491428
0.747197 0.632146 0.533796
0.770828 0.657338 0.577374
0.258481 0.476675 0.363655
0.317522 0.547146 0.403266
0.405357 0.592688 0.444365
0.487769 0.626031 0.477370
0.542237 0.626031 0.477370
0.593355 0.626031 0.477370
0.658922 0.640436 0.491428
0.747197 0.679172 0.533796
0.770828 0.695573 0.577374
0.301790 0.556543 0.406965
0.353283 0.633801 0.440378
0.441389 0.679071 0.480791
0.524342 0.711943 0.513874
0.579176 0.711943 0.513874
0.630637 0.711943 0.513874
0.682099 0.711943 0.513874
0.747197 0.726198 0.533796
0.770828 0.733807 0.577374
0.343724 0.633876 0.448899
0.423490 0.687383 0.493929
0.509463 0.734002 0.540549
0.585642 0.770828 0.577374
0.628949 0.770828 0.577374
0.669593 0.770828 0.577374
0.710236 0.770828 0.577374
0.750880 0.770828 0.577374
0.770828 0.770828 0.577374
0.166177 0.166177 0.306453
0.203999 0.166177 0.306453
0.241628 0.166177 0.306453
0.279257 0.166177 0.306453
0.337504 0.183014 0.323291
0.422405 0.229052 0.369329
0.507306 0.275091 0.415367
0.592207 0.321129 0.461406
0.633876 0.343724 0.484001
0.166177 0.201575 0.306453
0.233717 0.230622 0.364555
0.281770 0.230622 0.364555
0.329824 0.230622 0.364555
0.397360 0.245409 0.379225
0.487033 0.285865 0.419436
0.576681 0.326346 0.459742
0.660750 0.374374 0.501812
0.684380 0.417953 0.527637
0.166177 0.236974 0.306453
0.236423 0.278560 0.367344
0.321605 0.315616 0.405031
0.370031 0.315616 0.405031
0.437908 0.330332 0.419639
0.527740 0.370629 0.459699
0.620834 0.407663 0.499419
0.704606 0.455251 0.541755
0.728236 0.498829 0.571493
0.166177 0.272372 0.306453
0.236423 0.323794 0.367344
0.326824 0.366423 0.410319
0.412283 0.403845 0.445614
0.478816 0.419629 0.461397
0.569032 0.454807 0.499472
0.660054 0.493915 0.538846
0.748462 0.536128 0.580017
0.772092 0.579706 0.615349
0.167737 0.309331 0.308014
0.237793 0.370385 0.368702
0.328187 0.413368 0.411672
0.421391 0.456337 0.454722
0.516662 0.500857 0.499243
0.607446 0.544013 0.542398
0.697855 0.578647 0.576914
0.789283 0.617365 0.615616
0.814316 0.658951 0.657573
0.215171 0.396806 0.355448
0.279454 0.462798 0.410071
0.369653 0.505976 0.452879
0.465855 0.549873 0.499186
0.546805 0.580073 0.529386
0.607446 0.593085 0.542398
0.697855 0.631319 0.576914
0.789283 0.670528 0.615616
0.814316 0.700826 0.657573
0.258481 0.476675 0.398757
0.317522 0.547146 0.447953
0.405357 0.592688 0.490432
0.496614 0.634807 0.532369
0.581442 0.665027 0.562793
0.632433 0.665027 0.562793
0.697855 0.679411 0.576914
0.789283 0.719068 0.615616
0.814316 0.739061 0.657573
0.301790 0.556543 0.442066
0.353283 0.633801 0.485769
0.441389 0.679071 0.527322
0.533149 0.720688 0.569150
0.618241 0.750783 0.599452
0.669616 0.750783 0.599452
0.720990 0.750783 0.599452
0.789283 0.767608 0.615616
0.814316 0.777295 0.657573
0.343724 0.633876 0.484001
0.423490 0.687383 0.530639
0.509463 0.734002 0.577259
0.595436 0.780622 0.623878
0.672437 0.814316 0.657573
0.713081 0.814316 0.657573
0.753725 0.814316 0.657573
0.794369 0.814316 0.657573
0.814316 0.814316 0.657573
0.213196 0.213196 0.393164
0.251018 0.213196 0.393164
0.288647 0.213196 0.393164
0.326277 0.213196 0.393164
0.367686 0.213196 0.393164
0.422405 0.229052 0.409020
0.507306 0.275091 0.455059
0.592207 0.321129 0.501097
0.633876 0.343724 0.523692
0.213196 0.248595 0.393164
0.275017 0.271928 0.456152
0.322967 0.271928 0.456152
0.370917 0.271928 0.456152
0.423685 0.271928 0.456152
0.487033 0.285865 0.469986
0.576681 0.326346 0.510227
0.660750 0.374374 0.550041
0.684380 0.417953 0.569147
0.213196 0.283993 0.393164
0.277719 0.319761 0.458952
0.362713 0.356742 0.496809
0.410991 0.356742 0.496809
0.464120 0.356742 0.496809
0.527740 0.370629 0.510581
0.620834 0.407663 0.551836
0.704606 0.455251 0.591171
0.728236 0.498829 0.613003
0.213196 0.319392 0.393164
0.277719 0.364893 0.458952
0.367925 0.407400 0.502122
0.456358 0.447921 0.538334
0.507109 0.447921 0.538334
0.569032 0.454807 0.551491
0.660054 0.493915 0.591173
0.748462 0.536128 0.631131
0.772092 0.579706 0.656859
0.213196 0.354790 0.393164
0.277719 0.410026 0.458952
0.367925 0.452851 0.502122
0.464003 0.498949 0.545979
0.546417 0.530612 0.577642
0.608909 0.545476 0.592505
0.699318 0.580122 0.630595
0.790739 0.618830 0.669776
0.815948 0.660583 0.700715
0.215171 0.396806 0.395139
0.279454 0.462798 0.460673
0.369653 0.505976 0.503836
0.465855 0.549873 0.547830
0.562588 0.595857 0.593813
0.651521 0.637161 0.635117
0.741965 0.675675 0.673490
0.833160 0.714634 0.712425
0.863491 0.750001 0.748257
0.258481 0.476675 0.438448
0.317522 0.547146 0.498482
0.405357 0.592688 0.542521
0.496614 0.634807 0.584551
0.597359 0.680840 0.630747
0.679107 0.709552 0.662703
0.741965 0.723589 0.673490
0.833160 0.763081 0.712425
0.863491 0.788235 0.748257
0.301790 0.556543 0.481758
0.353283 0.633801 0.537094
0.441389 0.679071 0.579936
0.533149 0.720688 0.621691
0.634095 0.766519 0.667746
0.713817 0.794748 0.696174
0.765041 0.794748 0.696174
0.833160 0.811527 0.712425
0.863491 0.826470 0.748257
0.343724 0.633876 0.523692
0.423490 0.687383 0.572150
0.509463 0.734002 0.618769
0.595436 0.780622 0.665389
0.690047 0.831925 0.716692
0.762256 0.863491 0.748257
0.802899 0.863491 0.748257
0.843543 0.863491 0.748257
0.863491 0.863491 0.748257
0.256143 0.256143 0.472363
0.293965 0.256143 0.472363
0.331594 0.256143 0.472363
0.369223 0.256143 0.472363
0.410632 0.256143 0.472363
0.449495 0.256143 0.472363
0.507306 0.275091 0.491311
0.592207 0.321129 0.537349
0.633876 0.343724 0.559945
0.256143 0.291541 0.472363
0.312767 0.309683 0.539786
0.360652 0.309683 0.539786
0.408536 0.309683 0.539786
0.461232 0.309683 0.539786
0.510686 0.309683 0.539786
0.576681 0.326346 0.556337
0.660750 0.374374 0.594092
0.684380 0.417953 0.607061
0.256143 0.326940 0.472363
0.315466 0.357448 0.542594
0.400331 0.394372 0.580568
0.448510 0.394372 0.580568
0.501530 0.394372 0.580568
0.551289 0.394372 0.580568
0.620834 0.407663 0.599711
0.704606 0.455251 0.636307
0.728236 0.498829 0.650917
0.256143 0.362338 0.472363
0.315466 0.402516 0.542594
0.404587 0.444394 0.586849
0.486924 0.477871 0.622539
0.541372 0.477871 0.622539
0.592471 0.477871 0.622539
0.660054 0.493915 0.638967
0.748462 0.536128 0.677817
0.772092 0.579706 0.694773
0.256143 0.397737 0.472363
0.315466 0.447583 0.542594
0.404587 0.490226 0.586849
0.494629 0.532104 0.630185
0.580917 0.564005 0.661877
0.631886 0.564005 0.661877
0.699318 0.580122 0.678279
0.790739 0.618830 0.717907
0.815948 0.660583 0.738629
0.256143 0.437778 0.472363
0.315466 0.498561 0.542594
0.404587 0.542069 0.586849
0.494629 0.584729 0.630185
0.595362 0.630922 0.676229
0.678766 0.664406 0.706792
0.743821 0.677544 0.722862
0.835003 0.716491 0.762317
0.865556 0.752066 0.788237
0.258481 0.476675 0.474701
0.317522 0.547146 0.544634
0.405357 0.592688 0.590098
0.496614 0.634807 0.632213
0.597359 0.680840 0.678254
0.693970 0.724415 0.721996
0.782562 0.765378 0.762960
0.873272 0.803418 0.800811
0.908405 0.833150 0.831086
0.301790 0.556543 0.518010
0.353283 0.633801 0.583973
0.441389 0.679071 0.627992
0.533149 0.720688 0.669681
0.634095 0.766519 0.715627
0.728773 0.809592 0.758873
0.805418 0.834990 0.784430
0.873272 0.851709 0.800811
0.908405 0.871384 0.831086
0.343724 0.633876 0.559945
0.423490 0.687383 0.610064
0.509463 0.734002 0.656683
0.595436 0.780622 0.703303
0.690047 0.831925 0.754606
0.778838 0.880073 0.802754
0.847814 0.908405 0.831086
0.888457 0.908405 0.831086
0.908405 0.908405 0.831086
0.299089 0.299089 0.551562
0.336911 0.299089 0.551562
0.374540 0.299089 0.551562
0.412169 0.299089 0.551562
0.453579 0.299089 0.551562
0.492441 0.299089 0.551562
0.531304 0.299089 0.551562
0.592207 0.321129 0.573602
0.633876 0.343724 0.596197
0.299089 0.334487 0.551562
0.350534 0.347453 0.623406
0.398369 0.347453 0.623406
0.446205 0.347453 0.623406
0.498846 0.347453 0.623406
0.548250 0.347453 0.623406
0.597653 0.347453 0.623406
0.660750 0.374374 0.638143
0.684380 0.417953 0.644975
0.299089 0.369886 0.551562
0.353096 0.395074 0.626353
0.433952 0.427784 0.668545
0.483819 0.427784 0.668545
0.538696 0.427784 0.668545
0.590197 0.427784 0.668545
0.641699 0.427784 0.668545
0.704606 0.455251 0.681442
0.728236 0.498829 0.688831
0.299089 0.405284 0.551562
0.353096 0.440137 0.626353
0.439134 0.479871 0.673692
0.523213 0.514101 0.707699
0.578019 0.514101 0.707699
0.629453 0.514101 0.707699
0.680888 0.514101 0.707699
0.748462 0.536128 0.724502
0.772092 0.579706 0.732687
0.299089 0.440683 0.551562
0.353096 0.485201 0.626353
0.439134 0.526775 0.673692
0.530887 0.568613 0.715316
0.617431 0.600394 0.746877
0.668772 0.600394 0.746877
0.720114 0.600394 0.746877
0.790739 0.618830 0.766038
0.815948 0.660583 0.776543
0.299089 0.480724 0.551562
0.353096 0.536174 0.626353
0.439134 0.579830 0.673692
0.530887 0.621591 0.715316
0.631822 0.667653 0.761159
0.713383 0.697951 0.791245
0.764566 0.697951 0.791245
0.835003 0.716491 0.810352
0.865556 0.752066 0.826151
0.299089 0.517283 0.551562
0.353096 0.582715 0.626353
0.439134 0.628271 0.673692
0.530887 0.669962 0.715316
0.631822 0.715911 0.761159
0.726483 0.759158 0.804247
0.805304 0.786926 0.831855
0.875458 0.805621 0.850889
0.910850 0.835595 0.871445
0.301790 0.556543 0.554263
0.353283 0.633801 0.630853
0.441389 0.679071 0.676049
0.533149 0.720688 0.717670
0.634095 0.766519 0.763508
0.728773 0.809592 0.806591
0.825351 0.852973 0.850178
0.913488 0.892083 0.889093
0.953319 0.916298 0.913914
0.343724 0.633876 0.596197
0.423490 0.687383 0.647978
0.509463 0.734002 0.694597
0.595436 0.780622 0.741217
0.690047 0.831925 0.792520
0.778838 0.880073 0.840668
0.867630 0.928221 0.888816
0.933372 0.953319 0.913914
0.953319 0.953319 0.913914
0.342035 0.342035 0.630761
0.379857 0.342035 0.630761
0.417486 0.342035 0.630761
0.455115 0.342035 0.630761
0.496525 0.342035 0.630761
0.535388 0.342035 0.630761
0.574250 0.342035 0.630761
0.613113 0.342035 0.630761
0.633876 0.343724 0.632450
0.342035 0.377434 0.630761
0.417258 0.414695 0.682614
0.457054 0.414695 0.682614
0.496851 0.414695 0.682614
0.540646 0.414695 0.682614
0.581747 0.414695 0.682614
0.622848 0.414695 0.682614
0.663950 0.414695 0.682614
0.684380 0.417953 0.682889
0.342035 0.412832 0.630761
0.420232 0.455110 0.685616
0.500503 0.495572 0.726470
0.540371 0.495572 0.726470
0.584245 0.495572 0.726470
0.625421 0.495572 0.726470
0.666596 0.495572 0.726470
0.707772 0.495572 0.726470
0.728236 0.498829 0.726745
0.342035 0.448231 0.630761
0.420232 0.492552 0.685616
0.506205 0.538788 0.732236
0.583761 0.576448 0.770326
0.627745 0.576448 0.770326
0.669024 0.576448 0.770326
0.710302 0.576448 0.770326
0.751581 0.576448 0.770326
0.772092 0.579706 0.770601
0.342035 0.483629 0.630761
0.420232 0.529993 0.685616
0.506205 0.576304 0.732236
0.592178 0.622483 0.778855
0.671073 0.657325 0.814182
0.712505 0.657325 0.814182
0.753936 0.657325 0.814182
0.795368 0.657325 0.814182
0.815948 0.660583 0.814457
0.342035 0.523670 0.630761
0.420232 0.572345 0.685616
0.506205 0.618740 0.732236
0.592178 0.665038 0.778855
0.686789 0.715781 0.830159
0.761390 0.748809 0.863789
0.803116 0.748809 0.863789
0.844842 0.748809 0.863789
0.865556 0.752066 0.864065
0.342035 0.560229 0.630761
0.420232 0.611014 0.685616
0.506205 0.657485 0.732236
0.592178 0.703894 0.778855
0.686789 0.754828 0.830159
0.775580 0.802337 0.878307
0.847594 0.832337 0.909083
0.889881 0.832337 0.909083
0.910850 0.835595 0.909359
0.342035 0.596788 0.630761
0.420232 0.649683 0.685616
0.506205 0.696231 0.732236
0.592178 0.742749 0.778855
0.686789 0.793874 0.830159
0.775580 0.841715 0.878307
0.864372 0.889132 0.926455
0.934372 0.915865 0.954377
0.956144 0.919123 0.954653
0.343724 0.633876 0.632450
0.423490 0.687383 0.685892
0.509463 0.734002 0.732511
0.595436 0.780622 0.779131
0.690047 0.831925 0.830434
0.778838 0.880073 0.878582
0.867630 0.928221 0.926730
0.956422 0.976369 0.974878
0.998233 0.998233 0.996742
