docs/luts/fuji_recipes/Velvia_RR_Ektachrome_100SW.cube
TITLE "Fujifilm Recipe: RR Ektachrome 100SW (Velvia)"
# FilmSim=Velvia HL=1 SH=2 Col=-1 WB=Auto WBR=3 WBB=-4
LUT_3D_SIZE 33
DOMAIN_MIN 0.0 0.0 0.0
DOMAIN_MAX 1.0 1.0 1.0
0.000000 0.000000 0.000000
0.035489 0.003510 0.003510
0.066585 0.006585 0.006585
0.097154 0.009609 0.009609
0.127723 0.012632 0.012632
0.158292 0.015655 0.015655
0.188860 0.018679 0.018679
0.219429 0.021702 0.021702
0.249998 0.024725 0.024725
0.280567 0.027748 0.027748
0.311136 0.030772 0.030772
0.341704 0.033795 0.033795
0.372273 0.036818 0.036818
0.402842 0.039842 0.039842
0.484021 0.047870 0.047870
0.519710 0.051400 0.051400
0.555398 0.054930 0.054930
0.591087 0.058459 0.058459
0.626776 0.061989 0.061989
0.662465 0.065519 0.065519
0.698154 0.069048 0.069048
0.733843 0.072578 0.072578
0.769532 0.076108 0.076108
0.805221 0.079637 0.079637
0.840910 0.083167 0.083167
0.876599 0.086697 0.086697
0.910000 0.090000 0.090000
0.910000 0.090000 0.090000
0.910000 0.090000 0.090000
0.910000 0.090000 0.090000
0.910000 0.090000 0.090000
0.910000 0.090000 0.090000
0.910000 0.090000 0.090000
0.003174 0.032097 0.003174
0.035489 0.032433 0.003510
0.066585 0.035508 0.006585
0.097154 0.038532 0.009609
0.127723 0.041555 0.012632
0.158292 0.044578 0.015655
0.188860 0.047601 0.018679
0.219429 0.050625 0.021702
0.249998 0.053648 0.024725
0.280567 0.056671 0.027748
0.311136 0.059695 0.030772
0.341704 0.062718 0.033795
0.372273 0.065741 0.036818
0.402842 0.068764 0.039842
0.484021 0.076793 0.047870
0.519710 0.080323 0.051400
0.555398 0.083852 0.054930
0.591087 0.087382 0.058459
0.626776 0.090912 0.061989
0.662465 0.094441 0.065519
0.698154 0.097971 0.069048
0.733843 0.101501 0.072578
0.769532 0.105030 0.076108
0.805221 0.108560 0.079637
0.840910 0.112090 0.083167
0.876599 0.115620 0.086697
0.910000 0.118923 0.090000
0.910000 0.118923 0.090000
0.910000 0.118923 0.090000
0.910000 0.118923 0.090000
0.910000 0.118923 0.090000
0.910000 0.118923 0.090000
0.910000 0.118923 0.090000
0.006000 0.060670 0.006000
0.037980 0.060670 0.006000
0.066585 0.061255 0.006585
0.097154 0.064278 0.009609
0.127723 0.067302 0.012632
0.158292 0.070325 0.015655
0.188860 0.073348 0.018679
0.219429 0.076371 0.021702
0.249998 0.079395 0.024725
0.280567 0.082418 0.027748
0.311136 0.085441 0.030772
0.341704 0.088465 0.033795
0.372273 0.091488 0.036818
0.402842 0.094511 0.039842
0.484021 0.102540 0.047870
0.519710 0.106069 0.051400
0.555398 0.109599 0.054930
0.591087 0.113129 0.058459
0.626776 0.116659 0.061989
0.662465 0.120188 0.065519
0.698154 0.123718 0.069048
0.733843 0.127248 0.072578
0.769532 0.130777 0.076108
0.805221 0.134307 0.079637
0.840910 0.137837 0.083167
0.876599 0.141366 0.086697
0.910000 0.144670 0.090000
0.910000 0.144670 0.090000
0.910000 0.144670 0.090000
0.910000 0.144670 0.090000
0.910000 0.144670 0.090000
0.910000 0.144670 0.090000
0.910000 0.144670 0.090000
0.008778 0.088758 0.008778
0.040757 0.088758 0.008778
0.068778 0.088758 0.008778
0.097154 0.089588 0.009609
0.127723 0.092612 0.012632
0.158292 0.095635 0.015655
0.188860 0.098658 0.018679
0.219429 0.101681 0.021702
0.249998 0.104705 0.024725
0.280567 0.107728 0.027748
0.311136 0.110751 0.030772
0.341704 0.113775 0.033795
0.372273 0.116798 0.036818
0.402842 0.119821 0.039842
0.484021 0.127850 0.047870
0.519710 0.131380 0.051400
0.555398 0.134909 0.054930
0.591087 0.138439 0.058459
0.626776 0.141969 0.061989
0.662465 0.145498 0.065519
0.698154 0.149028 0.069048
0.733843 0.152558 0.072578
0.769532 0.156087 0.076108
0.805221 0.159617 0.079637
0.840910 0.163147 0.083167
0.876599 0.166676 0.086697
0.910000 0.169980 0.090000
0.910000 0.169980 0.090000
0.910000 0.169980 0.090000
0.910000 0.169980 0.090000
0.910000 0.169980 0.090000
0.910000 0.169980 0.090000
0.910000 0.169980 0.090000
0.011556 0.116846 0.011556
0.043535 0.116846 0.011556
0.071556 0.116846 0.011556
0.099102 0.116846 0.011556
0.127723 0.117922 0.012632
0.158292 0.120945 0.015655
0.188860 0.123968 0.018679
0.219429 0.126992 0.021702
0.249998 0.130015 0.024725
0.280567 0.133038 0.027748
0.311136 0.136061 0.030772
0.341704 0.139085 0.033795
0.372273 0.142108 0.036818
0.402842 0.145131 0.039842
0.484021 0.153160 0.047870
0.519710 0.156690 0.051400
0.555398 0.160219 0.054930
0.591087 0.163749 0.058459
0.626776 0.167279 0.061989
0.662465 0.170808 0.065519
0.698154 0.174338 0.069048
0.733843 0.177868 0.072578
0.769532 0.181397 0.076108
0.805221 0.184927 0.079637
0.840910 0.188457 0.083167
0.876599 0.191986 0.086697
0.910000 0.195290 0.090000
0.910000 0.195290 0.090000
0.910000 0.195290 0.090000
0.910000 0.195290 0.090000
0.910000 0.195290 0.090000
0.910000 0.195290 0.090000
0.910000 0.195290 0.090000
0.014334 0.144934 0.014334
0.046313 0.144934 0.014334
0.074334 0.144934 0.014334
0.101880 0.144934 0.014334
0.129425 0.144934 0.014334
0.158292 0.146255 0.015655
0.188860 0.149278 0.018679
0.219429 0.152302 0.021702
0.249998 0.155325 0.024725
0.280567 0.158348 0.027748
0.311136 0.161371 0.030772
0.341704 0.164395 0.033795
0.372273 0.167418 0.036818
0.402842 0.170441 0.039842
0.484021 0.178470 0.047870
0.519710 0.182000 0.051400
0.555398 0.185529 0.054930
0.591087 0.189059 0.058459
0.626776 0.192589 0.061989
0.662465 0.196118 0.065519
0.698154 0.199648 0.069048
0.733843 0.203178 0.072578
0.769532 0.206707 0.076108
0.805221 0.210237 0.079637
0.840910 0.213767 0.083167
0.876599 0.217296 0.086697
0.910000 0.220600 0.090000
0.910000 0.220600 0.090000
0.910000 0.220600 0.090000
0.910000 0.220600 0.090000
0.910000 0.220600 0.090000
0.910000 0.220600 0.090000
0.910000 0.220600 0.090000
0.017112 0.173022 0.017112
0.049091 0.173022 0.017112
0.077112 0.173022 0.017112
0.104658 0.173022 0.017112
0.132203 0.173022 0.017112
0.159749 0.173022 0.017112
0.188860 0.174588 0.018679
0.219429 0.177612 0.021702
0.249998 0.180635 0.024725
0.280567 0.183658 0.027748
0.311136 0.186682 0.030772
0.341704 0.189705 0.033795
0.372273 0.192728 0.036818
0.402842 0.195751 0.039842
0.484021 0.203780 0.047870
0.519710 0.207310 0.051400
0.555398 0.210839 0.054930
0.591087 0.214369 0.058459
0.626776 0.217899 0.061989
0.662465 0.221428 0.065519
0.698154 0.224958 0.069048
0.733843 0.228488 0.072578
0.769532 0.232017 0.076108
0.805221 0.235547 0.079637
0.840910 0.239077 0.083167
0.876599 0.242607 0.086697
0.910000 0.245910 0.090000
0.910000 0.245910 0.090000
0.910000 0.245910 0.090000
0.910000 0.245910 0.090000
0.910000 0.245910 0.090000
0.910000 0.245910 0.090000
0.910000 0.245910 0.090000
0.019890 0.201110 0.019890
0.051869 0.201110 0.019890
0.079890 0.201110 0.019890
0.107435 0.201110 0.019890
0.134981 0.201110 0.019890
0.162526 0.201110 0.019890
0.190072 0.201110 0.019890
0.219429 0.202922 0.021702
0.249998 0.205945 0.024725
0.280567 0.208968 0.027748
0.311136 0.211992 0.030772
0.341704 0.215015 0.033795
0.372273 0.218038 0.036818
0.402842 0.221061 0.039842
0.484021 0.229090 0.047870
0.519710 0.232620 0.051400
0.555398 0.236149 0.054930
0.591087 0.239679 0.058459
0.626776 0.243209 0.061989
0.662465 0.246738 0.065519
0.698154 0.250268 0.069048
0.733843 0.253798 0.072578
0.769532 0.257328 0.076108
0.805221 0.260857 0.079637
0.840910 0.264387 0.083167
0.876599 0.267917 0.086697
0.910000 0.271220 0.090000
0.910000 0.271220 0.090000
0.910000 0.271220 0.090000
0.910000 0.271220 0.090000
0.910000 0.271220 0.090000
0.910000 0.271220 0.090000
0.910000 0.271220 0.090000
0.022668 0.229198 0.022668
0.054647 0.229198 0.022668
0.082668 0.229198 0.022668
0.110213 0.229198 0.022668
0.137759 0.229198 0.022668
0.165304 0.229198 0.022668
0.192850 0.229198 0.022668
0.220395 0.229198 0.022668
0.249998 0.231255 0.024725
0.280567 0.234278 0.027748
0.311136 0.237302 0.030772
0.341704 0.240325 0.033795
0.372273 0.243348 0.036818
0.402842 0.246371 0.039842
0.484021 0.254400 0.047870
0.519710 0.257930 0.051400
0.555398 0.261459 0.054930
0.591087 0.264989 0.058459
0.626776 0.268519 0.061989
0.662465 0.272049 0.065519
0.698154 0.275578 0.069048
0.733843 0.279108 0.072578
0.769532 0.282638 0.076108
0.805221 0.286167 0.079637
0.840910 0.289697 0.083167
0.876599 0.293227 0.086697
0.910000 0.296530 0.090000
0.910000 0.296530 0.090000
0.910000 0.296530 0.090000
0.910000 0.296530 0.090000
0.910000 0.296530 0.090000
0.910000 0.296530 0.090000
0.910000 0.296530 0.090000
0.025446 0.257286 0.025446
0.057425 0.257286 0.025446
0.085446 0.257286 0.025446
0.112991 0.257286 0.025446
0.140537 0.257286 0.025446
0.168082 0.257286 0.025446
0.195628 0.257286 0.025446
0.223173 0.257286 0.025446
0.250719 0.257286 0.025446
0.280567 0.259588 0.027748
0.311136 0.262612 0.030772
0.341704 0.265635 0.033795
0.372273 0.268658 0.036818
0.402842 0.271682 0.039842
0.484021 0.279710 0.047870
0.519710 0.283240 0.051400
0.555398 0.286770 0.054930
0.591087 0.290299 0.058459
0.626776 0.293829 0.061989
0.662465 0.297359 0.065519
0.698154 0.300888 0.069048
0.733843 0.304418 0.072578
0.769532 0.307948 0.076108
0.805221 0.311477 0.079637
0.840910 0.315007 0.083167
0.876599 0.318537 0.086697
0.910000 0.321840 0.090000
0.910000 0.321840 0.090000
0.910000 0.321840 0.090000
0.910000 0.321840 0.090000
0.910000 0.321840 0.090000
0.910000 0.321840 0.090000
0.910000 0.321840 0.090000
0.028224 0.285374 0.028224
0.060203 0.285374 0.028224
0.088224 0.285374 0.028224
0.115769 0.285374 0.028224
0.143315 0.285374 0.028224
0.170860 0.285374 0.028224
0.198406 0.285374 0.028224
0.225951 0.285374 0.028224
0.253497 0.285374 0.028224
0.281042 0.285374 0.028224
0.311136 0.287922 0.030772
0.341704 0.290945 0.033795
0.372273 0.293968 0.036818
0.402842 0.296992 0.039842
0.484021 0.305020 0.047870
0.519710 0.308550 0.051400
0.555398 0.312080 0.054930
0.591087 0.315609 0.058459
0.626776 0.319139 0.061989
0.662465 0.322669 0.065519
0.698154 0.326198 0.069048
0.733843 0.329728 0.072578
0.769532 0.333258 0.076108
0.805221 0.336787 0.079637
0.840910 0.340317 0.083167
0.876599 0.343847 0.086697
0.910000 0.347150 0.090000
0.910000 0.347150 0.090000
0.910000 0.347150 0.090000
0.910000 0.347150 0.090000
0.910000 0.347150 0.090000
0.910000 0.347150 0.090000
0.910000 0.347150 0.090000
0.031002 0.313462 0.031002
0.062981 0.313462 0.031002
0.091002 0.313462 0.031002
0.118547 0.313462 0.031002
0.146093 0.313462 0.031002
0.173638 0.313462 0.031002
0.201184 0.313462 0.031002
0.228729 0.313462 0.031002
0.256275 0.313462 0.031002
0.283820 0.313462 0.031002
0.311366 0.313462 0.031002
0.341704 0.316255 0.033795
0.372273 0.319278 0.036818
0.402842 0.322302 0.039842
0.484021 0.330330 0.047870
0.519710 0.333860 0.051400
0.555398 0.337390 0.054930
0.591087 0.340919 0.058459
0.626776 0.344449 0.061989
0.662465 0.347979 0.065519
0.698154 0.351508 0.069048
0.733843 0.355038 0.072578
0.769532 0.358568 0.076108
0.805221 0.362097 0.079637
0.840910 0.365627 0.083167
0.876599 0.369157 0.086697
0.910000 0.372460 0.090000
0.910000 0.372460 0.090000
0.910000 0.372460 0.090000
0.910000 0.372460 0.090000
0.910000 0.372460 0.090000
0.910000 0.372460 0.090000
0.910000 0.372460 0.090000
0.033780 0.341550 0.033780
0.065759 0.341550 0.033780
0.093780 0.341550 0.033780
0.121325 0.341550 0.033780
0.148871 0.341550 0.033780
0.176416 0.341550 0.033780
0.203962 0.341550 0.033780
0.231507 0.341550 0.033780
0.259053 0.341550 0.033780
0.286598 0.341550 0.033780
0.314144 0.341550 0.033780
0.341704 0.341565 0.033795
0.372273 0.344588 0.036818
0.402842 0.347612 0.039842
0.484021 0.355640 0.047870
0.519710 0.359170 0.051400
0.555398 0.362700 0.054930
0.591087 0.366229 0.058459
0.626776 0.369759 0.061989
0.662465 0.373289 0.065519
0.698154 0.376818 0.069048
0.733843 0.380348 0.072578
0.769532 0.383878 0.076108
0.805221 0.387407 0.079637
0.840910 0.390937 0.083167
0.876599 0.394467 0.086697
0.910000 0.397770 0.090000
0.910000 0.397770 0.090000
0.910000 0.397770 0.090000
0.910000 0.397770 0.090000
0.910000 0.397770 0.090000
0.910000 0.397770 0.090000
0.910000 0.397770 0.090000
0.036558 0.369638 0.036558
0.068537 0.369638 0.036558
0.096558 0.369638 0.036558
0.124103 0.369638 0.036558
0.151649 0.369638 0.036558
0.179194 0.369638 0.036558
0.206740 0.369638 0.036558
0.234285 0.369638 0.036558
0.261830 0.369638 0.036558
0.289376 0.369638 0.036558
0.316921 0.369638 0.036558
0.344467 0.369638 0.036558
0.372273 0.369898 0.036818
0.402842 0.372922 0.039842
0.484021 0.380950 0.047870
0.519710 0.384480 0.051400
0.555398 0.388010 0.054930
0.591087 0.391539 0.058459
0.626776 0.395069 0.061989
0.662465 0.398599 0.065519
0.698154 0.402129 0.069048
0.733843 0.405658 0.072578
0.769532 0.409188 0.076108
0.805221 0.412718 0.079637
0.840910 0.416247 0.083167
0.876599 0.419777 0.086697
0.910000 0.423080 0.090000
0.910000 0.423080 0.090000
0.910000 0.423080 0.090000
0.910000 0.423080 0.090000
0.910000 0.423080 0.090000
0.910000 0.423080 0.090000
0.910000 0.423080 0.090000
0.039336 0.397726 0.039336
0.071315 0.397726 0.039336
0.099336 0.397726 0.039336
0.126881 0.397726 0.039336
0.154426 0.397726 0.039336
0.181972 0.397726 0.039336
0.209517 0.397726 0.039336
0.237063 0.397726 0.039336
0.264608 0.397726 0.039336
0.292154 0.397726 0.039336
0.319699 0.397726 0.039336
0.347245 0.397726 0.039336
0.374790 0.397726 0.039336
0.402842 0.398232 0.039842
0.484021 0.406260 0.047870
0.519710 0.409790 0.051400
0.555398 0.413320 0.054930
0.591087 0.416850 0.058459
0.626776 0.420379 0.061989
0.662465 0.423909 0.065519
0.698154 0.427439 0.069048
0.733843 0.430968 0.072578
0.769532 0.434498 0.076108
0.805221 0.438028 0.079637
0.840910 0.441557 0.083167
0.876599 0.445087 0.086697
0.910000 0.448390 0.090000
0.910000 0.448390 0.090000
0.910000 0.448390 0.090000
0.910000 0.448390 0.090000
0.910000 0.448390 0.090000
0.910000 0.448390 0.090000
0.910000 0.448390 0.090000
0.046993 0.475151 0.046993
0.078972 0.475151 0.046993
0.106993 0.475151 0.046993
0.134538 0.475151 0.046993
0.162084 0.475151 0.046993
0.189629 0.475151 0.046993
0.217175 0.475151 0.046993
0.244720 0.475151 0.046993
0.272266 0.475151 0.046993
0.299811 0.475151 0.046993
0.327357 0.475151 0.046993
0.354902 0.475151 0.046993
0.382448 0.475151 0.046993
0.409993 0.475151 0.046993
0.484021 0.476028 0.047870
0.519710 0.479558 0.051400
0.555398 0.483088 0.054930
0.591087 0.486618 0.058459
0.626776 0.490147 0.061989
0.662465 0.493677 0.065519
0.698154 0.497207 0.069048
0.733843 0.500736 0.072578
0.769532 0.504266 0.076108
0.805221 0.507796 0.079637
0.840910 0.511325 0.083167
0.876599 0.514855 0.086697
0.910000 0.518158 0.090000
0.910000 0.518158 0.090000
0.910000 0.518158 0.090000
0.910000 0.518158 0.090000
0.910000 0.518158 0.090000
0.910000 0.518158 0.090000
0.910000 0.518158 0.090000
0.050236 0.507944 0.050236
0.082215 0.507944 0.050236
0.110236 0.507944 0.050236
0.137782 0.507944 0.050236
0.165327 0.507944 0.050236
0.192873 0.507944 0.050236
0.220418 0.507944 0.050236
0.247964 0.507944 0.050236
0.275509 0.507944 0.050236
0.303055 0.507944 0.050236
0.330600 0.507944 0.050236
0.358146 0.507944 0.050236
0.385691 0.507944 0.050236
0.413237 0.507944 0.050236
0.486387 0.507944 0.050236
0.519710 0.509108 0.051400
0.555398 0.512637 0.054930
0.591087 0.516167 0.058459
0.626776 0.519697 0.061989
0.662465 0.523226 0.065519
0.698154 0.526756 0.069048
0.733843 0.530286 0.072578
0.769532 0.533815 0.076108
0.805221 0.537345 0.079637
0.840910 0.540875 0.083167
0.876599 0.544404 0.086697
0.910000 0.547708 0.090000
0.910000 0.547708 0.090000
0.910000 0.547708 0.090000
0.910000 0.547708 0.090000
0.910000 0.547708 0.090000
0.910000 0.547708 0.090000
0.910000 0.547708 0.090000
0.053479 0.540737 0.053479
0.085459 0.540737 0.053479
0.113479 0.540737 0.053479
0.141025 0.540737 0.053479
0.168570 0.540737 0.053479
0.196116 0.540737 0.053479
0.223661 0.540737 0.053479
0.251207 0.540737 0.053479
0.278752 0.540737 0.053479
0.306298 0.540737 0.053479
0.333843 0.540737 0.053479
0.361389 0.540737 0.053479
0.388934 0.540737 0.053479
0.416480 0.540737 0.053479
0.489630 0.540737 0.053479
0.521789 0.540737 0.053479
0.555398 0.542187 0.054930
0.591087 0.545716 0.058459
0.626776 0.549246 0.061989
0.662465 0.552776 0.065519
0.698154 0.556305 0.069048
0.733843 0.559835 0.072578
0.769532 0.563365 0.076108
0.805221 0.566894 0.079637
0.840910 0.570424 0.083167
0.876599 0.573954 0.086697
0.910000 0.577257 0.090000
0.910000 0.577257 0.090000
0.910000 0.577257 0.090000
0.910000 0.577257 0.090000
0.910000 0.577257 0.090000
0.910000 0.577257 0.090000
0.910000 0.577257 0.090000
0.056723 0.573529 0.056723
0.088702 0.573529 0.056723
0.116723 0.573529 0.056723
0.144268 0.573529 0.056723
0.171814 0.573529 0.056723
0.199359 0.573529 0.056723
0.226905 0.573529 0.056723
0.254450 0.573529 0.056723
0.281996 0.573529 0.056723
0.309541 0.573529 0.056723
0.337087 0.573529 0.056723
0.364632 0.573529 0.056723
0.392178 0.573529 0.056723
0.419723 0.573529 0.056723
0.492873 0.573529 0.056723
0.525032 0.573529 0.056723
0.557192 0.573529 0.056723
0.591087 0.575266 0.058459
0.626776 0.578796 0.061989
0.662465 0.582325 0.065519
0.698154 0.585855 0.069048
0.733843 0.589385 0.072578
0.769532 0.592914 0.076108
0.805221 0.596444 0.079637
0.840910 0.599974 0.083167
0.876599 0.603503 0.086697
0.910000 0.606807 0.090000
0.910000 0.606807 0.090000
0.910000 0.606807 0.090000
0.910000 0.606807 0.090000
0.910000 0.606807 0.090000
0.910000 0.606807 0.090000
0.910000 0.606807 0.090000
0.059966 0.606322 0.059966
0.091945 0.606322 0.059966
0.119966 0.606322 0.059966
0.147511 0.606322 0.059966
0.175057 0.606322 0.059966
0.202602 0.606322 0.059966
0.230148 0.606322 0.059966
0.257693 0.606322 0.059966
0.285239 0.606322 0.059966
0.312784 0.606322 0.059966
0.340330 0.606322 0.059966
0.367875 0.606322 0.059966
0.395421 0.606322 0.059966
0.422966 0.606322 0.059966
0.496116 0.606322 0.059966
0.528276 0.606322 0.059966
0.560435 0.606322 0.059966
0.592594 0.606322 0.059966
0.626776 0.608345 0.061989
0.662465 0.611875 0.065519
0.698154 0.615404 0.069048
0.733843 0.618934 0.072578
0.769532 0.622464 0.076108
0.805221 0.625993 0.079637
0.840910 0.629523 0.083167
0.876599 0.633053 0.086697
0.910000 0.636356 0.090000
0.910000 0.636356 0.090000
0.910000 0.636356 0.090000
0.910000 0.636356 0.090000
0.910000 0.636356 0.090000
0.910000 0.636356 0.090000
0.910000 0.636356 0.090000
0.063209 0.639115 0.063209
0.095188 0.639115 0.063209
0.123209 0.639115 0.063209
0.150755 0.639115 0.063209
0.178300 0.639115 0.063209
0.205846 0.639115 0.063209
0.233391 0.639115 0.063209
0.260937 0.639115 0.063209
0.288482 0.639115 0.063209
0.316028 0.639115 0.063209
0.343573 0.639115 0.063209
0.371119 0.639115 0.063209
0.398664 0.639115 0.063209
0.426209 0.639115 0.063209
0.499360 0.639115 0.063209
0.531519 0.639115 0.063209
0.563678 0.639115 0.063209
0.595837 0.639115 0.063209
0.627997 0.639115 0.063209
0.662465 0.641424 0.065519
0.698154 0.644954 0.069048
0.733843 0.648483 0.072578
0.769532 0.652013 0.076108
0.805221 0.655543 0.079637
0.840910 0.659073 0.083167
0.876599 0.662602 0.086697
0.910000 0.665906 0.090000
0.910000 0.665906 0.090000
0.910000 0.665906 0.090000
0.910000 0.665906 0.090000
0.910000 0.665906 0.090000
0.910000 0.665906 0.090000
0.910000 0.665906 0.090000
0.066452 0.671907 0.066452
0.098432 0.671907 0.066452
0.126452 0.671907 0.066452
0.153998 0.671907 0.066452
0.181543 0.671907 0.066452
0.209089 0.671907 0.066452
0.236634 0.671907 0.066452
0.264180 0.671907 0.066452
0.291725 0.671907 0.066452
0.319271 0.671907 0.066452
0.346816 0.671907 0.066452
0.374362 0.671907 0.066452
0.401907 0.671907 0.066452
0.429453 0.671907 0.066452
0.502603 0.671907 0.066452
0.534762 0.671907 0.066452
0.566921 0.671907 0.066452
0.599081 0.671907 0.066452
0.631240 0.671907 0.066452
0.663399 0.671907 0.066452
0.698154 0.674503 0.069048
0.733843 0.678033 0.072578
0.769532 0.681563 0.076108
0.805221 0.685092 0.079637
0.840910 0.688622 0.083167
0.876599 0.692152 0.086697
0.910000 0.695455 0.090000
0.910000 0.695455 0.090000
0.910000 0.695455 0.090000
0.910000 0.695455 0.090000
0.910000 0.695455 0.090000
0.910000 0.695455 0.090000
0.910000 0.695455 0.090000
0.069696 0.704700 0.069696
0.101675 0.704700 0.069696
0.129696 0.704700 0.069696
0.157241 0.704700 0.069696
0.184787 0.704700 0.069696
0.212332 0.704700 0.069696
0.239878 0.704700 0.069696
0.267423 0.704700 0.069696
0.294969 0.704700 0.069696
0.322514 0.704700 0.069696
0.350059 0.704700 0.069696
0.377605 0.704700 0.069696
0.405150 0.704700 0.069696
0.432696 0.704700 0.069696
0.505846 0.704700 0.069696
0.538005 0.704700 0.069696
0.570165 0.704700 0.069696
0.602324 0.704700 0.069696
0.634483 0.704700 0.069696
0.666643 0.704700 0.069696
0.698802 0.704700 0.069696
0.733843 0.707582 0.072578
0.769532 0.711112 0.076108
0.805221 0.714642 0.079637
0.840910 0.718171 0.083167
0.876599 0.721701 0.086697
0.910000 0.725004 0.090000
0.910000 0.725004 0.090000
0.910000 0.725004 0.090000
0.910000 0.725004 0.090000
0.910000 0.725004 0.090000
0.910000 0.725004 0.090000
0.910000 0.725004 0.090000
0.072939 0.737493 0.072939
0.104918 0.737493 0.072939
0.132939 0.737493 0.072939
0.160484 0.737493 0.072939
0.188030 0.737493 0.072939
0.215575 0.737493 0.072939
0.243121 0.737493 0.072939
0.270666 0.737493 0.072939
0.298212 0.737493 0.072939
0.325757 0.737493 0.072939
0.353303 0.737493 0.072939
0.380848 0.737493 0.072939
0.408394 0.737493 0.072939
0.435939 0.737493 0.072939
0.509089 0.737493 0.072939
0.541249 0.737493 0.072939
0.573408 0.737493 0.072939
0.605567 0.737493 0.072939
0.637726 0.737493 0.072939
0.669886 0.737493 0.072939
0.702045 0.737493 0.072939
0.734204 0.737493 0.072939
0.769532 0.740661 0.076108
0.805221 0.744191 0.079637
0.840910 0.747721 0.083167
0.876599 0.751251 0.086697
0.910000 0.754554 0.090000
0.910000 0.754554 0.090000
0.910000 0.754554 0.090000
0.910000 0.754554 0.090000
0.910000 0.754554 0.090000
0.910000 0.754554 0.090000
0.910000 0.754554 0.090000
0.076182 0.770285 0.076182
0.108161 0.770285 0.076182
0.136182 0.770285 0.076182
0.163728 0.770285 0.076182
0.191273 0.770285 0.076182
0.218819 0.770285 0.076182
0.246364 0.770285 0.076182
0.273909 0.770285 0.076182
0.301455 0.770285 0.076182
0.329000 0.770285 0.076182
0.356546 0.770285 0.076182
0.384091 0.770285 0.076182
0.411637 0.770285 0.076182
0.439182 0.770285 0.076182
0.512332 0.770285 0.076182
0.544492 0.770285 0.076182
0.576651 0.770285 0.076182
0.608810 0.770285 0.076182
0.640970 0.770285 0.076182
0.673129 0.770285 0.076182
0.705288 0.770285 0.076182
0.737448 0.770285 0.076182
0.769607 0.770285 0.076182
0.805221 0.773741 0.079637
0.840910 0.777270 0.083167
0.876599 0.780800 0.086697
0.910000 0.784103 0.090000
0.910000 0.784103 0.090000
0.910000 0.784103 0.090000
0.910000 0.784103 0.090000
0.910000 0.784103 0.090000
0.910000 0.784103 0.090000
0.910000 0.784103 0.090000
0.079425 0.803078 0.079425
0.111405 0.803078 0.079425
0.139425 0.803078 0.079425
0.166971 0.803078 0.079425
0.194516 0.803078 0.079425
0.222062 0.803078 0.079425
0.249607 0.803078 0.079425
0.277153 0.803078 0.079425
0.304698 0.803078 0.079425
0.332244 0.803078 0.079425
0.359789 0.803078 0.079425
0.387335 0.803078 0.079425
0.414880 0.803078 0.079425
0.442426 0.803078 0.079425
0.515576 0.803078 0.079425
0.547735 0.803078 0.079425
0.579894 0.803078 0.079425
0.612054 0.803078 0.079425
0.644213 0.803078 0.079425
0.676372 0.803078 0.079425
0.708532 0.803078 0.079425
0.740691 0.803078 0.079425
0.772850 0.803078 0.079425
0.805221 0.803290 0.079637
0.840910 0.806820 0.083167
0.876599 0.810349 0.086697
0.910000 0.813653 0.090000
0.910000 0.813653 0.090000
0.910000 0.813653 0.090000
0.910000 0.813653 0.090000
0.910000 0.813653 0.090000
0.910000 0.813653 0.090000
0.910000 0.813653 0.090000
0.082669 0.835871 0.082669
0.114648 0.835871 0.082669
0.142669 0.835871 0.082669
0.170214 0.835871 0.082669
0.197759 0.835871 0.082669
0.225305 0.835871 0.082669
0.252850 0.835871 0.082669
0.280396 0.835871 0.082669
0.307941 0.835871 0.082669
0.335487 0.835871 0.082669
0.363032 0.835871 0.082669
0.390578 0.835871 0.082669
0.418123 0.835871 0.082669
0.445669 0.835871 0.082669
0.518819 0.835871 0.082669
0.550978 0.835871 0.082669
0.583138 0.835871 0.082669
0.615297 0.835871 0.082669
0.647456 0.835871 0.082669
0.679615 0.835871 0.082669
0.711775 0.835871 0.082669
0.743934 0.835871 0.082669
0.776093 0.835871 0.082669
0.808253 0.835871 0.082669
