docs/luts/fuji_recipes/Velvia_JP_Bright_Landscape.cube
TITLE "Fujifilm Recipe: JP Bright Landscape (Velvia)"
# FilmSim=Velvia HL=1 SH=1 Col=2 WB=5000K WBR=0 WBB=0
LUT_3D_SIZE 9
DOMAIN_MIN 0.0 0.0 0.0
DOMAIN_MAX 1.0 1.0 1.0
0.000000 0.000000 0.000000
0.115853 0.000000 0.000000
0.232093 0.000000 0.000000
0.348334 0.000000 0.000000
0.464574 0.000000 0.000000
0.625685 0.000000 0.000000
0.755741 0.000000 0.000000
0.885796 0.000000 0.000000
1.000000 0.000000 0.000000
0.000000 0.117120 0.000000
0.115853 0.117120 0.000000
0.232093 0.117120 0.000000
0.348334 0.117120 0.000000
0.464574 0.117120 0.000000
0.625685 0.117120 0.000000
0.755741 0.117120 0.000000
0.885796 0.117120 0.000000
1.000000 0.117120 0.000000
0.000000 0.234240 0.000000
0.115853 0.234240 0.000000
0.232093 0.234240 0.000000
0.348334 0.234240 0.000000
0.464574 0.234240 0.000000
0.625685 0.234240 0.000000
0.755741 0.234240 0.000000
0.885796 0.234240 0.000000
1.000000 0.234240 0.000000
0.000000 0.351360 0.000000
0.115853 0.351360 0.000000
0.232093 0.351360 0.000000
0.348334 0.351360 0.000000
0.464574 0.351360 0.000000
0.625685 0.351360 0.000000
0.755741 0.351360 0.000000
0.885796 0.351360 0.000000
1.000000 0.351360 0.000000
0.000000 0.468480 0.000000
0.115853 0.468480 0.000000
0.232093 0.468480 0.000000
0.348334 0.468480 0.000000
0.464574 0.468480 0.000000
0.625685 0.468480 0.000000
0.755741 0.468480 0.000000
0.885796 0.468480 0.000000
1.000000 0.468480 0.000000
0.000000 0.631040 0.000000
0.115853 0.631040 0.000000
0.232093 0.631040 0.000000
0.348334 0.631040 0.000000
0.464574 0.631040 0.000000
0.625685 0.631040 0.000000
0.755741 0.631040 0.000000
0.885796 0.631040 0.000000
1.000000 0.631040 0.000000
0.000000 0.762080 0.000000
0.115853 0.762080 0.000000
0.232093 0.762080 0.000000
0.348334 0.762080 0.000000
0.464574 0.762080 0.000000
0.625685 0.762080 0.000000
0.755741 0.762080 0.000000
0.885796 0.762080 0.000000
1.000000 0.762080 0.000000
0.000000 0.893120 0.000000
0.115853 0.893120 0.000000
0.232093 0.893120 0.000000
0.348334 0.893120 0.000000
0.464574 0.893120 0.000000
0.625685 0.893120 0.000000
0.755741 0.893120 0.000000
0.885796 0.893120 0.000000
1.000000 0.893120 0.000000
0.000000 1.000000 0.000000
0.115853 1.000000 0.000000
0.232093 1.000000 0.000000
0.348334 1.000000 0.000000
0.464574 1.000000 0.000000
0.625685 1.000000 0.000000
0.755741 1.000000 0.000000
0.885796 1.000000 0.000000
1.000000 1.000000 0.000000
0.000000 0.000000 0.119060
0.115853 0.000000 0.119060
0.232093 0.000000 0.119060
0.348334 0.000000 0.119060
0.464574 0.000000 0.119060
0.625685 0.000000 0.119060
0.755741 0.000000 0.119060
0.885796 0.000000 0.119060
1.000000 0.000000 0.119060
0.000000 0.117120 0.119060
0.114687 0.116875 0.120226
0.273898 0.075316 0.078667
0.432403 0.033051 0.036402
0.604317 0.000000 0.003210
0.748193 0.000000 0.002866
0.879599 0.000000 0.002685
1.000000 0.011005 0.013515
1.000000 0.113291 0.115249
0.000000 0.234240 0.119060
0.072808 0.277285 0.078347
0.272412 0.276119 0.077181
0.431697 0.234635 0.035696
0.606236 0.192194 0.000000
0.750111 0.171240 0.000000
0.881517 0.160264 0.000000
1.000000 0.162022 0.012924
1.000000 0.231465 0.115231
0.000000 0.351360 0.119060
0.030223 0.436990 0.035762
0.229827 0.435824 0.034596
0.430597 0.435824 0.034596
0.606236 0.387626 0.000000
0.750111 0.345364 0.000000
0.881517 0.323228 0.000000
1.000000 0.313631 0.012924
1.000000 0.349656 0.115231
0.000000 0.468480 0.119060
0.000000 0.607340 0.005254
0.187773 0.610511 0.000000
0.380874 0.610511 0.000000
0.603481 0.610511 0.000000
0.750111 0.544699 0.000000
0.881517 0.508308 0.000000
1.000000 0.465241 0.012924
1.000000 0.467848 0.115231
0.000000 0.631040 0.119060
0.000000 0.752351 0.004703
0.167497 0.755522 0.000000
0.339746 0.755522 0.000000
0.536577 0.755522 0.000000
0.747587 0.755522 0.000000
0.881517 0.708005 0.000000
1.000000 0.670223 0.012924
1.000000 0.631668 0.115231
0.000000 0.762080 0.119060
0.000000 0.884751 0.004412
0.156863 0.887922 0.000000
0.318177 0.887922 0.000000
0.479491 0.887922 0.000000
0.698639 0.887922 0.000000
0.879125 0.887922 0.000000
1.000000 0.839851 0.012924
1.000000 0.763906 0.115231
0.000000 0.893120 0.119060
0.017152 1.000000 0.021230
0.164175 1.000000 0.020323
0.312109 1.000000 0.020323
0.460042 1.000000 0.020323
0.659648 1.000000 0.020323
0.825164 1.000000 0.020323
0.990680 1.000000 0.020323
1.000000 0.896145 0.115231
0.000000 1.000000 0.119060
0.115853 1.000000 0.119060
0.232093 1.000000 0.119060
0.348334 1.000000 0.119060
0.464574 1.000000 0.119060
0.625685 1.000000 0.119060
0.755741 1.000000 0.119060
0.885796 1.000000 0.119060
1.000000 1.000000 0.119060
0.000000 0.000000 0.237528
0.115853 0.000000 0.237528
0.232093 0.000000 0.237528
0.348334 0.000000 0.237528
0.464574 0.000000 0.237528
0.625685 0.000000 0.237528
0.755741 0.000000 0.237528
0.885796 0.000000 0.237528
1.000000 0.000000 0.237528
0.000000 0.117120 0.237528
0.071612 0.073800 0.281768
0.271922 0.073340 0.281308
0.432403 0.033051 0.241019
0.604317 0.000000 0.199208
0.748193 0.000000 0.177864
0.879599 0.000000 0.166659
1.000000 0.011005 0.166774
1.000000 0.113291 0.234798
0.000000 0.234240 0.237528
0.071612 0.276090 0.281768
0.230117 0.233825 0.239503
0.389818 0.192756 0.198434
0.573464 0.146656 0.152334
0.767370 0.096625 0.102303
0.944471 0.050930 0.056609
1.000000 0.126808 0.131249
1.000000 0.230411 0.233734
0.000000 0.351360 0.237528
0.030223 0.436990 0.240379
0.188728 0.394725 0.198114
0.387522 0.392749 0.196138
0.572225 0.347757 0.151145
0.766131 0.297726 0.101115
0.943232 0.252031 0.055420
1.000000 0.284064 0.130058
1.000000 0.348744 0.233699
0.000000 0.468480 0.237528
0.000000 0.607340 0.199324
0.142237 0.580035 0.151623
0.341042 0.577987 0.149658
0.570678 0.577987 0.149658
0.766131 0.527492 0.101115
0.943232 0.454321 0.055420
1.000000 0.442519 0.130058
1.000000 0.467112 0.233699
0.000000 0.631040 0.237528
0.000000 0.752351 0.178413
0.091812 0.775471 0.101198
0.290617 0.773423 0.099233
0.491387 0.773423 0.099233
0.764174 0.773423 0.099233
0.943232 0.727849 0.055420
1.000000 0.655335 0.130058
1.000000 0.631087 0.233699
0.000000 0.762080 0.237528
0.000000 0.884751 0.167406
0.045772 0.953912 0.055158
0.244577 0.951864 0.053193
0.445347 0.951864 0.053193
0.716283 0.951864 0.053193
0.940915 0.951864 0.053193
1.000000 0.832621 0.130058
1.000000 0.763524 0.233699
0.000000 0.893120 0.237528
0.017152 1.000000 0.171853
0.132085 1.000000 0.139277
0.284434 1.000000 0.137458
0.438619 1.000000 0.137458
0.645267 1.000000 0.137458
0.817776 1.000000 0.137458
0.990286 1.000000 0.137458
1.000000 0.895960 0.233699
0.000000 1.000000 0.237528
0.115853 1.000000 0.237528
0.232093 1.000000 0.237528
0.348334 1.000000 0.237528
0.464574 1.000000 0.237528
0.625685 1.000000 0.237528
0.755741 1.000000 0.237528
0.885796 1.000000 0.237528
1.000000 1.000000 0.237528
0.000000 0.000000 0.355995
0.115853 0.000000 0.355995
0.232093 0.000000 0.355995
0.348334 0.000000 0.355995
0.464574 0.000000 0.355995
0.625685 0.000000 0.355995
0.755741 0.000000 0.355995
0.885796 0.000000 0.355995
1.000000 0.000000 0.355995
0.000000 0.117120 0.355995
0.028538 0.030726 0.443311
0.228847 0.030265 0.442850
0.429617 0.030265 0.442850
0.604317 0.000000 0.395207
0.748193 0.000000 0.352862
0.879599 0.000000 0.330632
1.000000 0.011005 0.320032
1.000000 0.113291 0.354346
0.000000 0.234240 0.355995
0.028538 0.233015 0.443311
0.187043 0.190750 0.401046
0.387032 0.189970 0.400265
0.573464 0.146656 0.356951
0.767370 0.096625 0.306920
0.944471 0.050930 0.261226
1.000000 0.126808 0.291299
1.000000 0.230411 0.353458
0.000000 0.351360 0.355995
0.028538 0.435305 0.443311
0.187043 0.393040 0.401046
0.345548 0.350775 0.358781
0.505738 0.310195 0.318201
0.723231 0.256567 0.264572
0.900331 0.210872 0.218878
1.000000 0.242610 0.249257
1.000000 0.347531 0.352225
0.000000 0.468480 0.355995
0.000000 0.607340 0.393394
0.142237 0.580035 0.356240
0.300978 0.536227 0.314211
0.498978 0.533340 0.311440
0.721484 0.457181 0.262897
0.898585 0.411486 0.217202
1.000000 0.408951 0.247193
1.000000 0.466086 0.352166
0.000000 0.631040 0.355995
0.000000 0.752351 0.352124
0.091812 0.775471 0.305815
0.250553 0.731663 0.263785
0.448553 0.728776 0.261015
0.719527 0.728776 0.261015
0.898585 0.683201 0.217202
1.000000 0.633649 0.247193
1.000000 0.630278 0.352166
0.000000 0.762080 0.355995
0.000000 0.884751 0.330399
0.045772 0.953912 0.259775
0.204512 0.910104 0.217745
0.402512 0.907217 0.214975
0.671636 0.907217 0.214975
0.896268 0.907217 0.214975
1.000000 0.822090 0.247193
1.000000 0.762990 0.352166
0.000000 0.893120 0.355995
0.017152 1.000000 0.322475
0.132085 1.000000 0.296073
0.247017 1.000000 0.257730
0.407083 1.000000 0.254592
0.624408 1.000000 0.254592
0.807062 1.000000 0.254592
0.989715 1.000000 0.254592
1.000000 0.895702 0.352166
0.000000 1.000000 0.355995
0.115853 1.000000 0.355995
0.232093 1.000000 0.355995
0.348334 1.000000 0.355995
0.464574 1.000000 0.355995
0.625685 1.000000 0.355995
0.755741 1.000000 0.355995
0.885796 1.000000 0.355995
1.000000 1.000000 0.355995
0.000000 0.000000 0.506693
0.115853 0.000000 0.506693
0.232093 0.000000 0.506693
0.348334 0.000000 0.506693
0.464574 0.000000 0.506693
0.625685 0.000000 0.506693
0.755741 0.000000 0.506693
0.885796 0.000000 0.506693
1.000000 0.000000 0.506693
0.000000 0.117120 0.506693
0.000000 0.002037 0.626713
0.185850 0.000000 0.627965
0.373748 0.000000 0.627965
0.590132 0.000000 0.627965
0.748193 0.000000 0.572420
0.879599 0.000000 0.534887
1.000000 0.011005 0.509564
1.000000 0.113291 0.506194
0.000000 0.234240 0.506693
0.000000 0.190360 0.626713
0.135501 0.139209 0.606144
0.335495 0.138432 0.605335
0.564910 0.138432 0.605335
0.767370 0.096625 0.561847
0.944471 0.050930 0.514316
1.000000 0.126808 0.467178
1.000000 0.230411 0.505440
0.000000 0.351360 0.506693
0.000000 0.378683 0.626713
0.135501 0.341498 0.606144
0.294241 0.299469 0.562336
0.493917 0.298374 0.561196
0.723231 0.256567 0.517708
0.900331 0.210872 0.443731
1.000000 0.242610 0.435938
1.000000 0.347531 0.504395
0.000000 0.468480 0.506693
0.000000 0.595883 0.626713
0.135501 0.573028 0.606144
0.294241 0.529220 0.562336
0.452982 0.459729 0.518528
0.679091 0.416509 0.447078
0.856192 0.370814 0.401383
1.000000 0.358412 0.386107
1.000000 0.464651 0.502847
0.000000 0.631040 0.506693
0.000000 0.752351 0.570019
0.091812 0.775471 0.560699
0.250553 0.731663 0.516891
0.409293 0.687855 0.446609
0.670464 0.679713 0.438797
0.849522 0.634138 0.394984
1.000000 0.594574 0.375912
1.000000 0.628918 0.502545
0.000000 0.762080 0.506693
0.000000 0.884751 0.533377
0.045772 0.953912 0.512808
0.204512 0.910104 0.442598
0.363253 0.866296 0.400568
0.622573 0.858154 0.392757
0.847205 0.858154 0.392757
1.000000 0.803114 0.375912
1.000000 0.762093 0.502545
0.000000 0.893120 0.506693
0.017152 1.000000 0.508686
0.132085 1.000000 0.468375
0.247017 1.000000 0.439770
0.361950 1.000000 0.394676
0.587092 1.000000 0.383311
0.787892 1.000000 0.383311
0.988693 1.000000 0.383311
1.000000 0.895268 0.502545
0.000000 1.000000 0.506693
0.115853 1.000000 0.506693
0.232093 1.000000 0.506693
0.348334 1.000000 0.506693
0.464574 1.000000 0.506693
0.625685 1.000000 0.506693
0.755741 1.000000 0.506693
0.885796 1.000000 0.506693
1.000000 1.000000 0.506693
0.000000 0.000000 0.639241
0.115853 0.000000 0.639241
0.232093 0.000000 0.639241
0.348334 0.000000 0.639241
0.464574 0.000000 0.639241
0.625685 0.000000 0.639241
0.755741 0.000000 0.639241
0.885796 0.000000 0.639241
1.000000 0.000000 0.639241
0.000000 0.117120 0.639241
0.000000 0.001849 0.760637
0.168474 0.000000 0.761889
0.338803 0.000000 0.761889
0.533368 0.000000 0.761889
0.742026 0.000000 0.761889
0.879599 0.000000 0.718349
1.000000 0.011005 0.681037
1.000000 0.113291 0.639952
0.000000 0.234240 0.639241
0.000000 0.172766 0.760637
0.088931 0.092638 0.786638
0.288925 0.091862 0.785829
0.489695 0.091862 0.785829
0.762416 0.091862 0.785829
0.944471 0.050930 0.743252
1.000000 0.126808 0.666902
1.000000 0.230411 0.639394
0.000000 0.351360 0.639241
0.000000 0.343682 0.760637
0.088931 0.294928 0.786638
0.247671 0.252899 0.742830
0.447347 0.251804 0.741690
0.718276 0.251804 0.741690
0.900331 0.210872 0.699113
1.000000 0.242610 0.646442
1.000000 0.347531 0.638620
0.000000 0.468480 0.639241
0.000000 0.539226 0.760637
0.088931 0.524586 0.786638
0.247671 0.455188 0.742830
0.406412 0.413159 0.699022
0.674137 0.411746 0.697550
0.856192 0.370814 0.654973
1.000000 0.358412 0.614189
1.000000 0.464651 0.637475
0.000000 0.631040 0.639241
0.000000 0.748669 0.760637
0.088931 0.772474 0.786638
0.247671 0.728666 0.742830
0.406412 0.684858 0.699022
0.620756 0.630005 0.644170
0.801082 0.585699 0.599863
0.978426 0.538411 0.552575
1.000000 0.626892 0.635270
0.000000 0.762080 0.639241
0.000000 0.884751 0.715743
0.045772 0.953912 0.741744
0.204512 0.910104 0.697936
0.363253 0.866296 0.654128
0.576092 0.811673 0.599505
0.795795 0.806744 0.594577
0.975444 0.761761 0.549593
1.000000 0.760638 0.635093
0.000000 0.893120 0.639241
0.017152 1.000000 0.677211
0.132085 1.000000 0.663982
0.247017 1.000000 0.644993
0.361950 1.000000 0.615429
0.528446 0.990359 0.551859
0.748149 0.985430 0.546930
0.972781 0.985430 0.546930
1.000000 0.894564 0.635093
0.000000 1.000000 0.639241
0.115853 1.000000 0.639241
0.232093 1.000000 0.639241
0.348334 1.000000 0.639241
0.464574 1.000000 0.639241
0.625685 1.000000 0.639241
0.755741 1.000000 0.639241
0.885796 1.000000 0.639241
1.000000 1.000000 0.639241
0.000000 0.000000 0.771788
0.115853 0.000000 0.771788
0.232093 0.000000 0.771788
0.348334 0.000000 0.771788
0.464574 0.000000 0.771788
0.625685 0.000000 0.771788
0.755741 0.000000 0.771788
0.885796 0.000000 0.771788
1.000000 0.000000 0.771788
0.000000 0.117120 0.771788
0.000000 0.001736 0.894561
0.158111 0.000000 0.895813
0.317964 0.000000 0.895813
0.477816 0.000000 0.895813
0.694893 0.000000 0.895813
0.873745 0.000000 0.895813
1.000000 0.011005 0.852510
1.000000 0.113291 0.773709
0.000000 0.234240 0.771788
0.000000 0.162259 0.894561
0.042361 0.046068 0.967132
0.242355 0.045292 0.966323
0.443125 0.045292 0.966323
0.713974 0.045292 0.966323
0.938606 0.045292 0.966323
1.000000 0.126808 0.845974
1.000000 0.230411 0.773347
0.000000 0.351360 0.771788
0.000000 0.322782 0.894561
0.042361 0.248358 0.967132
0.201101 0.206328 0.923324
0.400777 0.205234 0.922184
0.669834 0.205234 0.922184
0.894467 0.205234 0.922184
1.000000 0.242610 0.836513
1.000000 0.347531 0.772846
0.000000 0.468480 0.771788
0.000000 0.504947 0.894561
0.042361 0.450648 0.967132
0.201101 0.408618 0.923324
0.359842 0.366589 0.879516
0.625695 0.365176 0.878044
0.850327 0.365176 0.878044
1.000000 0.358412 0.821600
1.000000 0.464651 0.772104
0.000000 0.631040 0.771788
0.000000 0.701653 0.894561
0.042361 0.724032 0.967132
0.201101 0.680224 0.923324
0.359842 0.636416 0.879516
0.572562 0.581811 0.824911
0.795247 0.579864 0.822964
0.978426 0.538411 0.781511
1.000000 0.626892 0.770675
0.000000 0.762080 0.771788
0.000000 0.881254 0.894561
0.042361 0.950364 0.967132
0.201101 0.906556 0.923324
0.359842 0.862748 0.879516
0.572562 0.808143 0.824911
0.749906 0.760855 0.777623
0.930780 0.717097 0.733865
1.000000 0.757932 0.767958
0.000000 0.893120 0.771788
0.017152 1.000000 0.845735
0.132085 1.000000 0.839413
0.247017 1.000000 0.830338
0.361950 1.000000 0.816209
0.528446 0.990359 0.780795
0.705790 0.943071 0.733507
0.924587 0.937236 0.727672
1.000000 0.893096 0.767640
0.000000 1.000000 0.771788
0.115853 1.000000 0.771788
0.232093 1.000000 0.771788
0.348334 1.000000 0.771788
0.464574 1.000000 0.771788
0.625685 1.000000 0.771788
0.755741 1.000000 0.771788
0.885796 1.000000 0.771788
1.000000 1.000000 0.771788
0.000000 0.000000 0.904336
0.115853 0.000000 0.904336
0.232093 0.000000 0.904336
0.348334 0.000000 0.904336
0.464574 0.000000 0.904336
0.625685 0.000000 0.904336
0.755741 0.000000 0.904336
0.885796 0.000000 0.904336
1.000000 0.000000 0.904336
0.000000 0.117120 0.904336
0.016307 0.017916 1.000000
0.163761 0.017745 1.000000
0.311386 0.017745 1.000000
0.459011 0.017745 1.000000
0.658106 0.017745 1.000000
0.823277 0.017745 1.000000
0.988447 0.017745 1.000000
1.000000 0.113291 0.907466
0.000000 0.234240 0.904336
0.016307 0.166658 1.000000
0.143417 0.146174 1.000000
0.292202 0.145540 1.000000
0.441623 0.145540 1.000000
0.641807 0.145540 1.000000
0.808988 0.145540 1.000000
0.976169 0.145540 1.000000
1.000000 0.230411 0.907301
0.000000 0.351360 0.904336
0.016307 0.315401 1.000000
0.143417 0.296611 1.000000
0.258350 0.262433 1.000000
0.414347 0.261342 1.000000
0.623411 0.261342 1.000000
0.799178 0.261342 1.000000
0.974945 0.261342 1.000000
1.000000 0.347531 0.907072
0.000000 0.468480 0.904336
0.016307 0.464143 1.000000
0.143417 0.447047 1.000000
0.258350 0.420476 1.000000
0.373282 0.378944 1.000000
0.594866 0.377144 1.000000
0.783956 0.377144 1.000000
0.973045 0.377144 1.000000
1.000000 0.464651 0.906733
0.000000 0.631040 0.904336
0.016307 0.665092 1.000000
0.143417 0.648962 1.000000
0.258350 0.631212 1.000000
0.373282 0.603832 1.000000
0.530021 0.539053 1.000000
0.747377 0.535376 1.000000
0.968482 0.535376 1.000000
1.000000 0.626892 0.906080
0.000000 0.762080 0.904336
0.016307 0.831513 1.000000
0.143417 0.817278 1.000000
0.258350 0.808038 1.000000
0.373282 0.793787 1.000000
0.530021 0.760068 1.000000
0.701712 0.712661 0.958365
0.924039 0.710356 0.956060
1.000000 0.757932 0.904838
0.000000 0.893120 0.904336
0.016307 0.997934 1.000000
0.143417 0.985594 1.000000
0.258350 0.984865 1.000000
0.373282 0.983742 1.000000
0.530021 0.981083 1.000000
0.701712 0.938993 0.958365
0.879056 0.891705 0.911077
1.000000 0.888972 0.900946
0.000000 1.000000 0.904336
0.115853 1.000000 0.904336
0.232093 1.000000 0.904336
0.348334 1.000000 0.904336
0.464574 1.000000 0.904336
0.625685 1.000000 0.904336
0.755741 1.000000 0.904336
0.885796 1.000000 0.904336
1.000000 1.000000 0.904336
0.000000 0.000000 1.000000
0.115853 0.000000 1.000000
0.232093 0.000000 1.000000
0.348334 0.000000 1.000000
0.464574 0.000000 1.000000
0.625685 0.000000 1.000000
0.755741 0.000000 1.000000
0.885796 0.000000 1.000000
1.000000 0.000000 1.000000
0.000000 0.117120 1.000000
0.111135 0.112417 1.000000
0.228670 0.112402 1.000000
0.346219 0.112402 1.000000
0.463767 0.112402 1.000000
0.626415 0.112402 1.000000
0.757934 0.112402 1.000000
0.889454 0.112402 1.000000
1.000000 0.113291 1.000000
0.000000 0.234240 1.000000
0.111135 0.230853 1.000000
0.227376 0.229550 1.000000
0.345109 0.229522 1.000000
0.462870 0.229522 1.000000
0.625703 0.229522 1.000000
0.757461 0.229522 1.000000
0.889218 0.229522 1.000000
1.000000 0.230411 1.000000
0.000000 0.351360 1.000000
0.111135 0.349289 1.000000
0.227376 0.348198 1.000000
0.343616 0.346689 1.000000
0.461625 0.346642 1.000000
0.624715 0.346642 1.000000
0.756803 0.346642 1.000000
0.888890 0.346642 1.000000
1.000000 0.347531 1.000000
0.000000 0.468480 1.000000
0.111135 0.467726 1.000000
0.227376 0.466846 1.000000
0.343616 0.465630 1.000000
0.459856 0.463837 1.000000
0.623252 0.463762 1.000000
0.755829 0.463762 1.000000
0.888405 0.463762 1.000000
1.000000 0.464651 1.000000
0.000000 0.631040 1.000000
0.111135 0.631836 1.000000
0.227376 0.631143 1.000000
0.343616 0.630184 1.000000
0.459856 0.628770 1.000000
0.620574 0.626070 1.000000
0.753951 0.625929 1.000000
0.887470 0.625929 1.000000
1.000000 0.626892 1.000000
0.000000 0.762080 1.000000
0.111135 0.764349 1.000000
0.227376 0.763892 1.000000
0.343616 0.763261 1.000000
0.459856 0.762330 1.000000
0.620574 0.760551 1.000000
0.750630 0.757219 1.000000
0.885688 0.756969 1.000000
1.000000 0.757932 1.000000
0.000000 0.893120 1.000000
0.111135 0.896862 1.000000
0.227376 0.896642 1.000000
0.343616 0.896338 1.000000
0.459856 0.895889 1.000000
0.620574 0.895033 1.000000
0.750630 0.893428 1.000000
0.880686 0.888589 1.000000
1.000000 0.888972 1.000000
0.000000 1.000000 1.000000
0.115853 1.000000 1.000000
0.232093 1.000000 1.000000
0.348334 1.000000 1.000000
0.464574 1.000000 1.000000
0.625685 1.000000 1.000000
0.755741 1.000000 1.000000
0.885796 1.000000 1.000000
1.000000 1.000000 1.000000
