docs/luts/fuji_recipes/Velvia_JC_Velvia_LS.cube
TITLE "Fujifilm Recipe: JC Velvia LS (Velvia)"
# FilmSim=Velvia HL=-1 SH=3 Col=4 WB=Auto WBR=1 WBB=0
LUT_3D_SIZE 33
DOMAIN_MIN 0.0 0.0 0.0
DOMAIN_MAX 1.0 1.0 1.0
0.000000 0.000000 0.000000
0.028336 0.000000 0.000000
0.056289 0.000000 0.000000
0.084141 0.000000 0.000000
0.111993 0.000000 0.000000
0.139845 0.000000 0.000000
0.167697 0.000000 0.000000
0.195549 0.000000 0.000000
0.223401 0.000000 0.000000
0.251253 0.000000 0.000000
0.279105 0.000000 0.000000
0.306957 0.000000 0.000000
0.334808 0.000000 0.000000
0.362660 0.000000 0.000000
0.390512 0.000000 0.000000
0.418364 0.000000 0.000000
0.518508 0.000000 0.000000
0.549234 0.000000 0.000000
0.579960 0.000000 0.000000
0.610687 0.000000 0.000000
0.641413 0.000000 0.000000
0.672139 0.000000 0.000000
0.702866 0.000000 0.000000
0.733592 0.000000 0.000000
0.764318 0.000000 0.000000
0.795045 0.000000 0.000000
0.825771 0.000000 0.000000
0.856498 0.000000 0.000000
0.887224 0.000000 0.000000
0.917950 0.000000 0.000000
0.948677 0.000000 0.000000
0.970000 0.000000 0.000000
0.970000 0.000000 0.000000
0.000000 0.026840 0.000000
0.028336 0.026840 0.000000
0.056289 0.026840 0.000000
0.084141 0.026840 0.000000
0.111993 0.026840 0.000000
0.139845 0.026840 0.000000
0.167697 0.026840 0.000000
0.195549 0.026840 0.000000
0.223401 0.026840 0.000000
0.251253 0.026840 0.000000
0.279105 0.026840 0.000000
0.306957 0.026840 0.000000
0.334808 0.026840 0.000000
0.362660 0.026840 0.000000
0.390512 0.026840 0.000000
0.418364 0.026840 0.000000
0.518508 0.026840 0.000000
0.549234 0.026840 0.000000
0.579960 0.026840 0.000000
0.610687 0.026840 0.000000
0.641413 0.026840 0.000000
0.672139 0.026840 0.000000
0.702866 0.026840 0.000000
0.733592 0.026840 0.000000
0.764318 0.026840 0.000000
0.795045 0.026840 0.000000
0.825771 0.026840 0.000000
0.856498 0.026840 0.000000
0.887224 0.026840 0.000000
0.917950 0.026840 0.000000
0.948677 0.026840 0.000000
0.970000 0.026840 0.000000
0.970000 0.026840 0.000000
0.000000 0.053680 0.000000
0.028336 0.053680 0.000000
0.056289 0.053680 0.000000
0.084141 0.053680 0.000000
0.111993 0.053680 0.000000
0.139845 0.053680 0.000000
0.167697 0.053680 0.000000
0.195549 0.053680 0.000000
0.223401 0.053680 0.000000
0.251253 0.053680 0.000000
0.279105 0.053680 0.000000
0.306957 0.053680 0.000000
0.334808 0.053680 0.000000
0.362660 0.053680 0.000000
0.390512 0.053680 0.000000
0.418364 0.053680 0.000000
0.518508 0.053680 0.000000
0.549234 0.053680 0.000000
0.579960 0.053680 0.000000
0.610687 0.053680 0.000000
0.641413 0.053680 0.000000
0.672139 0.053680 0.000000
0.702866 0.053680 0.000000
0.733592 0.053680 0.000000
0.764318 0.053680 0.000000
0.795045 0.053680 0.000000
0.825771 0.053680 0.000000
0.856498 0.053680 0.000000
0.887224 0.053680 0.000000
0.917950 0.053680 0.000000
0.948677 0.053680 0.000000
0.970000 0.053680 0.000000
0.970000 0.053680 0.000000
0.000000 0.080520 0.000000
0.028336 0.080520 0.000000
0.056289 0.080520 0.000000
0.084141 0.080520 0.000000
0.111993 0.080520 0.000000
0.139845 0.080520 0.000000
0.167697 0.080520 0.000000
0.195549 0.080520 0.000000
0.223401 0.080520 0.000000
0.251253 0.080520 0.000000
0.279105 0.080520 0.000000
0.306957 0.080520 0.000000
0.334808 0.080520 0.000000
0.362660 0.080520 0.000000
0.390512 0.080520 0.000000
0.418364 0.080520 0.000000
0.518508 0.080520 0.000000
0.549234 0.080520 0.000000
0.579960 0.080520 0.000000
0.610687 0.080520 0.000000
0.641413 0.080520 0.000000
0.672139 0.080520 0.000000
0.702866 0.080520 0.000000
0.733592 0.080520 0.000000
0.764318 0.080520 0.000000
0.795045 0.080520 0.000000
0.825771 0.080520 0.000000
0.856498 0.080520 0.000000
0.887224 0.080520 0.000000
0.917950 0.080520 0.000000
0.948677 0.080520 0.000000
0.970000 0.080520 0.000000
0.970000 0.080520 0.000000
0.000000 0.107360 0.000000
0.028336 0.107360 0.000000
0.056289 0.107360 0.000000
0.084141 0.107360 0.000000
0.111993 0.107360 0.000000
0.139845 0.107360 0.000000
0.167697 0.107360 0.000000
0.195549 0.107360 0.000000
0.223401 0.107360 0.000000
0.251253 0.107360 0.000000
0.279105 0.107360 0.000000
0.306957 0.107360 0.000000
0.334808 0.107360 0.000000
0.362660 0.107360 0.000000
0.390512 0.107360 0.000000
0.418364 0.107360 0.000000
0.518508 0.107360 0.000000
0.549234 0.107360 0.000000
0.579960 0.107360 0.000000
0.610687 0.107360 0.000000
0.641413 0.107360 0.000000
0.672139 0.107360 0.000000
0.702866 0.107360 0.000000
0.733592 0.107360 0.000000
0.764318 0.107360 0.000000
0.795045 0.107360 0.000000
0.825771 0.107360 0.000000
0.856498 0.107360 0.000000
0.887224 0.107360 0.000000
0.917950 0.107360 0.000000
0.948677 0.107360 0.000000
0.970000 0.107360 0.000000
0.970000 0.107360 0.000000
0.000000 0.134200 0.000000
0.028336 0.134200 0.000000
0.056289 0.134200 0.000000
0.084141 0.134200 0.000000
0.111993 0.134200 0.000000
0.139845 0.134200 0.000000
0.167697 0.134200 0.000000
0.195549 0.134200 0.000000
0.223401 0.134200 0.000000
0.251253 0.134200 0.000000
0.279105 0.134200 0.000000
0.306957 0.134200 0.000000
0.334808 0.134200 0.000000
0.362660 0.134200 0.000000
0.390512 0.134200 0.000000
0.418364 0.134200 0.000000
0.518508 0.134200 0.000000
0.549234 0.134200 0.000000
0.579960 0.134200 0.000000
0.610687 0.134200 0.000000
0.641413 0.134200 0.000000
0.672139 0.134200 0.000000
0.702866 0.134200 0.000000
0.733592 0.134200 0.000000
0.764318 0.134200 0.000000
0.795045 0.134200 0.000000
0.825771 0.134200 0.000000
0.856498 0.134200 0.000000
0.887224 0.134200 0.000000
0.917950 0.134200 0.000000
0.948677 0.134200 0.000000
0.970000 0.134200 0.000000
0.970000 0.134200 0.000000
0.000000 0.161040 0.000000
0.028336 0.161040 0.000000
0.056289 0.161040 0.000000
0.084141 0.161040 0.000000
0.111993 0.161040 0.000000
0.139845 0.161040 0.000000
0.167697 0.161040 0.000000
0.195549 0.161040 0.000000
0.223401 0.161040 0.000000
0.251253 0.161040 0.000000
0.279105 0.161040 0.000000
0.306957 0.161040 0.000000
0.334808 0.161040 0.000000
0.362660 0.161040 0.000000
0.390512 0.161040 0.000000
0.418364 0.161040 0.000000
0.518508 0.161040 0.000000
0.549234 0.161040 0.000000
0.579960 0.161040 0.000000
0.610687 0.161040 0.000000
0.641413 0.161040 0.000000
0.672139 0.161040 0.000000
0.702866 0.161040 0.000000
0.733592 0.161040 0.000000
0.764318 0.161040 0.000000
0.795045 0.161040 0.000000
0.825771 0.161040 0.000000
0.856498 0.161040 0.000000
0.887224 0.161040 0.000000
0.917950 0.161040 0.000000
0.948677 0.161040 0.000000
0.970000 0.161040 0.000000
0.970000 0.161040 0.000000
0.000000 0.187880 0.000000
0.028336 0.187880 0.000000
0.056289 0.187880 0.000000
0.084141 0.187880 0.000000
0.111993 0.187880 0.000000
0.139845 0.187880 0.000000
0.167697 0.187880 0.000000
0.195549 0.187880 0.000000
0.223401 0.187880 0.000000
0.251253 0.187880 0.000000
0.279105 0.187880 0.000000
0.306957 0.187880 0.000000
0.334808 0.187880 0.000000
0.362660 0.187880 0.000000
0.390512 0.187880 0.000000
0.418364 0.187880 0.000000
0.518508 0.187880 0.000000
0.549234 0.187880 0.000000
0.579960 0.187880 0.000000
0.610687 0.187880 0.000000
0.641413 0.187880 0.000000
0.672139 0.187880 0.000000
0.702866 0.187880 0.000000
0.733592 0.187880 0.000000
0.764318 0.187880 0.000000
0.795045 0.187880 0.000000
0.825771 0.187880 0.000000
0.856498 0.187880 0.000000
0.887224 0.187880 0.000000
0.917950 0.187880 0.000000
0.948677 0.187880 0.000000
0.970000 0.187880 0.000000
0.970000 0.187880 0.000000
0.000000 0.214720 0.000000
0.028336 0.214720 0.000000
0.056289 0.214720 0.000000
0.084141 0.214720 0.000000
0.111993 0.214720 0.000000
0.139845 0.214720 0.000000
0.167697 0.214720 0.000000
0.195549 0.214720 0.000000
0.223401 0.214720 0.000000
0.251253 0.214720 0.000000
0.279105 0.214720 0.000000
0.306957 0.214720 0.000000
0.334808 0.214720 0.000000
0.362660 0.214720 0.000000
0.390512 0.214720 0.000000
0.418364 0.214720 0.000000
0.518508 0.214720 0.000000
0.549234 0.214720 0.000000
0.579960 0.214720 0.000000
0.610687 0.214720 0.000000
0.641413 0.214720 0.000000
0.672139 0.214720 0.000000
0.702866 0.214720 0.000000
0.733592 0.214720 0.000000
0.764318 0.214720 0.000000
0.795045 0.214720 0.000000
0.825771 0.214720 0.000000
0.856498 0.214720 0.000000
0.887224 0.214720 0.000000
0.917950 0.214720 0.000000
0.948677 0.214720 0.000000
0.970000 0.214720 0.000000
0.970000 0.214720 0.000000
0.000000 0.241560 0.000000
0.028336 0.241560 0.000000
0.056289 0.241560 0.000000
0.084141 0.241560 0.000000
0.111993 0.241560 0.000000
0.139845 0.241560 0.000000
0.167697 0.241560 0.000000
0.195549 0.241560 0.000000
0.223401 0.241560 0.000000
0.251253 0.241560 0.000000
0.279105 0.241560 0.000000
0.306957 0.241560 0.000000
0.334808 0.241560 0.000000
0.362660 0.241560 0.000000
0.390512 0.241560 0.000000
0.418364 0.241560 0.000000
0.518508 0.241560 0.000000
0.549234 0.241560 0.000000
0.579960 0.241560 0.000000
0.610687 0.241560 0.000000
0.641413 0.241560 0.000000
0.672139 0.241560 0.000000
0.702866 0.241560 0.000000
0.733592 0.241560 0.000000
0.764318 0.241560 0.000000
0.795045 0.241560 0.000000
0.825771 0.241560 0.000000
0.856498 0.241560 0.000000
0.887224 0.241560 0.000000
0.917950 0.241560 0.000000
0.948677 0.241560 0.000000
0.970000 0.241560 0.000000
0.970000 0.241560 0.000000
0.000000 0.268400 0.000000
0.028336 0.268400 0.000000
0.056289 0.268400 0.000000
0.084141 0.268400 0.000000
0.111993 0.268400 0.000000
0.139845 0.268400 0.000000
0.167697 0.268400 0.000000
0.195549 0.268400 0.000000
0.223401 0.268400 0.000000
0.251253 0.268400 0.000000
0.279105 0.268400 0.000000
0.306957 0.268400 0.000000
0.334808 0.268400 0.000000
0.362660 0.268400 0.000000
0.390512 0.268400 0.000000
0.418364 0.268400 0.000000
0.518508 0.268400 0.000000
0.549234 0.268400 0.000000
0.579960 0.268400 0.000000
0.610687 0.268400 0.000000
0.641413 0.268400 0.000000
0.672139 0.268400 0.000000
0.702866 0.268400 0.000000
0.733592 0.268400 0.000000
0.764318 0.268400 0.000000
0.795045 0.268400 0.000000
0.825771 0.268400 0.000000
0.856498 0.268400 0.000000
0.887224 0.268400 0.000000
0.917950 0.268400 0.000000
0.948677 0.268400 0.000000
0.970000 0.268400 0.000000
0.970000 0.268400 0.000000
0.000000 0.295240 0.000000
0.028336 0.295240 0.000000
0.056289 0.295240 0.000000
0.084141 0.295240 0.000000
0.111993 0.295240 0.000000
0.139845 0.295240 0.000000
0.167697 0.295240 0.000000
0.195549 0.295240 0.000000
0.223401 0.295240 0.000000
0.251253 0.295240 0.000000
0.279105 0.295240 0.000000
0.306957 0.295240 0.000000
0.334808 0.295240 0.000000
0.362660 0.295240 0.000000
0.390512 0.295240 0.000000
0.418364 0.295240 0.000000
0.518508 0.295240 0.000000
0.549234 0.295240 0.000000
0.579960 0.295240 0.000000
0.610687 0.295240 0.000000
0.641413 0.295240 0.000000
0.672139 0.295240 0.000000
0.702866 0.295240 0.000000
0.733592 0.295240 0.000000
0.764318 0.295240 0.000000
0.795045 0.295240 0.000000
0.825771 0.295240 0.000000
0.856498 0.295240 0.000000
0.887224 0.295240 0.000000
0.917950 0.295240 0.000000
0.948677 0.295240 0.000000
0.970000 0.295240 0.000000
0.970000 0.295240 0.000000
0.000000 0.322080 0.000000
0.028336 0.322080 0.000000
0.056289 0.322080 0.000000
0.084141 0.322080 0.000000
0.111993 0.322080 0.000000
0.139845 0.322080 0.000000
0.167697 0.322080 0.000000
0.195549 0.322080 0.000000
0.223401 0.322080 0.000000
0.251253 0.322080 0.000000
0.279105 0.322080 0.000000
0.306957 0.322080 0.000000
0.334808 0.322080 0.000000
0.362660 0.322080 0.000000
0.390512 0.322080 0.000000
0.418364 0.322080 0.000000
0.518508 0.322080 0.000000
0.549234 0.322080 0.000000
0.579960 0.322080 0.000000
0.610687 0.322080 0.000000
0.641413 0.322080 0.000000
0.672139 0.322080 0.000000
0.702866 0.322080 0.000000
0.733592 0.322080 0.000000
0.764318 0.322080 0.000000
0.795045 0.322080 0.000000
0.825771 0.322080 0.000000
0.856498 0.322080 0.000000
0.887224 0.322080 0.000000
0.917950 0.322080 0.000000
0.948677 0.322080 0.000000
0.970000 0.322080 0.000000
0.970000 0.322080 0.000000
0.000000 0.348920 0.000000
0.028336 0.348920 0.000000
0.056289 0.348920 0.000000
0.084141 0.348920 0.000000
0.111993 0.348920 0.000000
0.139845 0.348920 0.000000
0.167697 0.348920 0.000000
0.195549 0.348920 0.000000
0.223401 0.348920 0.000000
0.251253 0.348920 0.000000
0.279105 0.348920 0.000000
0.306957 0.348920 0.000000
0.334808 0.348920 0.000000
0.362660 0.348920 0.000000
0.390512 0.348920 0.000000
0.418364 0.348920 0.000000
0.518508 0.348920 0.000000
0.549234 0.348920 0.000000
0.579960 0.348920 0.000000
0.610687 0.348920 0.000000
0.641413 0.348920 0.000000
0.672139 0.348920 0.000000
0.702866 0.348920 0.000000
0.733592 0.348920 0.000000
0.764318 0.348920 0.000000
0.795045 0.348920 0.000000
0.825771 0.348920 0.000000
0.856498 0.348920 0.000000
0.887224 0.348920 0.000000
0.917950 0.348920 0.000000
0.948677 0.348920 0.000000
0.970000 0.348920 0.000000
0.970000 0.348920 0.000000
0.000000 0.375760 0.000000
0.028336 0.375760 0.000000
0.056289 0.375760 0.000000
0.084141 0.375760 0.000000
0.111993 0.375760 0.000000
0.139845 0.375760 0.000000
0.167697 0.375760 0.000000
0.195549 0.375760 0.000000
0.223401 0.375760 0.000000
0.251253 0.375760 0.000000
0.279105 0.375760 0.000000
0.306957 0.375760 0.000000
0.334808 0.375760 0.000000
0.362660 0.375760 0.000000
0.390512 0.375760 0.000000
0.418364 0.375760 0.000000
0.518508 0.375760 0.000000
0.549234 0.375760 0.000000
0.579960 0.375760 0.000000
0.610687 0.375760 0.000000
0.641413 0.375760 0.000000
0.672139 0.375760 0.000000
0.702866 0.375760 0.000000
0.733592 0.375760 0.000000
0.764318 0.375760 0.000000
0.795045 0.375760 0.000000
0.825771 0.375760 0.000000
0.856498 0.375760 0.000000
0.887224 0.375760 0.000000
0.917950 0.375760 0.000000
0.948677 0.375760 0.000000
0.970000 0.375760 0.000000
0.970000 0.375760 0.000000
0.000000 0.402600 0.000000
0.028336 0.402600 0.000000
0.056289 0.402600 0.000000
0.084141 0.402600 0.000000
0.111993 0.402600 0.000000
0.139845 0.402600 0.000000
0.167697 0.402600 0.000000
0.195549 0.402600 0.000000
0.223401 0.402600 0.000000
0.251253 0.402600 0.000000
0.279105 0.402600 0.000000
0.306957 0.402600 0.000000
0.334808 0.402600 0.000000
0.362660 0.402600 0.000000
0.390512 0.402600 0.000000
0.418364 0.402600 0.000000
0.518508 0.402600 0.000000
0.549234 0.402600 0.000000
0.579960 0.402600 0.000000
0.610687 0.402600 0.000000
0.641413 0.402600 0.000000
0.672139 0.402600 0.000000
0.702866 0.402600 0.000000
0.733592 0.402600 0.000000
0.764318 0.402600 0.000000
0.795045 0.402600 0.000000
0.825771 0.402600 0.000000
0.856498 0.402600 0.000000
0.887224 0.402600 0.000000
0.917950 0.402600 0.000000
0.948677 0.402600 0.000000
0.970000 0.402600 0.000000
0.970000 0.402600 0.000000
0.000000 0.429440 0.000000
0.028336 0.429440 0.000000
0.056289 0.429440 0.000000
0.084141 0.429440 0.000000
0.111993 0.429440 0.000000
0.139845 0.429440 0.000000
0.167697 0.429440 0.000000
0.195549 0.429440 0.000000
0.223401 0.429440 0.000000
0.251253 0.429440 0.000000
0.279105 0.429440 0.000000
0.306957 0.429440 0.000000
0.334808 0.429440 0.000000
0.362660 0.429440 0.000000
0.390512 0.429440 0.000000
0.418364 0.429440 0.000000
0.518508 0.429440 0.000000
0.549234 0.429440 0.000000
0.579960 0.429440 0.000000
0.610687 0.429440 0.000000
0.641413 0.429440 0.000000
0.672139 0.429440 0.000000
0.702866 0.429440 0.000000
0.733592 0.429440 0.000000
0.764318 0.429440 0.000000
0.795045 0.429440 0.000000
0.825771 0.429440 0.000000
0.856498 0.429440 0.000000
0.887224 0.429440 0.000000
0.917950 0.429440 0.000000
0.948677 0.429440 0.000000
0.970000 0.429440 0.000000
0.970000 0.429440 0.000000
0.000000 0.529610 0.000000
0.028336 0.529610 0.000000
0.056289 0.529610 0.000000
0.084141 0.529610 0.000000
0.111993 0.529610 0.000000
0.139845 0.529610 0.000000
0.167697 0.529610 0.000000
0.195549 0.529610 0.000000
0.223401 0.529610 0.000000
0.251253 0.529610 0.000000
0.279105 0.529610 0.000000
0.306957 0.529610 0.000000
0.334808 0.529610 0.000000
0.362660 0.529610 0.000000
0.390512 0.529610 0.000000
0.418364 0.529610 0.000000
0.518508 0.529610 0.000000
0.549234 0.529610 0.000000
0.579960 0.529610 0.000000
0.610687 0.529610 0.000000
0.641413 0.529610 0.000000
0.672139 0.529610 0.000000
0.702866 0.529610 0.000000
0.733592 0.529610 0.000000
0.764318 0.529610 0.000000
0.795045 0.529610 0.000000
0.825771 0.529610 0.000000
0.856498 0.529610 0.000000
0.887224 0.529610 0.000000
0.917950 0.529610 0.000000
0.948677 0.529610 0.000000
0.970000 0.529610 0.000000
0.970000 0.529610 0.000000
0.000000 0.559220 0.000000
0.028336 0.559220 0.000000
0.056289 0.559220 0.000000
0.084141 0.559220 0.000000
0.111993 0.559220 0.000000
0.139845 0.559220 0.000000
0.167697 0.559220 0.000000
0.195549 0.559220 0.000000
0.223401 0.559220 0.000000
0.251253 0.559220 0.000000
0.279105 0.559220 0.000000
0.306957 0.559220 0.000000
0.334808 0.559220 0.000000
0.362660 0.559220 0.000000
0.390512 0.559220 0.000000
0.418364 0.559220 0.000000
0.518508 0.559220 0.000000
0.549234 0.559220 0.000000
0.579960 0.559220 0.000000
0.610687 0.559220 0.000000
0.641413 0.559220 0.000000
0.672139 0.559220 0.000000
0.702866 0.559220 0.000000
0.733592 0.559220 0.000000
0.764318 0.559220 0.000000
0.795045 0.559220 0.000000
0.825771 0.559220 0.000000
0.856498 0.559220 0.000000
0.887224 0.559220 0.000000
0.917950 0.559220 0.000000
0.948677 0.559220 0.000000
0.970000 0.559220 0.000000
0.970000 0.559220 0.000000
0.000000 0.588830 0.000000
0.028336 0.588830 0.000000
0.056289 0.588830 0.000000
0.084141 0.588830 0.000000
0.111993 0.588830 0.000000
0.139845 0.588830 0.000000
0.167697 0.588830 0.000000
0.195549 0.588830 0.000000
0.223401 0.588830 0.000000
0.251253 0.588830 0.000000
0.279105 0.588830 0.000000
0.306957 0.588830 0.000000
0.334808 0.588830 0.000000
0.362660 0.588830 0.000000
0.390512 0.588830 0.000000
0.418364 0.588830 0.000000
0.518508 0.588830 0.000000
0.549234 0.588830 0.000000
0.579960 0.588830 0.000000
0.610687 0.588830 0.000000
0.641413 0.588830 0.000000
0.672139 0.588830 0.000000
0.702866 0.588830 0.000000
0.733592 0.588830 0.000000
0.764318 0.588830 0.000000
0.795045 0.588830 0.000000
0.825771 0.588830 0.000000
0.856498 0.588830 0.000000
0.887224 0.588830 0.000000
0.917950 0.588830 0.000000
0.948677 0.588830 0.000000
0.970000 0.588830 0.000000
0.970000 0.588830 0.000000
0.000000 0.618440 0.000000
0.028336 0.618440 0.000000
0.056289 0.618440 0.000000
0.084141 0.618440 0.000000
0.111993 0.618440 0.000000
0.139845 0.618440 0.000000
0.167697 0.618440 0.000000
0.195549 0.618440 0.000000
0.223401 0.618440 0.000000
0.251253 0.618440 0.000000
0.279105 0.618440 0.000000
0.306957 0.618440 0.000000
0.334808 0.618440 0.000000
0.362660 0.618440 0.000000
0.390512 0.618440 0.000000
0.418364 0.618440 0.000000
0.518508 0.618440 0.000000
0.549234 0.618440 0.000000
0.579960 0.618440 0.000000
0.610687 0.618440 0.000000
0.641413 0.618440 0.000000
0.672139 0.618440 0.000000
0.702866 0.618440 0.000000
0.733592 0.618440 0.000000
0.764318 0.618440 0.000000
0.795045 0.618440 0.000000
0.825771 0.618440 0.000000
0.856498 0.618440 0.000000
0.887224 0.618440 0.000000
0.917950 0.618440 0.000000
0.948677 0.618440 0.000000
0.970000 0.618440 0.000000
0.970000 0.618440 0.000000
0.000000 0.648050 0.000000
0.028336 0.648050 0.000000
0.056289 0.648050 0.000000
0.084141 0.648050 0.000000
0.111993 0.648050 0.000000
0.139845 0.648050 0.000000
0.167697 0.648050 0.000000
0.195549 0.648050 0.000000
0.223401 0.648050 0.000000
0.251253 0.648050 0.000000
0.279105 0.648050 0.000000
0.306957 0.648050 0.000000
0.334808 0.648050 0.000000
0.362660 0.648050 0.000000
0.390512 0.648050 0.000000
0.418364 0.648050 0.000000
0.518508 0.648050 0.000000
0.549234 0.648050 0.000000
0.579960 0.648050 0.000000
0.610687 0.648050 0.000000
0.641413 0.648050 0.000000
0.672139 0.648050 0.000000
0.702866 0.648050 0.000000
0.733592 0.648050 0.000000
0.764318 0.648050 0.000000
0.795045 0.648050 0.000000
0.825771 0.648050 0.000000
0.856498 0.648050 0.000000
0.887224 0.648050 0.000000
0.917950 0.648050 0.000000
0.948677 0.648050 0.000000
0.970000 0.648050 0.000000
0.970000 0.648050 0.000000
0.000000 0.677660 0.000000
0.028336 0.677660 0.000000
0.056289 0.677660 0.000000
0.084141 0.677660 0.000000
0.111993 0.677660 0.000000
0.139845 0.677660 0.000000
0.167697 0.677660 0.000000
0.195549 0.677660 0.000000
0.223401 0.677660 0.000000
0.251253 0.677660 0.000000
0.279105 0.677660 0.000000
0.306957 0.677660 0.000000
0.334808 0.677660 0.000000
0.362660 0.677660 0.000000
0.390512 0.677660 0.000000
0.418364 0.677660 0.000000
0.518508 0.677660 0.000000
0.549234 0.677660 0.000000
0.579960 0.677660 0.000000
0.610687 0.677660 0.000000
0.641413 0.677660 0.000000
0.672139 0.677660 0.000000
0.702866 0.677660 0.000000
0.733592 0.677660 0.000000
0.764318 0.677660 0.000000
0.795045 0.677660 0.000000
0.825771 0.677660 0.000000
0.856498 0.677660 0.000000
0.887224 0.677660 0.000000
0.917950 0.677660 0.000000
0.948677 0.677660 0.000000
0.970000 0.677660 0.000000
0.970000 0.677660 0.000000
0.000000 0.707270 0.000000
0.028336 0.707270 0.000000
0.056289 0.707270 0.000000
0.084141 0.707270 0.000000
0.111993 0.707270 0.000000
0.139845 0.707270 0.000000
0.167697 0.707270 0.000000
0.195549 0.707270 0.000000
0.223401 0.707270 0.000000
0.251253 0.707270 0.000000
0.279105 0.707270 0.000000
0.306957 0.707270 0.000000
0.334808 0.707270 0.000000
0.362660 0.707270 0.000000
0.390512 0.707270 0.000000
0.418364 0.707270 0.000000
0.518508 0.707270 0.000000
0.549234 0.707270 0.000000
0.579960 0.707270 0.000000
0.610687 0.707270 0.000000
0.641413 0.707270 0.000000
0.672139 0.707270 0.000000
0.702866 0.707270 0.000000
0.733592 0.707270 0.000000
0.764318 0.707270 0.000000
0.795045 0.707270 0.000000
0.825771 0.707270 0.000000
0.856498 0.707270 0.000000
0.887224 0.707270 0.000000
0.917950 0.707270 0.000000
0.948677 0.707270 0.000000
0.970000 0.707270 0.000000
0.970000 0.707270 0.000000
0.000000 0.736880 0.000000
0.028336 0.736880 0.000000
0.056289 0.736880 0.000000
0.084141 0.736880 0.000000
0.111993 0.736880 0.000000
0.139845 0.736880 0.000000
0.167697 0.736880 0.000000
0.195549 0.736880 0.000000
0.223401 0.736880 0.000000
0.251253 0.736880 0.000000
0.279105 0.736880 0.000000
0.306957 0.736880 0.000000
0.334808 0.736880 0.000000
0.362660 0.736880 0.000000
0.390512 0.736880 0.000000
0.418364 0.736880 0.000000
0.518508 0.736880 0.000000
0.549234 0.736880 0.000000
0.579960 0.736880 0.000000
0.610687 0.736880 0.000000
0.641413 0.736880 0.000000
0.672139 0.736880 0.000000
0.702866 0.736880 0.000000
0.733592 0.736880 0.000000
0.764318 0.736880 0.000000
0.795045 0.736880 0.000000
0.825771 0.736880 0.000000
0.856498 0.736880 0.000000
0.887224 0.736880 0.000000
0.917950 0.736880 0.000000
0.948677 0.736880 0.000000
0.970000 0.736880 0.000000
0.970000 0.736880 0.000000
0.000000 0.766490 0.000000
0.028336 0.766490 0.000000
0.056289 0.766490 0.000000
0.084141 0.766490 0.000000
0.111993 0.766490 0.000000
0.139845 0.766490 0.000000
0.167697 0.766490 0.000000
0.195549 0.766490 0.000000
0.223401 0.766490 0.000000
0.251253 0.766490 0.000000
0.279105 0.766490 0.000000
0.306957 0.766490 0.000000
0.334808 0.766490 0.000000
0.362660 0.766490 0.000000
0.390512 0.766490 0.000000
0.418364 0.766490 0.000000
0.518508 0.766490 0.000000
0.549234 0.766490 0.000000
0.579960 0.766490 0.000000
0.610687 0.766490 0.000000
0.641413 0.766490 0.000000
0.672139 0.766490 0.000000
0.702866 0.766490 0.000000
0.733592 0.766490 0.000000
0.764318 0.766490 0.000000
0.795045 0.766490 0.000000
0.825771 0.766490 0.000000
0.856498 0.766490 0.000000
0.887224 0.766490 0.000000
0.917950 0.766490 0.000000
0.948677 0.766490 0.000000
0.970000 0.766490 0.000000
0.970000 0.766490 0.000000
0.000000 0.796100 0.000000
0.028336 0.796100 0.000000
0.056289 0.796100 0.000000
0.084141 0.796100 0.000000
0.111993 0.796100 0.000000
0.139845 0.796100 0.000000
0.167697 0.796100 0.000000
0.195549 0.796100 0.000000
0.223401 0.796100 0.000000
0.251253 0.796100 0.000000
0.279105 0.796100 0.000000
0.306957 0.796100 0.000000
0.334808 0.796100 0.000000
0.362660 0.796100 0.000000
0.390512 0.796100 0.000000
0.418364 0.796100 0.000000
0.518508 0.796100 0.000000
0.549234 0.796100 0.000000
0.579960 0.796100 0.000000
0.610687 0.796100 0.000000
0.641413 0.796100 0.000000
0.672139 0.796100 0.000000
0.702866 0.796100 0.000000
0.733592 0.796100 0.000000
