docs/luts/fuji_recipes/Velvia_GB_Taste_Rainbows.cube
TITLE "Fujifilm Recipe: GB Taste Rainbows (Velvia)"
# FilmSim=Velvia HL=0 SH=2 Col=2 WB=Daylight WBR=0 WBB=0
LUT_3D_SIZE 9
DOMAIN_MIN 0.0 0.0 0.0
DOMAIN_MAX 1.0 1.0 1.0
0.000000 0.000000 0.000000
0.114243 0.000000 0.000000
0.227874 0.000000 0.000000
0.341505 0.000000 0.000000
0.506933 0.000000 0.000000
0.634494 0.000000 0.000000
0.762056 0.000000 0.000000
0.889617 0.000000 0.000000
1.000000 0.000000 0.000000
0.000000 0.112240 0.000000
0.114243 0.112240 0.000000
0.227874 0.112240 0.000000
0.341505 0.112240 0.000000
0.506933 0.112240 0.000000
0.634494 0.112240 0.000000
0.762056 0.112240 0.000000
0.889617 0.112240 0.000000
1.000000 0.112240 0.000000
0.000000 0.224480 0.000000
0.114243 0.224480 0.000000
0.227874 0.224480 0.000000
0.341505 0.224480 0.000000
0.506933 0.224480 0.000000
0.634494 0.224480 0.000000
0.762056 0.224480 0.000000
0.889617 0.224480 0.000000
1.000000 0.224480 0.000000
0.000000 0.336720 0.000000
0.114243 0.336720 0.000000
0.227874 0.336720 0.000000
0.341505 0.336720 0.000000
0.506933 0.336720 0.000000
0.634494 0.336720 0.000000
0.762056 0.336720 0.000000
0.889617 0.336720 0.000000
1.000000 0.336720 0.000000
0.000000 0.448960 0.000000
0.114243 0.448960 0.000000
0.227874 0.448960 0.000000
0.341505 0.448960 0.000000
0.506933 0.448960 0.000000
0.634494 0.448960 0.000000
0.762056 0.448960 0.000000
0.889617 0.448960 0.000000
1.000000 0.448960 0.000000
0.000000 0.626000 0.000000
0.114243 0.626000 0.000000
0.227874 0.626000 0.000000
0.341505 0.626000 0.000000
0.506933 0.626000 0.000000
0.634494 0.626000 0.000000
0.762056 0.626000 0.000000
0.889617 0.626000 0.000000
1.000000 0.626000 0.000000
0.000000 0.752000 0.000000
0.114243 0.752000 0.000000
0.227874 0.752000 0.000000
0.341505 0.752000 0.000000
0.506933 0.752000 0.000000
0.634494 0.752000 0.000000
0.762056 0.752000 0.000000
0.889617 0.752000 0.000000
1.000000 0.752000 0.000000
0.000000 0.878000 0.000000
0.114243 0.878000 0.000000
0.227874 0.878000 0.000000
0.341505 0.878000 0.000000
0.506933 0.878000 0.000000
0.634494 0.878000 0.000000
0.762056 0.878000 0.000000
0.889617 0.878000 0.000000
1.000000 0.878000 0.000000
0.000000 1.000000 0.000000
0.114243 1.000000 0.000000
0.227874 1.000000 0.000000
0.341505 1.000000 0.000000
0.506933 1.000000 0.000000
0.634494 1.000000 0.000000
0.762056 1.000000 0.000000
0.889617 1.000000 0.000000
1.000000 1.000000 0.000000
0.000000 0.000000 0.110885
0.114243 0.000000 0.110885
0.227874 0.000000 0.110885
0.341505 0.000000 0.110885
0.506933 0.000000 0.110885
0.634494 0.000000 0.110885
0.762056 0.000000 0.110885
0.889617 0.000000 0.110885
1.000000 0.000000 0.110885
0.000000 0.112240 0.110885
0.115464 0.112004 0.109664
0.270411 0.070688 0.068348
0.425358 0.029372 0.027032
0.621991 0.002157 0.000000
0.750930 0.001967 0.000000
0.879869 0.001852 0.000000
1.000000 0.010552 0.008808
1.000000 0.112240 0.110885
0.000000 0.224480 0.110885
0.075382 0.265783 0.069582
0.270411 0.264549 0.068348
0.425358 0.223233 0.027032
0.621991 0.180837 0.000000
0.750930 0.164934 0.000000
0.879869 0.155280 0.000000
1.000000 0.155008 0.008808
1.000000 0.224480 0.110885
0.000000 0.336720 0.110885
0.034571 0.418834 0.028772
0.230834 0.418834 0.028772
0.425358 0.417094 0.027032
0.621991 0.359516 0.000000
0.750930 0.327900 0.000000
0.879869 0.308709 0.000000
1.000000 0.299463 0.008808
1.000000 0.336720 0.110885
0.000000 0.448960 0.110885
0.005442 0.602854 0.000000
0.189619 0.602854 0.000000
0.373797 0.602854 0.000000
0.621991 0.591851 0.000000
0.750930 0.538228 0.000000
0.879869 0.505244 0.000000
1.000000 0.443919 0.008808
1.000000 0.448960 0.110885
0.000000 0.626000 0.110885
0.004899 0.742344 0.000000
0.170699 0.742344 0.000000
0.336498 0.742344 0.000000
0.568613 0.742344 0.000000
0.750930 0.738597 0.000000
0.879869 0.693886 0.000000
1.000000 0.660718 0.008808
1.000000 0.626000 0.110885
0.000000 0.752000 0.110885
0.004608 0.869705 0.000000
0.160559 0.869705 0.000000
0.316510 0.869705 0.000000
0.533366 0.869705 0.000000
0.708436 0.869705 0.000000
0.879869 0.866124 0.000000
1.000000 0.822883 0.008808
1.000000 0.752000 0.110885
0.000000 0.878000 0.110885
0.004413 0.997066 0.000000
0.153759 0.997066 0.000000
0.303105 0.997066 0.000000
0.509369 0.997066 0.000000
0.677024 0.997066 0.000000
0.844679 0.997066 0.000000
1.000000 0.985049 0.008808
1.000000 0.878000 0.110885
0.000000 1.000000 0.110885
0.114243 1.000000 0.110885
0.227874 1.000000 0.110885
0.341505 1.000000 0.110885
0.506933 1.000000 0.110885
0.634494 1.000000 0.110885
0.762056 1.000000 0.110885
0.889617 1.000000 0.110885
1.000000 1.000000 0.110885
0.000000 0.000000 0.222184
0.114243 0.000000 0.222184
0.227874 0.000000 0.222184
0.341505 0.000000 0.222184
0.506933 0.000000 0.222184
0.634494 0.000000 0.222184
0.762056 0.000000 0.222184
0.889617 0.000000 0.222184
1.000000 0.000000 0.222184
0.000000 0.112240 0.222184
0.075724 0.072264 0.262160
0.269918 0.070196 0.260091
0.424865 0.028879 0.218775
0.623330 0.000000 0.176018
0.752269 0.000000 0.160342
0.881208 0.000000 0.150839
1.000000 0.010147 0.151709
1.000000 0.112240 0.222184
0.000000 0.224480 0.222184
0.074161 0.264562 0.260597
0.229943 0.224081 0.220116
0.384890 0.182765 0.178799
0.606404 0.129545 0.125580
0.780099 0.084789 0.080824
0.953794 0.040033 0.036068
1.000000 0.121876 0.118801
1.000000 0.224480 0.222184
0.000000 0.336720 0.222184
0.033350 0.417613 0.219787
0.190366 0.378365 0.180539
0.384890 0.376625 0.178799
0.606404 0.323406 0.125580
0.780099 0.278650 0.080824
0.953794 0.233894 0.036068
1.000000 0.272232 0.118801
1.000000 0.336720 0.222184
0.000000 0.448960 0.222184
0.000000 0.606172 0.177536
0.142049 0.580624 0.132222
0.338313 0.580624 0.132222
0.606404 0.573703 0.125580
0.780099 0.527074 0.080824
0.953794 0.427755 0.036068
1.000000 0.422587 0.118801
1.000000 0.448960 0.222184
0.000000 0.626000 0.222184
0.000000 0.745663 0.159263
0.093631 0.768533 0.083804
0.289894 0.768533 0.083804
0.562880 0.768533 0.083804
0.780099 0.765428 0.080824
0.953794 0.718798 0.036068
1.000000 0.646862 0.118801
1.000000 0.626000 0.222184
0.000000 0.752000 0.222184
0.000000 0.873023 0.149507
0.049423 0.940101 0.039596
0.245687 0.940101 0.039596
0.516821 0.940101 0.039596
0.737145 0.940101 0.039596
0.953794 0.936426 0.036068
1.000000 0.815650 0.118801
1.000000 0.752000 0.222184
0.000000 0.878000 0.222184
0.000384 1.000000 0.143254
0.114919 1.000000 0.107058
0.271915 1.000000 0.107058
0.444444 1.000000 0.107058
0.663565 1.000000 0.107058
0.839808 1.000000 0.107058
1.000000 0.984438 0.118801
1.000000 0.878000 0.222184
0.000000 1.000000 0.222184
0.114243 1.000000 0.222184
0.227874 1.000000 0.222184
0.341505 1.000000 0.222184
0.506933 1.000000 0.222184
0.634494 1.000000 0.222184
0.762056 1.000000 0.222184
0.889617 1.000000 0.222184
1.000000 1.000000 0.222184
0.000000 0.000000 0.333483
0.114243 0.000000 0.333483
0.227874 0.000000 0.333483
0.341505 0.000000 0.333483
0.506933 0.000000 0.333483
0.634494 0.000000 0.333483
0.762056 0.000000 0.333483
0.889617 0.000000 0.333483
1.000000 0.000000 0.333483
0.000000 0.112240 0.333483
0.035255 0.031796 0.413928
0.231519 0.031796 0.413928
0.424865 0.028879 0.411011
0.623330 0.000000 0.354205
0.752269 0.000000 0.322660
0.881208 0.000000 0.303538
1.000000 0.010147 0.295014
1.000000 0.112240 0.333483
0.000000 0.224480 0.333483
0.034527 0.224929 0.413199
0.190708 0.184846 0.373117
0.384055 0.181930 0.370201
0.605538 0.128715 0.316986
0.779232 0.083959 0.272230
0.952927 0.039203 0.227474
1.000000 0.121070 0.267228
1.000000 0.224480 0.333483
0.000000 0.336720 0.333483
0.033350 0.417613 0.412023
0.188297 0.376296 0.370706
0.344421 0.336157 0.330567
0.564394 0.283172 0.277582
0.738089 0.238417 0.232827
0.911784 0.193661 0.188071
1.000000 0.233369 0.228794
1.000000 0.336720 0.333483
0.000000 0.448960 0.333483
0.000000 0.606172 0.360595
0.139993 0.578477 0.322402
0.298079 0.538614 0.284225
0.564394 0.531693 0.277582
0.738089 0.432278 0.232827
0.911784 0.387522 0.188071
1.000000 0.392054 0.228794
1.000000 0.448960 0.333483
0.000000 0.626000 0.333483
0.000000 0.745663 0.323480
0.091574 0.766385 0.273983
0.249661 0.726523 0.235807
0.520870 0.726523 0.235807
0.738089 0.723418 0.232827
0.911784 0.676788 0.188071
1.000000 0.627299 0.228794
1.000000 0.626000 0.333483
0.000000 0.752000 0.333483
0.000000 0.873023 0.303665
0.047367 0.937954 0.229776
0.205453 0.898091 0.191599
0.421135 0.898091 0.191599
0.695135 0.898091 0.191599
0.911784 0.894415 0.188071
1.000000 0.805437 0.228794
1.000000 0.752000 0.333483
0.000000 0.878000 0.333483
0.000384 1.000000 0.290567
0.112681 1.000000 0.258976
0.228813 1.000000 0.217051
0.411913 1.000000 0.217051
0.642951 1.000000 0.217051
0.829992 1.000000 0.217051
1.000000 0.983576 0.228794
1.000000 0.878000 0.333483
0.000000 1.000000 0.333483
0.114243 1.000000 0.333483
0.227874 1.000000 0.333483
0.341505 1.000000 0.333483
0.506933 1.000000 0.333483
0.634494 1.000000 0.333483
0.762056 1.000000 0.333483
0.889617 1.000000 0.333483
1.000000 1.000000 0.333483
0.000000 0.000000 0.444783
0.114243 0.000000 0.444783
0.227874 0.000000 0.444783
0.341505 0.000000 0.444783
0.506933 0.000000 0.444783
0.634494 0.000000 0.444783
0.762056 0.000000 0.444783
0.889617 0.000000 0.444783
1.000000 0.000000 0.444783
0.000000 0.112240 0.444783
0.003281 0.000000 0.599603
0.189402 0.000000 0.599603
0.375523 0.000000 0.599603
0.623330 0.000000 0.585750
0.752269 0.000000 0.532001
0.881208 0.000000 0.456236
1.000000 0.010147 0.438320
1.000000 0.112240 0.444783
0.000000 0.224480 0.444783
0.000000 0.182164 0.601583
0.142812 0.136951 0.573575
0.339076 0.136951 0.573575
0.605538 0.128715 0.564994
0.779232 0.083959 0.464466
0.952927 0.039203 0.419710
1.000000 0.121070 0.416465
1.000000 0.224480 0.444783
0.000000 0.336720 0.444783
0.000000 0.367638 0.601583
0.141586 0.329585 0.572294
0.305693 0.297428 0.484074
0.563172 0.282002 0.468648
0.736867 0.237247 0.423893
0.910562 0.192491 0.379137
1.000000 0.231992 0.385054
1.000000 0.336720 0.444783
0.000000 0.448960 0.444783
0.000000 0.606172 0.598704
0.139993 0.578477 0.570634
0.295180 0.535586 0.473561
0.522384 0.436800 0.429585
0.696079 0.392044 0.384829
0.869773 0.347289 0.340074
1.000000 0.345163 0.338786
1.000000 0.448960 0.444783
0.000000 0.626000 0.444783
0.000000 0.745663 0.535350
0.091574 0.766385 0.466219
0.246762 0.723495 0.425143
0.425109 0.684512 0.387810
0.696079 0.681407 0.384829
0.869773 0.634778 0.340074
1.000000 0.597590 0.338786
1.000000 0.626000 0.444783
0.000000 0.752000 0.444783
0.000000 0.873023 0.457823
0.047367 0.937954 0.422011
0.202554 0.895064 0.380935
0.380901 0.856081 0.343602
0.653125 0.856081 0.343602
0.869773 0.852405 0.340074
1.000000 0.789928 0.338786
1.000000 0.752000 0.444783
0.000000 0.878000 0.444783
0.000384 1.000000 0.437881
0.112681 1.000000 0.413151
0.224978 1.000000 0.377187
0.361511 1.000000 0.327044
0.611353 1.000000 0.327044
0.814947 1.000000 0.327044
1.000000 0.982267 0.338786
1.000000 0.878000 0.444783
0.000000 1.000000 0.444783
0.114243 1.000000 0.444783
0.227874 1.000000 0.444783
0.341505 1.000000 0.444783
0.506933 1.000000 0.444783
0.634494 1.000000 0.444783
0.762056 1.000000 0.444783
0.889617 1.000000 0.444783
1.000000 1.000000 0.444783
0.000000 0.000000 0.620254
0.114243 0.000000 0.620254
0.227874 0.000000 0.620254
0.341505 0.000000 0.620254
0.506933 0.000000 0.620254
0.634494 0.000000 0.620254
0.762056 0.000000 0.620254
0.889617 0.000000 0.620254
1.000000 0.000000 0.620254
0.000000 0.112240 0.620254
0.002946 0.000000 0.737875
0.170068 0.000000 0.737875
0.337190 0.000000 0.737875
0.571208 0.000000 0.737875
0.752269 0.000000 0.731502
0.881208 0.000000 0.686662
1.000000 0.010147 0.653176
1.000000 0.112240 0.620254
0.000000 0.224480 0.620254
0.000000 0.163223 0.739855
0.094817 0.088955 0.759843
0.291080 0.088955 0.759843
0.564114 0.088955 0.759843
0.779232 0.083959 0.754637
0.952927 0.039203 0.708008
1.000000 0.121070 0.638822
1.000000 0.224480 0.620254
0.000000 0.336720 0.620254
0.000000 0.329412 0.739855
0.093590 0.281589 0.758562
0.250507 0.242243 0.717477
0.521748 0.242243 0.717477
0.736867 0.237247 0.712272
0.910562 0.192491 0.665643
1.000000 0.231992 0.618470
1.000000 0.336720 0.620254
0.000000 0.448960 0.620254
0.000000 0.544032 0.739855
0.093590 0.530132 0.758562
0.248778 0.434374 0.715671
0.425615 0.395531 0.675112
0.694502 0.390534 0.669907
0.868197 0.345779 0.623277
1.000000 0.342915 0.587370
1.000000 0.448960 0.620254
0.000000 0.626000 0.620254
0.000000 0.745663 0.737185
0.091574 0.766385 0.756461
0.246762 0.723495 0.713571
0.417303 0.676361 0.666437
0.639672 0.625001 0.615077
0.813615 0.578619 0.568695
0.987557 0.532238 0.522314
1.000000 0.626000 0.620254
0.000000 0.752000 0.620254
0.000000 0.873023 0.690545
0.047367 0.937954 0.710403
0.202554 0.895064 0.667512
0.373095 0.847930 0.620379
0.596947 0.799903 0.572352
0.813615 0.796247 0.568695
0.987557 0.749865 0.522314
1.000000 0.752000 0.620254
0.000000 0.878000 0.620254
0.000384 1.000000 0.658852
0.112681 1.000000 0.642961
0.224978 1.000000 0.620139
0.348386 1.000000 0.579960
0.551133 0.971716 0.526538
0.771457 0.971716 0.526538
0.987557 0.967492 0.522314
1.000000 0.878000 0.620254
0.000000 1.000000 0.620254
0.114243 1.000000 0.620254
0.227874 1.000000 0.620254
0.341505 1.000000 0.620254
0.506933 1.000000 0.620254
0.634494 1.000000 0.620254
0.762056 1.000000 0.620254
0.889617 1.000000 0.620254
1.000000 1.000000 0.620254
0.000000 0.000000 0.745198
0.114243 0.000000 0.745198
0.227874 0.000000 0.745198
0.341505 0.000000 0.745198
0.506933 0.000000 0.745198
0.634494 0.000000 0.745198
0.762056 0.000000 0.745198
0.889617 0.000000 0.745198
1.000000 0.000000 0.745198
0.000000 0.112240 0.745198
0.002767 0.000000 0.864169
0.159734 0.000000 0.864169
0.316702 0.000000 0.864169
0.535034 0.000000 0.864169
0.711244 0.000000 0.864169
0.881208 0.000000 0.858080
1.000000 0.010147 0.814050
1.000000 0.112240 0.745198
0.000000 0.224480 0.745198
0.000000 0.153123 0.866148
0.050980 0.045118 0.929973
0.247243 0.045118 0.929973
0.518441 0.045118 0.929973
0.738765 0.045118 0.929973
0.952927 0.039203 0.923811
1.000000 0.121070 0.806354
1.000000 0.224480 0.745198
0.000000 0.336720 0.745198
0.000000 0.309028 0.866148
0.049753 0.237752 0.928692
0.206670 0.198406 0.887608
0.422351 0.198406 0.887608
0.696400 0.198406 0.887608
0.910562 0.192491 0.881446
1.000000 0.231992 0.795443
1.000000 0.336720 0.745198
0.000000 0.448960 0.745198
0.000000 0.508891 0.866148
0.049753 0.431613 0.928692
0.204940 0.390537 0.885802
0.381778 0.351693 0.845243
0.654035 0.351693 0.845243
0.868197 0.345779 0.839080
1.000000 0.342915 0.778768
1.000000 0.448960 0.745198
0.000000 0.626000 0.745198
0.000000 0.700578 0.866148
0.049753 0.722813 0.928692
0.204940 0.679923 0.885802
0.375481 0.632789 0.838668
0.597331 0.582660 0.788539
0.811525 0.576530 0.782409
0.985468 0.530149 0.736028
1.000000 0.626000 0.745198
0.000000 0.752000 0.745198
0.000000 0.873023 0.863602
0.047367 0.937954 0.926206
0.202554 0.895064 0.883315
0.373095 0.847930 0.836182
0.591769 0.794725 0.782977
0.768185 0.750817 0.739069
0.942128 0.704436 0.692687
1.000000 0.752000 0.745198
0.000000 0.878000 0.745198
0.000384 1.000000 0.824226
0.112681 1.000000 0.816038
0.224978 1.000000 0.804279
0.348386 1.000000 0.783577
0.545955 0.966539 0.737163
0.726028 0.926287 0.696911
0.942128 0.922063 0.692687
1.000000 0.878000 0.745198
0.000000 1.000000 0.745198
0.114243 1.000000 0.745198
0.227874 1.000000 0.745198
0.341505 1.000000 0.745198
0.506933 1.000000 0.745198
0.634494 1.000000 0.745198
0.762056 1.000000 0.745198
0.889617 1.000000 0.745198
1.000000 1.000000 0.745198
0.000000 0.000000 0.870142
0.114243 0.000000 0.870142
0.227874 0.000000 0.870142
0.341505 0.000000 0.870142
0.506933 0.000000 0.870142
0.634494 0.000000 0.870142
0.762056 0.000000 0.870142
0.889617 0.000000 0.870142
1.000000 0.000000 0.870142
0.000000 0.112240 0.870142
0.002647 0.000000 0.990462
0.152817 0.000000 0.990462
0.302987 0.000000 0.990462
0.510460 0.000000 0.990462
0.679040 0.000000 0.990462
0.847619 0.000000 0.990462
1.000000 0.010147 0.974924
1.000000 0.112240 0.870142
0.000000 0.224480 0.870142
0.000000 0.146371 0.992441
0.106178 0.101384 1.000000
0.266682 0.101384 1.000000
0.443066 0.101384 1.000000
0.667147 0.101384 1.000000
0.847328 0.101384 1.000000
1.000000 0.121070 0.973887
1.000000 0.224480 0.870142
0.000000 0.336720 0.870142
0.000000 0.295401 0.992441
0.104738 0.258739 1.000000
0.219514 0.212307 1.000000
0.407619 0.212307 1.000000
0.645028 0.212307 1.000000
0.837183 0.212307 1.000000
1.000000 0.231992 0.972415
1.000000 0.336720 0.870142
0.000000 0.448960 0.870142
0.000000 0.444431 0.992441
0.104738 0.417541 1.000000
0.217035 0.379430 1.000000
0.352006 0.323229 1.000000
0.610676 0.323229 1.000000
0.821426 0.323229 1.000000
1.000000 0.342915 0.970167
1.000000 0.448960 0.870142
0.000000 0.626000 0.870142
0.000000 0.668274 0.992441
0.104738 0.654576 1.000000
0.217035 0.631033 1.000000
0.340443 0.589276 1.000000
0.551901 0.537230 0.958912
0.772225 0.537230 0.958912
0.985468 0.530149 0.951831
1.000000 0.626000 0.870142
0.000000 0.752000 0.870142
0.000000 0.835575 0.992441
0.104738 0.832847 1.000000
0.217035 0.821455 1.000000
0.340443 0.801248 1.000000
0.548813 0.751769 0.955823
0.726412 0.709044 0.913098
0.939655 0.701962 0.906017
1.000000 0.752000 0.870142
0.000000 0.878000 0.870142
0.000384 1.000000 0.989599
0.112681 1.000000 0.989115
0.224978 1.000000 0.988419
0.348386 1.000000 0.987194
0.545955 0.966539 0.952966
0.719898 0.920157 0.906585
0.896698 0.876633 0.863061
1.000000 0.878000 0.870142
0.000000 1.000000 0.870142
0.114243 1.000000 0.870142
0.227874 1.000000 0.870142
0.341505 1.000000 0.870142
0.506933 1.000000 0.870142
0.634494 1.000000 0.870142
0.762056 1.000000 0.870142
0.889617 1.000000 0.870142
1.000000 1.000000 0.870142
0.000000 0.000000 0.995086
0.114243 0.000000 0.995086
0.227874 0.000000 0.995086
0.341505 0.000000 0.995086
0.506933 0.000000 0.995086
0.634494 0.000000 0.995086
0.762056 0.000000 0.995086
0.889617 0.000000 0.995086
1.000000 0.000000 0.995086
0.000000 0.112240 0.995086
0.109744 0.107719 1.000000
0.224654 0.107719 1.000000
0.339565 0.107719 1.000000
0.506352 0.107719 1.000000
0.635349 0.107719 1.000000
0.764347 0.107719 1.000000
0.893344 0.107719 1.000000
1.000000 0.112240 0.995086
0.000000 0.224480 0.995086
0.109722 0.221203 1.000000
0.223397 0.219959 1.000000
0.338515 0.219959 1.000000
0.505459 0.219959 1.000000
0.634690 0.219959 1.000000
0.763921 0.219959 1.000000
0.893151 0.219959 1.000000
1.000000 0.224480 0.995086
0.000000 0.336720 0.995086
0.109722 0.334710 1.000000
0.223353 0.333630 1.000000
0.337058 0.332199 1.000000
0.504220 0.332199 1.000000
0.633775 0.332199 1.000000
0.763329 0.332199 1.000000
0.892884 0.332199 1.000000
1.000000 0.336720 0.995086
0.000000 0.448960 0.995086
0.109722 0.448216 1.000000
0.223353 0.447346 1.000000
0.336984 0.446132 1.000000
0.502385 0.444439 1.000000
0.632419 0.444439 1.000000
0.762453 0.444439 1.000000
0.892487 0.444439 1.000000
1.000000 0.448960 0.995086
0.000000 0.626000 0.995086
0.109722 0.626749 1.000000
0.223353 0.626061 1.000000
0.336984 0.625100 1.000000
0.502019 0.623483 1.000000
0.629806 0.621086 1.000000
0.760764 0.621086 1.000000
0.891723 0.621086 1.000000
1.000000 0.626000 0.995086
0.000000 0.752000 0.995086
0.109722 0.754171 1.000000
0.223353 0.753718 1.000000
0.336984 0.753085 1.000000
0.502019 0.752020 1.000000
0.629580 0.750289 1.000000
0.757548 0.747086 1.000000
0.890267 0.747086 1.000000
1.000000 0.752000 0.995086
0.000000 0.878000 0.995086
0.109722 0.881593 1.000000
0.223353 0.881375 1.000000
0.336984 0.881070 1.000000
0.502019 0.880557 1.000000
0.629580 0.879723 1.000000
0.757141 0.877976 1.000000
0.885678 0.873086 1.000000
1.000000 0.878000 0.995086
0.000000 1.000000 0.995086
0.114243 1.000000 0.995086
0.227874 1.000000 0.995086
0.341505 1.000000 0.995086
0.506933 1.000000 0.995086
0.634494 1.000000 0.995086
0.762056 1.000000 0.995086
0.889617 1.000000 0.995086
1.000000 1.000000 0.995086
