docs/luts/fuji_recipes/Velvia_VM_Valvia_Fujipro_Color_Cast.cube
TITLE "Fujifilm Recipe: VM Valvia Fujipro Color Cast (Velvia)"
# FilmSim=Velvia HL=-2 SH=-1 Col=-4 WB=Auto WBR=-2 WBB=-3
LUT_3D_SIZE 33
DOMAIN_MIN 0.0 0.0 0.0
DOMAIN_MAX 1.0 1.0 1.0
0.040000 0.040000 0.040000
0.068680 0.056133 0.056133
0.090922 0.068644 0.068644
0.112793 0.080946 0.080946
0.134663 0.093248 0.093248
0.156534 0.105550 0.105550
0.178404 0.117853 0.117853
0.200275 0.130155 0.130155
0.222146 0.142457 0.142457
0.244016 0.154759 0.154759
0.265887 0.167061 0.167061
0.287758 0.179364 0.179364
0.309628 0.191666 0.191666
0.331499 0.203968 0.203968
0.347221 0.212812 0.212812
0.367926 0.224458 0.224458
0.388631 0.236105 0.236105
0.409337 0.247752 0.247752
0.430042 0.259399 0.259399
0.450748 0.271046 0.271046
0.471453 0.282692 0.282692
0.492158 0.294339 0.294339
0.512864 0.305986 0.305986
0.533569 0.317633 0.317633
0.554274 0.329279 0.329279
0.574980 0.340926 0.340926
0.595685 0.352573 0.352573
0.596938 0.353278 0.353278
0.596938 0.353278 0.353278
0.596938 0.353278 0.353278
0.596938 0.353278 0.353278
0.596938 0.353278 0.353278
0.596938 0.353278 0.353278
0.056535 0.069395 0.056535
0.069082 0.069395 0.056535
0.090922 0.081504 0.068644
0.112793 0.093806 0.080946
0.134663 0.106108 0.093248
0.156534 0.118411 0.105550
0.178404 0.130713 0.117853
0.200275 0.143015 0.130155
0.222146 0.155317 0.142457
0.244016 0.167620 0.154759
0.265887 0.179922 0.167061
0.287758 0.192224 0.179364
0.309628 0.204526 0.191666
0.331499 0.216828 0.203968
0.347221 0.225672 0.212812
0.367926 0.237319 0.224458
0.388631 0.248966 0.236105
0.409337 0.260612 0.247752
0.430042 0.272259 0.259399
0.450748 0.283906 0.271046
0.471453 0.295553 0.282692
0.492158 0.307199 0.294339
0.512864 0.318846 0.305986
0.533569 0.330493 0.317633
0.554274 0.342140 0.329279
0.574980 0.353787 0.340926
0.595685 0.365433 0.352573
0.596938 0.366138 0.353278
0.596938 0.366138 0.353278
0.596938 0.366138 0.353278
0.596938 0.366138 0.353278
0.596938 0.366138 0.353278
0.596938 0.366138 0.353278
0.069543 0.092521 0.069543
0.082091 0.092521 0.069543
0.091821 0.092521 0.069543
0.112793 0.103924 0.080946
0.134663 0.116226 0.093248
0.156534 0.128528 0.105550
0.178404 0.140830 0.117853
0.200275 0.153133 0.130155
0.222146 0.165435 0.142457
0.244016 0.177737 0.154759
0.265887 0.190039 0.167061
0.287758 0.202342 0.179364
0.309628 0.214644 0.191666
0.331499 0.226946 0.203968
0.347221 0.235790 0.212812
0.367926 0.247436 0.224458
0.388631 0.259083 0.236105
0.409337 0.270730 0.247752
0.430042 0.282377 0.259399
0.450748 0.294023 0.271046
0.471453 0.305670 0.282692
0.492158 0.317317 0.294339
0.512864 0.328964 0.305986
0.533569 0.340611 0.317633
0.554274 0.352257 0.329279
0.574980 0.363904 0.340926
0.595685 0.375551 0.352573
0.596938 0.376256 0.353278
0.596938 0.376256 0.353278
0.596938 0.376256 0.353278
0.596938 0.376256 0.353278
0.596938 0.376256 0.353278
0.596938 0.376256 0.353278
0.082334 0.115261 0.082334
0.094882 0.115261 0.082334
0.104613 0.115261 0.082334
0.114181 0.115261 0.082334
0.134663 0.126175 0.093248
0.156534 0.138477 0.105550
0.178404 0.150779 0.117853
0.200275 0.163081 0.130155
0.222146 0.175384 0.142457
0.244016 0.187686 0.154759
0.265887 0.199988 0.167061
0.287758 0.212290 0.179364
0.309628 0.224593 0.191666
0.331499 0.236895 0.203968
0.347221 0.245738 0.212812
0.367926 0.257385 0.224458
0.388631 0.269032 0.236105
0.409337 0.280679 0.247752
0.430042 0.292325 0.259399
0.450748 0.303972 0.271046
0.471453 0.315619 0.282692
0.492158 0.327266 0.294339
0.512864 0.338913 0.305986
0.533569 0.350559 0.317633
0.554274 0.362206 0.329279
0.574980 0.373853 0.340926
0.595685 0.385500 0.352573
0.596938 0.386204 0.353278
0.596938 0.386204 0.353278
0.596938 0.386204 0.353278
0.596938 0.386204 0.353278
0.596938 0.386204 0.353278
0.596938 0.386204 0.353278
0.095125 0.138001 0.095125
0.107673 0.138001 0.095125
0.117404 0.138001 0.095125
0.126972 0.138001 0.095125
0.136541 0.138001 0.095125
0.156534 0.148426 0.105550
0.178404 0.160728 0.117853
0.200275 0.173030 0.130155
0.222146 0.185332 0.142457
0.244016 0.197635 0.154759
0.265887 0.209937 0.167061
0.287758 0.222239 0.179364
0.309628 0.234541 0.191666
0.331499 0.246843 0.203968
0.347221 0.255687 0.212812
0.367926 0.267334 0.224458
0.388631 0.278981 0.236105
0.409337 0.290627 0.247752
0.430042 0.302274 0.259399
0.450748 0.313921 0.271046
0.471453 0.325568 0.282692
0.492158 0.337214 0.294339
0.512864 0.348861 0.305986
0.533569 0.360508 0.317633
0.554274 0.372155 0.329279
0.574980 0.383802 0.340926
0.595685 0.395448 0.352573
0.596938 0.396153 0.353278
0.596938 0.396153 0.353278
0.596938 0.396153 0.353278
0.596938 0.396153 0.353278
0.596938 0.396153 0.353278
0.596938 0.396153 0.353278
0.107917 0.160741 0.107917
0.120464 0.160741 0.107917
0.130195 0.160741 0.107917
0.139763 0.160741 0.107917
0.149332 0.160741 0.107917
0.158900 0.160741 0.107917
0.178404 0.170677 0.117853
0.200275 0.182979 0.130155
0.222146 0.195281 0.142457
0.244016 0.207583 0.154759
0.265887 0.219885 0.167061
0.287758 0.232188 0.179364
0.309628 0.244490 0.191666
0.331499 0.256792 0.203968
0.347221 0.265636 0.212812
0.367926 0.277282 0.224458
0.388631 0.288929 0.236105
0.409337 0.300576 0.247752
0.430042 0.312223 0.259399
0.450748 0.323870 0.271046
0.471453 0.335516 0.282692
0.492158 0.347163 0.294339
0.512864 0.358810 0.305986
0.533569 0.370457 0.317633
0.554274 0.382103 0.329279
0.574980 0.393750 0.340926
0.595685 0.405397 0.352573
0.596938 0.406102 0.353278
0.596938 0.406102 0.353278
0.596938 0.406102 0.353278
0.596938 0.406102 0.353278
0.596938 0.406102 0.353278
0.596938 0.406102 0.353278
0.120708 0.183481 0.120708
0.133255 0.183481 0.120708
0.142986 0.183481 0.120708
0.152555 0.183481 0.120708
0.162123 0.183481 0.120708
0.171691 0.183481 0.120708
0.181260 0.183481 0.120708
0.200275 0.192928 0.130155
0.222146 0.205230 0.142457
0.244016 0.217532 0.154759
0.265887 0.229834 0.167061
0.287758 0.242136 0.179364
0.309628 0.254439 0.191666
0.331499 0.266741 0.203968
0.347221 0.275584 0.212812
0.367926 0.287231 0.224458
0.388631 0.298878 0.236105
0.409337 0.310525 0.247752
0.430042 0.322172 0.259399
0.450748 0.333818 0.271046
0.471453 0.345465 0.282692
0.492158 0.357112 0.294339
0.512864 0.368759 0.305986
0.533569 0.380405 0.317633
0.554274 0.392052 0.329279
0.574980 0.403699 0.340926
0.595685 0.415346 0.352573
0.596938 0.416050 0.353278
0.596938 0.416050 0.353278
0.596938 0.416050 0.353278
0.596938 0.416050 0.353278
0.596938 0.416050 0.353278
0.596938 0.416050 0.353278
0.133499 0.206221 0.133499
0.146047 0.206221 0.133499
0.155777 0.206221 0.133499
0.165346 0.206221 0.133499
0.174914 0.206221 0.133499
0.184483 0.206221 0.133499
0.194051 0.206221 0.133499
0.203619 0.206221 0.133499
0.222146 0.215178 0.142457
0.244016 0.227481 0.154759
0.265887 0.239783 0.167061
0.287758 0.252085 0.179364
0.309628 0.264387 0.191666
0.331499 0.276690 0.203968
0.347221 0.285533 0.212812
0.367926 0.297180 0.224458
0.388631 0.308827 0.236105
0.409337 0.320473 0.247752
0.430042 0.332120 0.259399
0.450748 0.343767 0.271046
0.471453 0.355414 0.282692
0.492158 0.367061 0.294339
0.512864 0.378707 0.305986
0.533569 0.390354 0.317633
0.554274 0.402001 0.329279
0.574980 0.413648 0.340926
0.595685 0.425294 0.352573
0.596938 0.425999 0.353278
0.596938 0.425999 0.353278
0.596938 0.425999 0.353278
0.596938 0.425999 0.353278
0.596938 0.425999 0.353278
0.596938 0.425999 0.353278
0.146290 0.228960 0.146290
0.158838 0.228960 0.146290
0.168569 0.228960 0.146290
0.178137 0.228960 0.146290
0.187705 0.228960 0.146290
0.197274 0.228960 0.146290
0.206842 0.228960 0.146290
0.216411 0.228960 0.146290
0.225979 0.228960 0.146290
0.244016 0.237429 0.154759
0.265887 0.249732 0.167061
0.287758 0.262034 0.179364
0.309628 0.274336 0.191666
0.331499 0.286638 0.203968
0.347221 0.295482 0.212812
0.367926 0.307129 0.224458
0.388631 0.318775 0.236105
0.409337 0.330422 0.247752
0.430042 0.342069 0.259399
0.450748 0.353716 0.271046
0.471453 0.365362 0.282692
0.492158 0.377009 0.294339
0.512864 0.388656 0.305986
0.533569 0.400303 0.317633
0.554274 0.411950 0.329279
0.574980 0.423596 0.340926
0.595685 0.435243 0.352573
0.596938 0.435948 0.353278
0.596938 0.435948 0.353278
0.596938 0.435948 0.353278
0.596938 0.435948 0.353278
0.596938 0.435948 0.353278
0.596938 0.435948 0.353278
0.159081 0.251700 0.159081
0.171629 0.251700 0.159081
0.181360 0.251700 0.159081
0.190928 0.251700 0.159081
0.200497 0.251700 0.159081
0.210065 0.251700 0.159081
0.219633 0.251700 0.159081
0.229202 0.251700 0.159081
0.238770 0.251700 0.159081
0.248339 0.251700 0.159081
0.265887 0.259680 0.167061
0.287758 0.271983 0.179364
0.309628 0.284285 0.191666
0.331499 0.296587 0.203968
0.347221 0.305431 0.212812
0.367926 0.317077 0.224458
0.388631 0.328724 0.236105
0.409337 0.340371 0.247752
0.430042 0.352018 0.259399
0.450748 0.363664 0.271046
0.471453 0.375311 0.282692
0.492158 0.386958 0.294339
0.512864 0.398605 0.305986
0.533569 0.410252 0.317633
0.554274 0.421898 0.329279
0.574980 0.433545 0.340926
0.595685 0.445192 0.352573
0.596938 0.445896 0.353278
0.596938 0.445896 0.353278
0.596938 0.445896 0.353278
0.596938 0.445896 0.353278
0.596938 0.445896 0.353278
0.596938 0.445896 0.353278
0.171873 0.274440 0.171873
0.184420 0.274440 0.171873
0.194151 0.274440 0.171873
0.203719 0.274440 0.171873
0.213288 0.274440 0.171873
0.222856 0.274440 0.171873
0.232425 0.274440 0.171873
0.241993 0.274440 0.171873
0.251561 0.274440 0.171873
0.261130 0.274440 0.171873
0.270698 0.274440 0.171873
0.287758 0.281931 0.179364
0.309628 0.294233 0.191666
0.331499 0.306536 0.203968
0.347221 0.315379 0.212812
0.367926 0.327026 0.224458
0.388631 0.338673 0.236105
0.409337 0.350320 0.247752
0.430042 0.361966 0.259399
0.450748 0.373613 0.271046
0.471453 0.385260 0.282692
0.492158 0.396907 0.294339
0.512864 0.408553 0.305986
0.533569 0.420200 0.317633
0.554274 0.431847 0.329279
0.574980 0.443494 0.340926
0.595685 0.455141 0.352573
0.596938 0.455845 0.353278
0.596938 0.455845 0.353278
0.596938 0.455845 0.353278
0.596938 0.455845 0.353278
0.596938 0.455845 0.353278
0.596938 0.455845 0.353278
0.184664 0.297180 0.184664
0.197211 0.297180 0.184664
0.206942 0.297180 0.184664
0.216511 0.297180 0.184664
0.226079 0.297180 0.184664
0.235647 0.297180 0.184664
0.245216 0.297180 0.184664
0.254784 0.297180 0.184664
0.264353 0.297180 0.184664
0.273921 0.297180 0.184664
0.283489 0.297180 0.184664
0.293058 0.297180 0.184664
0.309628 0.304182 0.191666
0.331499 0.316484 0.203968
0.347221 0.325328 0.212812
0.367926 0.336975 0.224458
0.388631 0.348622 0.236105
0.409337 0.360268 0.247752
0.430042 0.371915 0.259399
0.450748 0.383562 0.271046
0.471453 0.395209 0.282692
0.492158 0.406855 0.294339
0.512864 0.418502 0.305986
0.533569 0.430149 0.317633
0.554274 0.441796 0.329279
0.574980 0.453442 0.340926
0.595685 0.465089 0.352573
0.596938 0.465794 0.353278
0.596938 0.465794 0.353278
0.596938 0.465794 0.353278
0.596938 0.465794 0.353278
0.596938 0.465794 0.353278
0.596938 0.465794 0.353278
0.197455 0.319920 0.197455
0.210003 0.319920 0.197455
0.219733 0.319920 0.197455
0.229302 0.319920 0.197455
0.238870 0.319920 0.197455
0.248439 0.319920 0.197455
0.258007 0.319920 0.197455
0.267575 0.319920 0.197455
0.277144 0.319920 0.197455
0.286712 0.319920 0.197455
0.296281 0.319920 0.197455
0.305849 0.319920 0.197455
0.315417 0.319920 0.197455
0.331499 0.326433 0.203968
0.347221 0.335277 0.212812
0.367926 0.346923 0.224458
0.388631 0.358570 0.236105
0.409337 0.370217 0.247752
0.430042 0.381864 0.259399
0.450748 0.393511 0.271046
0.471453 0.405157 0.282692
0.492158 0.416804 0.294339
0.512864 0.428451 0.305986
0.533569 0.440098 0.317633
0.554274 0.451744 0.329279
0.574980 0.463391 0.340926
0.595685 0.475038 0.352573
0.596938 0.475743 0.353278
0.596938 0.475743 0.353278
0.596938 0.475743 0.353278
0.596938 0.475743 0.353278
0.596938 0.475743 0.353278
0.596938 0.475743 0.353278
0.207109 0.337082 0.207109
0.219656 0.337082 0.207109
0.229387 0.337082 0.207109
0.238955 0.337082 0.207109
0.248524 0.337082 0.207109
0.258092 0.337082 0.207109
0.267660 0.337082 0.207109
0.277229 0.337082 0.207109
0.286797 0.337082 0.207109
0.296366 0.337082 0.207109
0.305934 0.337082 0.207109
0.315502 0.337082 0.207109
0.325071 0.337082 0.207109
0.334639 0.337082 0.207109
0.347221 0.342785 0.212812
0.367926 0.354432 0.224458
0.388631 0.366079 0.236105
0.409337 0.377725 0.247752
0.430042 0.389372 0.259399
0.450748 0.401019 0.271046
0.471453 0.412666 0.282692
0.492158 0.424312 0.294339
0.512864 0.435959 0.305986
0.533569 0.447606 0.317633
0.554274 0.459253 0.329279
0.574980 0.470899 0.340926
0.595685 0.482546 0.352573
0.596938 0.483251 0.353278
0.596938 0.483251 0.353278
0.596938 0.483251 0.353278
0.596938 0.483251 0.353278
0.596938 0.483251 0.353278
0.596938 0.483251 0.353278
0.219218 0.358610 0.219218
0.231766 0.358610 0.219218
0.241497 0.358610 0.219218
0.251065 0.358610 0.219218
0.260633 0.358610 0.219218
0.270202 0.358610 0.219218
0.279770 0.358610 0.219218
0.289339 0.358610 0.219218
0.298907 0.358610 0.219218
0.308475 0.358610 0.219218
0.318044 0.358610 0.219218
0.327612 0.358610 0.219218
0.337181 0.358610 0.219218
0.346749 0.358610 0.219218
0.353627 0.358610 0.219218
0.367926 0.363850 0.224458
0.388631 0.375497 0.236105
0.409337 0.387144 0.247752
0.430042 0.398791 0.259399
0.450748 0.410437 0.271046
0.471453 0.422084 0.282692
0.492158 0.433731 0.294339
0.512864 0.445378 0.305986
0.533569 0.457025 0.317633
0.554274 0.468671 0.329279
0.574980 0.480318 0.340926
0.595685 0.491965 0.352573
0.596938 0.492670 0.353278
0.596938 0.492670 0.353278
0.596938 0.492670 0.353278
0.596938 0.492670 0.353278
0.596938 0.492670 0.353278
0.596938 0.492670 0.353278
0.231328 0.380139 0.231328
0.243876 0.380139 0.231328
0.253606 0.380139 0.231328
0.263175 0.380139 0.231328
0.272743 0.380139 0.231328
0.282311 0.380139 0.231328
0.291880 0.380139 0.231328
0.301448 0.380139 0.231328
0.311017 0.380139 0.231328
0.320585 0.380139 0.231328
0.330153 0.380139 0.231328
0.339722 0.380139 0.231328
0.349290 0.380139 0.231328
0.358859 0.380139 0.231328
0.365737 0.380139 0.231328
0.374796 0.380139 0.231328
0.388631 0.384916 0.236105
0.409337 0.396563 0.247752
0.430042 0.408209 0.259399
0.450748 0.419856 0.271046
0.471453 0.431503 0.282692
0.492158 0.443150 0.294339
0.512864 0.454796 0.305986
0.533569 0.466443 0.317633
0.554274 0.478090 0.329279
0.574980 0.489737 0.340926
0.595685 0.501384 0.352573
0.596938 0.502088 0.353278
0.596938 0.502088 0.353278
0.596938 0.502088 0.353278
0.596938 0.502088 0.353278
0.596938 0.502088 0.353278
0.596938 0.502088 0.353278
0.243438 0.401667 0.243438
0.255985 0.401667 0.243438
0.265716 0.401667 0.243438
0.275284 0.401667 0.243438
0.284853 0.401667 0.243438
0.294421 0.401667 0.243438
0.303990 0.401667 0.243438
0.313558 0.401667 0.243438
0.323126 0.401667 0.243438
0.332695 0.401667 0.243438
0.342263 0.401667 0.243438
0.351832 0.401667 0.243438
0.361400 0.401667 0.243438
0.370968 0.401667 0.243438
0.377847 0.401667 0.243438
0.386905 0.401667 0.243438
0.395964 0.401667 0.243438
0.409337 0.405981 0.247752
0.430042 0.417628 0.259399
0.450748 0.429275 0.271046
0.471453 0.440922 0.282692
0.492158 0.452568 0.294339
0.512864 0.464215 0.305986
0.533569 0.475862 0.317633
0.554274 0.487509 0.329279
0.574980 0.499155 0.340926
0.595685 0.510802 0.352573
0.596938 0.511507 0.353278
0.596938 0.511507 0.353278
0.596938 0.511507 0.353278
0.596938 0.511507 0.353278
0.596938 0.511507 0.353278
0.596938 0.511507 0.353278
0.255547 0.423195 0.255547
0.268095 0.423195 0.255547
0.277826 0.423195 0.255547
0.287394 0.423195 0.255547
0.296962 0.423195 0.255547
0.306531 0.423195 0.255547
0.316099 0.423195 0.255547
0.325668 0.423195 0.255547
0.335236 0.423195 0.255547
0.344804 0.423195 0.255547
0.354373 0.423195 0.255547
0.363941 0.423195 0.255547
0.373510 0.423195 0.255547
0.383078 0.423195 0.255547
0.389956 0.423195 0.255547
0.399015 0.423195 0.255547
0.408074 0.423195 0.255547
0.417132 0.423195 0.255547
0.430042 0.427047 0.259399
0.450748 0.438693 0.271046
0.471453 0.450340 0.282692
0.492158 0.461987 0.294339
0.512864 0.473634 0.305986
0.533569 0.485281 0.317633
0.554274 0.496927 0.329279
0.574980 0.508574 0.340926
0.595685 0.520221 0.352573
0.596938 0.520925 0.353278
0.596938 0.520925 0.353278
0.596938 0.520925 0.353278
0.596938 0.520925 0.353278
0.596938 0.520925 0.353278
0.596938 0.520925 0.353278
0.267657 0.444724 0.267657
0.280205 0.444724 0.267657
0.289935 0.444724 0.267657
0.299504 0.444724 0.267657
0.309072 0.444724 0.267657
0.318641 0.444724 0.267657
0.328209 0.444724 0.267657
0.337777 0.444724 0.267657
0.347346 0.444724 0.267657
0.356914 0.444724 0.267657
0.366483 0.444724 0.267657
0.376051 0.444724 0.267657
0.385619 0.444724 0.267657
0.395188 0.444724 0.267657
0.402066 0.444724 0.267657
0.411125 0.444724 0.267657
0.420183 0.444724 0.267657
0.429242 0.444724 0.267657
0.438300 0.444724 0.267657
0.450748 0.448112 0.271046
0.471453 0.459759 0.282692
0.492158 0.471406 0.294339
0.512864 0.483052 0.305986
0.533569 0.494699 0.317633
0.554274 0.506346 0.329279
0.574980 0.517993 0.340926
0.595685 0.529640 0.352573
0.596938 0.530344 0.353278
0.596938 0.530344 0.353278
0.596938 0.530344 0.353278
0.596938 0.530344 0.353278
0.596938 0.530344 0.353278
0.596938 0.530344 0.353278
0.279767 0.466252 0.279767
0.292314 0.466252 0.279767
0.302045 0.466252 0.279767
0.311613 0.466252 0.279767
0.321182 0.466252 0.279767
0.330750 0.466252 0.279767
0.340319 0.466252 0.279767
0.349887 0.466252 0.279767
0.359455 0.466252 0.279767
0.369024 0.466252 0.279767
0.378592 0.466252 0.279767
0.388161 0.466252 0.279767
0.397729 0.466252 0.279767
0.407297 0.466252 0.279767
0.414176 0.466252 0.279767
0.423234 0.466252 0.279767
0.432293 0.466252 0.279767
0.441352 0.466252 0.279767
0.450410 0.466252 0.279767
0.459469 0.466252 0.279767
0.471453 0.469178 0.282692
0.492158 0.480824 0.294339
0.512864 0.492471 0.305986
0.533569 0.504118 0.317633
0.554274 0.515765 0.329279
0.574980 0.527411 0.340926
0.595685 0.539058 0.352573
0.596938 0.539763 0.353278
0.596938 0.539763 0.353278
0.596938 0.539763 0.353278
0.596938 0.539763 0.353278
0.596938 0.539763 0.353278
0.596938 0.539763 0.353278
0.291876 0.487780 0.291876
0.304424 0.487780 0.291876
0.314155 0.487780 0.291876
0.323723 0.487780 0.291876
0.333292 0.487780 0.291876
0.342860 0.487780 0.291876
0.352428 0.487780 0.291876
0.361997 0.487780 0.291876
0.371565 0.487780 0.291876
0.381134 0.487780 0.291876
0.390702 0.487780 0.291876
0.400270 0.487780 0.291876
0.409839 0.487780 0.291876
0.419407 0.487780 0.291876
0.426285 0.487780 0.291876
0.435344 0.487780 0.291876
0.444403 0.487780 0.291876
0.453461 0.487780 0.291876
0.462520 0.487780 0.291876
0.471578 0.487780 0.291876
0.480637 0.487780 0.291876
0.492158 0.490243 0.294339
0.512864 0.501890 0.305986
0.533569 0.513537 0.317633
0.554274 0.525183 0.329279
0.574980 0.536830 0.340926
0.595685 0.548477 0.352573
0.596938 0.549181 0.353278
0.596938 0.549181 0.353278
0.596938 0.549181 0.353278
0.596938 0.549181 0.353278
0.596938 0.549181 0.353278
0.596938 0.549181 0.353278
0.303986 0.509309 0.303986
0.316534 0.509309 0.303986
0.326264 0.509309 0.303986
0.335833 0.509309 0.303986
0.345401 0.509309 0.303986
0.354970 0.509309 0.303986
0.364538 0.509309 0.303986
0.374106 0.509309 0.303986
0.383675 0.509309 0.303986
0.393243 0.509309 0.303986
0.402812 0.509309 0.303986
0.412380 0.509309 0.303986
0.421948 0.509309 0.303986
0.431517 0.509309 0.303986
0.438395 0.509309 0.303986
0.447454 0.509309 0.303986
0.456512 0.509309 0.303986
0.465571 0.509309 0.303986
0.474630 0.509309 0.303986
0.483688 0.509309 0.303986
0.492747 0.509309 0.303986
0.501805 0.509309 0.303986
0.512864 0.511308 0.305986
0.533569 0.522955 0.317633
0.554274 0.534602 0.329279
0.574980 0.546249 0.340926
0.595685 0.557895 0.352573
0.596938 0.558600 0.353278
0.596938 0.558600 0.353278
0.596938 0.558600 0.353278
0.596938 0.558600 0.353278
0.596938 0.558600 0.353278
0.596938 0.558600 0.353278
0.316096 0.530837 0.316096
0.328643 0.530837 0.316096
0.338374 0.530837 0.316096
0.347943 0.530837 0.316096
0.357511 0.530837 0.316096
0.367079 0.530837 0.316096
0.376648 0.530837 0.316096
0.386216 0.530837 0.316096
0.395785 0.530837 0.316096
0.405353 0.530837 0.316096
0.414921 0.530837 0.316096
0.424490 0.530837 0.316096
0.434058 0.530837 0.316096
0.443627 0.530837 0.316096
0.450505 0.530837 0.316096
0.459563 0.530837 0.316096
0.468622 0.530837 0.316096
0.477681 0.530837 0.316096
0.486739 0.530837 0.316096
0.495798 0.530837 0.316096
0.504856 0.530837 0.316096
0.513915 0.530837 0.316096
0.522974 0.530837 0.316096
0.533569 0.532374 0.317633
0.554274 0.544021 0.329279
0.574980 0.555667 0.340926
0.595685 0.567314 0.352573
0.596938 0.568019 0.353278
0.596938 0.568019 0.353278
0.596938 0.568019 0.353278
0.596938 0.568019 0.353278
0.596938 0.568019 0.353278
0.596938 0.568019 0.353278
0.328205 0.552365 0.328205
0.340753 0.552365 0.328205
0.350484 0.552365 0.328205
0.360052 0.552365 0.328205
0.369621 0.552365 0.328205
0.379189 0.552365 0.328205
0.388757 0.552365 0.328205
0.398326 0.552365 0.328205
0.407894 0.552365 0.328205
0.417463 0.552365 0.328205
0.427031 0.552365 0.328205
0.436599 0.552365 0.328205
0.446168 0.552365 0.328205
0.455736 0.552365 0.328205
0.462615 0.552365 0.328205
0.471673 0.552365 0.328205
0.480732 0.552365 0.328205
0.489790 0.552365 0.328205
0.498849 0.552365 0.328205
0.507908 0.552365 0.328205
0.516966 0.552365 0.328205
0.526025 0.552365 0.328205
0.535083 0.552365 0.328205
0.544142 0.552365 0.328205
0.554274 0.553439 0.329279
0.574980 0.565086 0.340926
0.595685 0.576733 0.352573
0.596938 0.577437 0.353278
0.596938 0.577437 0.353278
0.596938 0.577437 0.353278
0.596938 0.577437 0.353278
0.596938 0.577437 0.353278
0.596938 0.577437 0.353278
0.340315 0.573894 0.340315
0.352863 0.573894 0.340315
0.362594 0.573894 0.340315
0.372162 0.573894 0.340315
0.381730 0.573894 0.340315
0.391299 0.573894 0.340315
0.400867 0.573894 0.340315
0.410436 0.573894 0.340315
0.420004 0.573894 0.340315
0.429572 0.573894 0.340315
0.439141 0.573894 0.340315
0.448709 0.573894 0.340315
0.458278 0.573894 0.340315
0.467846 0.573894 0.340315
0.474724 0.573894 0.340315
0.483783 0.573894 0.340315
0.492841 0.573894 0.340315
0.501900 0.573894 0.340315
0.510959 0.573894 0.340315
0.520017 0.573894 0.340315
0.529076 0.573894 0.340315
0.538134 0.573894 0.340315
0.547193 0.573894 0.340315
0.556252 0.573894 0.340315
0.565310 0.573894 0.340315
0.574980 0.574505 0.340926
0.595685 0.586151 0.352573
0.596938 0.586856 0.353278
0.596938 0.586856 0.353278
0.596938 0.586856 0.353278
0.596938 0.586856 0.353278
0.596938 0.586856 0.353278
0.596938 0.586856 0.353278
0.352425 0.595422 0.352425
0.364973 0.595422 0.352425
0.374703 0.595422 0.352425
0.384272 0.595422 0.352425
0.393840 0.595422 0.352425
0.403408 0.595422 0.352425
0.412977 0.595422 0.352425
0.422545 0.595422 0.352425
0.432114 0.595422 0.352425
0.441682 0.595422 0.352425
0.451250 0.595422 0.352425
0.460819 0.595422 0.352425
0.470387 0.595422 0.352425
0.479956 0.595422 0.352425
0.486834 0.595422 0.352425
0.495893 0.595422 0.352425
0.504951 0.595422 0.352425
0.514010 0.595422 0.352425
0.523068 0.595422 0.352425
0.532127 0.595422 0.352425
0.541186 0.595422 0.352425
0.550244 0.595422 0.352425
0.559303 0.595422 0.352425
0.568361 0.595422 0.352425
0.577420 0.595422 0.352425
0.586479 0.595422 0.352425
0.595685 0.595570 0.352573
0.596938 0.596275 0.353278
0.596938 0.596275 0.353278
0.596938 0.596275 0.353278
0.596938 0.596275 0.353278
0.596938 0.596275 0.353278
0.596938 0.596275 0.353278
0.364000 0.616000 0.364000
0.376548 0.616000 0.364000
0.386278 0.616000 0.364000
0.395847 0.616000 0.364000
0.405415 0.616000 0.364000
0.414984 0.616000 0.364000
0.424552 0.616000 0.364000
0.434120 0.616000 0.364000
0.443689 0.616000 0.364000
0.453257 0.616000 0.364000
0.462826 0.616000 0.364000
0.472394 0.616000 0.364000
0.481962 0.616000 0.364000
0.491531 0.616000 0.364000
0.498409 0.616000 0.364000
0.507468 0.616000 0.364000
0.516526 0.616000 0.364000
0.525585 0.616000 0.364000
0.534643 0.616000 0.364000
0.543702 0.616000 0.364000
0.552761 0.616000 0.364000
0.561819 0.616000 0.364000
0.570878 0.616000 0.364000
0.579936 0.616000 0.364000
