docs/luts/fuji_recipes/Velvia_JP_Bright_Landscape.cube
TITLE "Fujifilm Recipe: JP Bright Landscape (Velvia)"
# FilmSim=Velvia HL=1 SH=1 Col=2 WB=5000K WBR=0 WBB=0
LUT_3D_SIZE 5
DOMAIN_MIN 0.0 0.0 0.0
DOMAIN_MAX 1.0 1.0 1.0
0.000000 0.000000 0.000000
0.232093 0.000000 0.000000
0.464574 0.000000 0.000000
0.755741 0.000000 0.000000
1.000000 0.000000 0.000000
0.000000 0.234240 0.000000
0.232093 0.234240 0.000000
0.464574 0.234240 0.000000
0.755741 0.234240 0.000000
1.000000 0.234240 0.000000
0.000000 0.468480 0.000000
0.232093 0.468480 0.000000
0.464574 0.468480 0.000000
0.755741 0.468480 0.000000
1.000000 0.468480 0.000000
0.000000 0.762080 0.000000
0.232093 0.762080 0.000000
0.464574 0.762080 0.000000
0.755741 0.762080 0.000000
1.000000 0.762080 0.000000
0.000000 1.000000 0.000000
0.232093 1.000000 0.000000
0.464574 1.000000 0.000000
0.755741 1.000000 0.000000
1.000000 1.000000 0.000000
0.000000 0.000000 0.237528
0.232093 0.000000 0.237528
0.464574 0.000000 0.237528
0.755741 0.000000 0.237528
1.000000 0.000000 0.237528
0.000000 0.234240 0.237528
0.230117 0.233825 0.239503
0.573464 0.146656 0.152334
0.944471 0.050930 0.056609
1.000000 0.230411 0.233734
0.000000 0.468480 0.237528
0.142237 0.580035 0.151623
0.570678 0.577987 0.149658
0.943232 0.454321 0.055420
1.000000 0.467112 0.233699
0.000000 0.762080 0.237528
0.045772 0.953912 0.055158
0.445347 0.951864 0.053193
0.940915 0.951864 0.053193
1.000000 0.763524 0.233699
0.000000 1.000000 0.237528
0.232093 1.000000 0.237528
0.464574 1.000000 0.237528
0.755741 1.000000 0.237528
1.000000 1.000000 0.237528
0.000000 0.000000 0.506693
0.232093 0.000000 0.506693
0.464574 0.000000 0.506693
0.755741 0.000000 0.506693
1.000000 0.000000 0.506693
0.000000 0.234240 0.506693
0.135501 0.139209 0.606144
0.564910 0.138432 0.605335
0.944471 0.050930 0.514316
1.000000 0.230411 0.505440
0.000000 0.468480 0.506693
0.135501 0.573028 0.606144
0.452982 0.459729 0.518528
0.856192 0.370814 0.401383
1.000000 0.464651 0.502847
0.000000 0.762080 0.506693
0.045772 0.953912 0.512808
0.363253 0.866296 0.400568
0.847205 0.858154 0.392757
1.000000 0.762093 0.502545
0.000000 1.000000 0.506693
0.232093 1.000000 0.506693
0.464574 1.000000 0.506693
0.755741 1.000000 0.506693
1.000000 1.000000 0.506693
0.000000 0.000000 0.771788
0.232093 0.000000 0.771788
0.464574 0.000000 0.771788
0.755741 0.000000 0.771788
1.000000 0.000000 0.771788
0.000000 0.234240 0.771788
0.042361 0.046068 0.967132
0.443125 0.045292 0.966323
0.938606 0.045292 0.966323
1.000000 0.230411 0.773347
0.000000 0.468480 0.771788
0.042361 0.450648 0.967132
0.359842 0.366589 0.879516
0.850327 0.365176 0.878044
1.000000 0.464651 0.772104
0.000000 0.762080 0.771788
0.042361 0.950364 0.967132
0.359842 0.862748 0.879516
0.749906 0.760855 0.777623
1.000000 0.757932 0.767958
0.000000 1.000000 0.771788
0.232093 1.000000 0.771788
0.464574 1.000000 0.771788
0.755741 1.000000 0.771788
1.000000 1.000000 0.771788
0.000000 0.000000 1.000000
0.232093 0.000000 1.000000
0.464574 0.000000 1.000000
0.755741 0.000000 1.000000
1.000000 0.000000 1.000000
0.000000 0.234240 1.000000
0.227376 0.229550 1.000000
0.462870 0.229522 1.000000
0.757461 0.229522 1.000000
1.000000 0.230411 1.000000
0.000000 0.468480 1.000000
0.227376 0.466846 1.000000
0.459856 0.463837 1.000000
0.755829 0.463762 1.000000
1.000000 0.464651 1.000000
0.000000 0.762080 1.000000
0.227376 0.763892 1.000000
0.459856 0.762330 1.000000
0.750630 0.757219 1.000000
1.000000 0.757932 1.000000
0.000000 1.000000 1.000000
0.232093 1.000000 1.000000
0.464574 1.000000 1.000000
0.755741 1.000000 1.000000
1.000000 1.000000 1.000000
