docs/luts/fuji_recipes/Velvia_RR_Velvia.cube
TITLE "Fujifilm Recipe: RR Velvia (Velvia)"
# FilmSim=Velvia HL=-1 SH=0 Col=2 WB=Auto WBR=1 WBB=-1
LUT_3D_SIZE 9
DOMAIN_MIN 0.0 0.0 0.0
DOMAIN_MAX 1.0 1.0 1.0
0.000000 0.000000 0.000000
0.166186 0.000000 0.000000
0.319813 0.000000 0.000000
0.473441 0.000000 0.000000
0.635011 0.000000 0.000000
0.784156 0.000000 0.000000
0.933301 0.000000 0.000000
0.970000 0.000000 0.000000
0.970000 0.000000 0.000000
0.000000 0.159507 0.000000
0.166186 0.159507 0.000000
0.319813 0.159507 0.000000
0.473441 0.159507 0.000000
0.635011 0.159507 0.000000
0.784156 0.159507 0.000000
0.933301 0.159507 0.000000
0.970000 0.159507 0.000000
0.970000 0.159507 0.000000
0.000000 0.307553 0.000000
0.166186 0.307553 0.000000
0.319813 0.307553 0.000000
0.473441 0.307553 0.000000
0.635011 0.307553 0.000000
0.784156 0.307553 0.000000
0.933301 0.307553 0.000000
0.970000 0.307553 0.000000
0.970000 0.307553 0.000000
0.000000 0.455599 0.000000
0.166186 0.455599 0.000000
0.319813 0.455599 0.000000
0.473441 0.455599 0.000000
0.635011 0.455599 0.000000
0.784156 0.455599 0.000000
0.933301 0.455599 0.000000
0.970000 0.455599 0.000000
0.970000 0.455599 0.000000
0.000000 0.612271 0.000000
0.166186 0.612271 0.000000
0.319813 0.612271 0.000000
0.473441 0.612271 0.000000
0.635011 0.612271 0.000000
0.784156 0.612271 0.000000
0.933301 0.612271 0.000000
0.970000 0.612271 0.000000
0.970000 0.612271 0.000000
0.000000 0.755997 0.000000
0.166186 0.755997 0.000000
0.319813 0.755997 0.000000
0.473441 0.755997 0.000000
0.635011 0.755997 0.000000
0.784156 0.755997 0.000000
0.933301 0.755997 0.000000
0.970000 0.755997 0.000000
0.970000 0.755997 0.000000
0.000000 0.899723 0.000000
0.166186 0.899723 0.000000
0.319813 0.899723 0.000000
0.473441 0.899723 0.000000
0.635011 0.899723 0.000000
0.784156 0.899723 0.000000
0.933301 0.899723 0.000000
0.970000 0.899723 0.000000
0.970000 0.899723 0.000000
0.000000 0.970000 0.000000
0.166186 0.970000 0.000000
0.319813 0.970000 0.000000
0.473441 0.970000 0.000000
0.635011 0.970000 0.000000
0.784156 0.970000 0.000000
0.933301 0.970000 0.000000
0.970000 0.970000 0.000000
0.970000 0.970000 0.000000
0.000000 0.970000 0.000000
0.166186 0.970000 0.000000
0.319813 0.970000 0.000000
0.473441 0.970000 0.000000
0.635011 0.970000 0.000000
0.784156 0.970000 0.000000
0.933301 0.970000 0.000000
0.970000 0.970000 0.000000
0.970000 0.970000 0.000000
0.000000 0.000000 0.153765
0.166186 0.000000 0.153765
0.319813 0.000000 0.153765
0.473441 0.000000 0.153765
0.635011 0.000000 0.153765
0.784156 0.000000 0.153765
0.933301 0.000000 0.153765
0.970000 0.000000 0.153765
0.970000 0.000000 0.153765
0.000000 0.159507 0.153765
0.170702 0.159166 0.149249
0.380189 0.103307 0.093390
0.588500 0.047627 0.037710
0.784809 0.009388 0.000000
0.932668 0.008498 0.000000
1.000000 0.091462 0.084724
1.000000 0.129929 0.123765
1.000000 0.129929 0.123765
0.000000 0.307553 0.153765
0.119300 0.363470 0.097848
0.380189 0.359012 0.093390
0.588500 0.303332 0.037710
0.784809 0.251470 0.000000
0.932668 0.227631 0.000000
1.000000 0.265220 0.084724
1.000000 0.288857 0.123765
1.000000 0.288857 0.123765
0.000000 0.455599 0.153765
0.065471 0.565346 0.044019
0.330817 0.565346 0.044019
0.588500 0.559038 0.037710
0.784809 0.493551 0.000000
0.932668 0.446764 0.000000
1.000000 0.438978 0.084724
1.000000 0.447786 0.123765
1.000000 0.447786 0.123765
0.000000 0.612271 0.153765
0.020714 0.762264 0.000000
0.276928 0.762264 0.000000
0.533143 0.762264 0.000000
0.784809 0.747624 0.000000
0.932668 0.678249 0.000000
1.000000 0.623215 0.084724
1.000000 0.615975 0.123765
1.000000 0.615975 0.123765
0.000000 0.755997 0.153765
0.018674 0.904752 0.000000
0.249655 0.904752 0.000000
0.480636 0.904752 0.000000
0.722849 0.904752 0.000000
0.932668 0.890988 0.000000
1.000000 0.791903 0.084724
1.000000 0.770266 0.123765
1.000000 0.770266 0.123765
0.000000 0.899723 0.153765
0.064829 1.000000 0.049003
0.260583 1.000000 0.049003
0.456337 1.000000 0.049003
0.662701 1.000000 0.049003
0.852743 1.000000 0.049003
1.000000 0.960590 0.084724
1.000000 0.924557 0.123765
1.000000 0.924557 0.123765
0.000000 0.970000 0.153765
0.137099 1.000000 0.123765
0.302019 1.000000 0.123765
0.466940 1.000000 0.123765
0.640387 1.000000 0.123765
0.800495 1.000000 0.123765
0.960603 1.000000 0.123765
1.000000 1.000000 0.123765
1.000000 1.000000 0.123765
0.000000 0.970000 0.153765
0.137099 1.000000 0.123765
0.302019 1.000000 0.123765
0.466940 1.000000 0.123765
0.640387 1.000000 0.123765
0.800495 1.000000 0.123765
0.960603 1.000000 0.123765
1.000000 1.000000 0.123765
1.000000 1.000000 0.123765
0.000000 0.000000 0.296900
0.166186 0.000000 0.296900
0.319813 0.000000 0.296900
0.473441 0.000000 0.296900
0.635011 0.000000 0.296900
0.784156 0.000000 0.296900
0.933301 0.000000 0.296900
0.970000 0.000000 0.296900
0.970000 0.000000 0.296900
0.000000 0.159507 0.296900
0.121086 0.109550 0.346857
0.378101 0.101219 0.338526
0.586468 0.045531 0.282837
0.790596 0.000000 0.229042
0.938456 0.000000 0.206497
1.000000 0.090465 0.251894
1.000000 0.129507 0.277072
1.000000 0.129507 0.277072
0.000000 0.307553 0.296900
0.114784 0.358954 0.340555
0.328145 0.306968 0.288569
0.537632 0.251109 0.232710
0.756216 0.191285 0.172887
0.959822 0.135540 0.117141
1.000000 0.240767 0.227859
1.000000 0.278502 0.266900
1.000000 0.278502 0.266900
0.000000 0.455599 0.296900
0.060955 0.560830 0.286726
0.278773 0.513302 0.239198
0.537632 0.506814 0.232710
0.756216 0.446991 0.172887
0.959822 0.391245 0.117141
1.000000 0.420161 0.227859
1.000000 0.439745 0.266900
1.000000 0.439745 0.266900
0.000000 0.612271 0.296900
0.003334 0.771451 0.229105
0.220962 0.725172 0.181386
0.486308 0.725172 0.181386
0.756216 0.716939 0.172887
0.959822 0.662941 0.117141
1.000000 0.610993 0.227859
1.000000 0.610383 0.266900
1.000000 0.610383 0.266900
0.000000 0.755997 0.296900
0.000000 0.917273 0.203423
0.167241 0.921380 0.127666
0.432588 0.921380 0.127666
0.712414 0.921380 0.127666
0.959822 0.911185 0.117141
1.000000 0.785153 0.227859
1.000000 0.766921 0.266900
1.000000 0.766921 0.266900
0.000000 0.899723 0.296900
0.061423 1.000000 0.228573
0.222779 1.000000 0.192138
0.428224 1.000000 0.192138
0.646003 1.000000 0.192138
0.845453 1.000000 0.192138
1.000000 0.959312 0.227859
1.000000 0.923459 0.266900
1.000000 0.923459 0.266900
0.000000 0.970000 0.296900
0.136186 1.000000 0.276658
0.291856 1.000000 0.266900
0.459178 1.000000 0.266900
0.635150 1.000000 0.266900
0.797590 1.000000 0.266900
0.960030 1.000000 0.266900
1.000000 1.000000 0.266900
1.000000 1.000000 0.266900
0.000000 0.970000 0.296900
0.136186 1.000000 0.276658
0.291856 1.000000 0.266900
0.459178 1.000000 0.266900
0.635150 1.000000 0.266900
0.797590 1.000000 0.266900
0.960030 1.000000 0.266900
1.000000 1.000000 0.266900
1.000000 1.000000 0.266900
0.000000 0.000000 0.440036
0.166186 0.000000 0.440036
0.319813 0.000000 0.440036
0.473441 0.000000 0.440036
0.635011 0.000000 0.440036
0.784156 0.000000 0.440036
0.933301 0.000000 0.440036
0.970000 0.000000 0.440036
0.970000 0.000000 0.440036
0.000000 0.159507 0.440036
0.069042 0.057506 0.542036
0.334388 0.057506 0.542036
0.586468 0.045531 0.530060
0.790596 0.000000 0.467656
0.938456 0.000000 0.421623
1.000000 0.090465 0.420068
1.000000 0.129507 0.430803
1.000000 0.129507 0.430803
0.000000 0.307553 0.440036
0.066614 0.310783 0.539607
0.280559 0.259382 0.488206
0.533758 0.247236 0.476060
0.752445 0.187397 0.416221
0.956050 0.131651 0.360475
1.000000 0.238511 0.399512
1.000000 0.277553 0.422035
1.000000 0.277553 0.422035
0.000000 0.455599 0.440036
0.060955 0.560830 0.533949
0.270442 0.504971 0.478089
0.485588 0.454770 0.427889
0.705541 0.394738 0.367857
0.909146 0.338993 0.312111
1.000000 0.390778 0.370994
1.000000 0.427361 0.410036
1.000000 0.427361 0.410036
0.000000 0.612271 0.440036
0.003334 0.771451 0.476328
0.212597 0.717060 0.420245
0.434055 0.674496 0.376357
0.705541 0.666263 0.367857
0.909146 0.612266 0.312111
1.000000 0.591924 0.370994
1.000000 0.601770 0.410036
1.000000 0.601770 0.410036
0.000000 0.755997 0.440036
0.000000 0.917273 0.426174
0.158877 0.913268 0.366524
0.380335 0.870704 0.322636
0.661738 0.870704 0.322636
0.909146 0.860509 0.312111
1.000000 0.774621 0.370994
1.000000 0.761769 0.410036
1.000000 0.761769 0.410036
0.000000 0.899723 0.440036
0.061423 1.000000 0.411604
0.215051 1.000000 0.377372
0.383851 1.000000 0.335829
0.619464 1.000000 0.335829
0.833867 1.000000 0.335829
1.000000 0.957317 0.370994
1.000000 0.921767 0.410036
1.000000 0.921767 0.410036
0.000000 0.970000 0.440036
0.136186 1.000000 0.430477
0.289813 1.000000 0.421130
0.447223 1.000000 0.410036
0.627085 1.000000 0.410036
0.793116 1.000000 0.410036
0.959146 1.000000 0.410036
1.000000 1.000000 0.410036
1.000000 1.000000 0.410036
0.000000 0.970000 0.440036
0.136186 1.000000 0.430477
0.289813 1.000000 0.421130
0.447223 1.000000 0.410036
0.627085 1.000000 0.410036
0.793116 1.000000 0.410036
0.959146 1.000000 0.410036
1.000000 1.000000 0.410036
1.000000 1.000000 0.410036
0.000000 0.000000 0.592394
0.166186 0.000000 0.592394
0.319813 0.000000 0.592394
0.473441 0.000000 0.592394
0.635011 0.000000 0.592394
0.784156 0.000000 0.592394
0.933301 0.000000 0.592394
0.970000 0.000000 0.592394
0.970000 0.000000 0.592394
0.000000 0.159507 0.592394
0.013202 0.001666 0.746680
0.278548 0.001666 0.746680
0.543894 0.001666 0.746680
0.790596 0.000000 0.719551
0.938456 0.000000 0.650245
1.000000 0.090465 0.599456
1.000000 0.129507 0.594440
1.000000 0.129507 0.594440
0.000000 0.307553 0.592394
0.010764 0.254933 0.744315
0.224502 0.203326 0.694266
0.489848 0.203326 0.694266
0.752445 0.187397 0.678836
0.956050 0.131651 0.624838
1.000000 0.238511 0.585710
1.000000 0.277553 0.588192
1.000000 0.277553 0.588192
0.000000 0.455599 0.592394
0.010764 0.510639 0.744315
0.220027 0.454555 0.689925
0.435803 0.404986 0.641851
0.700030 0.389057 0.626421
0.903636 0.333311 0.572424
1.000000 0.386558 0.563750
1.000000 0.425599 0.578349
1.000000 0.425599 0.578349
0.000000 0.612271 0.592394
0.003334 0.771451 0.737119
0.212597 0.717060 0.682728
0.421860 0.662669 0.628338
0.650507 0.611230 0.576898
0.853881 0.557001 0.522669
1.000000 0.553350 0.525695
1.000000 0.585429 0.562394
1.000000 0.585429 0.562394
0.000000 0.755997 0.592394
0.000000 0.917273 0.662668
0.158877 0.913268 0.630692
0.368140 0.858877 0.576302
0.606516 0.815483 0.532907
0.853881 0.805244 0.522669
1.000000 0.753316 0.525695
1.000000 0.751993 0.562394
1.000000 0.751993 0.562394
0.000000 0.899723 0.592394
0.061423 1.000000 0.607007
0.215051 1.000000 0.585049
0.369505 1.000000 0.548137
0.562545 1.000000 0.492117
0.809018 1.000000 0.492117
1.000000 0.953283 0.525695
1.000000 0.918556 0.562394
1.000000 0.918556 0.562394
0.000000 0.970000 0.592394
0.136186 1.000000 0.594207
0.289813 1.000000 0.587548
0.443441 1.000000 0.576767
0.611783 1.000000 0.562394
0.784626 1.000000 0.562394
0.957470 1.000000 0.562394
1.000000 1.000000 0.562394
1.000000 1.000000 0.562394
0.000000 0.970000 0.592394
0.136186 1.000000 0.594207
0.289813 1.000000 0.587548
0.443441 1.000000 0.576767
0.611783 1.000000 0.562394
0.784626 1.000000 0.562394
0.957470 1.000000 0.562394
1.000000 1.000000 0.562394
1.000000 1.000000 0.562394
0.000000 0.000000 0.731352
0.166186 0.000000 0.731352
0.319813 0.000000 0.731352
0.473441 0.000000 0.731352
0.635011 0.000000 0.731352
0.784156 0.000000 0.731352
0.933301 0.000000 0.731352
0.970000 0.000000 0.731352
0.970000 0.000000 0.731352
0.000000 0.159507 0.731352
0.010360 0.000000 0.886107
0.248666 0.000000 0.886107
0.486972 0.000000 0.886107
0.736664 0.000000 0.886107
0.938456 0.000000 0.859094
1.000000 0.090465 0.762723
1.000000 0.129507 0.743685
1.000000 0.129507 0.743685
0.000000 0.307553 0.731352
0.000000 0.223551 0.892840
0.172564 0.151388 0.883965
0.437910 0.151388 0.883965
0.717565 0.151388 0.883965
0.956050 0.131651 0.864847
1.000000 0.238511 0.754580
1.000000 0.277553 0.739737
1.000000 0.277553 0.739737
0.000000 0.455599 0.731352
0.000000 0.457663 0.892840
0.168088 0.402617 0.879624
0.383865 0.353048 0.831550
0.665150 0.353048 0.831550
0.903636 0.333311 0.812432
1.000000 0.386558 0.741571
1.000000 0.425599 0.733516
1.000000 0.425599 0.733516
0.000000 0.612271 0.731352
0.000000 0.704531 0.892840
0.168088 0.673947 0.879624
0.377351 0.619556 0.825233
0.608250 0.568973 0.774650
0.846654 0.549773 0.755450
1.000000 0.545572 0.714135
1.000000 0.582271 0.721325
1.000000 0.582271 0.721325
0.000000 0.755997 0.731352
0.000000 0.917273 0.878919
0.158877 0.913268 0.870701
0.368140 0.858877 0.816311
0.591021 0.799987 0.757421
0.803356 0.754719 0.712152
1.000000 0.705577 0.664653
1.000000 0.732193 0.701352
1.000000 0.732193 0.701352
0.000000 0.899723 0.731352
0.061423 1.000000 0.784698
0.215051 1.000000 0.772668
0.369505 1.000000 0.752446
0.538762 0.995972 0.705162
0.761336 0.960943 0.670132
1.000000 0.944242 0.664653
1.000000 0.912054 0.701352
1.000000 0.912054 0.701352
0.000000 0.970000 0.731352
0.136186 1.000000 0.743538
0.289813 1.000000 0.739329
0.443441 1.000000 0.732516
0.605011 1.000000 0.718608
0.767432 1.000000 0.701352
0.954074 1.000000 0.701352
1.000000 1.000000 0.701352
1.000000 1.000000 0.701352
0.000000 0.970000 0.731352
0.136186 1.000000 0.743538
0.289813 1.000000 0.739329
0.443441 1.000000 0.732516
0.605011 1.000000 0.718608
0.767432 1.000000 0.701352
0.954074 1.000000 0.701352
1.000000 1.000000 0.701352
1.000000 1.000000 0.701352
0.000000 0.000000 0.870310
0.166186 0.000000 0.870310
0.319813 0.000000 0.870310
0.473441 0.000000 0.870310
0.635011 0.000000 0.870310
0.784156 0.000000 0.870310
0.933301 0.000000 0.870310
0.970000 0.000000 0.870310
0.970000 0.000000 0.870310
0.000000 0.159507 0.870310
0.033036 0.023868 1.000000
0.243908 0.023868 1.000000
0.454781 0.023868 1.000000
0.677023 0.023868 1.000000
0.881743 0.023868 1.000000
1.000000 0.090465 0.925990
1.000000 0.129507 0.892930
1.000000 0.129507 0.892930
0.000000 0.307553 0.870310
0.030601 0.225121 1.000000
0.191087 0.173113 1.000000
0.416306 0.173113 1.000000
0.655051 0.173113 1.000000
0.873698 0.173113 1.000000
1.000000 0.238511 0.923450
1.000000 0.277553 0.891281
1.000000 0.277553 0.891281
0.000000 0.455599 0.870310
0.030601 0.428832 1.000000
0.185473 0.385888 1.000000
0.351357 0.322359 1.000000
0.617575 0.322359 1.000000
0.859976 0.322359 1.000000
1.000000 0.386558 0.919392
1.000000 0.425599 0.888682
1.000000 0.425599 0.888682
0.000000 0.612271 0.870310
0.030601 0.644939 1.000000
0.185473 0.619142 1.000000
0.340346 0.573618 1.000000
0.557725 0.518448 0.964134
0.815328 0.518448 0.964134
1.000000 0.545572 0.910835
1.000000 0.582271 0.883590
1.000000 0.582271 0.883590
0.000000 0.755997 0.870310
0.030601 0.842705 1.000000
0.185473 0.831277 1.000000
0.340346 0.811110 1.000000
0.549456 0.758423 0.955865
0.763069 0.714433 0.911875
0.997769 0.691529 0.888971
1.000000 0.725997 0.872360
1.000000 0.725997 0.872360
0.000000 0.899723 0.870310
0.061423 1.000000 0.962389
0.215051 1.000000 0.960287
0.369505 1.000000 0.956755
0.538762 0.995972 0.945171
0.742136 0.941743 0.890941
0.956205 0.898209 0.847407
0.987944 0.892368 0.852366
0.987944 0.892368 0.852366
0.000000 0.970000 0.870310
0.136186 1.000000 0.892869
0.289813 1.000000 0.891111
0.443441 1.000000 0.888265
0.605011 1.000000 0.882455
0.754156 1.000000 0.868125
0.938034 0.987944 0.852366
0.987944 0.987944 0.852366
0.987944 0.987944 0.852366
0.000000 0.970000 0.870310
0.136186 1.000000 0.892869
0.289813 1.000000 0.891111
0.443441 1.000000 0.888265
0.605011 1.000000 0.882455
0.754156 1.000000 0.868125
0.938034 0.987944 0.852366
0.987944 0.987944 0.852366
0.987944 0.987944 0.852366
0.000000 0.000000 0.941891
0.166186 0.000000 0.941891
0.319813 0.000000 0.941891
0.473441 0.000000 0.941891
0.635011 0.000000 0.941891
0.784156 0.000000 0.941891
0.933301 0.000000 0.941891
0.970000 0.000000 0.941891
0.970000 0.000000 0.941891
0.000000 0.159507 0.941891
0.107287 0.099604 1.000000
0.284028 0.099604 1.000000
0.460768 0.099604 1.000000
0.646952 0.099604 1.000000
0.818535 0.099604 1.000000
0.990118 0.099604 1.000000
1.000000 0.129507 0.969810
1.000000 0.129507 0.969810
0.000000 0.307553 0.941891
0.106283 0.269097 1.000000
0.262176 0.247650 1.000000
0.444186 0.247650 1.000000
0.636423 0.247650 1.000000
0.813123 0.247650 1.000000
0.989823 0.247650 1.000000
1.000000 0.277553 0.969345
1.000000 0.277553 0.969345
0.000000 0.455599 0.941891
0.106283 0.439604 1.000000
0.259910 0.421265 1.000000
0.417808 0.395696 1.000000
0.619687 0.395696 1.000000
0.804521 0.395696 1.000000
0.989354 0.395696 1.000000
1.000000 0.425599 0.968613
1.000000 0.425599 0.968613
0.000000 0.612271 0.941891
0.106283 0.620371 1.000000
0.259910 0.608310 1.000000
0.413538 0.588598 1.000000
0.584920 0.554162 1.000000
0.786651 0.554162 1.000000
0.988381 0.554162 1.000000
1.000000 0.582271 0.967177
1.000000 0.582271 0.967177
0.000000 0.755997 0.941891
0.106283 0.785903 1.000000
0.259910 0.779101 1.000000
0.413538 0.767984 1.000000
0.576902 0.743706 1.000000
0.743652 0.697888 1.000000
0.986040 0.697888 1.000000
1.000000 0.725997 0.964010
1.000000 0.725997 0.964010
0.000000 0.899723 0.941891
0.106283 0.951434 1.000000
0.259910 0.949891 1.000000
0.413538 0.947370 1.000000
0.576902 0.941863 1.000000
0.726804 0.926411 0.999244
0.942387 0.884391 0.957223
0.982650 0.887073 0.944422
0.982650 0.887073 0.944422
0.000000 0.970000 0.941891
0.136186 1.000000 0.969793
0.289813 1.000000 0.969297
0.443441 1.000000 0.968495
0.605011 1.000000 0.966857
0.754156 1.000000 0.962816
0.926695 0.976606 0.938378
0.975060 0.975060 0.936832
0.975060 0.975060 0.936832
0.000000 0.970000 0.941891
0.136186 1.000000 0.969793
0.289813 1.000000 0.969297
0.443441 1.000000 0.968495
0.605011 1.000000 0.966857
0.754156 1.000000 0.962816
0.926695 0.976606 0.938378
0.975060 0.975060 0.936832
0.975060 0.975060 0.936832
0.000000 0.000000 0.941891
0.166186 0.000000 0.941891
0.319813 0.000000 0.941891
0.473441 0.000000 0.941891
0.635011 0.000000 0.941891
0.784156 0.000000 0.941891
0.933301 0.000000 0.941891
0.970000 0.000000 0.941891
0.970000 0.000000 0.941891
0.000000 0.159507 0.941891
0.107287 0.099604 1.000000
0.284028 0.099604 1.000000
0.460768 0.099604 1.000000
0.646952 0.099604 1.000000
0.818535 0.099604 1.000000
0.990118 0.099604 1.000000
1.000000 0.129507 0.969810
1.000000 0.129507 0.969810
0.000000 0.307553 0.941891
0.106283 0.269097 1.000000
0.262176 0.247650 1.000000
0.444186 0.247650 1.000000
0.636423 0.247650 1.000000
0.813123 0.247650 1.000000
0.989823 0.247650 1.000000
1.000000 0.277553 0.969345
1.000000 0.277553 0.969345
0.000000 0.455599 0.941891
0.106283 0.439604 1.000000
0.259910 0.421265 1.000000
0.417808 0.395696 1.000000
0.619687 0.395696 1.000000
0.804521 0.395696 1.000000
0.989354 0.395696 1.000000
1.000000 0.425599 0.968613
1.000000 0.425599 0.968613
0.000000 0.612271 0.941891
0.106283 0.620371 1.000000
0.259910 0.608310 1.000000
0.413538 0.588598 1.000000
0.584920 0.554162 1.000000
0.786651 0.554162 1.000000
0.988381 0.554162 1.000000
1.000000 0.582271 0.967177
1.000000 0.582271 0.967177
0.000000 0.755997 0.941891
0.106283 0.785903 1.000000
0.259910 0.779101 1.000000
0.413538 0.767984 1.000000
0.576902 0.743706 1.000000
0.743652 0.697888 1.000000
0.986040 0.697888 1.000000
1.000000 0.725997 0.964010
1.000000 0.725997 0.964010
0.000000 0.899723 0.941891
0.106283 0.951434 1.000000
0.259910 0.949891 1.000000
0.413538 0.947370 1.000000
0.576902 0.941863 1.000000
0.726804 0.926411 0.999244
0.942387 0.884391 0.957223
0.982650 0.887073 0.944422
0.982650 0.887073 0.944422
0.000000 0.970000 0.941891
0.136186 1.000000 0.969793
0.289813 1.000000 0.969297
0.443441 1.000000 0.968495
0.605011 1.000000 0.966857
0.754156 1.000000 0.962816
0.926695 0.976606 0.938378
0.975060 0.975060 0.936832
0.975060 0.975060 0.936832
0.000000 0.970000 0.941891
0.136186 1.000000 0.969793
0.289813 1.000000 0.969297
0.443441 1.000000 0.968495
0.605011 1.000000 0.966857
0.754156 1.000000 0.962816
0.926695 0.976606 0.938378
0.975060 0.975060 0.936832
0.975060 0.975060 0.936832
