docs/luts/fuji_recipes/Velvia_RR_Velvia.cube
TITLE "Fujifilm Recipe: RR Velvia (Velvia)"
# FilmSim=Velvia HL=-1 SH=0 Col=2 WB=Auto WBR=1 WBB=-1
LUT_3D_SIZE 5
DOMAIN_MIN 0.0 0.0 0.0
DOMAIN_MAX 1.0 1.0 1.0
0.000000 0.000000 0.000000
0.319813 0.000000 0.000000
0.635011 0.000000 0.000000
0.933301 0.000000 0.000000
0.970000 0.000000 0.000000
0.000000 0.307553 0.000000
0.319813 0.307553 0.000000
0.635011 0.307553 0.000000
0.933301 0.307553 0.000000
0.970000 0.307553 0.000000
0.000000 0.612271 0.000000
0.319813 0.612271 0.000000
0.635011 0.612271 0.000000
0.933301 0.612271 0.000000
0.970000 0.612271 0.000000
0.000000 0.899723 0.000000
0.319813 0.899723 0.000000
0.635011 0.899723 0.000000
0.933301 0.899723 0.000000
0.970000 0.899723 0.000000
0.000000 0.970000 0.000000
0.319813 0.970000 0.000000
0.635011 0.970000 0.000000
0.933301 0.970000 0.000000
0.970000 0.970000 0.000000
0.000000 0.000000 0.296900
0.319813 0.000000 0.296900
0.635011 0.000000 0.296900
0.933301 0.000000 0.296900
0.970000 0.000000 0.296900
0.000000 0.307553 0.296900
0.328145 0.306968 0.288569
0.756216 0.191285 0.172887
1.000000 0.240767 0.227859
1.000000 0.278502 0.266900
0.000000 0.612271 0.296900
0.220962 0.725172 0.181386
0.756216 0.716939 0.172887
1.000000 0.610993 0.227859
1.000000 0.610383 0.266900
0.000000 0.899723 0.296900
0.222779 1.000000 0.192138
0.646003 1.000000 0.192138
1.000000 0.959312 0.227859
1.000000 0.923459 0.266900
0.000000 0.970000 0.296900
0.291856 1.000000 0.266900
0.635150 1.000000 0.266900
0.960030 1.000000 0.266900
1.000000 1.000000 0.266900
0.000000 0.000000 0.592394
0.319813 0.000000 0.592394
0.635011 0.000000 0.592394
0.933301 0.000000 0.592394
0.970000 0.000000 0.592394
0.000000 0.307553 0.592394
0.224502 0.203326 0.694266
0.752445 0.187397 0.678836
1.000000 0.238511 0.585710
1.000000 0.277553 0.588192
0.000000 0.612271 0.592394
0.212597 0.717060 0.682728
0.650507 0.611230 0.576898
1.000000 0.553350 0.525695
1.000000 0.585429 0.562394
0.000000 0.899723 0.592394
0.215051 1.000000 0.585049
0.562545 1.000000 0.492117
1.000000 0.953283 0.525695
1.000000 0.918556 0.562394
0.000000 0.970000 0.592394
0.289813 1.000000 0.587548
0.611783 1.000000 0.562394
0.957470 1.000000 0.562394
1.000000 1.000000 0.562394
0.000000 0.000000 0.870310
0.319813 0.000000 0.870310
0.635011 0.000000 0.870310
0.933301 0.000000 0.870310
0.970000 0.000000 0.870310
0.000000 0.307553 0.870310
0.191087 0.173113 1.000000
0.655051 0.173113 1.000000
1.000000 0.238511 0.923450
1.000000 0.277553 0.891281
0.000000 0.612271 0.870310
0.185473 0.619142 1.000000
0.557725 0.518448 0.964134
1.000000 0.545572 0.910835
1.000000 0.582271 0.883590
0.000000 0.899723 0.870310
0.215051 1.000000 0.960287
0.538762 0.995972 0.945171
0.956205 0.898209 0.847407
0.987944 0.892368 0.852366
0.000000 0.970000 0.870310
0.289813 1.000000 0.891111
0.605011 1.000000 0.882455
0.938034 0.987944 0.852366
0.987944 0.987944 0.852366
0.000000 0.000000 0.941891
0.319813 0.000000 0.941891
0.635011 0.000000 0.941891
0.933301 0.000000 0.941891
0.970000 0.000000 0.941891
0.000000 0.307553 0.941891
0.262176 0.247650 1.000000
0.636423 0.247650 1.000000
0.989823 0.247650 1.000000
1.000000 0.277553 0.969345
0.000000 0.612271 0.941891
0.259910 0.608310 1.000000
0.584920 0.554162 1.000000
0.988381 0.554162 1.000000
1.000000 0.582271 0.967177
0.000000 0.899723 0.941891
0.259910 0.949891 1.000000
0.576902 0.941863 1.000000
0.942387 0.884391 0.957223
0.982650 0.887073 0.944422
0.000000 0.970000 0.941891
0.289813 1.000000 0.969297
0.605011 1.000000 0.966857
0.926695 0.976606 0.938378
0.975060 0.975060 0.936832
