docs/luts/fuji_recipes/Velvia_RR_Ektachrome_100SW.cube
TITLE "Fujifilm Recipe: RR Ektachrome 100SW (Velvia)"
# FilmSim=Velvia HL=1 SH=2 Col=-1 WB=Auto WBR=3 WBB=-4
LUT_3D_SIZE 5
DOMAIN_MIN 0.0 0.0 0.0
DOMAIN_MAX 1.0 1.0 1.0
0.000000 0.000000 0.000000
0.249998 0.024725 0.024725
0.555398 0.054930 0.054930
0.840910 0.083167 0.083167
0.910000 0.090000 0.090000
0.022668 0.229198 0.022668
0.249998 0.231255 0.024725
0.555398 0.261459 0.054930
0.840910 0.289697 0.083167
0.910000 0.296530 0.090000
0.050236 0.507944 0.050236
0.275509 0.507944 0.050236
0.555398 0.512637 0.054930
0.840910 0.540875 0.083167
0.910000 0.547708 0.090000
0.076182 0.770285 0.076182
0.301455 0.770285 0.076182
0.576651 0.770285 0.076182
0.840910 0.777270 0.083167
0.910000 0.784103 0.090000
0.090000 0.910000 0.090000
0.315273 0.910000 0.090000
0.590469 0.910000 0.090000
0.847743 0.910000 0.090000
0.910000 0.910000 0.090000
0.020193 0.020193 0.204172
0.249998 0.024725 0.208704
0.555398 0.054930 0.238909
0.840910 0.083167 0.267146
0.910000 0.090000 0.273979
0.022668 0.229198 0.206647
0.275765 0.251962 0.223323
0.617820 0.251380 0.222741
0.922772 0.247777 0.219138
0.930193 0.316723 0.294172
0.050236 0.507944 0.234216
0.275524 0.564520 0.223081
0.617820 0.563513 0.222741
0.922772 0.555903 0.219138
0.930193 0.567901 0.294172
0.076182 0.770285 0.260161
0.273643 0.859179 0.221200
0.613263 0.859179 0.221200
0.922772 0.856125 0.219138
0.930193 0.804296 0.294172
0.090000 0.910000 0.273979
0.335466 0.930193 0.294172
0.610662 0.930193 0.294172
0.867936 0.930193 0.294172
0.930193 0.930193 0.294172
0.040026 0.040026 0.404711
0.265299 0.040026 0.404711
0.555398 0.054930 0.419614
0.840910 0.083167 0.447851
0.910000 0.090000 0.454684
0.040026 0.246556 0.404711
0.275403 0.251600 0.486408
0.616810 0.250767 0.451623
0.925581 0.247542 0.448398
0.932668 0.319198 0.477352
0.050236 0.507944 0.414920
0.274402 0.562670 0.451454
0.609727 0.555420 0.447325
0.930411 0.549365 0.445278
0.950026 0.587734 0.494711
0.076182 0.770285 0.440866
0.272521 0.857329 0.449573
0.605170 0.851086 0.445784
0.930411 0.849588 0.445278
0.950026 0.824130 0.494711
0.090000 0.910000 0.454684
0.339998 0.934725 0.479409
0.630495 0.950026 0.494711
0.887770 0.950026 0.494711
0.950026 0.950026 0.494711
0.067712 0.067712 0.684641
0.292985 0.067712 0.684641
0.568181 0.067712 0.684641
0.840910 0.083167 0.700097
0.910000 0.090000 0.706930
0.067712 0.274242 0.684641
0.273644 0.249841 0.761974
0.614069 0.249841 0.761974
0.925581 0.247542 0.757482
0.932668 0.319198 0.729598
0.067712 0.525420 0.684641
0.273135 0.558923 0.761135
0.608468 0.554161 0.756373
0.931651 0.550606 0.752818
0.960236 0.597944 0.757166
0.076182 0.770285 0.693112
0.272521 0.857329 0.759319
0.605440 0.851356 0.753345
0.927632 0.846809 0.748799
0.977712 0.851815 0.774641
0.090000 0.910000 0.706930
0.339998 0.934725 0.731655
0.645398 0.964930 0.761859
0.915455 0.977712 0.774641
0.977712 0.977712 0.774641
0.081984 0.081984 0.828952
0.307257 0.081984 0.828952
0.582453 0.081984 0.828952
0.840910 0.083167 0.830134
0.910000 0.090000 0.836967
0.081984 0.288514 0.828952
0.272609 0.248806 0.924062
0.611009 0.248806 0.924062
0.925581 0.247542 0.922630
0.932668 0.319198 0.859635
0.081984 0.539692 0.828952
0.272100 0.555863 0.923223
0.605185 0.550878 0.918238
0.931651 0.550606 0.917966
0.960236 0.597944 0.887204
0.081984 0.776088 0.828952
0.272100 0.856085 0.923223
0.604105 0.850021 0.917159
0.925684 0.844861 0.911998
0.986182 0.860285 0.913150
0.090000 0.910000 0.836967
0.339998 0.934725 0.861693
0.645398 0.964930 0.891897
0.929728 0.991984 0.918952
0.991984 0.991984 0.918952
