docs/luts/fuji_recipes/Velvia_VM_Velvia.cube
TITLE "Fujifilm Recipe: VM Velvia (Velvia)"
# FilmSim=Velvia HL=0 SH=-1 Col=2 WB=Auto WBR=0 WBB=-1
LUT_3D_SIZE 5
DOMAIN_MIN 0.0 0.0 0.0
DOMAIN_MAX 1.0 1.0 1.0
0.040000 0.040000 0.040000
0.317781 0.000000 0.000000
0.546933 0.000000 0.000000
0.802056 0.000000 0.000000
1.000000 0.040000 0.040000
0.000000 0.314240 0.000000
0.317781 0.313049 0.000000
0.546933 0.274373 0.000000
0.802056 0.260193 0.000000
1.000000 0.274240 0.040000
0.000000 0.548480 0.000000
0.278386 0.548480 0.000000
0.546669 0.548480 0.000000
0.802056 0.520385 0.000000
1.000000 0.508480 0.040000
0.000000 0.792000 0.000000
0.264498 0.792000 0.000000
0.519397 0.792000 0.000000
0.802056 0.790886 0.000000
1.000000 0.752000 0.040000
0.040000 1.000000 0.040000
0.277781 1.000000 0.040000
0.506933 1.000000 0.040000
0.762056 1.000000 0.040000
1.000000 1.000000 0.040000
0.000000 0.000000 0.306038
0.317781 0.000000 0.302086
0.546933 0.000000 0.264765
0.802056 0.000000 0.251081
1.000000 0.040000 0.266038
0.000000 0.314240 0.303236
0.282051 0.275935 0.261768
0.599873 0.188730 0.174563
0.947511 0.097593 0.083426
1.000000 0.274240 0.266038
0.000000 0.548480 0.264637
0.201610 0.574075 0.181326
0.599873 0.567173 0.174563
0.947511 0.502173 0.083426
1.000000 0.508480 0.266038
0.000000 0.792000 0.251435
0.107302 0.933809 0.087018
0.510529 0.933809 0.087018
0.947511 0.930143 0.083426
1.000000 0.752000 0.266038
0.040000 1.000000 0.266038
0.277781 1.000000 0.266038
0.506933 1.000000 0.266038
0.762056 1.000000 0.266038
1.000000 1.000000 0.266038
0.000000 0.000000 0.532507
0.279819 0.000000 0.532507
0.546933 0.000000 0.530036
0.802056 0.000000 0.502643
1.000000 0.040000 0.492507
0.000000 0.275652 0.532507
0.204580 0.198463 0.548366
0.596836 0.185756 0.562747
0.944474 0.094619 0.471610
1.000000 0.274240 0.492507
0.000000 0.548480 0.529780
0.197352 0.569727 0.568227
0.516026 0.511195 0.483606
0.863663 0.420058 0.392469
1.000000 0.508480 0.492507
0.000000 0.792000 0.503351
0.103044 0.929461 0.473918
0.455042 0.849961 0.396062
0.863663 0.846295 0.392469
1.000000 0.752000 0.492507
0.040000 1.000000 0.492507
0.277781 1.000000 0.492507
0.506933 1.000000 0.492507
0.762056 1.000000 0.492507
1.000000 1.000000 0.492507
0.000000 0.000000 0.766457
0.265493 0.000000 0.766457
0.521349 0.000000 0.766457
0.802056 0.000000 0.762512
1.000000 0.040000 0.726457
0.000000 0.261538 0.766457
0.113453 0.107336 0.895966
0.516804 0.107336 0.895966
0.944474 0.094619 0.882987
1.000000 0.274240 0.726457
0.000000 0.523077 0.766457
0.112169 0.510631 0.894654
0.458376 0.426983 0.809241
0.857749 0.414266 0.796263
1.000000 0.508480 0.726457
0.000000 0.792000 0.763587
0.103044 0.929461 0.885342
0.442661 0.837318 0.793200
0.774999 0.757631 0.713513
1.000000 0.752000 0.726457
0.040000 1.000000 0.726457
0.277781 1.000000 0.726457
0.506933 1.000000 0.726457
0.762056 1.000000 0.726457
1.000000 1.000000 0.726457
0.010097 0.010097 1.000000
0.263168 0.010097 1.000000
0.507054 0.010097 1.000000
0.778581 0.010097 1.000000
1.000000 0.040000 0.970097
0.010097 0.259399 1.000000
0.249366 0.245533 1.000000
0.518739 0.245533 1.000000
0.774823 0.245533 1.000000
1.000000 0.274240 0.970097
0.010097 0.508701 1.000000
0.249074 0.498872 1.000000
0.500203 0.479773 1.000000
0.766150 0.479773 1.000000
1.000000 0.508480 0.970097
0.010097 0.767879 1.000000
0.249074 0.763847 1.000000
0.497949 0.753741 1.000000
0.734910 0.722097 1.000000
1.000000 0.752000 0.970097
0.040000 1.000000 0.970097
0.277781 1.000000 0.970097
0.506933 1.000000 0.970097
0.762056 1.000000 0.970097
1.000000 1.000000 0.970097
