docs/luts/fuji_recipes/Velvia_HF_Vibrant_Color.cube
TITLE "Fujifilm Recipe: HF Vibrant Color (Velvia)"
# FilmSim=Velvia HL=-1 SH=2 Col=2 WB=Auto WBR=0 WBB=0
LUT_3D_SIZE 5
DOMAIN_MIN 0.0 0.0 0.0
DOMAIN_MAX 1.0 1.0 1.0
0.000000 0.000000 0.000000
0.227874 0.000000 0.000000
0.506517 0.000000 0.000000
0.746332 0.000000 0.000000
0.970000 0.000000 0.000000
0.000000 0.224480 0.000000
0.227874 0.224480 0.000000
0.506517 0.224480 0.000000
0.746332 0.224480 0.000000
0.970000 0.224480 0.000000
0.000000 0.448960 0.000000
0.227874 0.448960 0.000000
0.506517 0.448960 0.000000
0.746332 0.448960 0.000000
0.970000 0.448960 0.000000
0.000000 0.736880 0.000000
0.227874 0.736880 0.000000
0.506517 0.736880 0.000000
0.746332 0.736880 0.000000
0.970000 0.736880 0.000000
0.000000 0.970000 0.000000
0.227874 0.970000 0.000000
0.506517 0.970000 0.000000
0.746332 0.970000 0.000000
0.970000 0.970000 0.000000
0.000000 0.000000 0.222184
0.227874 0.000000 0.222184
0.506517 0.000000 0.222184
0.746332 0.000000 0.222184
0.970000 0.000000 0.222184
0.000000 0.224480 0.222184
0.229943 0.224081 0.220116
0.603376 0.130007 0.126042
0.930265 0.043622 0.039657
1.000000 0.194664 0.192184
0.000000 0.448960 0.222184
0.142279 0.579118 0.132452
0.603376 0.572638 0.126042
0.930265 0.431344 0.039657
1.000000 0.437155 0.192184
0.000000 0.736880 0.222184
0.052889 0.917380 0.043062
0.519497 0.917380 0.043062
0.930265 0.913939 0.039657
1.000000 0.748176 0.192184
0.000000 0.970000 0.222184
0.198330 1.000000 0.192184
0.499330 1.000000 0.192184
0.758387 1.000000 0.192184
1.000000 1.000000 0.192184
0.000000 0.000000 0.444783
0.227874 0.000000 0.444783
0.506517 0.000000 0.444783
0.746332 0.000000 0.444783
0.970000 0.000000 0.444783
0.000000 0.224480 0.444783
0.142983 0.137121 0.572457
0.602534 0.129173 0.564423
0.929422 0.042789 0.423296
1.000000 0.194480 0.432513
0.000000 0.448960 0.444783
0.140213 0.577029 0.569657
0.521669 0.436909 0.429694
0.848557 0.350525 0.343310
1.000000 0.419437 0.414783
0.000000 0.736880 0.444783
0.050823 0.915292 0.425468
0.384015 0.835673 0.346715
0.848557 0.832231 0.343310
1.000000 0.740249 0.414783
0.000000 0.970000 0.444783
0.197874 1.000000 0.432319
0.483569 1.000000 0.414783
0.750781 1.000000 0.414783
1.000000 1.000000 0.414783
0.000000 0.000000 0.730486
0.227874 0.000000 0.730486
0.506517 0.000000 0.730486
0.746332 0.000000 0.730486
0.970000 0.000000 0.730486
0.000000 0.224480 0.730486
0.054359 0.048497 0.907823
0.520983 0.048497 0.907823
0.929422 0.042789 0.902053
1.000000 0.194480 0.741210
0.000000 0.448960 0.730486
0.053127 0.434987 0.906577
0.384801 0.354716 0.825424
0.847024 0.349009 0.819654
1.000000 0.418960 0.732905
0.000000 0.736880 0.730486
0.050823 0.915292 0.904249
0.376174 0.827746 0.816703
0.752094 0.735768 0.724725
1.000000 0.708482 0.700486
0.000000 0.970000 0.730486
0.197874 1.000000 0.741122
0.476517 1.000000 0.729480
0.720302 1.000000 0.700486
1.000000 1.000000 0.700486
0.000000 0.000000 0.965381
0.227874 0.000000 0.965381
0.506517 0.000000 0.965381
0.746332 0.000000 0.965381
0.970000 0.000000 0.965381
0.000000 0.224480 0.965381
0.193672 0.189959 1.000000
0.497944 0.189959 1.000000
0.760333 0.189959 1.000000
1.000000 0.194480 0.995009
0.000000 0.448960 0.965381
0.193353 0.435346 1.000000
0.478841 0.414439 1.000000
0.751214 0.414439 1.000000
1.000000 0.418960 0.994849
0.000000 0.736880 0.965381
0.193353 0.749891 1.000000
0.471897 0.737021 1.000000
0.714577 0.702261 1.000000
1.000000 0.706880 0.994192
0.000000 0.970000 0.965381
0.197874 1.000000 0.995007
0.476517 1.000000 0.994783
0.716332 1.000000 0.994141
0.970831 0.970831 0.964549
