docs/luts/fuji_recipes/Velvia_RR_Split-Tones_B_W_2_2.cube
TITLE "Fujifilm Recipe: RR Split-Tones B&W 2/2 (Velvia)"
# FilmSim=Velvia HL=4 SH=4 Col=2 WB=Auto WBR=0 WBB=0
LUT_3D_SIZE 9
DOMAIN_MIN 0.0 0.0 0.0
DOMAIN_MAX 1.0 1.0 1.0
0.000000 0.000000 0.000000
0.056139 0.000000 0.000000
0.121428 0.000000 0.000000
0.186717 0.000000 0.000000
0.252005 0.000000 0.000000
0.317294 0.000000 0.000000
0.474553 0.000000 0.000000
0.567670 0.000000 0.000000
0.660786 0.000000 0.000000
0.000000 0.054988 0.000000
0.056139 0.054988 0.000000
0.121428 0.054988 0.000000
0.186717 0.054988 0.000000
0.252005 0.054988 0.000000
0.317294 0.054988 0.000000
0.474553 0.054988 0.000000
0.567670 0.054988 0.000000
0.660786 0.054988 0.000000
0.000000 0.119478 0.000000
0.056139 0.119478 0.000000
0.121428 0.119478 0.000000
0.186717 0.119478 0.000000
0.252005 0.119478 0.000000
0.317294 0.119478 0.000000
0.474553 0.119478 0.000000
0.567670 0.119478 0.000000
0.660786 0.119478 0.000000
0.000000 0.183967 0.000000
0.056139 0.183967 0.000000
0.121428 0.183967 0.000000
0.186717 0.183967 0.000000
0.252005 0.183967 0.000000
0.317294 0.183967 0.000000
0.474553 0.183967 0.000000
0.567670 0.183967 0.000000
0.660786 0.183967 0.000000
0.000000 0.248457 0.000000
0.056139 0.248457 0.000000
0.121428 0.248457 0.000000
0.186717 0.248457 0.000000
0.252005 0.248457 0.000000
0.317294 0.248457 0.000000
0.474553 0.248457 0.000000
0.567670 0.248457 0.000000
0.660786 0.248457 0.000000
0.000000 0.312946 0.000000
0.056139 0.312946 0.000000
0.121428 0.312946 0.000000
0.186717 0.312946 0.000000
0.252005 0.312946 0.000000
0.317294 0.312946 0.000000
0.474553 0.312946 0.000000
0.567670 0.312946 0.000000
0.660786 0.312946 0.000000
0.000000 0.467213 0.000000
0.056139 0.467213 0.000000
0.121428 0.467213 0.000000
0.186717 0.467213 0.000000
0.252005 0.467213 0.000000
0.317294 0.467213 0.000000
0.474553 0.467213 0.000000
0.567670 0.467213 0.000000
0.660786 0.467213 0.000000
0.000000 0.559190 0.000000
0.056139 0.559190 0.000000
0.121428 0.559190 0.000000
0.186717 0.559190 0.000000
0.252005 0.559190 0.000000
0.317294 0.559190 0.000000
0.474553 0.559190 0.000000
0.567670 0.559190 0.000000
0.660786 0.559190 0.000000
0.000000 0.651166 0.000000
0.056139 0.651166 0.000000
0.121428 0.651166 0.000000
0.186717 0.651166 0.000000
0.252005 0.651166 0.000000
0.317294 0.651166 0.000000
0.474553 0.651166 0.000000
0.567670 0.651166 0.000000
0.660786 0.651166 0.000000
0.000000 0.000000 0.054210
0.056139 0.000000 0.054210
0.121428 0.000000 0.054210
0.186717 0.000000 0.054210
0.252005 0.000000 0.054210
0.317294 0.000000 0.054210
0.474553 0.000000 0.054210
0.567670 0.000000 0.054210
0.660786 0.000000 0.054210
0.000000 0.054988 0.054210
0.067667 0.065301 0.063700
0.162703 0.025879 0.024276
0.243224 0.001429 0.000000
0.306215 0.001205 0.000000
0.438708 0.001081 0.000000
0.546151 0.001021 0.000000
0.642531 0.000987 0.000000
0.735648 0.000957 0.000000
0.000000 0.119478 0.054210
0.029281 0.159999 0.025300
0.162703 0.158687 0.024276
0.243224 0.119803 0.000000
0.306215 0.101044 0.000000
0.438708 0.090612 0.000000
0.546151 0.085575 0.000000
0.642531 0.082718 0.000000
0.735648 0.080230 0.000000
0.000000 0.183967 0.054210
0.003581 0.240855 0.000000
0.124770 0.240855 0.000000
0.243224 0.238178 0.000000
0.306215 0.200883 0.000000
0.438708 0.180144 0.000000
0.546151 0.170129 0.000000
0.642531 0.164449 0.000000
0.735648 0.159503 0.000000
0.000000 0.248457 0.054210
0.003006 0.302667 0.000000
0.104736 0.302667 0.000000
0.206466 0.302667 0.000000
0.306215 0.300722 0.000000
0.438708 0.269676 0.000000
0.546151 0.254684 0.000000
0.642531 0.246180 0.000000
0.735648 0.238776 0.000000
0.000000 0.312946 0.054210
0.002738 0.367156 0.000000
0.095385 0.367156 0.000000
0.188032 0.367156 0.000000
0.280679 0.367156 0.000000
0.438708 0.359207 0.000000
0.546151 0.339238 0.000000
0.642531 0.327912 0.000000
0.735648 0.318049 0.000000
0.000000 0.467213 0.054210
0.002538 0.538537 0.000000
0.088416 0.538537 0.000000
0.174293 0.538537 0.000000
0.260171 0.538537 0.000000
0.346049 0.538537 0.000000
0.546151 0.536526 0.000000
0.642531 0.515216 0.000000
0.735648 0.497699 0.000000
0.000000 0.559190 0.054210
0.002452 0.633939 0.000000
0.085446 0.633939 0.000000
0.168439 0.633939 0.000000
0.251433 0.633939 0.000000
0.334426 0.633939 0.000000
0.526351 0.633939 0.000000
0.642531 0.631784 0.000000
0.735648 0.610761 0.000000
0.000000 0.651166 0.054210
0.002378 0.726028 0.000000
0.082857 0.726028 0.000000
0.163337 0.726028 0.000000
0.243816 0.726028 0.000000
0.324295 0.726028 0.000000
0.508322 0.726028 0.000000
0.623104 0.726028 0.000000
0.735648 0.723822 0.000000
0.000000 0.000000 0.118159
0.056139 0.000000 0.118159
0.121428 0.000000 0.118159
0.186717 0.000000 0.118159
0.252005 0.000000 0.118159
0.317294 0.000000 0.118159
0.474553 0.000000 0.118159
0.567670 0.000000 0.118159
0.660786 0.000000 0.118159
0.000000 0.054988 0.118159
0.029651 0.027268 0.158078
0.162621 0.025540 0.155877
0.244407 0.000000 0.117206
0.306994 0.000000 0.098433
0.372282 0.000000 0.089656
0.546889 0.000000 0.083099
0.643474 0.000000 0.080313
0.736723 0.000000 0.077884
0.000000 0.119478 0.118159
0.028452 0.159778 0.157043
0.145972 0.141962 0.139250
0.244232 0.099009 0.096160
0.337038 0.062333 0.059599
0.426761 0.028776 0.026122
0.607244 0.002288 0.000000
0.703395 0.002107 0.000000
0.799980 0.001988 0.000000
0.000000 0.183967 0.118159
0.000000 0.243787 0.118280
0.104872 0.240227 0.097797
0.244232 0.238295 0.096160
0.337038 0.196008 0.059599
0.426761 0.158522 0.026122
0.607244 0.114174 0.000000
0.703395 0.105109 0.000000
0.799980 0.099185 0.000000
0.000000 0.248457 0.118159
0.000000 0.304596 0.098228
0.068281 0.332088 0.061492
0.203869 0.332088 0.061492
0.337038 0.329683 0.059599
0.426761 0.288268 0.026122
0.607244 0.226059 0.000000
0.703395 0.208111 0.000000
0.799980 0.196382 0.000000
0.000000 0.312946 0.118159
0.000000 0.369086 0.089135
0.034872 0.420854 0.028283
0.166453 0.420854 0.028283
0.298034 0.420854 0.028283
0.426761 0.418014 0.026122
0.607244 0.337944 0.000000
0.703395 0.311113 0.000000
0.799980 0.293578 0.000000
0.000000 0.467213 0.118159
0.000000 0.540367 0.082258
0.005725 0.600524 0.000000
0.120071 0.600524 0.000000
0.234417 0.600524 0.000000
0.348763 0.600524 0.000000
0.607244 0.594509 0.000000
0.703395 0.542946 0.000000
0.799980 0.508231 0.000000
0.000000 0.559190 0.118159
0.000000 0.635769 0.079385
0.005254 0.694599 0.000000
0.110190 0.694599 0.000000
0.215126 0.694599 0.000000
0.320061 0.694599 0.000000
0.558567 0.694599 0.000000
0.703395 0.689851 0.000000
0.799980 0.646856 0.000000
0.000000 0.651166 0.118159
0.000000 0.728692 0.077025
0.004953 0.790002 0.000000
0.103867 0.790002 0.000000
0.202781 0.790002 0.000000
0.301695 0.790002 0.000000
0.522428 0.790002 0.000000
0.663502 0.790002 0.000000
0.799980 0.785481 0.000000
0.000000 0.000000 0.182108
0.056139 0.000000 0.182108
0.121428 0.000000 0.182108
0.186717 0.000000 0.182108
0.252005 0.000000 0.182108
0.317294 0.000000 0.182108
0.474553 0.000000 0.182108
0.567670 0.000000 0.182108
0.660786 0.000000 0.182108
0.000000 0.054988 0.182108
0.002177 0.000000 0.240436
0.125665 0.000000 0.240436
0.244407 0.000000 0.235856
0.306994 0.000000 0.198079
0.372282 0.000000 0.180417
0.546889 0.000000 0.167221
0.643474 0.000000 0.161616
0.736723 0.000000 0.156728
0.000000 0.119478 0.182108
0.000000 0.121774 0.242185
0.105468 0.101235 0.237190
0.243923 0.098473 0.233953
0.336877 0.061765 0.191777
0.426713 0.028174 0.154354
0.609185 0.000000 0.109435
0.704646 0.000000 0.100523
0.801231 0.000000 0.094787
0.000000 0.183967 0.182108
0.000000 0.243787 0.240240
0.103559 0.239432 0.235392
0.224277 0.218624 0.214800
0.323806 0.174091 0.169999
0.419043 0.134970 0.131008
0.638773 0.066356 0.062576
0.765571 0.024727 0.021023
0.871840 0.003492 0.000000
0.000000 0.248457 0.182108
0.000000 0.304596 0.199511
0.066886 0.331662 0.193365
0.182391 0.318520 0.172229
0.323806 0.315998 0.169999
0.419043 0.272375 0.131008
0.638773 0.197440 0.062576
0.765571 0.153160 0.021023
0.871840 0.124602 0.000000
0.000000 0.312946 0.182108
0.000000 0.369086 0.181043
0.033395 0.420709 0.156110
0.143338 0.412806 0.133500
0.282712 0.412806 0.133500
0.419043 0.409780 0.131008
0.638773 0.328525 0.062576
0.765571 0.281592 0.021023
0.871840 0.245712 0.000000
0.000000 0.467213 0.182108
0.000000 0.540367 0.167076
0.000000 0.605335 0.108199
0.075324 0.628690 0.065939
0.208278 0.628690 0.065939
0.341232 0.628690 0.065939
0.638773 0.623853 0.062576
0.765571 0.565508 0.021023
0.871840 0.508312 0.000000
0.000000 0.559190 0.182108
0.000000 0.635769 0.161240
0.000000 0.697700 0.098741
0.033927 0.754098 0.024733
0.164167 0.754098 0.024733
0.294408 0.754098 0.024733
0.585262 0.754098 0.024733
0.765571 0.748682 0.021023
0.871840 0.681043 0.000000
0.000000 0.651166 0.182108
0.000000 0.728692 0.156447
0.000000 0.793102 0.092899
0.008744 0.863033 0.000000
0.132607 0.863033 0.000000
0.256471 0.863033 0.000000
0.527967 0.863033 0.000000
0.704626 0.863033 0.000000
0.871840 0.853774 0.000000
0.000000 0.000000 0.246057
0.056139 0.000000 0.246057
0.121428 0.000000 0.246057
0.186717 0.000000 0.246057
0.252005 0.000000 0.246057
0.317294 0.000000 0.246057
0.474553 0.000000 0.246057
0.567670 0.000000 0.246057
0.660786 0.000000 0.246057
0.000000 0.054988 0.246057
0.001813 0.000000 0.301045
0.104681 0.000000 0.301045
0.207549 0.000000 0.301045
0.306994 0.000000 0.297725
0.372282 0.000000 0.271177
0.546889 0.000000 0.251344
0.643474 0.000000 0.242919
0.736723 0.000000 0.235571
0.000000 0.119478 0.246057
0.000000 0.100784 0.302196
0.069016 0.064955 0.328562
0.204983 0.064955 0.328562
0.336877 0.061765 0.324528
0.426713 0.028174 0.283192
0.609185 0.000000 0.221175
0.704646 0.000000 0.203163
0.801231 0.000000 0.191570
0.000000 0.183967 0.246057
0.000000 0.203400 0.302196
0.068184 0.198710 0.328296
0.183191 0.177112 0.314394
0.323280 0.173351 0.310172
0.418675 0.134202 0.266679
0.638534 0.065551 0.191916
0.765445 0.023886 0.147683
0.874576 0.000000 0.117458
0.000000 0.248457 0.246057
0.000000 0.304596 0.300795
0.066886 0.331662 0.326659
0.180571 0.317180 0.311870
0.302581 0.295285 0.290350
0.402770 0.249783 0.244449
0.626951 0.173575 0.168503
0.757776 0.127881 0.122923
0.965945 0.005830 0.000000
0.000000 0.312946 0.246057
0.000000 0.369086 0.272951
0.033395 0.420709 0.285436
0.141452 0.411856 0.268568
0.260509 0.396211 0.247263
0.402770 0.393108 0.244449
0.626951 0.309862 0.168503
0.757776 0.261103 0.122923
0.965945 0.162462 0.000000
0.000000 0.467213 0.246057
0.000000 0.540367 0.251893
0.000000 0.605335 0.222227
0.073350 0.628061 0.194568
0.184818 0.616513 0.172221
0.323074 0.616513 0.172221
0.626951 0.611439 0.168503
0.757776 0.550254 0.122923
0.965945 0.495793 0.000000
0.000000 0.559190 0.246057
0.000000 0.635769 0.243094
0.000000 0.697700 0.202801
0.031863 0.753750 0.150580
0.139277 0.745970 0.126966
0.274402 0.745970 0.126966
0.570803 0.745970 0.126966
0.757776 0.740258 0.122923
0.965945 0.719187 0.000000
0.000000 0.651166 0.246057
0.000000 0.728692 0.235868
0.000000 0.793102 0.190802
0.000000 0.869815 0.114672
0.025159 0.946307 0.010831
0.182423 0.946307 0.010831
0.520891 0.946307 0.010831
0.745185 0.946307 0.010831
0.965945 0.942580 0.000000
0.000000 0.000000 0.310006
0.056139 0.000000 0.310006
0.121428 0.000000 0.310006
0.186717 0.000000 0.310006
0.252005 0.000000 0.310006
0.317294 0.000000 0.310006
0.474553 0.000000 0.310006
0.567670 0.000000 0.310006
0.660786 0.000000 0.310006
0.000000 0.054988 0.310006
0.001647 0.000000 0.364994
0.095092 0.000000 0.364994
0.188536 0.000000 0.364994
0.281981 0.000000 0.364994
0.372282 0.000000 0.361938
0.546889 0.000000 0.335466
0.643474 0.000000 0.324223
0.736723 0.000000 0.314415
0.000000 0.119478 0.310006
0.000000 0.091352 0.366145
0.035754 0.031813 0.416795
0.167676 0.031813 0.416795
0.299599 0.031813 0.416795
0.426713 0.028174 0.412029
0.609185 0.000000 0.332915
0.704646 0.000000 0.305803
0.801231 0.000000 0.288353
0.000000 0.183967 0.310006
0.000000 0.184363 0.366145
0.034873 0.161501 0.416698
0.144288 0.138403 0.408195
0.284042 0.138403 0.408195
0.418675 0.134202 0.403124
0.638534 0.065551 0.322065
0.765445 0.023886 0.275188
0.874576 0.000000 0.238434
0.000000 0.248457 0.310006
0.000000 0.277375 0.366145
0.034873 0.292076 0.416698
0.143162 0.275593 0.407613
0.261504 0.253581 0.391007
0.402031 0.248835 0.385811
0.626375 0.172611 0.302854
0.757355 0.126876 0.254181
0.969477 0.000000 0.150984
0.000000 0.312946 0.310006
0.000000 0.369086 0.364859
0.033395 0.420709 0.414762
0.141452 0.411856 0.405557
0.258176 0.394336 0.387766
0.380886 0.371946 0.365900
0.608829 0.287146 0.280730
0.773100 0.208683 0.201704
0.961347 0.106363 0.098703
0.000000 0.467213 0.310006
0.000000 0.540367 0.336710
0.000000 0.605335 0.336254
0.073350 0.628061 0.325199
0.182453 0.615035 0.305673
0.300745 0.598028 0.284811
0.608829 0.592815 0.280730
0.773100 0.534705 0.201704
0.961347 0.457113 0.098703
0.000000 0.559190 0.310006
0.000000 0.635769 0.324949
0.000000 0.697700 0.306861
0.031863 0.753750 0.278518
0.136811 0.744879 0.257222
0.229754 0.754257 0.212784
0.557187 0.754257 0.212784
0.773100 0.752976 0.201704
0.961347 0.696701 0.098703
0.000000 0.651166 0.310006
0.000000 0.728692 0.315289
0.000000 0.793102 0.288705
0.000000 0.869815 0.238250
0.015017 0.950874 0.157046
0.127390 0.942746 0.108497
0.484926 0.942746 0.108497
0.726304 0.942746 0.108497
0.961347 0.936288 0.098703
0.000000 0.000000 0.462248
0.056139 0.000000 0.462248
0.121428 0.000000 0.462248
0.186717 0.000000 0.462248
0.252005 0.000000 0.462248
0.317294 0.000000 0.462248
0.474553 0.000000 0.462248
0.567670 0.000000 0.462248
0.660786 0.000000 0.462248
0.000000 0.054988 0.462248
0.001522 0.000000 0.534125
0.087884 0.000000 0.534125
0.174246 0.000000 0.534125
0.260608 0.000000 0.534125
0.346970 0.000000 0.534125
0.546889 0.000000 0.530702
0.643474 0.000000 0.509442
0.736723 0.000000 0.491941
0.000000 0.119478 0.462248
0.000000 0.084203 0.535217
0.003463 0.000000 0.597920
0.119407 0.000000 0.597920
0.235350 0.000000 0.597920
0.351294 0.000000 0.597920
0.609185 0.000000 0.587683
0.704646 0.000000 0.535440
0.801231 0.000000 0.500754
0.000000 0.183967 0.462248
0.000000 0.169937 0.535217
0.000000 0.112271 0.600789
0.076827 0.071214 0.621606
0.210119 0.071214 0.621606
0.343411 0.071214 0.621606
0.638534 0.065551 0.613490
0.765445 0.023886 0.555248
0.874576 0.000000 0.498988
0.000000 0.248457 0.462248
0.000000 0.255670 0.535217
0.000000 0.228043 0.600789
0.075651 0.201933 0.621215
0.186415 0.178880 0.608841
0.325046 0.178880 0.608841
0.626375 0.172611 0.600336
0.757355 0.126876 0.539304
0.969477 0.000000 0.482444
0.000000 0.312946 0.462248
0.000000 0.341403 0.535217
0.000000 0.343815 0.600789
0.075651 0.333838 0.621215
0.185003 0.314653 0.607939
0.302435 0.292904 0.589718
0.607867 0.286019 0.580986
0.773883 0.205248 0.521710
0.959265 0.105113 0.442413
0.000000 0.467213 0.462248
0.000000 0.540367 0.533782
0.000000 0.605335 0.596481
0.073350 0.628061 0.617918
0.182453 0.615035 0.604487
0.297979 0.595586 0.584695
0.570271 0.555178 0.544968
0.722535 0.480821 0.468874
0.886945 0.397243 0.384683
0.000000 0.559190 0.462248
0.000000 0.635769 0.511684
0.000000 0.697700 0.539952
0.031863 0.753750 0.559805
0.136811 0.744879 0.543623
0.221772 0.755994 0.525787
0.505377 0.708218 0.475885
0.722535 0.702130 0.468874
0.886945 0.629926 0.384683
0.000000 0.651166 0.462248
0.000000 0.728692 0.494064
0.000000 0.793102 0.503875
0.000000 0.869815 0.504739
0.015017 0.950874 0.488259
0.124322 0.937646 0.448689
0.425042 0.869249 0.394092
0.659243 0.869249 0.394092
0.886945 0.862609 0.384683
0.000000 0.000000 0.553453
0.056139 0.000000 0.553453
0.121428 0.000000 0.553453
0.186717 0.000000 0.553453
0.252005 0.000000 0.553453
0.317294 0.000000 0.553453
0.474553 0.000000 0.553453
0.567670 0.000000 0.553453
0.660786 0.000000 0.553453
0.000000 0.054988 0.553453
0.001470 0.000000 0.628728
0.084847 0.000000 0.628728
0.168225 0.000000 0.628728
0.251602 0.000000 0.628728
0.334980 0.000000 0.628728
0.527967 0.000000 0.628728
0.643474 0.000000 0.625399
0.736723 0.000000 0.604390
0.000000 0.119478 0.553453
0.000000 0.081225 0.629819
0.003164 0.000000 0.689901
0.109091 0.000000 0.689901
0.215018 0.000000 0.689901
0.320945 0.000000 0.689901
0.561890 0.000000 0.689901
0.704646 0.000000 0.681829
0.801231 0.000000 0.638789
0.000000 0.183967 0.553453
0.000000 0.163926 0.629819
0.000000 0.102227 0.691750
0.035625 0.030129 0.746188
0.166169 0.030129 0.746188
0.296712 0.030129 0.746188
0.588428 0.030129 0.746188
0.765445 0.023886 0.737100
0.874576 0.000000 0.671528
0.000000 0.248457 0.553453
0.000000 0.246627 0.629819
0.000000 0.207640 0.691750
0.034395 0.158058 0.745966
0.141049 0.133686 0.737530
0.276517 0.133686 0.737530
0.573819 0.133686 0.737530
0.757355 0.126876 0.727951
0.969477 0.000000 0.706180
0.000000 0.312946 0.553453
0.000000 0.329328 0.629819
0.000000 0.313054 0.691750
0.034395 0.287227 0.745966
0.139579 0.266259 0.736860
0.233710 0.223636 0.742481
0.559662 0.223636 0.742481
0.773883 0.205248 0.739877
0.959265 0.105113 0.679847
0.000000 0.467213 0.553453
0.000000 0.519225 0.629819
0.000000 0.550782 0.691750
0.034395 0.573231 0.745966
0.139579 0.557589 0.736860
0.229078 0.541253 0.743437
0.507976 0.490460 0.696246
0.720128 0.478826 0.685979
0.884081 0.395092 0.612945
0.000000 0.559190 0.553453
0.000000 0.635769 0.628427
0.000000 0.697700 0.688366
0.031863 0.753750 0.742274
0.136811 0.744879 0.732970
0.221772 0.755994 0.742372
0.500417 0.702384 0.688696
0.681951 0.664514 0.652719
0.836567 0.587696 0.573645
0.000000 0.651166 0.553453
0.000000 0.728692 0.607337
0.000000 0.793102 0.643508
0.000000 0.869815 0.680989
0.015017 0.950874 0.711599
0.124322 0.937646 0.684747
0.419747 0.862291 0.617449
0.616657 0.819867 0.582058
0.836567 0.813002 0.573645
0.000000 0.000000 0.644659
0.056139 0.000000 0.644659
0.121428 0.000000 0.644659
0.186717 0.000000 0.644659
0.252005 0.000000 0.644659
0.317294 0.000000 0.644659
0.474553 0.000000 0.644659
0.567670 0.000000 0.644659
0.660786 0.000000 0.644659
0.000000 0.054988 0.644659
0.001426 0.000000 0.720596
0.082307 0.000000 0.720596
0.163188 0.000000 0.720596
0.244069 0.000000 0.720596
0.324950 0.000000 0.720596
0.509864 0.000000 0.720596
0.625219 0.000000 0.720596
0.736723 0.000000 0.716839
0.000000 0.119478 0.644659
0.000000 0.078821 0.722185
0.002978 0.000000 0.784503
0.102673 0.000000 0.784503
0.202369 0.000000 0.784503
0.302065 0.000000 0.784503
0.524751 0.000000 0.784503
0.666940 0.000000 0.784503
0.801231 0.000000 0.776823
0.000000 0.183967 0.644659
0.000000 0.159073 0.722185
0.000000 0.096102 0.786353
0.005292 0.000000 0.859812
0.130973 0.000000 0.859812
0.256655 0.000000 0.859812
0.532357 0.000000 0.859812
0.711607 0.000000 0.859812
0.874576 0.000000 0.844068
0.000000 0.248457 0.644659
0.000000 0.239326 0.722185
0.000000 0.195201 0.786353
0.000000 0.120179 0.863858
0.032505 0.024029 0.930684
0.188463 0.024029 0.930684
0.524344 0.024029 0.930684
0.746776 0.024029 0.930684
0.969477 0.000000 0.929915
0.000000 0.312946 0.644659
0.000000 0.319579 0.722185
0.000000 0.294300 0.786353
0.000000 0.245710 0.863858
0.026621 0.173630 0.933314
0.132622 0.121395 0.928218
0.488965 0.121395 0.928218
0.729414 0.121395 0.928218
0.959265 0.105113 0.917281
0.000000 0.467213 0.644659
0.000000 0.501365 0.722185
0.000000 0.513677 0.786353
0.000000 0.518453 0.863858
0.026621 0.505258 0.933314
0.130810 0.467426 0.925201
0.429043 0.410680 0.854599
0.661994 0.410680 0.854599
0.884081 0.395092 0.843342
0.000000 0.559190 0.644659
0.000000 0.615824 0.722185
0.000000 0.655014 0.786353
0.000000 0.697489 0.863858
0.026621 0.727135 0.933314
0.130810 0.704707 0.925201
0.425925 0.637176 0.850507
0.619718 0.599220 0.805815
0.833589 0.585339 0.794183
0.000000 0.651166 0.644659
0.000000 0.728692 0.720610
0.000000 0.793102 0.783140
0.000000 0.869815 0.857240
0.015017 0.950874 0.934940
0.124322 0.937646 0.920805
0.419747 0.862291 0.845986
0.610809 0.812717 0.796982
0.793631 0.773851 0.760471
