docs/luts/fuji_recipes/Velvia_HF_Vibrant_Color.cube
TITLE "Fujifilm Recipe: HF Vibrant Color (Velvia)"
# FilmSim=Velvia HL=-1 SH=2 Col=2 WB=Auto WBR=0 WBB=0
LUT_3D_SIZE 9
DOMAIN_MIN 0.0 0.0 0.0
DOMAIN_MAX 1.0 1.0 1.0
0.000000 0.000000 0.000000
0.114243 0.000000 0.000000
0.227874 0.000000 0.000000
0.341505 0.000000 0.000000
0.506517 0.000000 0.000000
0.626425 0.000000 0.000000
0.746332 0.000000 0.000000
0.866240 0.000000 0.000000
0.970000 0.000000 0.000000
0.000000 0.112240 0.000000
0.114243 0.112240 0.000000
0.227874 0.112240 0.000000
0.341505 0.112240 0.000000
0.506517 0.112240 0.000000
0.626425 0.112240 0.000000
0.746332 0.112240 0.000000
0.866240 0.112240 0.000000
0.970000 0.112240 0.000000
0.000000 0.224480 0.000000
0.114243 0.224480 0.000000
0.227874 0.224480 0.000000
0.341505 0.224480 0.000000
0.506517 0.224480 0.000000
0.626425 0.224480 0.000000
0.746332 0.224480 0.000000
0.866240 0.224480 0.000000
0.970000 0.224480 0.000000
0.000000 0.336720 0.000000
0.114243 0.336720 0.000000
0.227874 0.336720 0.000000
0.341505 0.336720 0.000000
0.506517 0.336720 0.000000
0.626425 0.336720 0.000000
0.746332 0.336720 0.000000
0.866240 0.336720 0.000000
0.970000 0.336720 0.000000
0.000000 0.448960 0.000000
0.114243 0.448960 0.000000
0.227874 0.448960 0.000000
0.341505 0.448960 0.000000
0.506517 0.448960 0.000000
0.626425 0.448960 0.000000
0.746332 0.448960 0.000000
0.866240 0.448960 0.000000
0.970000 0.448960 0.000000
0.000000 0.618440 0.000000
0.114243 0.618440 0.000000
0.227874 0.618440 0.000000
0.341505 0.618440 0.000000
0.506517 0.618440 0.000000
0.626425 0.618440 0.000000
0.746332 0.618440 0.000000
0.866240 0.618440 0.000000
0.970000 0.618440 0.000000
0.000000 0.736880 0.000000
0.114243 0.736880 0.000000
0.227874 0.736880 0.000000
0.341505 0.736880 0.000000
0.506517 0.736880 0.000000
0.626425 0.736880 0.000000
0.746332 0.736880 0.000000
0.866240 0.736880 0.000000
0.970000 0.736880 0.000000
0.000000 0.855320 0.000000
0.114243 0.855320 0.000000
0.227874 0.855320 0.000000
0.341505 0.855320 0.000000
0.506517 0.855320 0.000000
0.626425 0.855320 0.000000
0.746332 0.855320 0.000000
0.866240 0.855320 0.000000
0.970000 0.855320 0.000000
0.000000 0.970000 0.000000
0.114243 0.970000 0.000000
0.227874 0.970000 0.000000
0.341505 0.970000 0.000000
0.506517 0.970000 0.000000
0.626425 0.970000 0.000000
0.746332 0.970000 0.000000
0.866240 0.970000 0.000000
0.970000 0.970000 0.000000
0.000000 0.000000 0.110885
0.114243 0.000000 0.110885
0.227874 0.000000 0.110885
0.341505 0.000000 0.110885
0.506517 0.000000 0.110885
0.626425 0.000000 0.110885
0.746332 0.000000 0.110885
0.866240 0.000000 0.110885
0.970000 0.000000 0.110885
0.000000 0.112240 0.110885
0.115464 0.112004 0.109664
0.270411 0.070688 0.068348
0.425358 0.029372 0.027032
0.618445 0.002160 0.000000
0.738697 0.001972 0.000000
0.858950 0.001855 0.000000
0.979202 0.001776 0.000000
1.000000 0.082335 0.080885
0.000000 0.224480 0.110885
0.075382 0.265783 0.069582
0.270411 0.264549 0.068348
0.425358 0.223233 0.027032
0.618445 0.181100 0.000000
0.738697 0.165326 0.000000
0.858950 0.155570 0.000000
0.979202 0.148939 0.000000
1.000000 0.202413 0.080885
0.000000 0.336720 0.110885
0.034571 0.418834 0.028772
0.230834 0.418834 0.028772
0.425358 0.417094 0.027032
0.618445 0.360040 0.000000
0.738697 0.328680 0.000000
0.858950 0.309284 0.000000
0.979202 0.296102 0.000000
1.000000 0.322492 0.080885
0.000000 0.448960 0.110885
0.005448 0.600597 0.000000
0.189817 0.600597 0.000000
0.374185 0.600597 0.000000
0.618445 0.590073 0.000000
0.738697 0.538282 0.000000
0.858950 0.506146 0.000000
0.979202 0.443265 0.000000
1.000000 0.442571 0.080885
0.000000 0.618440 0.110885
0.004911 0.730690 0.000000
0.171105 0.730690 0.000000
0.337300 0.730690 0.000000
0.566993 0.730690 0.000000
0.738697 0.727077 0.000000
0.858950 0.683799 0.000000
0.979202 0.654300 0.000000
1.000000 0.623887 0.080885
0.000000 0.736880 0.110885
0.004617 0.849470 0.000000
0.160868 0.849470 0.000000
0.317120 0.849470 0.000000
0.532703 0.849470 0.000000
0.697585 0.849470 0.000000
0.858950 0.846005 0.000000
0.979202 0.809592 0.000000
1.000000 0.750599 0.080885
0.000000 0.855320 0.110885
0.004418 0.968250 0.000000
0.153919 0.968250 0.000000
0.303421 0.968250 0.000000
0.509339 0.968250 0.000000
0.667098 0.968250 0.000000
0.824858 0.968250 0.000000
0.979202 0.964884 0.000000
1.000000 0.877311 0.080885
0.000000 0.970000 0.110885
0.084477 1.000000 0.080885
0.206044 1.000000 0.080885
0.327611 1.000000 0.080885
0.504147 1.000000 0.080885
0.632429 1.000000 0.080885
0.760711 1.000000 0.080885
0.888994 1.000000 0.080885
1.000000 1.000000 0.080885
0.000000 0.000000 0.222184
0.114243 0.000000 0.222184
0.227874 0.000000 0.222184
0.341505 0.000000 0.222184
0.506517 0.000000 0.222184
0.626425 0.000000 0.222184
0.746332 0.000000 0.222184
0.866240 0.000000 0.222184
0.970000 0.000000 0.222184
0.000000 0.112240 0.222184
0.075724 0.072264 0.262160
0.269918 0.070196 0.260091
0.424865 0.028879 0.218775
0.619796 0.000000 0.176280
0.740048 0.000000 0.160736
0.860300 0.000000 0.151134
0.980553 0.000000 0.144615
1.000000 0.082240 0.199875
0.000000 0.224480 0.222184
0.074161 0.264562 0.260597
0.229943 0.224081 0.220116
0.384890 0.182765 0.178799
0.603376 0.130007 0.126042
0.766820 0.086815 0.082849
0.930265 0.043622 0.039657
1.000000 0.093462 0.090174
1.000000 0.194664 0.192184
0.000000 0.336720 0.222184
0.033350 0.417613 0.219787
0.190366 0.378365 0.180539
0.384890 0.376625 0.178799
0.603376 0.323868 0.126042
0.766820 0.280675 0.082849
0.930265 0.237483 0.039657
1.000000 0.254210 0.090174
1.000000 0.315910 0.192184
0.000000 0.448960 0.222184
0.000000 0.603945 0.177729
0.142279 0.579118 0.132452
0.338542 0.579118 0.132452
0.603376 0.572638 0.126042
0.766820 0.528977 0.082849
0.930265 0.431344 0.039657
1.000000 0.414958 0.090174
1.000000 0.437155 0.192184
0.000000 0.618440 0.222184
0.000000 0.734038 0.159672
0.095552 0.755937 0.085726
0.291816 0.755937 0.085726
0.562623 0.755937 0.085726
0.766820 0.753030 0.082849
0.930265 0.709369 0.039657
1.000000 0.645106 0.090174
1.000000 0.620233 0.192184
0.000000 0.736880 0.222184
0.000000 0.852818 0.149829
0.052889 0.917380 0.043062
0.249152 0.917380 0.043062
0.519497 0.917380 0.043062
0.726602 0.917380 0.043062
0.930265 0.913939 0.039657
1.000000 0.814733 0.090174
1.000000 0.748176 0.192184
0.000000 0.855320 0.222184
0.000000 0.971598 0.143162
0.087613 1.000000 0.079223
0.255186 1.000000 0.079223
0.439338 1.000000 0.079223
0.662445 1.000000 0.079223
0.839275 1.000000 0.079223
1.000000 0.984361 0.090174
1.000000 0.876119 0.192184
0.000000 0.970000 0.222184
0.084243 1.000000 0.199752
0.198330 1.000000 0.192184
0.321078 1.000000 0.192184
0.499330 1.000000 0.192184
0.628858 1.000000 0.192184
0.758387 1.000000 0.192184
0.887915 1.000000 0.192184
1.000000 1.000000 0.192184
0.000000 0.000000 0.333483
0.114243 0.000000 0.333483
0.227874 0.000000 0.333483
0.341505 0.000000 0.333483
0.506517 0.000000 0.333483
0.626425 0.000000 0.333483
0.746332 0.000000 0.333483
0.866240 0.000000 0.333483
0.970000 0.000000 0.333483
0.000000 0.112240 0.333483
0.035255 0.031796 0.413928
0.231519 0.031796 0.413928
0.424865 0.028879 0.411011
0.619796 0.000000 0.354732
0.740048 0.000000 0.323452
0.860300 0.000000 0.304131
0.980553 0.000000 0.291012
1.000000 0.082240 0.318959
0.000000 0.224480 0.333483
0.034527 0.224929 0.413199
0.190708 0.184846 0.373117
0.384055 0.181930 0.370201
0.602534 0.129173 0.317444
0.765978 0.085981 0.274252
0.929422 0.042789 0.231060
1.000000 0.092463 0.248749
1.000000 0.194480 0.312256
0.000000 0.336720 0.333483
0.033350 0.417613 0.412023
0.188297 0.376296 0.370706
0.344421 0.336157 0.330567
0.562522 0.283458 0.277868
0.725967 0.240266 0.234676
0.889411 0.197074 0.191484
1.000000 0.206084 0.201147
1.000000 0.307025 0.303483
0.000000 0.448960 0.333483
0.000000 0.603945 0.360987
0.140213 0.577029 0.322622
0.298133 0.538264 0.284278
0.562522 0.531784 0.277868
0.725967 0.434127 0.234676
0.889411 0.390935 0.191484
1.000000 0.377289 0.201147
1.000000 0.429845 0.303483
0.000000 0.618440 0.333483
0.000000 0.734038 0.324311
0.093487 0.753848 0.275896
0.251406 0.715083 0.237552
0.521769 0.715083 0.237552
0.725967 0.712176 0.234676
0.889411 0.668515 0.191484
1.000000 0.622017 0.201147
1.000000 0.615301 0.303483
0.000000 0.736880 0.333483
0.000000 0.852818 0.304319
0.050823 0.915292 0.233232
0.208743 0.876527 0.194889
0.424424 0.876527 0.194889
0.685748 0.876527 0.194889
0.889411 0.873085 0.191484
1.000000 0.802680 0.201147
1.000000 0.744905 0.303483
0.000000 0.855320 0.333483
0.000000 0.971598 0.290777
0.084896 1.000000 0.241107
0.202862 1.000000 0.190195
0.400052 1.000000 0.190195
0.638547 1.000000 0.190195
0.827896 1.000000 0.190195
1.000000 0.983343 0.201147
1.000000 0.874510 0.303483
0.000000 0.970000 0.333483
0.084243 1.000000 0.318855
0.197874 1.000000 0.312022
0.312261 1.000000 0.303483
0.492827 1.000000 0.303483
0.624038 1.000000 0.303483
0.755249 1.000000 0.303483
0.886459 1.000000 0.303483
1.000000 1.000000 0.303483
0.000000 0.000000 0.444783
0.114243 0.000000 0.444783
0.227874 0.000000 0.444783
0.341505 0.000000 0.444783
0.506517 0.000000 0.444783
0.626425 0.000000 0.444783
0.746332 0.000000 0.444783
0.866240 0.000000 0.444783
0.970000 0.000000 0.444783
0.000000 0.112240 0.444783
0.003284 0.000000 0.597668
0.189580 0.000000 0.597668
0.375875 0.000000 0.597668
0.619796 0.000000 0.584418
0.740048 0.000000 0.532488
0.860300 0.000000 0.457128
0.980553 0.000000 0.437409
1.000000 0.082240 0.438044
0.000000 0.224480 0.444783
0.000000 0.182340 0.599665
0.142983 0.137121 0.572457
0.339246 0.137121 0.572457
0.602534 0.129173 0.564423
0.765978 0.085981 0.466488
0.929422 0.042789 0.423296
1.000000 0.092463 0.408327
1.000000 0.194480 0.432513
0.000000 0.336720 0.444783
0.000000 0.367992 0.599665
0.141751 0.329750 0.571211
0.305693 0.297428 0.484074
0.561334 0.282283 0.468929
0.724779 0.239091 0.425737
0.888223 0.195899 0.382545
1.000000 0.204374 0.369565
1.000000 0.306720 0.425021
0.000000 0.448960 0.444783
0.000000 0.603945 0.596918
0.140213 0.577029 0.569657
0.295220 0.535320 0.473602
0.521669 0.436909 0.429694
0.685113 0.393717 0.386502
0.848557 0.350525 0.343310
1.000000 0.319091 0.312119
1.000000 0.419437 0.414783
0.000000 0.618440 0.444783
0.000000 0.734038 0.535836
0.093487 0.753848 0.468132
0.248494 0.712139 0.426875
0.426678 0.674229 0.389378
0.685113 0.671322 0.386502
0.848557 0.627662 0.343310
1.000000 0.586431 0.312119
1.000000 0.608278 0.414783
0.000000 0.736880 0.444783
0.000000 0.852818 0.458808
0.050823 0.915292 0.425468
0.205831 0.873582 0.384212
0.384015 0.835673 0.346715
0.644894 0.835673 0.346715
0.848557 0.832231 0.343310
1.000000 0.784103 0.312119
1.000000 0.740249 0.414783
0.000000 0.855320 0.444783
0.000000 0.971598 0.438391
0.084896 1.000000 0.405733
0.198193 1.000000 0.362242
0.341351 0.997116 0.304052
0.601768 0.997116 0.304052
0.808873 0.997116 0.304052
1.000000 0.981775 0.312119
1.000000 0.872219 0.414783
0.000000 0.970000 0.444783
0.084243 1.000000 0.437958
0.197874 1.000000 0.432319
0.311505 1.000000 0.424642
0.483569 1.000000 0.414783
0.617175 1.000000 0.414783
0.750781 1.000000 0.414783
0.884387 1.000000 0.414783
1.000000 1.000000 0.414783
0.000000 0.000000 0.613039
0.114243 0.000000 0.613039
0.227874 0.000000 0.613039
0.341505 0.000000 0.613039
0.506517 0.000000 0.613039
0.626425 0.000000 0.613039
0.746332 0.000000 0.613039
0.866240 0.000000 0.613039
0.970000 0.000000 0.613039
0.000000 0.112240 0.613039
0.002953 0.000000 0.726624
0.170485 0.000000 0.726624
0.338017 0.000000 0.726624
0.569573 0.000000 0.726624
0.740048 0.000000 0.720479
0.860300 0.000000 0.677070
0.980553 0.000000 0.647506
1.000000 0.082240 0.618070
0.000000 0.224480 0.613039
0.000000 0.163642 0.728621
0.096664 0.090803 0.747732
0.292928 0.090803 0.747732
0.563747 0.090803 0.747732
0.765978 0.085981 0.742858
0.929422 0.042789 0.699198
1.000000 0.092463 0.636968
1.000000 0.194480 0.614311
0.000000 0.336720 0.613039
0.000000 0.330256 0.728621
0.095432 0.283431 0.746487
0.252177 0.243912 0.706533
0.522548 0.243912 0.706533
0.724779 0.239091 0.701659
0.888223 0.195899 0.657999
1.000000 0.204374 0.612942
1.000000 0.306720 0.609219
0.000000 0.448960 0.613039
0.000000 0.544076 0.728621
0.095432 0.531763 0.746487
0.250439 0.436036 0.704777
0.427107 0.397022 0.665334
0.683580 0.392201 0.660460
0.847024 0.349009 0.616800
1.000000 0.316284 0.575665
1.000000 0.418960 0.601933
0.000000 0.618440 0.613039
0.000000 0.734038 0.726049
0.093487 0.753848 0.744520
0.248494 0.712139 0.702810
0.418837 0.666302 0.656974
0.631292 0.617501 0.608172
0.794798 0.573902 0.564574
0.958304 0.530304 0.520975
1.000000 0.589348 0.583039
0.000000 0.736880 0.613039
0.000000 0.852818 0.680920
0.050823 0.915292 0.701394
0.205831 0.873582 0.659684
0.376174 0.827746 0.613848
0.591130 0.781909 0.568011
0.794798 0.778472 0.564574
0.958304 0.734873 0.520975
1.000000 0.727696 0.583039
0.000000 0.855320 0.613039
0.000000 0.971598 0.650263
0.084896 1.000000 0.641634
0.198193 1.000000 0.615155
0.333511 0.989189 0.570722
0.548065 0.943413 0.524946
0.755170 0.943413 0.524946
0.958304 0.939443 0.520975
1.000000 0.866044 0.583039
0.000000 0.970000 0.613039
0.084243 1.000000 0.618011
0.197874 1.000000 0.614179
0.311505 1.000000 0.608961
0.476517 1.000000 0.596829
0.598674 1.000000 0.583039
0.738737 1.000000 0.583039
0.878799 1.000000 0.583039
1.000000 1.000000 0.583039
0.000000 0.000000 0.730486
0.114243 0.000000 0.730486
0.227874 0.000000 0.730486
0.341505 0.000000 0.730486
0.506517 0.000000 0.730486
0.626425 0.000000 0.730486
0.746332 0.000000 0.730486
0.866240 0.000000 0.730486
0.970000 0.000000 0.730486
0.000000 0.112240 0.730486
0.002772 0.000000 0.844409
0.160063 0.000000 0.844409
0.317353 0.000000 0.844409
0.534386 0.000000 0.844409
0.700364 0.000000 0.844409
0.860300 0.000000 0.838518
0.980553 0.000000 0.801989
1.000000 0.082240 0.743732
0.000000 0.224480 0.730486
0.000000 0.153458 0.846406
0.054359 0.048497 0.907823
0.250622 0.048497 0.907823
0.520983 0.048497 0.907823
0.728087 0.048497 0.907823
0.929422 0.042789 0.902053
1.000000 0.092463 0.805360
1.000000 0.194480 0.741210
0.000000 0.336720 0.730486
0.000000 0.309705 0.846406
0.053127 0.241126 0.906577
0.209871 0.201607 0.866623
0.425552 0.201607 0.866623
0.686888 0.201607 0.866623
0.888223 0.195899 0.860854
1.000000 0.204374 0.792478
1.000000 0.306720 0.737794
0.000000 0.448960 0.730486
0.000000 0.509849 0.846406
0.053127 0.434987 0.906577
0.208134 0.393730 0.864867
0.384801 0.354716 0.825424
0.645689 0.354716 0.825424
0.847024 0.349009 0.819654
1.000000 0.316284 0.772492
1.000000 0.418960 0.732905
0.000000 0.618440 0.730486
0.000000 0.690429 0.846406
0.053127 0.713051 0.906577
0.208134 0.671341 0.864867
0.378477 0.625504 0.819031
0.591491 0.577700 0.771226
0.792834 0.571938 0.765465
0.956340 0.528340 0.721866
1.000000 0.588440 0.719609
0.000000 0.736880 0.730486
0.000000 0.852818 0.843943
0.050823 0.915292 0.904249
0.205831 0.873582 0.862539
0.376174 0.827746 0.816703
0.586263 0.777042 0.765998
0.752094 0.735768 0.724725
0.915600 0.692169 0.681126
1.000000 0.708482 0.700486
0.000000 0.855320 0.730486
0.000000 0.971598 0.806032
0.084896 1.000000 0.815354
0.198193 1.000000 0.801711
0.333511 0.989189 0.773577
0.543198 0.938546 0.722934
0.712466 0.900710 0.685097
0.915600 0.896739 0.681126
1.000000 0.856592 0.700486
0.000000 0.970000 0.730486
0.084243 1.000000 0.743693
0.197874 1.000000 0.741122
0.311505 1.000000 0.737621
0.476517 1.000000 0.729480
0.596425 1.000000 0.718659
0.720302 1.000000 0.700486
0.870247 1.000000 0.700486
1.000000 1.000000 0.700486
0.000000 0.000000 0.847933
0.114243 0.000000 0.847933
0.227874 0.000000 0.847933
0.341505 0.000000 0.847933
0.506517 0.000000 0.847933
0.626425 0.000000 0.847933
0.746332 0.000000 0.847933
0.866240 0.000000 0.847933
0.970000 0.000000 0.847933
0.000000 0.112240 0.847933
0.002650 0.000000 0.962193
0.152999 0.000000 0.962193
0.303349 0.000000 0.962193
0.510452 0.000000 0.962193
0.669107 0.000000 0.962193
0.827761 0.000000 0.962193
0.980553 0.000000 0.956473
1.000000 0.082240 0.869395
0.000000 0.224480 0.847933
0.000000 0.146566 0.964190
0.079216 0.074104 1.000000
0.250371 0.074104 1.000000
0.438461 0.074104 1.000000
0.666354 0.074104 1.000000
0.846964 0.074104 1.000000
1.000000 0.092463 0.973753
1.000000 0.194480 0.868109
0.000000 0.336720 0.847933
0.000000 0.295795 0.964190
0.077488 0.241746 1.000000
0.193770 0.186015 1.000000
0.396166 0.186015 1.000000
0.640975 0.186015 1.000000
0.835323 0.186015 1.000000
1.000000 0.204374 0.972015
1.000000 0.306720 0.866368
0.000000 0.448960 0.847933
0.000000 0.445024 0.964190
0.077488 0.411126 1.000000
0.190785 0.365599 1.000000
0.342495 0.312411 0.985515
0.602924 0.312411 0.985515
0.810029 0.312411 0.985515
1.000000 0.316284 0.969320
1.000000 0.418960 0.863877
0.000000 0.618440 0.847933
0.000000 0.659067 0.964190
0.077488 0.653675 1.000000
0.190785 0.626648 1.000000
0.336171 0.582740 0.979121
0.548787 0.534996 0.931377
0.755892 0.534996 0.931377
0.956340 0.528340 0.924721
1.000000 0.588440 0.857101
0.000000 0.736880 0.847933
0.000000 0.816539 0.964190
0.077488 0.832411 1.000000
0.190785 0.819333 1.000000
0.336171 0.787309 0.979121
0.545884 0.736663 0.928474
0.712827 0.696501 0.888312
0.913275 0.689845 0.881656
1.000000 0.706880 0.846516
0.000000 0.855320 0.847933
0.000000 0.971598 0.961802
0.084896 1.000000 0.989074
0.198193 1.000000 0.988267
0.333511 0.989189 0.976431
0.543198 0.938546 0.925788
0.706704 0.894948 0.882190
0.872896 0.854035 0.841277
0.991972 0.836007 0.825961
0.000000 0.970000 0.847933
0.084243 1.000000 0.869375
0.197874 1.000000 0.868064
0.311505 1.000000 0.866280
0.476517 1.000000 0.862131
0.596425 1.000000 0.856616
0.716332 1.000000 0.845188
0.850858 0.991972 0.825961
0.991972 0.991972 0.825961
0.000000 0.000000 0.965381
0.114243 0.000000 0.965381
0.227874 0.000000 0.965381
0.341505 0.000000 0.965381
0.506517 0.000000 0.965381
0.626425 0.000000 0.965381
0.746332 0.000000 0.965381
0.866240 0.000000 0.965381
0.970000 0.000000 0.965381
0.000000 0.112240 0.965381
0.079885 0.077719 1.000000
0.202791 0.077719 1.000000
0.325697 0.077719 1.000000
0.503682 0.077719 1.000000
0.633377 0.077719 1.000000
0.763072 0.077719 1.000000
0.892767 0.077719 1.000000
1.000000 0.082240 0.995057
0.000000 0.224480 0.965381
0.079722 0.198978 1.000000
0.193672 0.189959 1.000000
0.317999 0.189959 1.000000
0.497944 0.189959 1.000000
0.629139 0.189959 1.000000
0.760333 0.189959 1.000000
0.891528 0.189959 1.000000
1.000000 0.194480 0.995009
0.000000 0.336720 0.965381
0.079722 0.320401 1.000000
0.193353 0.312492 1.000000
0.307516 0.302199 1.000000
0.490126 0.302199 1.000000
0.623363 0.302199 1.000000
0.756601 0.302199 1.000000
0.889838 0.302199 1.000000
1.000000 0.306720 0.994943
0.000000 0.448960 0.965381
0.079722 0.441825 1.000000
0.193353 0.435346 1.000000
0.306984 0.426477 1.000000
0.478841 0.414439 1.000000
0.615028 0.414439 1.000000
0.751214 0.414439 1.000000
0.887400 0.414439 1.000000
1.000000 0.418960 0.994849
0.000000 0.618440 0.965381
0.079722 0.624674 1.000000
0.193353 0.620251 1.000000
0.306984 0.614191 1.000000
0.471897 0.600709 1.000000
0.593399 0.583821 1.000000
0.737236 0.583821 1.000000
0.881074 0.583821 1.000000
1.000000 0.588440 0.994592
0.000000 0.736880 0.965381
0.079722 0.752804 1.000000
0.193353 0.749891 1.000000
0.306984 0.745900 1.000000
0.471897 0.737021 1.000000
0.591805 0.724823 1.000000
0.714577 0.702261 1.000000
0.870818 0.702261 1.000000
1.000000 0.706880 0.994192
0.000000 0.855320 0.965381
0.079722 0.880935 1.000000
0.193353 0.879531 1.000000
0.306984 0.877609 1.000000
0.471897 0.873332 1.000000
0.591805 0.867457 1.000000
0.711713 0.855150 1.000000
0.845325 0.829227 0.991474
0.990642 0.834678 0.984360
0.000000 0.970000 0.965381
0.084243 1.000000 0.995057
0.197874 1.000000 0.995007
0.311505 1.000000 0.994940
0.476517 1.000000 0.994783
0.596425 1.000000 0.994574
0.716332 1.000000 0.994141
0.847563 0.988677 0.982394
0.970831 0.970831 0.964549
