docs/luts/fuji_recipes/Velvia_RR_Lomography_Color_100.cube
TITLE "Fujifilm Recipe: RR Lomography Color 100 (Velvia)"
# FilmSim=Velvia HL=1 SH=1 Col=-3 WB=Shade WBR=-3 WBB=7
LUT_3D_SIZE 9
DOMAIN_MIN 0.0 0.0 0.0
DOMAIN_MAX 1.0 1.0 1.0
0.000000 0.000000 0.000000
0.098657 0.033982 0.033982
0.190861 0.065741 0.065741
0.283064 0.097501 0.097501
0.402561 0.138661 0.138661
0.505723 0.174195 0.174195
0.608885 0.209729 0.209729
0.686530 0.236473 0.236473
0.686530 0.236473 0.236473
0.033064 0.095991 0.033064
0.098657 0.096909 0.033982
0.190861 0.128668 0.065741
0.283064 0.160428 0.097501
0.402561 0.201588 0.138661
0.505723 0.237122 0.174195
0.608885 0.272656 0.209729
0.686530 0.299400 0.236473
0.686530 0.299400 0.236473
0.064856 0.188289 0.064856
0.129531 0.188289 0.064856
0.190861 0.189175 0.065741
0.283064 0.220934 0.097501
0.402561 0.262094 0.138661
0.505723 0.297628 0.174195
0.608885 0.333162 0.209729
0.686530 0.359907 0.236473
0.686530 0.359907 0.236473
0.096648 0.280588 0.096648
0.161323 0.280588 0.096648
0.221767 0.280588 0.096648
0.283064 0.281441 0.097501
0.402561 0.322601 0.138661
0.505723 0.358135 0.174195
0.608885 0.393669 0.209729
0.686530 0.420413 0.236473
0.686530 0.420413 0.236473
0.137743 0.399896 0.137743
0.202418 0.399896 0.137743
0.262862 0.399896 0.137743
0.323307 0.399896 0.137743
0.402561 0.400814 0.138661
0.505723 0.436348 0.174195
0.608885 0.471882 0.209729
0.686530 0.498626 0.236473
0.686530 0.498626 0.236473
0.173314 0.503165 0.173314
0.237989 0.503165 0.173314
0.298433 0.503165 0.173314
0.358877 0.503165 0.173314
0.437213 0.503165 0.173314
0.505723 0.504046 0.174195
0.608885 0.539580 0.209729
0.686530 0.566324 0.236473
0.686530 0.566324 0.236473
0.208884 0.606433 0.208884
0.273559 0.606433 0.208884
0.334004 0.606433 0.208884
0.394448 0.606433 0.208884
0.472784 0.606433 0.208884
0.540412 0.606433 0.208884
0.608885 0.607278 0.209729
0.686530 0.634022 0.236473
0.686530 0.634022 0.236473
0.244455 0.709702 0.244455
0.309130 0.709702 0.244455
0.369574 0.709702 0.244455
0.430018 0.709702 0.244455
0.508355 0.709702 0.244455
0.575983 0.709702 0.244455
0.643611 0.709702 0.244455
0.694511 0.709702 0.244455
0.694511 0.709702 0.244455
0.246772 0.716428 0.246772
0.311447 0.716428 0.246772
0.371891 0.716428 0.246772
0.432335 0.716428 0.246772
0.510671 0.716428 0.246772
0.578300 0.716428 0.246772
0.645928 0.716428 0.246772
0.696828 0.716428 0.246772
0.696828 0.716428 0.246772
0.035080 0.035080 0.101844
0.099755 0.035080 0.101844
0.190861 0.065741 0.132506
0.283064 0.097501 0.164265
0.402561 0.138661 0.205425
0.505723 0.174195 0.240959
0.608885 0.209729 0.276493
0.686530 0.236473 0.303237
0.686530 0.236473 0.303237
0.035080 0.098007 0.101844
0.137858 0.135683 0.140457
0.237468 0.156734 0.161715
0.337428 0.179458 0.184401
0.468466 0.212034 0.216949
0.580308 0.239008 0.243908
0.692079 0.266053 0.270942
0.754825 0.288209 0.292952
0.754825 0.288209 0.292952
0.064856 0.188289 0.131620
0.159166 0.235510 0.161881
0.239301 0.237110 0.163453
0.339316 0.259198 0.186123
0.470331 0.291293 0.218633
0.582198 0.318008 0.245581
0.693987 0.344869 0.272608
0.756996 0.364646 0.294510
0.756996 0.364646 0.294510
0.096648 0.280588 0.163412
0.181879 0.335607 0.184572
0.260771 0.336634 0.185509
0.339316 0.337222 0.186123
0.470331 0.368872 0.218633
0.582198 0.395339 0.245581
0.693987 0.422024 0.272608
0.756996 0.439532 0.294510
0.756996 0.439532 0.294510
0.137743 0.399896 0.204507
0.214344 0.466426 0.217022
0.292767 0.467440 0.217938
0.370274 0.467440 0.217938
0.470331 0.468091 0.218633
0.582198 0.493533 0.245581
0.693987 0.519289 0.272608
0.756996 0.534549 0.294510
0.756996 0.534549 0.294510
0.173314 0.503165 0.240078
0.241332 0.578397 0.244001
0.319498 0.579425 0.244912
0.396754 0.579425 0.244912
0.495130 0.579425 0.244912
0.582198 0.580055 0.245581
0.693987 0.605613 0.272608
0.756996 0.618335 0.294510
0.756996 0.618335 0.294510
0.208884 0.606433 0.275648
0.268395 0.690293 0.271058
0.346379 0.691331 0.271965
0.423458 0.691331 0.271965
0.520901 0.691331 0.271965
0.607141 0.691331 0.271965
0.693987 0.691938 0.272608
0.756996 0.702121 0.294510
0.756996 0.702121 0.294510
0.244455 0.709702 0.311219
0.314103 0.763745 0.316506
0.384658 0.764926 0.317534
0.454185 0.764926 0.317534
0.543433 0.764926 0.317534
0.621224 0.764926 0.317534
0.699015 0.764926 0.317534
0.757564 0.764926 0.317534
0.757564 0.764926 0.317534
0.246772 0.716428 0.313536
0.335024 0.770951 0.337273
0.401268 0.772132 0.338454
0.466331 0.772132 0.338454
0.550653 0.772132 0.338454
0.623449 0.772132 0.338454
0.696245 0.772132 0.338454
0.751035 0.772132 0.338454
0.751035 0.772132 0.338454
0.069805 0.069805 0.202657
0.134479 0.069805 0.202657
0.194924 0.069805 0.202657
0.283064 0.097501 0.230353
0.402561 0.138661 0.271513
0.505723 0.174195 0.307047
0.608885 0.209729 0.342581
0.686530 0.236473 0.369325
0.686530 0.236473 0.369325
0.069805 0.132731 0.202657
0.161886 0.159619 0.250278
0.240252 0.159619 0.250278
0.337428 0.179458 0.269530
0.468466 0.212034 0.301610
0.580308 0.239008 0.328307
0.692079 0.266053 0.355157
0.754825 0.288209 0.374632
0.754825 0.288209 0.374632
0.069805 0.193238 0.202657
0.162675 0.238900 0.251118
0.269083 0.266986 0.278702
0.366444 0.285294 0.297596
0.497170 0.316786 0.328997
0.609466 0.343306 0.355463
0.731521 0.360068 0.372870
0.789047 0.387560 0.399504
0.789047 0.387560 0.399504
0.096648 0.280588 0.229500
0.181879 0.335607 0.269757
0.287667 0.364534 0.297772
0.371771 0.369752 0.306204
0.501527 0.399540 0.333204
0.613899 0.425680 0.359647
0.735383 0.446393 0.376980
0.794374 0.468124 0.403026
0.794374 0.468124 0.403026
0.137743 0.399896 0.270595
0.214344 0.466426 0.301725
0.319041 0.495048 0.329071
0.400978 0.498621 0.332525
0.501527 0.499259 0.333204
0.613899 0.524230 0.359647
0.735383 0.549236 0.376980
0.794374 0.565052 0.403026
0.794374 0.565052 0.403026
0.173314 0.503165 0.306166
0.241332 0.578397 0.328435
0.345569 0.607479 0.355554
0.427127 0.611115 0.358989
0.525863 0.611115 0.358989
0.613899 0.611732 0.359647
0.735383 0.641218 0.376980
0.794374 0.651315 0.403026
0.794374 0.651315 0.403026
0.208884 0.606433 0.341736
0.268395 0.690293 0.355303
0.362582 0.729425 0.373089
0.448064 0.732597 0.376466
0.551062 0.732597 0.376466
0.642921 0.732597 0.376466
0.735383 0.733199 0.376980
0.794374 0.737578 0.403026
0.794374 0.737578 0.403026
0.244455 0.709702 0.377307
0.314103 0.763745 0.392497
0.413352 0.797931 0.422354
0.487525 0.802304 0.426050
0.577592 0.802304 0.426050
0.656464 0.802304 0.426050
0.735336 0.802304 0.426050
0.794699 0.802304 0.426050
0.794699 0.802304 0.426050
0.246772 0.716428 0.379624
0.335024 0.770951 0.408411
0.434273 0.805137 0.442597
0.503709 0.809510 0.446970
0.588031 0.809510 0.446970
0.660827 0.809510 0.446970
0.733623 0.809510 0.446970
0.788413 0.809510 0.446970
0.788413 0.809510 0.446970
0.104529 0.104529 0.303469
0.169204 0.104529 0.303469
0.229648 0.104529 0.303469
0.290093 0.104529 0.303469
0.402561 0.138661 0.337601
0.505723 0.174195 0.373135
0.608885 0.209729 0.408669
0.686530 0.236473 0.435413
0.686530 0.236473 0.435413
0.104529 0.167456 0.303469
0.186776 0.184527 0.359510
0.264538 0.184527 0.359510
0.342301 0.184527 0.359510
0.468466 0.212034 0.386270
0.580308 0.239008 0.412706
0.692079 0.266053 0.439371
0.754825 0.288209 0.456312
0.754825 0.288209 0.456312
0.104529 0.227963 0.303469
0.187557 0.263188 0.360375
0.292409 0.290211 0.388678
0.371234 0.290211 0.388678
0.497170 0.316786 0.414678
0.609466 0.343306 0.440764
0.731521 0.360068 0.462697
0.789047 0.387560 0.483305
0.789047 0.387560 0.483305
0.104529 0.288469 0.303469
0.187557 0.341068 0.360375
0.293174 0.369905 0.389472
0.400308 0.398288 0.416947
0.524771 0.422642 0.442259
0.640355 0.445874 0.465969
0.756366 0.468679 0.489011
0.823268 0.486912 0.506656
0.823268 0.486912 0.506656
0.137743 0.399896 0.336683
0.214344 0.466426 0.386428
0.319041 0.495048 0.414788
0.430949 0.523895 0.447588
0.532539 0.530366 0.454224
0.646662 0.553826 0.472652
0.762541 0.576993 0.495589
0.831752 0.591520 0.511542
0.831752 0.591520 0.511542
0.173314 0.503165 0.372254
0.241332 0.578397 0.412870
0.345569 0.607479 0.440885
0.448189 0.638179 0.466103
0.555574 0.643807 0.472065
0.646662 0.644418 0.472652
0.762541 0.668679 0.495589
0.831752 0.681714 0.511542
0.831752 0.681714 0.511542
0.208884 0.606433 0.407824
0.268395 0.690293 0.439547
0.362582 0.729425 0.462884
0.471069 0.754258 0.489193
0.578823 0.759767 0.495064
0.670383 0.759767 0.495064
0.762541 0.760364 0.495589
0.831752 0.771907 0.511542
0.831752 0.771907 0.511542
0.244455 0.709702 0.443395
0.314103 0.763745 0.468489
0.413352 0.797931 0.499283
0.512601 0.832117 0.528453
0.609971 0.839682 0.534566
0.690522 0.839682 0.534566
0.771074 0.839682 0.534566
0.831700 0.839682 0.534566
0.831700 0.839682 0.534566
0.246772 0.716428 0.445712
0.335024 0.770951 0.479548
0.434273 0.805137 0.513735
0.533522 0.839323 0.547921
0.625409 0.846888 0.555486
0.698205 0.846888 0.555486
0.771001 0.846888 0.555486
0.825791 0.846888 0.555486
0.825791 0.846888 0.555486
0.149843 0.149843 0.435023
0.214517 0.149843 0.435023
0.274962 0.149843 0.435023
0.335406 0.149843 0.435023
0.413742 0.149843 0.435023
0.505723 0.174195 0.459375
0.608885 0.209729 0.494909
0.686530 0.236473 0.521654
0.686530 0.236473 0.521654
0.149843 0.212769 0.435023
0.222748 0.220512 0.503670
0.300094 0.220512 0.503670
0.377439 0.220512 0.503670
0.476439 0.220512 0.503670
0.580308 0.239008 0.521119
0.692079 0.266053 0.546842
0.754825 0.288209 0.561161
0.754825 0.288209 0.561161
0.149843 0.273276 0.435023
0.223513 0.298730 0.504524
0.327288 0.325106 0.532532
0.405531 0.325106 0.532532
0.504985 0.325106 0.532532
0.609466 0.343306 0.549645
0.731521 0.360068 0.576604
0.789047 0.387560 0.590089
0.789047 0.387560 0.590089
0.149843 0.333783 0.435023
0.223513 0.376186 0.504524
0.328038 0.404200 0.533318
0.432793 0.430669 0.560426
0.532590 0.430669 0.560426
0.640355 0.445874 0.578264
0.756366 0.468679 0.601876
0.823268 0.486912 0.616351
0.823268 0.486912 0.616351
0.149843 0.411995 0.435023
0.223513 0.475046 0.504524
0.328038 0.503502 0.533318
0.433080 0.531262 0.561596
0.570546 0.568374 0.597017
0.674751 0.582420 0.613068
0.789620 0.604817 0.635879
0.868293 0.617629 0.649108
0.868293 0.617629 0.649108
0.173314 0.503165 0.458494
0.241332 0.578397 0.521326
0.345569 0.607479 0.549802
0.448189 0.638179 0.578355
0.584963 0.672697 0.613273
0.685378 0.683292 0.627727
0.799589 0.706299 0.646170
0.883075 0.721611 0.660544
0.883075 0.721611 0.660544
0.208884 0.606433 0.494065
0.268395 0.690293 0.547054
0.362582 0.729425 0.576747
0.471069 0.754258 0.602010
0.607443 0.787624 0.636133
0.708013 0.796845 0.645652
0.799589 0.797425 0.646170
0.883075 0.814157 0.660544
0.883075 0.814157 0.660544
0.244455 0.709702 0.529635
0.314103 0.763745 0.566805
0.413352 0.797931 0.598437
0.512601 0.832117 0.628847
0.639485 0.875822 0.665533
0.731966 0.887858 0.674428
0.815922 0.887858 0.674428
0.879111 0.887858 0.674428
0.879111 0.887858 0.674428
0.246772 0.716428 0.531952
0.335024 0.770951 0.572379
0.434273 0.805137 0.606565
0.533522 0.839323 0.640751
0.662149 0.883628 0.685056
0.746981 0.895664 0.697092
0.819777 0.895664 0.697092
0.874566 0.895664 0.697092
0.874566 0.895664 0.697092
0.188694 0.188694 0.547818
0.253369 0.188694 0.547818
0.313814 0.188694 0.547818
0.374258 0.188694 0.547818
0.452594 0.188694 0.547818
0.520222 0.188694 0.547818
0.608885 0.209729 0.568852
0.686530 0.236473 0.595597
0.686530 0.236473 0.595597
0.188694 0.251621 0.547818
0.252267 0.250037 0.625922
0.329383 0.250037 0.625922
0.406499 0.250037 0.625922
0.504434 0.250037 0.625922
0.590715 0.250037 0.625922
0.692079 0.266053 0.641066
0.754825 0.288209 0.652549
0.754825 0.288209 0.652549
0.188694 0.312128 0.547818
0.253027 0.328017 0.626787
0.349293 0.347017 0.662398
0.430906 0.347017 0.662398
0.533827 0.347017 0.662398
0.625139 0.347017 0.662398
0.731521 0.360068 0.677107
0.789047 0.387560 0.683851
0.789047 0.387560 0.683851
0.188694 0.372634 0.547818
0.253027 0.405239 0.626787
0.350038 0.429451 0.663096
0.457548 0.455364 0.687508
0.559388 0.455364 0.687508
0.650380 0.455364 0.687508
0.756366 0.468679 0.702103
0.823268 0.486912 0.713683
0.823268 0.486912 0.713683
0.188694 0.450847 0.547818
0.253027 0.503029 0.626787
0.350038 0.532177 0.663096
0.458269 0.557728 0.688184
0.594087 0.591751 0.721431
0.684527 0.591751 0.721431
0.789620 0.604817 0.735620
0.868293 0.617629 0.750191
0.868293 0.617629 0.750191
0.188694 0.518545 0.547818
0.253027 0.589429 0.626787
0.350038 0.623575 0.663096
0.458269 0.648803 0.688184
0.594877 0.683059 0.722198
0.717368 0.715282 0.751693
0.819053 0.726265 0.765455
0.906354 0.742275 0.782232
0.906354 0.742275 0.782232
0.208884 0.606433 0.568008
0.268395 0.690293 0.641310
0.362582 0.729425 0.677215
0.471069 0.754258 0.702195
0.607443 0.787624 0.735820
0.728732 0.817060 0.765651
0.831944 0.829802 0.778614
0.918841 0.847348 0.795028
0.918841 0.847348 0.795028
0.244455 0.709702 0.603578
0.314103 0.763745 0.651828
0.413352 0.797931 0.684509
0.512601 0.832117 0.716470
0.639485 0.875822 0.756038
0.750530 0.914071 0.786366
0.850143 0.929678 0.795842
0.919184 0.929678 0.795842
0.919184 0.929678 0.795842
0.246772 0.716428 0.605895
0.335024 0.770951 0.651971
0.434273 0.805137 0.686158
0.533522 0.839323 0.720344
0.662149 0.883628 0.764649
0.773194 0.921877 0.802898
0.861598 0.937485 0.818506
0.916387 0.937485 0.818506
0.916387 0.937485 0.818506
0.227546 0.227546 0.660612
0.292221 0.227546 0.660612
0.352665 0.227546 0.660612
0.413110 0.227546 0.660612
0.491446 0.227546 0.660612
0.559074 0.227546 0.660612
0.626702 0.227546 0.660612
0.686530 0.236473 0.669539
0.686530 0.236473 0.669539
0.227546 0.290473 0.660612
0.264801 0.262457 0.745955
0.345851 0.262457 0.745955
0.426900 0.262457 0.745955
0.529231 0.262457 0.745955
0.619914 0.262457 0.745955
0.710597 0.262457 0.745955
0.754825 0.288209 0.743937
0.754825 0.288209 0.743937
0.227546 0.350980 0.660612
0.265327 0.344196 0.746944
0.370636 0.368331 0.782423
0.453266 0.368331 0.782423
0.556644 0.368331 0.782423
0.649095 0.368331 0.782423
0.741546 0.368331 0.782423
0.789047 0.387560 0.777613
0.789047 0.387560 0.777613
0.227546 0.411486 0.660612
0.265327 0.425410 0.746944
0.371473 0.451884 0.783505
0.481621 0.479404 0.815246
0.584181 0.479404 0.815246
0.676555 0.479404 0.815246
0.768928 0.479404 0.815246
0.823268 0.486912 0.811014
0.823268 0.486912 0.811014
0.227546 0.489699 0.660612
0.265327 0.527648 0.746944
0.371473 0.555073 0.783505
0.482322 0.582471 0.815908
0.617647 0.615268 0.847995
0.709734 0.615268 0.847995
0.801822 0.615268 0.847995
0.868293 0.617629 0.851274
0.868293 0.617629 0.851274
0.227546 0.557397 0.660612
0.265327 0.618515 0.746944
0.371473 0.647619 0.783505
0.482322 0.674934 0.815908
0.618415 0.708210 0.848741
0.739437 0.737165 0.876978
0.831045 0.737165 0.876978
0.906354 0.742275 0.883163
0.906354 0.742275 0.883163
0.227546 0.625095 0.660612
0.265327 0.709382 0.746944
0.371473 0.740165 0.783505
0.482322 0.767398 0.815908
0.618415 0.800383 0.848741
0.740183 0.829597 0.877699
0.860891 0.858740 0.906285
0.935297 0.864212 0.912296
0.935297 0.864212 0.912296
0.244455 0.709702 0.677521
0.314103 0.763745 0.736852
0.413352 0.797931 0.770582
0.512601 0.832117 0.804093
0.639485 0.875822 0.846543
0.750530 0.914071 0.882391
0.869589 0.955080 0.915945
0.955980 0.976744 0.932756
0.955980 0.976744 0.932756
0.246772 0.716428 0.679838
0.335024 0.770951 0.731564
0.434273 0.805137 0.765750
0.533522 0.839323 0.799937
0.662149 0.883628 0.844242
0.773194 0.921877 0.882491
0.884239 0.960127 0.920740
0.958208 0.979305 0.939919
0.958208 0.979305 0.939919
0.246772 0.246772 0.716428
0.311447 0.246772 0.716428
0.371891 0.246772 0.716428
0.432335 0.246772 0.716428
0.510671 0.246772 0.716428
0.578300 0.246772 0.716428
0.645928 0.246772 0.716428
0.696828 0.246772 0.716428
0.696828 0.246772 0.716428
0.246772 0.309699 0.716428
0.330419 0.328515 0.768709
0.396229 0.328515 0.768709
0.462040 0.328515 0.768709
0.547183 0.328515 0.768709
0.620815 0.328515 0.768709
0.694447 0.328515 0.768709
0.749866 0.328515 0.768709
0.749866 0.328515 0.768709
0.246772 0.370205 0.716428
0.331386 0.395364 0.769697
0.429706 0.427867 0.802930
0.495656 0.427867 0.802930
0.580915 0.427867 0.802930
0.654702 0.427867 0.802930
0.728490 0.427867 0.802930
0.784026 0.427867 0.802930
0.784026 0.427867 0.802930
0.246772 0.430712 0.716428
0.331386 0.461246 0.769697
0.430635 0.494817 0.803884
0.528995 0.527218 0.837151
0.614423 0.527218 0.837151
0.688437 0.527218 0.837151
0.762452 0.527218 0.837151
0.818158 0.527218 0.837151
0.818158 0.527218 0.837151
0.246772 0.508925 0.716428
0.331386 0.546257 0.769697
0.430635 0.579946 0.803884
0.529884 0.613405 0.838070
0.657262 0.655340 0.881283
0.731687 0.655340 0.881283
0.806112 0.655340 0.881283
0.862128 0.655340 0.881283
0.862128 0.655340 0.881283
0.246772 0.576623 0.716428
0.331386 0.619969 0.769697
0.430635 0.653815 0.803884
0.529884 0.687504 0.838070
0.658208 0.730800 0.882271
0.768363 0.766499 0.919571
0.843540 0.766499 0.919571
0.900121 0.766499 0.919571
0.900121 0.766499 0.919571
0.246772 0.644321 0.716428
0.331386 0.693681 0.769697
0.430635 0.727684 0.803884
0.529884 0.761602 0.838070
0.658208 0.805316 0.882271
0.769253 0.842670 0.920520
0.879494 0.877659 0.957860
0.937609 0.877659 0.957860
0.937609 0.877659 0.957860
0.246772 0.712019 0.716428
0.331386 0.767393 0.769697
0.430635 0.801553 0.803884
0.529884 0.835700 0.838070
0.658208 0.879831 0.882271
0.769253 0.917951 0.920520
0.880298 0.955846 0.958769
0.963876 0.983179 0.987557
0.963876 0.983179 0.987557
0.246772 0.716428 0.716428
0.335024 0.770951 0.770951
0.434273 0.805137 0.805137
0.533522 0.839323 0.839323
0.662149 0.883628 0.883628
0.773194 0.921877 0.921877
0.884239 0.960127 0.960127
0.967817 0.988915 0.988915
0.967817 0.988915 0.988915
0.246772 0.246772 0.716428
0.311447 0.246772 0.716428
0.371891 0.246772 0.716428
0.432335 0.246772 0.716428
0.510671 0.246772 0.716428
0.578300 0.246772 0.716428
0.645928 0.246772 0.716428
0.696828 0.246772 0.716428
0.696828 0.246772 0.716428
0.246772 0.309699 0.716428
0.330419 0.328515 0.768709
0.396229 0.328515 0.768709
0.462040 0.328515 0.768709
0.547183 0.328515 0.768709
0.620815 0.328515 0.768709
0.694447 0.328515 0.768709
0.749866 0.328515 0.768709
0.749866 0.328515 0.768709
0.246772 0.370205 0.716428
0.331386 0.395364 0.769697
0.429706 0.427867 0.802930
0.495656 0.427867 0.802930
0.580915 0.427867 0.802930
0.654702 0.427867 0.802930
0.728490 0.427867 0.802930
0.784026 0.427867 0.802930
0.784026 0.427867 0.802930
0.246772 0.430712 0.716428
0.331386 0.461246 0.769697
0.430635 0.494817 0.803884
0.528995 0.527218 0.837151
0.614423 0.527218 0.837151
0.688437 0.527218 0.837151
0.762452 0.527218 0.837151
0.818158 0.527218 0.837151
0.818158 0.527218 0.837151
0.246772 0.508925 0.716428
0.331386 0.546257 0.769697
0.430635 0.579946 0.803884
0.529884 0.613405 0.838070
0.657262 0.655340 0.881283
0.731687 0.655340 0.881283
0.806112 0.655340 0.881283
0.862128 0.655340 0.881283
0.862128 0.655340 0.881283
0.246772 0.576623 0.716428
0.331386 0.619969 0.769697
0.430635 0.653815 0.803884
0.529884 0.687504 0.838070
0.658208 0.730800 0.882271
0.768363 0.766499 0.919571
0.843540 0.766499 0.919571
0.900121 0.766499 0.919571
0.900121 0.766499 0.919571
0.246772 0.644321 0.716428
0.331386 0.693681 0.769697
0.430635 0.727684 0.803884
0.529884 0.761602 0.838070
0.658208 0.805316 0.882271
0.769253 0.842670 0.920520
0.879494 0.877659 0.957860
0.937609 0.877659 0.957860
0.937609 0.877659 0.957860
0.246772 0.712019 0.716428
0.331386 0.767393 0.769697
0.430635 0.801553 0.803884
0.529884 0.835700 0.838070
0.658208 0.879831 0.882271
0.769253 0.917951 0.920520
0.880298 0.955846 0.958769
0.963876 0.983179 0.987557
0.963876 0.983179 0.987557
0.246772 0.716428 0.716428
0.335024 0.770951 0.770951
0.434273 0.805137 0.805137
0.533522 0.839323 0.839323
0.662149 0.883628 0.883628
0.773194 0.921877 0.921877
0.884239 0.960127 0.960127
0.967817 0.988915 0.988915
0.967817 0.988915 0.988915
