docs/luts/fuji_recipes/Velvia_RR_Lomography_Color_100.cube
TITLE "Fujifilm Recipe: RR Lomography Color 100 (Velvia)"
# FilmSim=Velvia HL=1 SH=1 Col=-3 WB=Shade WBR=-3 WBB=7
LUT_3D_SIZE 5
DOMAIN_MIN 0.0 0.0 0.0
DOMAIN_MAX 1.0 1.0 1.0
0.000000 0.000000 0.000000
0.190861 0.065741 0.065741
0.402561 0.138661 0.138661
0.608885 0.209729 0.209729
0.686530 0.236473 0.236473
0.064856 0.188289 0.064856
0.190861 0.189175 0.065741
0.402561 0.262094 0.138661
0.608885 0.333162 0.209729
0.686530 0.359907 0.236473
0.137743 0.399896 0.137743
0.262862 0.399896 0.137743
0.402561 0.400814 0.138661
0.608885 0.471882 0.209729
0.686530 0.498626 0.236473
0.208884 0.606433 0.208884
0.334004 0.606433 0.208884
0.472784 0.606433 0.208884
0.608885 0.607278 0.209729
0.686530 0.634022 0.236473
0.246772 0.716428 0.246772
0.371891 0.716428 0.246772
0.510671 0.716428 0.246772
0.645928 0.716428 0.246772
0.696828 0.716428 0.246772
0.069805 0.069805 0.202657
0.194924 0.069805 0.202657
0.402561 0.138661 0.271513
0.608885 0.209729 0.342581
0.686530 0.236473 0.369325
0.069805 0.193238 0.202657
0.269083 0.266986 0.278702
0.497170 0.316786 0.328997
0.731521 0.360068 0.372870
0.789047 0.387560 0.399504
0.137743 0.399896 0.270595
0.319041 0.495048 0.329071
0.501527 0.499259 0.333204
0.735383 0.549236 0.376980
0.794374 0.565052 0.403026
0.208884 0.606433 0.341736
0.362582 0.729425 0.373089
0.551062 0.732597 0.376466
0.735383 0.733199 0.376980
0.794374 0.737578 0.403026
0.246772 0.716428 0.379624
0.434273 0.805137 0.442597
0.588031 0.809510 0.446970
0.733623 0.809510 0.446970
0.788413 0.809510 0.446970
0.149843 0.149843 0.435023
0.274962 0.149843 0.435023
0.413742 0.149843 0.435023
0.608885 0.209729 0.494909
0.686530 0.236473 0.521654
0.149843 0.273276 0.435023
0.327288 0.325106 0.532532
0.504985 0.325106 0.532532
0.731521 0.360068 0.576604
0.789047 0.387560 0.590089
0.149843 0.411995 0.435023
0.328038 0.503502 0.533318
0.570546 0.568374 0.597017
0.789620 0.604817 0.635879
0.868293 0.617629 0.649108
0.208884 0.606433 0.494065
0.362582 0.729425 0.576747
0.607443 0.787624 0.636133
0.799589 0.797425 0.646170
0.883075 0.814157 0.660544
0.246772 0.716428 0.531952
0.434273 0.805137 0.606565
0.662149 0.883628 0.685056
0.819777 0.895664 0.697092
0.874566 0.895664 0.697092
0.227546 0.227546 0.660612
0.352665 0.227546 0.660612
0.491446 0.227546 0.660612
0.626702 0.227546 0.660612
0.686530 0.236473 0.669539
0.227546 0.350980 0.660612
0.370636 0.368331 0.782423
0.556644 0.368331 0.782423
0.741546 0.368331 0.782423
0.789047 0.387560 0.777613
0.227546 0.489699 0.660612
0.371473 0.555073 0.783505
0.617647 0.615268 0.847995
0.801822 0.615268 0.847995
0.868293 0.617629 0.851274
0.227546 0.625095 0.660612
0.371473 0.740165 0.783505
0.618415 0.800383 0.848741
0.860891 0.858740 0.906285
0.935297 0.864212 0.912296
0.246772 0.716428 0.679838
0.434273 0.805137 0.765750
0.662149 0.883628 0.844242
0.884239 0.960127 0.920740
0.958208 0.979305 0.939919
0.246772 0.246772 0.716428
0.371891 0.246772 0.716428
0.510671 0.246772 0.716428
0.645928 0.246772 0.716428
0.696828 0.246772 0.716428
0.246772 0.370205 0.716428
0.429706 0.427867 0.802930
0.580915 0.427867 0.802930
0.728490 0.427867 0.802930
0.784026 0.427867 0.802930
0.246772 0.508925 0.716428
0.430635 0.579946 0.803884
0.657262 0.655340 0.881283
0.806112 0.655340 0.881283
0.862128 0.655340 0.881283
0.246772 0.644321 0.716428
0.430635 0.727684 0.803884
0.658208 0.805316 0.882271
0.879494 0.877659 0.957860
0.937609 0.877659 0.957860
0.246772 0.716428 0.716428
0.434273 0.805137 0.805137
0.662149 0.883628 0.883628
0.884239 0.960127 0.960127
0.967817 0.988915 0.988915
