docs/luts/fuji_recipes/Velvia_GB_Taste_Rainbows.cube
TITLE "Fujifilm Recipe: GB Taste Rainbows (Velvia)"
# FilmSim=Velvia HL=0 SH=2 Col=2 WB=Daylight WBR=0 WBB=0
LUT_3D_SIZE 33
DOMAIN_MIN 0.0 0.0 0.0
DOMAIN_MAX 1.0 1.0 1.0
0.000000 0.000000 0.000000
0.028902 0.000000 0.000000
0.057427 0.000000 0.000000
0.085835 0.000000 0.000000
0.114243 0.000000 0.000000
0.142651 0.000000 0.000000
0.171058 0.000000 0.000000
0.199466 0.000000 0.000000
0.227874 0.000000 0.000000
0.256282 0.000000 0.000000
0.284689 0.000000 0.000000
0.313097 0.000000 0.000000
0.341505 0.000000 0.000000
0.369912 0.000000 0.000000
0.398320 0.000000 0.000000
0.426728 0.000000 0.000000
0.506933 0.000000 0.000000
0.538823 0.000000 0.000000
0.570713 0.000000 0.000000
0.602604 0.000000 0.000000
0.634494 0.000000 0.000000
0.666385 0.000000 0.000000
0.698275 0.000000 0.000000
0.730165 0.000000 0.000000
0.762056 0.000000 0.000000
0.793946 0.000000 0.000000
0.825836 0.000000 0.000000
0.857727 0.000000 0.000000
0.889617 0.000000 0.000000
0.921507 0.000000 0.000000
0.953398 0.000000 0.000000
0.985288 0.000000 0.000000
1.000000 0.000000 0.000000
0.000000 0.028060 0.000000
0.028902 0.028060 0.000000
0.057427 0.028060 0.000000
0.085835 0.028060 0.000000
0.114243 0.028060 0.000000
0.142651 0.028060 0.000000
0.171058 0.028060 0.000000
0.199466 0.028060 0.000000
0.227874 0.028060 0.000000
0.256282 0.028060 0.000000
0.284689 0.028060 0.000000
0.313097 0.028060 0.000000
0.341505 0.028060 0.000000
0.369912 0.028060 0.000000
0.398320 0.028060 0.000000
0.426728 0.028060 0.000000
0.506933 0.028060 0.000000
0.538823 0.028060 0.000000
0.570713 0.028060 0.000000
0.602604 0.028060 0.000000
0.634494 0.028060 0.000000
0.666385 0.028060 0.000000
0.698275 0.028060 0.000000
0.730165 0.028060 0.000000
0.762056 0.028060 0.000000
0.793946 0.028060 0.000000
0.825836 0.028060 0.000000
0.857727 0.028060 0.000000
0.889617 0.028060 0.000000
0.921507 0.028060 0.000000
0.953398 0.028060 0.000000
0.985288 0.028060 0.000000
1.000000 0.028060 0.000000
0.000000 0.056120 0.000000
0.028902 0.056120 0.000000
0.057427 0.056120 0.000000
0.085835 0.056120 0.000000
0.114243 0.056120 0.000000
0.142651 0.056120 0.000000
0.171058 0.056120 0.000000
0.199466 0.056120 0.000000
0.227874 0.056120 0.000000
0.256282 0.056120 0.000000
0.284689 0.056120 0.000000
0.313097 0.056120 0.000000
0.341505 0.056120 0.000000
0.369912 0.056120 0.000000
0.398320 0.056120 0.000000
0.426728 0.056120 0.000000
0.506933 0.056120 0.000000
0.538823 0.056120 0.000000
0.570713 0.056120 0.000000
0.602604 0.056120 0.000000
0.634494 0.056120 0.000000
0.666385 0.056120 0.000000
0.698275 0.056120 0.000000
0.730165 0.056120 0.000000
0.762056 0.056120 0.000000
0.793946 0.056120 0.000000
0.825836 0.056120 0.000000
0.857727 0.056120 0.000000
0.889617 0.056120 0.000000
0.921507 0.056120 0.000000
0.953398 0.056120 0.000000
0.985288 0.056120 0.000000
1.000000 0.056120 0.000000
0.000000 0.084180 0.000000
0.028902 0.084180 0.000000
0.057427 0.084180 0.000000
0.085835 0.084180 0.000000
0.114243 0.084180 0.000000
0.142651 0.084180 0.000000
0.171058 0.084180 0.000000
0.199466 0.084180 0.000000
0.227874 0.084180 0.000000
0.256282 0.084180 0.000000
0.284689 0.084180 0.000000
0.313097 0.084180 0.000000
0.341505 0.084180 0.000000
0.369912 0.084180 0.000000
0.398320 0.084180 0.000000
0.426728 0.084180 0.000000
0.506933 0.084180 0.000000
0.538823 0.084180 0.000000
0.570713 0.084180 0.000000
0.602604 0.084180 0.000000
0.634494 0.084180 0.000000
0.666385 0.084180 0.000000
0.698275 0.084180 0.000000
0.730165 0.084180 0.000000
0.762056 0.084180 0.000000
0.793946 0.084180 0.000000
0.825836 0.084180 0.000000
0.857727 0.084180 0.000000
0.889617 0.084180 0.000000
0.921507 0.084180 0.000000
0.953398 0.084180 0.000000
0.985288 0.084180 0.000000
1.000000 0.084180 0.000000
0.000000 0.112240 0.000000
0.028902 0.112240 0.000000
0.057427 0.112240 0.000000
0.085835 0.112240 0.000000
0.114243 0.112240 0.000000
0.142651 0.112240 0.000000
0.171058 0.112240 0.000000
0.199466 0.112240 0.000000
0.227874 0.112240 0.000000
0.256282 0.112240 0.000000
0.284689 0.112240 0.000000
0.313097 0.112240 0.000000
0.341505 0.112240 0.000000
0.369912 0.112240 0.000000
0.398320 0.112240 0.000000
0.426728 0.112240 0.000000
0.506933 0.112240 0.000000
0.538823 0.112240 0.000000
0.570713 0.112240 0.000000
0.602604 0.112240 0.000000
0.634494 0.112240 0.000000
0.666385 0.112240 0.000000
0.698275 0.112240 0.000000
0.730165 0.112240 0.000000
0.762056 0.112240 0.000000
0.793946 0.112240 0.000000
0.825836 0.112240 0.000000
0.857727 0.112240 0.000000
0.889617 0.112240 0.000000
0.921507 0.112240 0.000000
0.953398 0.112240 0.000000
0.985288 0.112240 0.000000
1.000000 0.112240 0.000000
0.000000 0.140300 0.000000
0.028902 0.140300 0.000000
0.057427 0.140300 0.000000
0.085835 0.140300 0.000000
0.114243 0.140300 0.000000
0.142651 0.140300 0.000000
0.171058 0.140300 0.000000
0.199466 0.140300 0.000000
0.227874 0.140300 0.000000
0.256282 0.140300 0.000000
0.284689 0.140300 0.000000
0.313097 0.140300 0.000000
0.341505 0.140300 0.000000
0.369912 0.140300 0.000000
0.398320 0.140300 0.000000
0.426728 0.140300 0.000000
0.506933 0.140300 0.000000
0.538823 0.140300 0.000000
0.570713 0.140300 0.000000
0.602604 0.140300 0.000000
0.634494 0.140300 0.000000
0.666385 0.140300 0.000000
0.698275 0.140300 0.000000
0.730165 0.140300 0.000000
0.762056 0.140300 0.000000
0.793946 0.140300 0.000000
0.825836 0.140300 0.000000
0.857727 0.140300 0.000000
0.889617 0.140300 0.000000
0.921507 0.140300 0.000000
0.953398 0.140300 0.000000
0.985288 0.140300 0.000000
1.000000 0.140300 0.000000
0.000000 0.168360 0.000000
0.028902 0.168360 0.000000
0.057427 0.168360 0.000000
0.085835 0.168360 0.000000
0.114243 0.168360 0.000000
0.142651 0.168360 0.000000
0.171058 0.168360 0.000000
0.199466 0.168360 0.000000
0.227874 0.168360 0.000000
0.256282 0.168360 0.000000
0.284689 0.168360 0.000000
0.313097 0.168360 0.000000
0.341505 0.168360 0.000000
0.369912 0.168360 0.000000
0.398320 0.168360 0.000000
0.426728 0.168360 0.000000
0.506933 0.168360 0.000000
0.538823 0.168360 0.000000
0.570713 0.168360 0.000000
0.602604 0.168360 0.000000
0.634494 0.168360 0.000000
0.666385 0.168360 0.000000
0.698275 0.168360 0.000000
0.730165 0.168360 0.000000
0.762056 0.168360 0.000000
0.793946 0.168360 0.000000
0.825836 0.168360 0.000000
0.857727 0.168360 0.000000
0.889617 0.168360 0.000000
0.921507 0.168360 0.000000
0.953398 0.168360 0.000000
0.985288 0.168360 0.000000
1.000000 0.168360 0.000000
0.000000 0.196420 0.000000
0.028902 0.196420 0.000000
0.057427 0.196420 0.000000
0.085835 0.196420 0.000000
0.114243 0.196420 0.000000
0.142651 0.196420 0.000000
0.171058 0.196420 0.000000
0.199466 0.196420 0.000000
0.227874 0.196420 0.000000
0.256282 0.196420 0.000000
0.284689 0.196420 0.000000
0.313097 0.196420 0.000000
0.341505 0.196420 0.000000
0.369912 0.196420 0.000000
0.398320 0.196420 0.000000
0.426728 0.196420 0.000000
0.506933 0.196420 0.000000
0.538823 0.196420 0.000000
0.570713 0.196420 0.000000
0.602604 0.196420 0.000000
0.634494 0.196420 0.000000
0.666385 0.196420 0.000000
0.698275 0.196420 0.000000
0.730165 0.196420 0.000000
0.762056 0.196420 0.000000
0.793946 0.196420 0.000000
0.825836 0.196420 0.000000
0.857727 0.196420 0.000000
0.889617 0.196420 0.000000
0.921507 0.196420 0.000000
0.953398 0.196420 0.000000
0.985288 0.196420 0.000000
1.000000 0.196420 0.000000
0.000000 0.224480 0.000000
0.028902 0.224480 0.000000
0.057427 0.224480 0.000000
0.085835 0.224480 0.000000
0.114243 0.224480 0.000000
0.142651 0.224480 0.000000
0.171058 0.224480 0.000000
0.199466 0.224480 0.000000
0.227874 0.224480 0.000000
0.256282 0.224480 0.000000
0.284689 0.224480 0.000000
0.313097 0.224480 0.000000
0.341505 0.224480 0.000000
0.369912 0.224480 0.000000
0.398320 0.224480 0.000000
0.426728 0.224480 0.000000
0.506933 0.224480 0.000000
0.538823 0.224480 0.000000
0.570713 0.224480 0.000000
0.602604 0.224480 0.000000
0.634494 0.224480 0.000000
0.666385 0.224480 0.000000
0.698275 0.224480 0.000000
0.730165 0.224480 0.000000
0.762056 0.224480 0.000000
0.793946 0.224480 0.000000
0.825836 0.224480 0.000000
0.857727 0.224480 0.000000
0.889617 0.224480 0.000000
0.921507 0.224480 0.000000
0.953398 0.224480 0.000000
0.985288 0.224480 0.000000
1.000000 0.224480 0.000000
0.000000 0.252540 0.000000
0.028902 0.252540 0.000000
0.057427 0.252540 0.000000
0.085835 0.252540 0.000000
0.114243 0.252540 0.000000
0.142651 0.252540 0.000000
0.171058 0.252540 0.000000
0.199466 0.252540 0.000000
0.227874 0.252540 0.000000
0.256282 0.252540 0.000000
0.284689 0.252540 0.000000
0.313097 0.252540 0.000000
0.341505 0.252540 0.000000
0.369912 0.252540 0.000000
0.398320 0.252540 0.000000
0.426728 0.252540 0.000000
0.506933 0.252540 0.000000
0.538823 0.252540 0.000000
0.570713 0.252540 0.000000
0.602604 0.252540 0.000000
0.634494 0.252540 0.000000
0.666385 0.252540 0.000000
0.698275 0.252540 0.000000
0.730165 0.252540 0.000000
0.762056 0.252540 0.000000
0.793946 0.252540 0.000000
0.825836 0.252540 0.000000
0.857727 0.252540 0.000000
0.889617 0.252540 0.000000
0.921507 0.252540 0.000000
0.953398 0.252540 0.000000
0.985288 0.252540 0.000000
1.000000 0.252540 0.000000
0.000000 0.280600 0.000000
0.028902 0.280600 0.000000
0.057427 0.280600 0.000000
0.085835 0.280600 0.000000
0.114243 0.280600 0.000000
0.142651 0.280600 0.000000
0.171058 0.280600 0.000000
0.199466 0.280600 0.000000
0.227874 0.280600 0.000000
0.256282 0.280600 0.000000
0.284689 0.280600 0.000000
0.313097 0.280600 0.000000
0.341505 0.280600 0.000000
0.369912 0.280600 0.000000
0.398320 0.280600 0.000000
0.426728 0.280600 0.000000
0.506933 0.280600 0.000000
0.538823 0.280600 0.000000
0.570713 0.280600 0.000000
0.602604 0.280600 0.000000
0.634494 0.280600 0.000000
0.666385 0.280600 0.000000
0.698275 0.280600 0.000000
0.730165 0.280600 0.000000
0.762056 0.280600 0.000000
0.793946 0.280600 0.000000
0.825836 0.280600 0.000000
0.857727 0.280600 0.000000
0.889617 0.280600 0.000000
0.921507 0.280600 0.000000
0.953398 0.280600 0.000000
0.985288 0.280600 0.000000
1.000000 0.280600 0.000000
0.000000 0.308660 0.000000
0.028902 0.308660 0.000000
0.057427 0.308660 0.000000
0.085835 0.308660 0.000000
0.114243 0.308660 0.000000
0.142651 0.308660 0.000000
0.171058 0.308660 0.000000
0.199466 0.308660 0.000000
0.227874 0.308660 0.000000
0.256282 0.308660 0.000000
0.284689 0.308660 0.000000
0.313097 0.308660 0.000000
0.341505 0.308660 0.000000
0.369912 0.308660 0.000000
0.398320 0.308660 0.000000
0.426728 0.308660 0.000000
0.506933 0.308660 0.000000
0.538823 0.308660 0.000000
0.570713 0.308660 0.000000
0.602604 0.308660 0.000000
0.634494 0.308660 0.000000
0.666385 0.308660 0.000000
0.698275 0.308660 0.000000
0.730165 0.308660 0.000000
0.762056 0.308660 0.000000
0.793946 0.308660 0.000000
0.825836 0.308660 0.000000
0.857727 0.308660 0.000000
0.889617 0.308660 0.000000
0.921507 0.308660 0.000000
0.953398 0.308660 0.000000
0.985288 0.308660 0.000000
1.000000 0.308660 0.000000
0.000000 0.336720 0.000000
0.028902 0.336720 0.000000
0.057427 0.336720 0.000000
0.085835 0.336720 0.000000
0.114243 0.336720 0.000000
0.142651 0.336720 0.000000
0.171058 0.336720 0.000000
0.199466 0.336720 0.000000
0.227874 0.336720 0.000000
0.256282 0.336720 0.000000
0.284689 0.336720 0.000000
0.313097 0.336720 0.000000
0.341505 0.336720 0.000000
0.369912 0.336720 0.000000
0.398320 0.336720 0.000000
0.426728 0.336720 0.000000
0.506933 0.336720 0.000000
0.538823 0.336720 0.000000
0.570713 0.336720 0.000000
0.602604 0.336720 0.000000
0.634494 0.336720 0.000000
0.666385 0.336720 0.000000
0.698275 0.336720 0.000000
0.730165 0.336720 0.000000
0.762056 0.336720 0.000000
0.793946 0.336720 0.000000
0.825836 0.336720 0.000000
0.857727 0.336720 0.000000
0.889617 0.336720 0.000000
0.921507 0.336720 0.000000
0.953398 0.336720 0.000000
0.985288 0.336720 0.000000
1.000000 0.336720 0.000000
0.000000 0.364780 0.000000
0.028902 0.364780 0.000000
0.057427 0.364780 0.000000
0.085835 0.364780 0.000000
0.114243 0.364780 0.000000
0.142651 0.364780 0.000000
0.171058 0.364780 0.000000
0.199466 0.364780 0.000000
0.227874 0.364780 0.000000
0.256282 0.364780 0.000000
0.284689 0.364780 0.000000
0.313097 0.364780 0.000000
0.341505 0.364780 0.000000
0.369912 0.364780 0.000000
0.398320 0.364780 0.000000
0.426728 0.364780 0.000000
0.506933 0.364780 0.000000
0.538823 0.364780 0.000000
0.570713 0.364780 0.000000
0.602604 0.364780 0.000000
0.634494 0.364780 0.000000
0.666385 0.364780 0.000000
0.698275 0.364780 0.000000
0.730165 0.364780 0.000000
0.762056 0.364780 0.000000
0.793946 0.364780 0.000000
0.825836 0.364780 0.000000
0.857727 0.364780 0.000000
0.889617 0.364780 0.000000
0.921507 0.364780 0.000000
0.953398 0.364780 0.000000
0.985288 0.364780 0.000000
1.000000 0.364780 0.000000
0.000000 0.392840 0.000000
0.028902 0.392840 0.000000
0.057427 0.392840 0.000000
0.085835 0.392840 0.000000
0.114243 0.392840 0.000000
0.142651 0.392840 0.000000
0.171058 0.392840 0.000000
0.199466 0.392840 0.000000
0.227874 0.392840 0.000000
0.256282 0.392840 0.000000
0.284689 0.392840 0.000000
0.313097 0.392840 0.000000
0.341505 0.392840 0.000000
0.369912 0.392840 0.000000
0.398320 0.392840 0.000000
0.426728 0.392840 0.000000
0.506933 0.392840 0.000000
0.538823 0.392840 0.000000
0.570713 0.392840 0.000000
0.602604 0.392840 0.000000
0.634494 0.392840 0.000000
0.666385 0.392840 0.000000
0.698275 0.392840 0.000000
0.730165 0.392840 0.000000
0.762056 0.392840 0.000000
0.793946 0.392840 0.000000
0.825836 0.392840 0.000000
0.857727 0.392840 0.000000
0.889617 0.392840 0.000000
0.921507 0.392840 0.000000
0.953398 0.392840 0.000000
0.985288 0.392840 0.000000
1.000000 0.392840 0.000000
0.000000 0.420900 0.000000
0.028902 0.420900 0.000000
0.057427 0.420900 0.000000
0.085835 0.420900 0.000000
0.114243 0.420900 0.000000
0.142651 0.420900 0.000000
0.171058 0.420900 0.000000
0.199466 0.420900 0.000000
0.227874 0.420900 0.000000
0.256282 0.420900 0.000000
0.284689 0.420900 0.000000
0.313097 0.420900 0.000000
0.341505 0.420900 0.000000
0.369912 0.420900 0.000000
0.398320 0.420900 0.000000
0.426728 0.420900 0.000000
0.506933 0.420900 0.000000
0.538823 0.420900 0.000000
0.570713 0.420900 0.000000
0.602604 0.420900 0.000000
0.634494 0.420900 0.000000
0.666385 0.420900 0.000000
0.698275 0.420900 0.000000
0.730165 0.420900 0.000000
0.762056 0.420900 0.000000
0.793946 0.420900 0.000000
0.825836 0.420900 0.000000
0.857727 0.420900 0.000000
0.889617 0.420900 0.000000
0.921507 0.420900 0.000000
0.953398 0.420900 0.000000
0.985288 0.420900 0.000000
1.000000 0.420900 0.000000
0.000000 0.448960 0.000000
0.028902 0.448960 0.000000
0.057427 0.448960 0.000000
0.085835 0.448960 0.000000
0.114243 0.448960 0.000000
0.142651 0.448960 0.000000
0.171058 0.448960 0.000000
0.199466 0.448960 0.000000
0.227874 0.448960 0.000000
0.256282 0.448960 0.000000
0.284689 0.448960 0.000000
0.313097 0.448960 0.000000
0.341505 0.448960 0.000000
0.369912 0.448960 0.000000
0.398320 0.448960 0.000000
0.426728 0.448960 0.000000
0.506933 0.448960 0.000000
0.538823 0.448960 0.000000
0.570713 0.448960 0.000000
0.602604 0.448960 0.000000
0.634494 0.448960 0.000000
0.666385 0.448960 0.000000
0.698275 0.448960 0.000000
0.730165 0.448960 0.000000
0.762056 0.448960 0.000000
0.793946 0.448960 0.000000
0.825836 0.448960 0.000000
0.857727 0.448960 0.000000
0.889617 0.448960 0.000000
0.921507 0.448960 0.000000
0.953398 0.448960 0.000000
0.985288 0.448960 0.000000
1.000000 0.448960 0.000000
0.000000 0.531500 0.000000
0.028902 0.531500 0.000000
0.057427 0.531500 0.000000
0.085835 0.531500 0.000000
0.114243 0.531500 0.000000
0.142651 0.531500 0.000000
0.171058 0.531500 0.000000
0.199466 0.531500 0.000000
0.227874 0.531500 0.000000
0.256282 0.531500 0.000000
0.284689 0.531500 0.000000
0.313097 0.531500 0.000000
0.341505 0.531500 0.000000
0.369912 0.531500 0.000000
0.398320 0.531500 0.000000
0.426728 0.531500 0.000000
0.506933 0.531500 0.000000
0.538823 0.531500 0.000000
0.570713 0.531500 0.000000
0.602604 0.531500 0.000000
0.634494 0.531500 0.000000
0.666385 0.531500 0.000000
0.698275 0.531500 0.000000
0.730165 0.531500 0.000000
0.762056 0.531500 0.000000
0.793946 0.531500 0.000000
0.825836 0.531500 0.000000
0.857727 0.531500 0.000000
0.889617 0.531500 0.000000
0.921507 0.531500 0.000000
0.953398 0.531500 0.000000
0.985288 0.531500 0.000000
1.000000 0.531500 0.000000
0.000000 0.563000 0.000000
0.028902 0.563000 0.000000
0.057427 0.563000 0.000000
0.085835 0.563000 0.000000
0.114243 0.563000 0.000000
0.142651 0.563000 0.000000
0.171058 0.563000 0.000000
0.199466 0.563000 0.000000
0.227874 0.563000 0.000000
0.256282 0.563000 0.000000
0.284689 0.563000 0.000000
0.313097 0.563000 0.000000
0.341505 0.563000 0.000000
0.369912 0.563000 0.000000
0.398320 0.563000 0.000000
0.426728 0.563000 0.000000
0.506933 0.563000 0.000000
0.538823 0.563000 0.000000
0.570713 0.563000 0.000000
0.602604 0.563000 0.000000
0.634494 0.563000 0.000000
0.666385 0.563000 0.000000
0.698275 0.563000 0.000000
0.730165 0.563000 0.000000
0.762056 0.563000 0.000000
0.793946 0.563000 0.000000
0.825836 0.563000 0.000000
0.857727 0.563000 0.000000
0.889617 0.563000 0.000000
0.921507 0.563000 0.000000
0.953398 0.563000 0.000000
0.985288 0.563000 0.000000
1.000000 0.563000 0.000000
0.000000 0.594500 0.000000
0.028902 0.594500 0.000000
0.057427 0.594500 0.000000
0.085835 0.594500 0.000000
0.114243 0.594500 0.000000
0.142651 0.594500 0.000000
0.171058 0.594500 0.000000
0.199466 0.594500 0.000000
0.227874 0.594500 0.000000
0.256282 0.594500 0.000000
0.284689 0.594500 0.000000
0.313097 0.594500 0.000000
0.341505 0.594500 0.000000
0.369912 0.594500 0.000000
0.398320 0.594500 0.000000
0.426728 0.594500 0.000000
0.506933 0.594500 0.000000
0.538823 0.594500 0.000000
0.570713 0.594500 0.000000
0.602604 0.594500 0.000000
0.634494 0.594500 0.000000
0.666385 0.594500 0.000000
0.698275 0.594500 0.000000
0.730165 0.594500 0.000000
0.762056 0.594500 0.000000
0.793946 0.594500 0.000000
0.825836 0.594500 0.000000
0.857727 0.594500 0.000000
0.889617 0.594500 0.000000
0.921507 0.594500 0.000000
0.953398 0.594500 0.000000
0.985288 0.594500 0.000000
1.000000 0.594500 0.000000
0.000000 0.626000 0.000000
0.028902 0.626000 0.000000
0.057427 0.626000 0.000000
0.085835 0.626000 0.000000
0.114243 0.626000 0.000000
0.142651 0.626000 0.000000
0.171058 0.626000 0.000000
0.199466 0.626000 0.000000
0.227874 0.626000 0.000000
0.256282 0.626000 0.000000
0.284689 0.626000 0.000000
0.313097 0.626000 0.000000
0.341505 0.626000 0.000000
0.369912 0.626000 0.000000
0.398320 0.626000 0.000000
0.426728 0.626000 0.000000
0.506933 0.626000 0.000000
0.538823 0.626000 0.000000
0.570713 0.626000 0.000000
0.602604 0.626000 0.000000
0.634494 0.626000 0.000000
0.666385 0.626000 0.000000
0.698275 0.626000 0.000000
0.730165 0.626000 0.000000
0.762056 0.626000 0.000000
0.793946 0.626000 0.000000
0.825836 0.626000 0.000000
0.857727 0.626000 0.000000
0.889617 0.626000 0.000000
0.921507 0.626000 0.000000
0.953398 0.626000 0.000000
0.985288 0.626000 0.000000
1.000000 0.626000 0.000000
0.000000 0.657500 0.000000
0.028902 0.657500 0.000000
0.057427 0.657500 0.000000
0.085835 0.657500 0.000000
0.114243 0.657500 0.000000
0.142651 0.657500 0.000000
0.171058 0.657500 0.000000
0.199466 0.657500 0.000000
0.227874 0.657500 0.000000
0.256282 0.657500 0.000000
0.284689 0.657500 0.000000
0.313097 0.657500 0.000000
0.341505 0.657500 0.000000
0.369912 0.657500 0.000000
0.398320 0.657500 0.000000
0.426728 0.657500 0.000000
0.506933 0.657500 0.000000
0.538823 0.657500 0.000000
0.570713 0.657500 0.000000
0.602604 0.657500 0.000000
0.634494 0.657500 0.000000
0.666385 0.657500 0.000000
0.698275 0.657500 0.000000
0.730165 0.657500 0.000000
0.762056 0.657500 0.000000
0.793946 0.657500 0.000000
0.825836 0.657500 0.000000
0.857727 0.657500 0.000000
0.889617 0.657500 0.000000
0.921507 0.657500 0.000000
0.953398 0.657500 0.000000
0.985288 0.657500 0.000000
1.000000 0.657500 0.000000
0.000000 0.689000 0.000000
0.028902 0.689000 0.000000
0.057427 0.689000 0.000000
0.085835 0.689000 0.000000
0.114243 0.689000 0.000000
0.142651 0.689000 0.000000
0.171058 0.689000 0.000000
0.199466 0.689000 0.000000
0.227874 0.689000 0.000000
0.256282 0.689000 0.000000
0.284689 0.689000 0.000000
0.313097 0.689000 0.000000
0.341505 0.689000 0.000000
0.369912 0.689000 0.000000
0.398320 0.689000 0.000000
0.426728 0.689000 0.000000
0.506933 0.689000 0.000000
0.538823 0.689000 0.000000
0.570713 0.689000 0.000000
0.602604 0.689000 0.000000
0.634494 0.689000 0.000000
0.666385 0.689000 0.000000
0.698275 0.689000 0.000000
0.730165 0.689000 0.000000
0.762056 0.689000 0.000000
0.793946 0.689000 0.000000
0.825836 0.689000 0.000000
0.857727 0.689000 0.000000
0.889617 0.689000 0.000000
0.921507 0.689000 0.000000
0.953398 0.689000 0.000000
0.985288 0.689000 0.000000
1.000000 0.689000 0.000000
0.000000 0.720500 0.000000
0.028902 0.720500 0.000000
0.057427 0.720500 0.000000
0.085835 0.720500 0.000000
0.114243 0.720500 0.000000
0.142651 0.720500 0.000000
0.171058 0.720500 0.000000
0.199466 0.720500 0.000000
0.227874 0.720500 0.000000
0.256282 0.720500 0.000000
0.284689 0.720500 0.000000
0.313097 0.720500 0.000000
0.341505 0.720500 0.000000
0.369912 0.720500 0.000000
0.398320 0.720500 0.000000
0.426728 0.720500 0.000000
0.506933 0.720500 0.000000
0.538823 0.720500 0.000000
0.570713 0.720500 0.000000
0.602604 0.720500 0.000000
0.634494 0.720500 0.000000
0.666385 0.720500 0.000000
0.698275 0.720500 0.000000
0.730165 0.720500 0.000000
0.762056 0.720500 0.000000
0.793946 0.720500 0.000000
0.825836 0.720500 0.000000
0.857727 0.720500 0.000000
0.889617 0.720500 0.000000
0.921507 0.720500 0.000000
0.953398 0.720500 0.000000
0.985288 0.720500 0.000000
1.000000 0.720500 0.000000
0.000000 0.752000 0.000000
0.028902 0.752000 0.000000
0.057427 0.752000 0.000000
0.085835 0.752000 0.000000
0.114243 0.752000 0.000000
0.142651 0.752000 0.000000
0.171058 0.752000 0.000000
0.199466 0.752000 0.000000
0.227874 0.752000 0.000000
0.256282 0.752000 0.000000
0.284689 0.752000 0.000000
0.313097 0.752000 0.000000
0.341505 0.752000 0.000000
0.369912 0.752000 0.000000
0.398320 0.752000 0.000000
0.426728 0.752000 0.000000
0.506933 0.752000 0.000000
0.538823 0.752000 0.000000
0.570713 0.752000 0.000000
0.602604 0.752000 0.000000
0.634494 0.752000 0.000000
0.666385 0.752000 0.000000
0.698275 0.752000 0.000000
0.730165 0.752000 0.000000
0.762056 0.752000 0.000000
0.793946 0.752000 0.000000
0.825836 0.752000 0.000000
0.857727 0.752000 0.000000
0.889617 0.752000 0.000000
0.921507 0.752000 0.000000
0.953398 0.752000 0.000000
0.985288 0.752000 0.000000
1.000000 0.752000 0.000000
0.000000 0.783500 0.000000
0.028902 0.783500 0.000000
0.057427 0.783500 0.000000
0.085835 0.783500 0.000000
0.114243 0.783500 0.000000
0.142651 0.783500 0.000000
0.171058 0.783500 0.000000
0.199466 0.783500 0.000000
0.227874 0.783500 0.000000
0.256282 0.783500 0.000000
0.284689 0.783500 0.000000
0.313097 0.783500 0.000000
0.341505 0.783500 0.000000
0.369912 0.783500 0.000000
0.398320 0.783500 0.000000
0.426728 0.783500 0.000000
0.506933 0.783500 0.000000
0.538823 0.783500 0.000000
0.570713 0.783500 0.000000
0.602604 0.783500 0.000000
0.634494 0.783500 0.000000
0.666385 0.783500 0.000000
0.698275 0.783500 0.000000
0.730165 0.783500 0.000000
0.762056 0.783500 0.000000
0.793946 0.783500 0.000000
0.825836 0.783500 0.000000
0.857727 0.783500 0.000000
0.889617 0.783500 0.000000
0.921507 0.783500 0.000000
0.953398 0.783500 0.000000
0.985288 0.783500 0.000000
1.000000 0.783500 0.000000
0.000000 0.815000 0.000000
0.028902 0.815000 0.000000
0.057427 0.815000 0.000000
0.085835 0.815000 0.000000
0.114243 0.815000 0.000000
0.142651 0.815000 0.000000
0.171058 0.815000 0.000000
0.199466 0.815000 0.000000
0.227874 0.815000 0.000000
0.256282 0.815000 0.000000
0.284689 0.815000 0.000000
0.313097 0.815000 0.000000
0.341505 0.815000 0.000000
0.369912 0.815000 0.000000
0.398320 0.815000 0.000000
0.426728 0.815000 0.000000
0.506933 0.815000 0.000000
0.538823 0.815000 0.000000
0.570713 0.815000 0.000000
0.602604 0.815000 0.000000
0.634494 0.815000 0.000000
0.666385 0.815000 0.000000
0.698275 0.815000 0.000000
0.730165 0.815000 0.000000
