docs/luts/fuji_recipes/Velvia_JP_Bright_Landscape.cube
TITLE "Fujifilm Recipe: JP Bright Landscape (Velvia)"
# FilmSim=Velvia HL=1 SH=1 Col=2 WB=5000K WBR=0 WBB=0
LUT_3D_SIZE 33
DOMAIN_MIN 0.0 0.0 0.0
DOMAIN_MAX 1.0 1.0 1.0
0.000000 0.000000 0.000000
0.028755 0.000000 0.000000
0.057733 0.000000 0.000000
0.086793 0.000000 0.000000
0.115853 0.000000 0.000000
0.144913 0.000000 0.000000
0.173973 0.000000 0.000000
0.203033 0.000000 0.000000
0.232093 0.000000 0.000000
0.261153 0.000000 0.000000
0.290213 0.000000 0.000000
0.319274 0.000000 0.000000
0.348334 0.000000 0.000000
0.377394 0.000000 0.000000
0.406454 0.000000 0.000000
0.435514 0.000000 0.000000
0.464574 0.000000 0.000000
0.528143 0.000000 0.000000
0.560657 0.000000 0.000000
0.593171 0.000000 0.000000
0.625685 0.000000 0.000000
0.658199 0.000000 0.000000
0.690713 0.000000 0.000000
0.723227 0.000000 0.000000
0.755741 0.000000 0.000000
0.788255 0.000000 0.000000
0.820769 0.000000 0.000000
0.853283 0.000000 0.000000
0.885796 0.000000 0.000000
0.918310 0.000000 0.000000
0.950824 0.000000 0.000000
0.983338 0.000000 0.000000
1.000000 0.000000 0.000000
0.000000 0.029280 0.000000
0.028755 0.029280 0.000000
0.057733 0.029280 0.000000
0.086793 0.029280 0.000000
0.115853 0.029280 0.000000
0.144913 0.029280 0.000000
0.173973 0.029280 0.000000
0.203033 0.029280 0.000000
0.232093 0.029280 0.000000
0.261153 0.029280 0.000000
0.290213 0.029280 0.000000
0.319274 0.029280 0.000000
0.348334 0.029280 0.000000
0.377394 0.029280 0.000000
0.406454 0.029280 0.000000
0.435514 0.029280 0.000000
0.464574 0.029280 0.000000
0.528143 0.029280 0.000000
0.560657 0.029280 0.000000
0.593171 0.029280 0.000000
0.625685 0.029280 0.000000
0.658199 0.029280 0.000000
0.690713 0.029280 0.000000
0.723227 0.029280 0.000000
0.755741 0.029280 0.000000
0.788255 0.029280 0.000000
0.820769 0.029280 0.000000
0.853283 0.029280 0.000000
0.885796 0.029280 0.000000
0.918310 0.029280 0.000000
0.950824 0.029280 0.000000
0.983338 0.029280 0.000000
1.000000 0.029280 0.000000
0.000000 0.058560 0.000000
0.028755 0.058560 0.000000
0.057733 0.058560 0.000000
0.086793 0.058560 0.000000
0.115853 0.058560 0.000000
0.144913 0.058560 0.000000
0.173973 0.058560 0.000000
0.203033 0.058560 0.000000
0.232093 0.058560 0.000000
0.261153 0.058560 0.000000
0.290213 0.058560 0.000000
0.319274 0.058560 0.000000
0.348334 0.058560 0.000000
0.377394 0.058560 0.000000
0.406454 0.058560 0.000000
0.435514 0.058560 0.000000
0.464574 0.058560 0.000000
0.528143 0.058560 0.000000
0.560657 0.058560 0.000000
0.593171 0.058560 0.000000
0.625685 0.058560 0.000000
0.658199 0.058560 0.000000
0.690713 0.058560 0.000000
0.723227 0.058560 0.000000
0.755741 0.058560 0.000000
0.788255 0.058560 0.000000
0.820769 0.058560 0.000000
0.853283 0.058560 0.000000
0.885796 0.058560 0.000000
0.918310 0.058560 0.000000
0.950824 0.058560 0.000000
0.983338 0.058560 0.000000
1.000000 0.058560 0.000000
0.000000 0.087840 0.000000
0.028755 0.087840 0.000000
0.057733 0.087840 0.000000
0.086793 0.087840 0.000000
0.115853 0.087840 0.000000
0.144913 0.087840 0.000000
0.173973 0.087840 0.000000
0.203033 0.087840 0.000000
0.232093 0.087840 0.000000
0.261153 0.087840 0.000000
0.290213 0.087840 0.000000
0.319274 0.087840 0.000000
0.348334 0.087840 0.000000
0.377394 0.087840 0.000000
0.406454 0.087840 0.000000
0.435514 0.087840 0.000000
0.464574 0.087840 0.000000
0.528143 0.087840 0.000000
0.560657 0.087840 0.000000
0.593171 0.087840 0.000000
0.625685 0.087840 0.000000
0.658199 0.087840 0.000000
0.690713 0.087840 0.000000
0.723227 0.087840 0.000000
0.755741 0.087840 0.000000
0.788255 0.087840 0.000000
0.820769 0.087840 0.000000
0.853283 0.087840 0.000000
0.885796 0.087840 0.000000
0.918310 0.087840 0.000000
0.950824 0.087840 0.000000
0.983338 0.087840 0.000000
1.000000 0.087840 0.000000
0.000000 0.117120 0.000000
0.028755 0.117120 0.000000
0.057733 0.117120 0.000000
0.086793 0.117120 0.000000
0.115853 0.117120 0.000000
0.144913 0.117120 0.000000
0.173973 0.117120 0.000000
0.203033 0.117120 0.000000
0.232093 0.117120 0.000000
0.261153 0.117120 0.000000
0.290213 0.117120 0.000000
0.319274 0.117120 0.000000
0.348334 0.117120 0.000000
0.377394 0.117120 0.000000
0.406454 0.117120 0.000000
0.435514 0.117120 0.000000
0.464574 0.117120 0.000000
0.528143 0.117120 0.000000
0.560657 0.117120 0.000000
0.593171 0.117120 0.000000
0.625685 0.117120 0.000000
0.658199 0.117120 0.000000
0.690713 0.117120 0.000000
0.723227 0.117120 0.000000
0.755741 0.117120 0.000000
0.788255 0.117120 0.000000
0.820769 0.117120 0.000000
0.853283 0.117120 0.000000
0.885796 0.117120 0.000000
0.918310 0.117120 0.000000
0.950824 0.117120 0.000000
0.983338 0.117120 0.000000
1.000000 0.117120 0.000000
0.000000 0.146400 0.000000
0.028755 0.146400 0.000000
0.057733 0.146400 0.000000
0.086793 0.146400 0.000000
0.115853 0.146400 0.000000
0.144913 0.146400 0.000000
0.173973 0.146400 0.000000
0.203033 0.146400 0.000000
0.232093 0.146400 0.000000
0.261153 0.146400 0.000000
0.290213 0.146400 0.000000
0.319274 0.146400 0.000000
0.348334 0.146400 0.000000
0.377394 0.146400 0.000000
0.406454 0.146400 0.000000
0.435514 0.146400 0.000000
0.464574 0.146400 0.000000
0.528143 0.146400 0.000000
0.560657 0.146400 0.000000
0.593171 0.146400 0.000000
0.625685 0.146400 0.000000
0.658199 0.146400 0.000000
0.690713 0.146400 0.000000
0.723227 0.146400 0.000000
0.755741 0.146400 0.000000
0.788255 0.146400 0.000000
0.820769 0.146400 0.000000
0.853283 0.146400 0.000000
0.885796 0.146400 0.000000
0.918310 0.146400 0.000000
0.950824 0.146400 0.000000
0.983338 0.146400 0.000000
1.000000 0.146400 0.000000
0.000000 0.175680 0.000000
0.028755 0.175680 0.000000
0.057733 0.175680 0.000000
0.086793 0.175680 0.000000
0.115853 0.175680 0.000000
0.144913 0.175680 0.000000
0.173973 0.175680 0.000000
0.203033 0.175680 0.000000
0.232093 0.175680 0.000000
0.261153 0.175680 0.000000
0.290213 0.175680 0.000000
0.319274 0.175680 0.000000
0.348334 0.175680 0.000000
0.377394 0.175680 0.000000
0.406454 0.175680 0.000000
0.435514 0.175680 0.000000
0.464574 0.175680 0.000000
0.528143 0.175680 0.000000
0.560657 0.175680 0.000000
0.593171 0.175680 0.000000
0.625685 0.175680 0.000000
0.658199 0.175680 0.000000
0.690713 0.175680 0.000000
0.723227 0.175680 0.000000
0.755741 0.175680 0.000000
0.788255 0.175680 0.000000
0.820769 0.175680 0.000000
0.853283 0.175680 0.000000
0.885796 0.175680 0.000000
0.918310 0.175680 0.000000
0.950824 0.175680 0.000000
0.983338 0.175680 0.000000
1.000000 0.175680 0.000000
0.000000 0.204960 0.000000
0.028755 0.204960 0.000000
0.057733 0.204960 0.000000
0.086793 0.204960 0.000000
0.115853 0.204960 0.000000
0.144913 0.204960 0.000000
0.173973 0.204960 0.000000
0.203033 0.204960 0.000000
0.232093 0.204960 0.000000
0.261153 0.204960 0.000000
0.290213 0.204960 0.000000
0.319274 0.204960 0.000000
0.348334 0.204960 0.000000
0.377394 0.204960 0.000000
0.406454 0.204960 0.000000
0.435514 0.204960 0.000000
0.464574 0.204960 0.000000
0.528143 0.204960 0.000000
0.560657 0.204960 0.000000
0.593171 0.204960 0.000000
0.625685 0.204960 0.000000
0.658199 0.204960 0.000000
0.690713 0.204960 0.000000
0.723227 0.204960 0.000000
0.755741 0.204960 0.000000
0.788255 0.204960 0.000000
0.820769 0.204960 0.000000
0.853283 0.204960 0.000000
0.885796 0.204960 0.000000
0.918310 0.204960 0.000000
0.950824 0.204960 0.000000
0.983338 0.204960 0.000000
1.000000 0.204960 0.000000
0.000000 0.234240 0.000000
0.028755 0.234240 0.000000
0.057733 0.234240 0.000000
0.086793 0.234240 0.000000
0.115853 0.234240 0.000000
0.144913 0.234240 0.000000
0.173973 0.234240 0.000000
0.203033 0.234240 0.000000
0.232093 0.234240 0.000000
0.261153 0.234240 0.000000
0.290213 0.234240 0.000000
0.319274 0.234240 0.000000
0.348334 0.234240 0.000000
0.377394 0.234240 0.000000
0.406454 0.234240 0.000000
0.435514 0.234240 0.000000
0.464574 0.234240 0.000000
0.528143 0.234240 0.000000
0.560657 0.234240 0.000000
0.593171 0.234240 0.000000
0.625685 0.234240 0.000000
0.658199 0.234240 0.000000
0.690713 0.234240 0.000000
0.723227 0.234240 0.000000
0.755741 0.234240 0.000000
0.788255 0.234240 0.000000
0.820769 0.234240 0.000000
0.853283 0.234240 0.000000
0.885796 0.234240 0.000000
0.918310 0.234240 0.000000
0.950824 0.234240 0.000000
0.983338 0.234240 0.000000
1.000000 0.234240 0.000000
0.000000 0.263520 0.000000
0.028755 0.263520 0.000000
0.057733 0.263520 0.000000
0.086793 0.263520 0.000000
0.115853 0.263520 0.000000
0.144913 0.263520 0.000000
0.173973 0.263520 0.000000
0.203033 0.263520 0.000000
0.232093 0.263520 0.000000
0.261153 0.263520 0.000000
0.290213 0.263520 0.000000
0.319274 0.263520 0.000000
0.348334 0.263520 0.000000
0.377394 0.263520 0.000000
0.406454 0.263520 0.000000
0.435514 0.263520 0.000000
0.464574 0.263520 0.000000
0.528143 0.263520 0.000000
0.560657 0.263520 0.000000
0.593171 0.263520 0.000000
0.625685 0.263520 0.000000
0.658199 0.263520 0.000000
0.690713 0.263520 0.000000
0.723227 0.263520 0.000000
0.755741 0.263520 0.000000
0.788255 0.263520 0.000000
0.820769 0.263520 0.000000
0.853283 0.263520 0.000000
0.885796 0.263520 0.000000
0.918310 0.263520 0.000000
0.950824 0.263520 0.000000
0.983338 0.263520 0.000000
1.000000 0.263520 0.000000
0.000000 0.292800 0.000000
0.028755 0.292800 0.000000
0.057733 0.292800 0.000000
0.086793 0.292800 0.000000
0.115853 0.292800 0.000000
0.144913 0.292800 0.000000
0.173973 0.292800 0.000000
0.203033 0.292800 0.000000
0.232093 0.292800 0.000000
0.261153 0.292800 0.000000
0.290213 0.292800 0.000000
0.319274 0.292800 0.000000
0.348334 0.292800 0.000000
0.377394 0.292800 0.000000
0.406454 0.292800 0.000000
0.435514 0.292800 0.000000
0.464574 0.292800 0.000000
0.528143 0.292800 0.000000
0.560657 0.292800 0.000000
0.593171 0.292800 0.000000
0.625685 0.292800 0.000000
0.658199 0.292800 0.000000
0.690713 0.292800 0.000000
0.723227 0.292800 0.000000
0.755741 0.292800 0.000000
0.788255 0.292800 0.000000
0.820769 0.292800 0.000000
0.853283 0.292800 0.000000
0.885796 0.292800 0.000000
0.918310 0.292800 0.000000
0.950824 0.292800 0.000000
0.983338 0.292800 0.000000
1.000000 0.292800 0.000000
0.000000 0.322080 0.000000
0.028755 0.322080 0.000000
0.057733 0.322080 0.000000
0.086793 0.322080 0.000000
0.115853 0.322080 0.000000
0.144913 0.322080 0.000000
0.173973 0.322080 0.000000
0.203033 0.322080 0.000000
0.232093 0.322080 0.000000
0.261153 0.322080 0.000000
0.290213 0.322080 0.000000
0.319274 0.322080 0.000000
0.348334 0.322080 0.000000
0.377394 0.322080 0.000000
0.406454 0.322080 0.000000
0.435514 0.322080 0.000000
0.464574 0.322080 0.000000
0.528143 0.322080 0.000000
0.560657 0.322080 0.000000
0.593171 0.322080 0.000000
0.625685 0.322080 0.000000
0.658199 0.322080 0.000000
0.690713 0.322080 0.000000
0.723227 0.322080 0.000000
0.755741 0.322080 0.000000
0.788255 0.322080 0.000000
0.820769 0.322080 0.000000
0.853283 0.322080 0.000000
0.885796 0.322080 0.000000
0.918310 0.322080 0.000000
0.950824 0.322080 0.000000
0.983338 0.322080 0.000000
1.000000 0.322080 0.000000
0.000000 0.351360 0.000000
0.028755 0.351360 0.000000
0.057733 0.351360 0.000000
0.086793 0.351360 0.000000
0.115853 0.351360 0.000000
0.144913 0.351360 0.000000
0.173973 0.351360 0.000000
0.203033 0.351360 0.000000
0.232093 0.351360 0.000000
0.261153 0.351360 0.000000
0.290213 0.351360 0.000000
0.319274 0.351360 0.000000
0.348334 0.351360 0.000000
0.377394 0.351360 0.000000
0.406454 0.351360 0.000000
0.435514 0.351360 0.000000
0.464574 0.351360 0.000000
0.528143 0.351360 0.000000
0.560657 0.351360 0.000000
0.593171 0.351360 0.000000
0.625685 0.351360 0.000000
0.658199 0.351360 0.000000
0.690713 0.351360 0.000000
0.723227 0.351360 0.000000
0.755741 0.351360 0.000000
0.788255 0.351360 0.000000
0.820769 0.351360 0.000000
0.853283 0.351360 0.000000
0.885796 0.351360 0.000000
0.918310 0.351360 0.000000
0.950824 0.351360 0.000000
0.983338 0.351360 0.000000
1.000000 0.351360 0.000000
0.000000 0.380640 0.000000
0.028755 0.380640 0.000000
0.057733 0.380640 0.000000
0.086793 0.380640 0.000000
0.115853 0.380640 0.000000
0.144913 0.380640 0.000000
0.173973 0.380640 0.000000
0.203033 0.380640 0.000000
0.232093 0.380640 0.000000
0.261153 0.380640 0.000000
0.290213 0.380640 0.000000
0.319274 0.380640 0.000000
0.348334 0.380640 0.000000
0.377394 0.380640 0.000000
0.406454 0.380640 0.000000
0.435514 0.380640 0.000000
0.464574 0.380640 0.000000
0.528143 0.380640 0.000000
0.560657 0.380640 0.000000
0.593171 0.380640 0.000000
0.625685 0.380640 0.000000
0.658199 0.380640 0.000000
0.690713 0.380640 0.000000
0.723227 0.380640 0.000000
0.755741 0.380640 0.000000
0.788255 0.380640 0.000000
0.820769 0.380640 0.000000
0.853283 0.380640 0.000000
0.885796 0.380640 0.000000
0.918310 0.380640 0.000000
0.950824 0.380640 0.000000
0.983338 0.380640 0.000000
1.000000 0.380640 0.000000
0.000000 0.409920 0.000000
0.028755 0.409920 0.000000
0.057733 0.409920 0.000000
0.086793 0.409920 0.000000
0.115853 0.409920 0.000000
0.144913 0.409920 0.000000
0.173973 0.409920 0.000000
0.203033 0.409920 0.000000
0.232093 0.409920 0.000000
0.261153 0.409920 0.000000
0.290213 0.409920 0.000000
0.319274 0.409920 0.000000
0.348334 0.409920 0.000000
0.377394 0.409920 0.000000
0.406454 0.409920 0.000000
0.435514 0.409920 0.000000
0.464574 0.409920 0.000000
0.528143 0.409920 0.000000
0.560657 0.409920 0.000000
0.593171 0.409920 0.000000
0.625685 0.409920 0.000000
0.658199 0.409920 0.000000
0.690713 0.409920 0.000000
0.723227 0.409920 0.000000
0.755741 0.409920 0.000000
0.788255 0.409920 0.000000
0.820769 0.409920 0.000000
0.853283 0.409920 0.000000
0.885796 0.409920 0.000000
0.918310 0.409920 0.000000
0.950824 0.409920 0.000000
0.983338 0.409920 0.000000
1.000000 0.409920 0.000000
0.000000 0.439200 0.000000
0.028755 0.439200 0.000000
0.057733 0.439200 0.000000
0.086793 0.439200 0.000000
0.115853 0.439200 0.000000
0.144913 0.439200 0.000000
0.173973 0.439200 0.000000
0.203033 0.439200 0.000000
0.232093 0.439200 0.000000
0.261153 0.439200 0.000000
0.290213 0.439200 0.000000
0.319274 0.439200 0.000000
0.348334 0.439200 0.000000
0.377394 0.439200 0.000000
0.406454 0.439200 0.000000
0.435514 0.439200 0.000000
0.464574 0.439200 0.000000
0.528143 0.439200 0.000000
0.560657 0.439200 0.000000
0.593171 0.439200 0.000000
0.625685 0.439200 0.000000
0.658199 0.439200 0.000000
0.690713 0.439200 0.000000
0.723227 0.439200 0.000000
0.755741 0.439200 0.000000
0.788255 0.439200 0.000000
0.820769 0.439200 0.000000
0.853283 0.439200 0.000000
0.885796 0.439200 0.000000
0.918310 0.439200 0.000000
0.950824 0.439200 0.000000
0.983338 0.439200 0.000000
1.000000 0.439200 0.000000
0.000000 0.468480 0.000000
0.028755 0.468480 0.000000
0.057733 0.468480 0.000000
0.086793 0.468480 0.000000
0.115853 0.468480 0.000000
0.144913 0.468480 0.000000
0.173973 0.468480 0.000000
0.203033 0.468480 0.000000
0.232093 0.468480 0.000000
0.261153 0.468480 0.000000
0.290213 0.468480 0.000000
0.319274 0.468480 0.000000
0.348334 0.468480 0.000000
0.377394 0.468480 0.000000
0.406454 0.468480 0.000000
0.435514 0.468480 0.000000
0.464574 0.468480 0.000000
0.528143 0.468480 0.000000
0.560657 0.468480 0.000000
0.593171 0.468480 0.000000
0.625685 0.468480 0.000000
0.658199 0.468480 0.000000
0.690713 0.468480 0.000000
0.723227 0.468480 0.000000
0.755741 0.468480 0.000000
0.788255 0.468480 0.000000
0.820769 0.468480 0.000000
0.853283 0.468480 0.000000
0.885796 0.468480 0.000000
0.918310 0.468480 0.000000
0.950824 0.468480 0.000000
0.983338 0.468480 0.000000
1.000000 0.468480 0.000000
0.000000 0.532760 0.000000
0.028755 0.532760 0.000000
0.057733 0.532760 0.000000
0.086793 0.532760 0.000000
0.115853 0.532760 0.000000
0.144913 0.532760 0.000000
0.173973 0.532760 0.000000
0.203033 0.532760 0.000000
0.232093 0.532760 0.000000
0.261153 0.532760 0.000000
0.290213 0.532760 0.000000
0.319274 0.532760 0.000000
0.348334 0.532760 0.000000
0.377394 0.532760 0.000000
0.406454 0.532760 0.000000
0.435514 0.532760 0.000000
0.464574 0.532760 0.000000
0.528143 0.532760 0.000000
0.560657 0.532760 0.000000
0.593171 0.532760 0.000000
0.625685 0.532760 0.000000
0.658199 0.532760 0.000000
0.690713 0.532760 0.000000
0.723227 0.532760 0.000000
0.755741 0.532760 0.000000
0.788255 0.532760 0.000000
0.820769 0.532760 0.000000
0.853283 0.532760 0.000000
0.885796 0.532760 0.000000
0.918310 0.532760 0.000000
0.950824 0.532760 0.000000
0.983338 0.532760 0.000000
1.000000 0.532760 0.000000
0.000000 0.565520 0.000000
0.028755 0.565520 0.000000
0.057733 0.565520 0.000000
0.086793 0.565520 0.000000
0.115853 0.565520 0.000000
0.144913 0.565520 0.000000
0.173973 0.565520 0.000000
0.203033 0.565520 0.000000
0.232093 0.565520 0.000000
0.261153 0.565520 0.000000
0.290213 0.565520 0.000000
0.319274 0.565520 0.000000
0.348334 0.565520 0.000000
0.377394 0.565520 0.000000
0.406454 0.565520 0.000000
0.435514 0.565520 0.000000
0.464574 0.565520 0.000000
0.528143 0.565520 0.000000
0.560657 0.565520 0.000000
0.593171 0.565520 0.000000
0.625685 0.565520 0.000000
0.658199 0.565520 0.000000
0.690713 0.565520 0.000000
0.723227 0.565520 0.000000
0.755741 0.565520 0.000000
0.788255 0.565520 0.000000
0.820769 0.565520 0.000000
0.853283 0.565520 0.000000
0.885796 0.565520 0.000000
0.918310 0.565520 0.000000
0.950824 0.565520 0.000000
0.983338 0.565520 0.000000
1.000000 0.565520 0.000000
0.000000 0.598280 0.000000
0.028755 0.598280 0.000000
0.057733 0.598280 0.000000
0.086793 0.598280 0.000000
0.115853 0.598280 0.000000
0.144913 0.598280 0.000000
0.173973 0.598280 0.000000
0.203033 0.598280 0.000000
0.232093 0.598280 0.000000
0.261153 0.598280 0.000000
0.290213 0.598280 0.000000
0.319274 0.598280 0.000000
0.348334 0.598280 0.000000
0.377394 0.598280 0.000000
0.406454 0.598280 0.000000
0.435514 0.598280 0.000000
0.464574 0.598280 0.000000
0.528143 0.598280 0.000000
0.560657 0.598280 0.000000
0.593171 0.598280 0.000000
0.625685 0.598280 0.000000
0.658199 0.598280 0.000000
0.690713 0.598280 0.000000
0.723227 0.598280 0.000000
0.755741 0.598280 0.000000
0.788255 0.598280 0.000000
0.820769 0.598280 0.000000
0.853283 0.598280 0.000000
0.885796 0.598280 0.000000
0.918310 0.598280 0.000000
0.950824 0.598280 0.000000
0.983338 0.598280 0.000000
1.000000 0.598280 0.000000
0.000000 0.631040 0.000000
0.028755 0.631040 0.000000
0.057733 0.631040 0.000000
0.086793 0.631040 0.000000
0.115853 0.631040 0.000000
0.144913 0.631040 0.000000
0.173973 0.631040 0.000000
0.203033 0.631040 0.000000
0.232093 0.631040 0.000000
0.261153 0.631040 0.000000
0.290213 0.631040 0.000000
0.319274 0.631040 0.000000
0.348334 0.631040 0.000000
0.377394 0.631040 0.000000
0.406454 0.631040 0.000000
0.435514 0.631040 0.000000
0.464574 0.631040 0.000000
0.528143 0.631040 0.000000
0.560657 0.631040 0.000000
0.593171 0.631040 0.000000
0.625685 0.631040 0.000000
0.658199 0.631040 0.000000
0.690713 0.631040 0.000000
0.723227 0.631040 0.000000
0.755741 0.631040 0.000000
0.788255 0.631040 0.000000
0.820769 0.631040 0.000000
0.853283 0.631040 0.000000
0.885796 0.631040 0.000000
0.918310 0.631040 0.000000
0.950824 0.631040 0.000000
0.983338 0.631040 0.000000
1.000000 0.631040 0.000000
0.000000 0.663800 0.000000
0.028755 0.663800 0.000000
0.057733 0.663800 0.000000
0.086793 0.663800 0.000000
0.115853 0.663800 0.000000
0.144913 0.663800 0.000000
0.173973 0.663800 0.000000
0.203033 0.663800 0.000000
0.232093 0.663800 0.000000
0.261153 0.663800 0.000000
0.290213 0.663800 0.000000
0.319274 0.663800 0.000000
0.348334 0.663800 0.000000
0.377394 0.663800 0.000000
0.406454 0.663800 0.000000
0.435514 0.663800 0.000000
0.464574 0.663800 0.000000
0.528143 0.663800 0.000000
0.560657 0.663800 0.000000
0.593171 0.663800 0.000000
0.625685 0.663800 0.000000
0.658199 0.663800 0.000000
0.690713 0.663800 0.000000
0.723227 0.663800 0.000000
0.755741 0.663800 0.000000
0.788255 0.663800 0.000000
0.820769 0.663800 0.000000
0.853283 0.663800 0.000000
0.885796 0.663800 0.000000
0.918310 0.663800 0.000000
0.950824 0.663800 0.000000
0.983338 0.663800 0.000000
1.000000 0.663800 0.000000
0.000000 0.696560 0.000000
0.028755 0.696560 0.000000
0.057733 0.696560 0.000000
0.086793 0.696560 0.000000
0.115853 0.696560 0.000000
0.144913 0.696560 0.000000
0.173973 0.696560 0.000000
0.203033 0.696560 0.000000
0.232093 0.696560 0.000000
0.261153 0.696560 0.000000
0.290213 0.696560 0.000000
0.319274 0.696560 0.000000
0.348334 0.696560 0.000000
0.377394 0.696560 0.000000
0.406454 0.696560 0.000000
0.435514 0.696560 0.000000
0.464574 0.696560 0.000000
0.528143 0.696560 0.000000
0.560657 0.696560 0.000000
0.593171 0.696560 0.000000
0.625685 0.696560 0.000000
0.658199 0.696560 0.000000
0.690713 0.696560 0.000000
0.723227 0.696560 0.000000
0.755741 0.696560 0.000000
0.788255 0.696560 0.000000
0.820769 0.696560 0.000000
0.853283 0.696560 0.000000
0.885796 0.696560 0.000000
0.918310 0.696560 0.000000
0.950824 0.696560 0.000000
0.983338 0.696560 0.000000
1.000000 0.696560 0.000000
0.000000 0.729320 0.000000
0.028755 0.729320 0.000000
0.057733 0.729320 0.000000
0.086793 0.729320 0.000000
0.115853 0.729320 0.000000
0.144913 0.729320 0.000000
0.173973 0.729320 0.000000
0.203033 0.729320 0.000000
0.232093 0.729320 0.000000
0.261153 0.729320 0.000000
0.290213 0.729320 0.000000
0.319274 0.729320 0.000000
0.348334 0.729320 0.000000
0.377394 0.729320 0.000000
0.406454 0.729320 0.000000
0.435514 0.729320 0.000000
0.464574 0.729320 0.000000
0.528143 0.729320 0.000000
0.560657 0.729320 0.000000
0.593171 0.729320 0.000000
0.625685 0.729320 0.000000
0.658199 0.729320 0.000000
0.690713 0.729320 0.000000
0.723227 0.729320 0.000000
0.755741 0.729320 0.000000
0.788255 0.729320 0.000000
0.820769 0.729320 0.000000
0.853283 0.729320 0.000000
0.885796 0.729320 0.000000
0.918310 0.729320 0.000000
0.950824 0.729320 0.000000
0.983338 0.729320 0.000000
1.000000 0.729320 0.000000
0.000000 0.762080 0.000000
0.028755 0.762080 0.000000
0.057733 0.762080 0.000000
0.086793 0.762080 0.000000
0.115853 0.762080 0.000000
0.144913 0.762080 0.000000
0.173973 0.762080 0.000000
0.203033 0.762080 0.000000
0.232093 0.762080 0.000000
0.261153 0.762080 0.000000
0.290213 0.762080 0.000000
0.319274 0.762080 0.000000
0.348334 0.762080 0.000000
0.377394 0.762080 0.000000
0.406454 0.762080 0.000000
0.435514 0.762080 0.000000
0.464574 0.762080 0.000000
0.528143 0.762080 0.000000
0.560657 0.762080 0.000000
0.593171 0.762080 0.000000
0.625685 0.762080 0.000000
0.658199 0.762080 0.000000
0.690713 0.762080 0.000000
0.723227 0.762080 0.000000
0.755741 0.762080 0.000000
0.788255 0.762080 0.000000
0.820769 0.762080 0.000000
0.853283 0.762080 0.000000
0.885796 0.762080 0.000000
0.918310 0.762080 0.000000
0.950824 0.762080 0.000000
0.983338 0.762080 0.000000
1.000000 0.762080 0.000000
0.000000 0.794840 0.000000
0.028755 0.794840 0.000000
0.057733 0.794840 0.000000
0.086793 0.794840 0.000000
0.115853 0.794840 0.000000
0.144913 0.794840 0.000000
0.173973 0.794840 0.000000
0.203033 0.794840 0.000000
0.232093 0.794840 0.000000
0.261153 0.794840 0.000000
0.290213 0.794840 0.000000
0.319274 0.794840 0.000000
0.348334 0.794840 0.000000
0.377394 0.794840 0.000000
0.406454 0.794840 0.000000
0.435514 0.794840 0.000000
0.464574 0.794840 0.000000
0.528143 0.794840 0.000000
0.560657 0.794840 0.000000
0.593171 0.794840 0.000000
0.625685 0.794840 0.000000
0.658199 0.794840 0.000000
0.690713 0.794840 0.000000
0.723227 0.794840 0.000000
0.755741 0.794840 0.000000
0.788255 0.794840 0.000000
0.820769 0.794840 0.000000
0.853283 0.794840 0.000000
0.885796 0.794840 0.000000
0.918310 0.794840 0.000000
0.950824 0.794840 0.000000
0.983338 0.794840 0.000000
1.000000 0.794840 0.000000
0.000000 0.827600 0.000000
0.028755 0.827600 0.000000
0.057733 0.827600 0.000000
0.086793 0.827600 0.000000
0.115853 0.827600 0.000000
0.144913 0.827600 0.000000
0.173973 0.827600 0.000000
0.203033 0.827600 0.000000
0.232093 0.827600 0.000000
0.261153 0.827600 0.000000
0.290213 0.827600 0.000000
0.319274 0.827600 0.000000
0.348334 0.827600 0.000000
0.377394 0.827600 0.000000
0.406454 0.827600 0.000000
0.435514 0.827600 0.000000
0.464574 0.827600 0.000000
0.528143 0.827600 0.000000
0.560657 0.827600 0.000000
0.593171 0.827600 0.000000
0.625685 0.827600 0.000000
0.658199 0.827600 0.000000
0.690713 0.827600 0.000000
0.723227 0.827600 0.000000
