docs/luts/fuji_recipes/Velvia_VM_Velvia.cube
TITLE "Fujifilm Recipe: VM Velvia (Velvia)"
# FilmSim=Velvia HL=0 SH=-1 Col=2 WB=Auto WBR=0 WBB=-1
LUT_3D_SIZE 33
DOMAIN_MIN 0.0 0.0 0.0
DOMAIN_MAX 1.0 1.0 1.0
0.040000 0.040000 0.040000
0.075587 0.034571 0.034571
0.110711 0.029214 0.029214
0.145689 0.023878 0.023878
0.180668 0.018542 0.018542
0.215646 0.013206 0.013206
0.250625 0.007871 0.007871
0.285603 0.002535 0.002535
0.317781 0.000000 0.000000
0.347424 0.000000 0.000000
0.377067 0.000000 0.000000
0.406710 0.000000 0.000000
0.436353 0.000000 0.000000
0.465996 0.000000 0.000000
0.495638 0.000000 0.000000
0.525281 0.000000 0.000000
0.546933 0.000000 0.000000
0.578823 0.000000 0.000000
0.610713 0.000000 0.000000
0.642604 0.000000 0.000000
0.674494 0.000000 0.000000
0.706385 0.000000 0.000000
0.738275 0.000000 0.000000
0.770165 0.000000 0.000000
0.802056 0.000000 0.000000
0.833946 0.000000 0.000000
0.865836 0.000000 0.000000
0.897727 0.000000 0.000000
0.929617 0.000000 0.000000
0.961507 0.000000 0.000000
0.993398 0.000000 0.000000
1.000000 0.025288 0.025288
1.000000 0.040000 0.040000
0.034730 0.074550 0.034730
0.075587 0.074392 0.034571
0.110711 0.069034 0.029214
0.145689 0.063699 0.023878
0.180668 0.058363 0.018542
0.215646 0.053027 0.013206
0.250625 0.047692 0.007871
0.285603 0.042356 0.002535
0.317781 0.039131 0.000000
0.347424 0.038039 0.000000
0.377067 0.037165 0.000000
0.406710 0.036450 0.000000
0.436353 0.035853 0.000000
0.465996 0.035348 0.000000
0.495638 0.034916 0.000000
0.525281 0.034540 0.000000
0.546933 0.034297 0.000000
0.578823 0.033976 0.000000
0.610713 0.033694 0.000000
0.642604 0.033443 0.000000
0.674494 0.033220 0.000000
0.706385 0.033020 0.000000
0.738275 0.032838 0.000000
0.770165 0.032674 0.000000
0.802056 0.032524 0.000000
0.833946 0.032387 0.000000
0.865836 0.032261 0.000000
0.897727 0.032145 0.000000
0.929617 0.032037 0.000000
0.961507 0.031937 0.000000
0.993398 0.031844 0.000000
1.000000 0.055480 0.025288
1.000000 0.069280 0.040000
0.029459 0.109101 0.029459
0.070475 0.109101 0.029459
0.110711 0.108855 0.029214
0.145689 0.103520 0.023878
0.180668 0.098184 0.018542
0.215646 0.092848 0.013206
0.250625 0.087512 0.007871
0.285603 0.082177 0.002535
0.317781 0.078262 0.000000
0.347424 0.076078 0.000000
0.377067 0.074330 0.000000
0.406710 0.072899 0.000000
0.436353 0.071707 0.000000
0.465996 0.070697 0.000000
0.495638 0.069831 0.000000
0.525281 0.069081 0.000000
0.546933 0.068593 0.000000
0.578823 0.067952 0.000000
0.610713 0.067387 0.000000
0.642604 0.066887 0.000000
0.674494 0.066440 0.000000
0.706385 0.066039 0.000000
0.738275 0.065677 0.000000
0.770165 0.065348 0.000000
0.802056 0.065048 0.000000
0.833946 0.064774 0.000000
0.865836 0.064522 0.000000
0.897727 0.064289 0.000000
0.929617 0.064074 0.000000
0.961507 0.063875 0.000000
0.993398 0.063689 0.000000
1.000000 0.085671 0.025288
1.000000 0.098560 0.040000
0.024189 0.143651 0.024189
0.065204 0.143651 0.024189
0.105686 0.143651 0.024189
0.145689 0.143340 0.023878
0.180668 0.138005 0.018542
0.215646 0.132669 0.013206
0.250625 0.127333 0.007871
0.285603 0.121997 0.002535
0.317781 0.117393 0.000000
0.347424 0.114117 0.000000
0.377067 0.111495 0.000000
0.406710 0.109349 0.000000
0.436353 0.107560 0.000000
0.465996 0.106045 0.000000
0.495638 0.104747 0.000000
0.525281 0.103621 0.000000
0.546933 0.102890 0.000000
0.578823 0.101928 0.000000
0.610713 0.101081 0.000000
0.642604 0.100330 0.000000
0.674494 0.099660 0.000000
0.706385 0.099059 0.000000
0.738275 0.098515 0.000000
0.770165 0.098022 0.000000
0.802056 0.097572 0.000000
0.833946 0.097161 0.000000
0.865836 0.096782 0.000000
0.897727 0.096434 0.000000
0.929617 0.096111 0.000000
0.961507 0.095812 0.000000
0.993398 0.095533 0.000000
1.000000 0.115862 0.025288
1.000000 0.127840 0.040000
0.018918 0.178202 0.018918
0.059934 0.178202 0.018918
0.100415 0.178202 0.018918
0.140730 0.178202 0.018918
0.180668 0.177825 0.018542
0.215646 0.172490 0.013206
0.250625 0.167154 0.007871
0.285603 0.161818 0.002535
0.317781 0.156524 0.000000
0.347424 0.152156 0.000000
0.377067 0.148660 0.000000
0.406710 0.145799 0.000000
0.436353 0.143413 0.000000
0.465996 0.141394 0.000000
0.495638 0.139663 0.000000
0.525281 0.138162 0.000000
0.546933 0.137186 0.000000
0.578823 0.135903 0.000000
0.610713 0.134775 0.000000
0.642604 0.133774 0.000000
0.674494 0.132881 0.000000
0.706385 0.132078 0.000000
0.738275 0.131354 0.000000
0.770165 0.130696 0.000000
0.802056 0.130096 0.000000
0.833946 0.129547 0.000000
0.865836 0.129043 0.000000
0.897727 0.128578 0.000000
0.929617 0.128148 0.000000
0.961507 0.127749 0.000000
0.993398 0.127378 0.000000
1.000000 0.146054 0.025288
1.000000 0.157120 0.040000
0.013648 0.212752 0.013648
0.054663 0.212752 0.013648
0.095145 0.212752 0.013648
0.135459 0.212752 0.013648
0.175774 0.212752 0.013648
0.215646 0.212310 0.013206
0.250625 0.206975 0.007871
0.285603 0.201639 0.002535
0.317781 0.195655 0.000000
0.347424 0.190196 0.000000
0.377067 0.185825 0.000000
0.406710 0.182248 0.000000
0.436353 0.179266 0.000000
0.465996 0.176742 0.000000
0.495638 0.174578 0.000000
0.525281 0.172702 0.000000
0.546933 0.171483 0.000000
0.578823 0.169879 0.000000
0.610713 0.168468 0.000000
0.642604 0.167217 0.000000
0.674494 0.166101 0.000000
0.706385 0.165098 0.000000
0.738275 0.164192 0.000000
0.770165 0.163370 0.000000
0.802056 0.162620 0.000000
0.833946 0.161934 0.000000
0.865836 0.161304 0.000000
0.897727 0.160723 0.000000
0.929617 0.160185 0.000000
0.961507 0.159686 0.000000
0.993398 0.159222 0.000000
1.000000 0.176245 0.025288
1.000000 0.186400 0.040000
0.008378 0.247302 0.008378
0.049393 0.247302 0.008378
0.089875 0.247302 0.008378
0.130189 0.247302 0.008378
0.170503 0.247302 0.008378
0.210817 0.247302 0.008378
0.250625 0.246796 0.007871
0.285603 0.241460 0.002535
0.317781 0.234786 0.000000
0.347424 0.228235 0.000000
0.377067 0.222991 0.000000
0.406710 0.218698 0.000000
0.436353 0.215120 0.000000
0.465996 0.212091 0.000000
0.495638 0.209494 0.000000
0.525281 0.207243 0.000000
0.546933 0.205779 0.000000
0.578823 0.203855 0.000000
0.610713 0.202162 0.000000
0.642604 0.200661 0.000000
0.674494 0.199321 0.000000
0.706385 0.198117 0.000000
0.738275 0.197030 0.000000
0.770165 0.196044 0.000000
0.802056 0.195144 0.000000
0.833946 0.194321 0.000000
0.865836 0.193565 0.000000
0.897727 0.192867 0.000000
0.929617 0.192222 0.000000
0.961507 0.191624 0.000000
0.993398 0.191067 0.000000
1.000000 0.206436 0.025288
1.000000 0.215680 0.040000
0.003107 0.281853 0.003107
0.044123 0.281853 0.003107
0.084604 0.281853 0.003107
0.124919 0.281853 0.003107
0.165233 0.281853 0.003107
0.205547 0.281853 0.003107
0.245861 0.281853 0.003107
0.285603 0.281281 0.002535
0.317781 0.273917 0.000000
0.347424 0.266274 0.000000
0.377067 0.260156 0.000000
0.406710 0.255148 0.000000
0.436353 0.250973 0.000000
0.465996 0.247439 0.000000
0.495638 0.244410 0.000000
0.525281 0.241783 0.000000
0.546933 0.240076 0.000000
0.578823 0.237831 0.000000
0.610713 0.235856 0.000000
0.642604 0.234104 0.000000
0.674494 0.232541 0.000000
0.706385 0.231137 0.000000
0.738275 0.229869 0.000000
0.770165 0.228718 0.000000
0.802056 0.227668 0.000000
0.833946 0.226708 0.000000
0.865836 0.225825 0.000000
0.897727 0.225012 0.000000
0.929617 0.224259 0.000000
0.961507 0.223561 0.000000
0.993398 0.222911 0.000000
1.000000 0.236628 0.025288
1.000000 0.244960 0.040000
0.000000 0.314240 0.000000
0.040458 0.314240 0.000000
0.080390 0.314240 0.000000
0.120157 0.314240 0.000000
0.159924 0.314240 0.000000
0.199691 0.314240 0.000000
0.239457 0.314240 0.000000
0.279224 0.314240 0.000000
0.317781 0.313049 0.000000
0.347424 0.304313 0.000000
0.377067 0.297321 0.000000
0.406710 0.291597 0.000000
0.436353 0.286826 0.000000
0.465996 0.282788 0.000000
0.495638 0.279325 0.000000
0.525281 0.276324 0.000000
0.546933 0.274373 0.000000
0.578823 0.271807 0.000000
0.610713 0.269549 0.000000
0.642604 0.267548 0.000000
0.674494 0.265761 0.000000
0.706385 0.264156 0.000000
0.738275 0.262707 0.000000
0.770165 0.261392 0.000000
0.802056 0.260193 0.000000
0.833946 0.259095 0.000000
0.865836 0.258086 0.000000
0.897727 0.257156 0.000000
0.929617 0.256296 0.000000
0.961507 0.255498 0.000000
0.993398 0.254756 0.000000
1.000000 0.266819 0.025288
1.000000 0.274240 0.040000
0.000000 0.343520 0.000000
0.039314 0.343520 0.000000
0.078116 0.343520 0.000000
0.116758 0.343520 0.000000
0.155400 0.343520 0.000000
0.194042 0.343520 0.000000
0.232684 0.343520 0.000000
0.271326 0.343520 0.000000
0.309968 0.343520 0.000000
0.347424 0.342352 0.000000
0.377067 0.334486 0.000000
0.406710 0.328047 0.000000
0.436353 0.322679 0.000000
0.465996 0.318136 0.000000
0.495638 0.314241 0.000000
0.525281 0.310864 0.000000
0.546933 0.308669 0.000000
0.578823 0.305783 0.000000
0.610713 0.303243 0.000000
0.642604 0.300991 0.000000
0.674494 0.298981 0.000000
0.706385 0.297176 0.000000
0.738275 0.295546 0.000000
0.770165 0.294066 0.000000
0.802056 0.292717 0.000000
0.833946 0.291482 0.000000
0.865836 0.290347 0.000000
0.897727 0.289301 0.000000
0.929617 0.288333 0.000000
0.961507 0.287435 0.000000
0.993398 0.286600 0.000000
1.000000 0.297011 0.025288
1.000000 0.303520 0.040000
0.000000 0.372800 0.000000
0.038398 0.372800 0.000000
0.076297 0.372800 0.000000
0.114039 0.372800 0.000000
0.151781 0.372800 0.000000
0.189523 0.372800 0.000000
0.227265 0.372800 0.000000
0.265007 0.372800 0.000000
0.302749 0.372800 0.000000
0.340491 0.372800 0.000000
0.377067 0.371651 0.000000
0.406710 0.364497 0.000000
0.436353 0.358533 0.000000
0.465996 0.353485 0.000000
0.495638 0.349157 0.000000
0.525281 0.345405 0.000000
0.546933 0.342966 0.000000
0.578823 0.339759 0.000000
0.610713 0.336937 0.000000
0.642604 0.334435 0.000000
0.674494 0.332202 0.000000
0.706385 0.330196 0.000000
0.738275 0.328384 0.000000
0.770165 0.326740 0.000000
0.802056 0.325241 0.000000
0.833946 0.323869 0.000000
0.865836 0.322608 0.000000
0.897727 0.321445 0.000000
0.929617 0.320370 0.000000
0.961507 0.319373 0.000000
0.993398 0.318445 0.000000
1.000000 0.327202 0.025288
1.000000 0.332800 0.040000
0.000000 0.402080 0.000000
0.037649 0.402080 0.000000
0.074809 0.402080 0.000000
0.111814 0.402080 0.000000
0.148820 0.402080 0.000000
0.185826 0.402080 0.000000
0.222831 0.402080 0.000000
0.259837 0.402080 0.000000
0.296843 0.402080 0.000000
0.333849 0.402080 0.000000
0.370854 0.402080 0.000000
0.406710 0.400946 0.000000
0.436353 0.394386 0.000000
0.465996 0.388833 0.000000
0.495638 0.384072 0.000000
0.525281 0.379945 0.000000
0.546933 0.377262 0.000000
0.578823 0.373734 0.000000
0.610713 0.370630 0.000000
0.642604 0.367878 0.000000
0.674494 0.365422 0.000000
0.706385 0.363215 0.000000
0.738275 0.361222 0.000000
0.770165 0.359414 0.000000
0.802056 0.357765 0.000000
0.833946 0.356255 0.000000
0.865836 0.354869 0.000000
0.897727 0.353590 0.000000
0.929617 0.352407 0.000000
0.961507 0.351310 0.000000
0.993398 0.350289 0.000000
1.000000 0.357393 0.025288
1.000000 0.362080 0.040000
0.000000 0.431360 0.000000
0.037025 0.431360 0.000000
0.073568 0.431360 0.000000
0.109960 0.431360 0.000000
0.146353 0.431360 0.000000
0.182745 0.431360 0.000000
0.219137 0.431360 0.000000
0.255529 0.431360 0.000000
0.291921 0.431360 0.000000
0.328313 0.431360 0.000000
0.364705 0.431360 0.000000
0.401097 0.431360 0.000000
0.436353 0.430239 0.000000
0.465996 0.424182 0.000000
0.495638 0.418988 0.000000
0.525281 0.414486 0.000000
0.546933 0.411559 0.000000
0.578823 0.407710 0.000000
0.610713 0.404324 0.000000
0.642604 0.401322 0.000000
0.674494 0.398642 0.000000
0.706385 0.396235 0.000000
0.738275 0.394061 0.000000
0.770165 0.392088 0.000000
0.802056 0.390289 0.000000
0.833946 0.388642 0.000000
0.865836 0.387129 0.000000
0.897727 0.385734 0.000000
0.929617 0.384444 0.000000
0.961507 0.383247 0.000000
0.993398 0.382134 0.000000
1.000000 0.387585 0.025288
1.000000 0.391360 0.040000
0.000000 0.460640 0.000000
0.036497 0.460640 0.000000
0.072519 0.460640 0.000000
0.108392 0.460640 0.000000
0.144265 0.460640 0.000000
0.180138 0.460640 0.000000
0.216011 0.460640 0.000000
0.251884 0.460640 0.000000
0.287756 0.460640 0.000000
0.323629 0.460640 0.000000
0.359502 0.460640 0.000000
0.395375 0.460640 0.000000
0.431248 0.460640 0.000000
0.465996 0.459530 0.000000
0.495638 0.453904 0.000000
0.525281 0.449026 0.000000
0.546933 0.445855 0.000000
0.578823 0.441686 0.000000
0.610713 0.438018 0.000000
0.642604 0.434765 0.000000
0.674494 0.431862 0.000000
0.706385 0.429254 0.000000
0.738275 0.426899 0.000000
0.770165 0.424762 0.000000
0.802056 0.422813 0.000000
0.833946 0.421029 0.000000
0.865836 0.419390 0.000000
0.897727 0.417879 0.000000
0.929617 0.416481 0.000000
0.961507 0.415184 0.000000
0.993398 0.413978 0.000000
1.000000 0.417776 0.025288
1.000000 0.420640 0.040000
0.000000 0.489920 0.000000
0.036044 0.489920 0.000000
0.071619 0.489920 0.000000
0.107047 0.489920 0.000000
0.142475 0.489920 0.000000
0.177903 0.489920 0.000000
0.213331 0.489920 0.000000
0.248759 0.489920 0.000000
0.284187 0.489920 0.000000
0.319615 0.489920 0.000000
0.355043 0.489920 0.000000
0.390471 0.489920 0.000000
0.425899 0.489920 0.000000
0.461327 0.489920 0.000000
0.495638 0.488819 0.000000
0.525281 0.483567 0.000000
0.546933 0.480152 0.000000
0.578823 0.475662 0.000000
0.610713 0.471712 0.000000
0.642604 0.468209 0.000000
0.674494 0.465082 0.000000
0.706385 0.462274 0.000000
0.738275 0.459737 0.000000
0.770165 0.457436 0.000000
0.802056 0.455337 0.000000
0.833946 0.453416 0.000000
0.865836 0.451651 0.000000
0.897727 0.450023 0.000000
0.929617 0.448518 0.000000
0.961507 0.447122 0.000000
0.993398 0.445823 0.000000
1.000000 0.447968 0.025288
1.000000 0.449920 0.040000
0.000000 0.519200 0.000000
0.035652 0.519200 0.000000
0.070839 0.519200 0.000000
0.105882 0.519200 0.000000
0.140924 0.519200 0.000000
0.175966 0.519200 0.000000
0.211009 0.519200 0.000000
0.246051 0.519200 0.000000
0.281093 0.519200 0.000000
0.316135 0.519200 0.000000
0.351178 0.519200 0.000000
0.386220 0.519200 0.000000
0.421262 0.519200 0.000000
0.456304 0.519200 0.000000
0.491347 0.519200 0.000000
0.525281 0.518107 0.000000
0.546933 0.514449 0.000000
0.578823 0.509638 0.000000
0.610713 0.505405 0.000000
0.642604 0.501652 0.000000
0.674494 0.498302 0.000000
0.706385 0.495293 0.000000
0.738275 0.492576 0.000000
0.770165 0.490110 0.000000
0.802056 0.487861 0.000000
0.833946 0.485803 0.000000
0.865836 0.483912 0.000000
0.897727 0.482168 0.000000
0.929617 0.480555 0.000000
0.961507 0.479059 0.000000
0.993398 0.477667 0.000000
1.000000 0.478159 0.025288
1.000000 0.479200 0.040000
0.000000 0.548480 0.000000
0.035308 0.548480 0.000000
0.070157 0.548480 0.000000
0.104862 0.548480 0.000000
0.139567 0.548480 0.000000
0.174272 0.548480 0.000000
0.208977 0.548480 0.000000
0.243681 0.548480 0.000000
0.278386 0.548480 0.000000
0.313091 0.548480 0.000000
0.347796 0.548480 0.000000
0.382501 0.548480 0.000000
0.417205 0.548480 0.000000
0.451910 0.548480 0.000000
0.486615 0.548480 0.000000
0.521320 0.548480 0.000000
0.546669 0.548480 0.000000
0.578823 0.543614 0.000000
0.610713 0.539099 0.000000
0.642604 0.535096 0.000000
0.674494 0.531522 0.000000
0.706385 0.528313 0.000000
0.738275 0.525414 0.000000
0.770165 0.522784 0.000000
0.802056 0.520385 0.000000
0.833946 0.518190 0.000000
0.865836 0.516172 0.000000
0.897727 0.514312 0.000000
0.929617 0.512592 0.000000
0.961507 0.510996 0.000000
0.993398 0.509512 0.000000
1.000000 0.508350 0.025288
1.000000 0.508480 0.040000
0.000000 0.571500 0.000000
0.035067 0.571500 0.000000
0.069678 0.571500 0.000000
0.104146 0.571500 0.000000
0.138613 0.571500 0.000000
0.173081 0.571500 0.000000
0.207549 0.571500 0.000000
0.242017 0.571500 0.000000
0.276484 0.571500 0.000000
0.310952 0.571500 0.000000
0.345420 0.571500 0.000000
0.379888 0.571500 0.000000
0.414355 0.571500 0.000000
0.448823 0.571500 0.000000
0.483291 0.571500 0.000000
0.517758 0.571500 0.000000
0.542934 0.571500 0.000000
0.578823 0.570326 0.000000
0.610713 0.565589 0.000000
0.642604 0.561389 0.000000
0.674494 0.557640 0.000000
0.706385 0.554273 0.000000
0.738275 0.551232 0.000000
0.770165 0.548472 0.000000
0.802056 0.545956 0.000000
0.833946 0.543652 0.000000
0.865836 0.541536 0.000000
0.897727 0.539585 0.000000
0.929617 0.537780 0.000000
0.961507 0.536105 0.000000
0.993398 0.534548 0.000000
1.000000 0.532087 0.025288
1.000000 0.531500 0.040000
0.000000 0.603000 0.000000
0.034772 0.603000 0.000000
0.069091 0.603000 0.000000
0.103268 0.603000 0.000000
0.137445 0.603000 0.000000
0.171622 0.603000 0.000000
0.205799 0.603000 0.000000
0.239976 0.603000 0.000000
0.274153 0.603000 0.000000
0.308330 0.603000 0.000000
0.342508 0.603000 0.000000
0.376685 0.603000 0.000000
0.410862 0.603000 0.000000
0.445039 0.603000 0.000000
0.479216 0.603000 0.000000
0.513393 0.603000 0.000000
0.538357 0.603000 0.000000
0.575125 0.603000 0.000000
0.610713 0.601837 0.000000
0.642604 0.597368 0.000000
0.674494 0.593379 0.000000
0.706385 0.589796 0.000000
0.738275 0.586560 0.000000
0.770165 0.583623 0.000000
0.802056 0.580946 0.000000
0.833946 0.578495 0.000000
0.865836 0.576243 0.000000
0.897727 0.574166 0.000000
0.929617 0.572246 0.000000
0.961507 0.570464 0.000000
0.993398 0.568807 0.000000
1.000000 0.564567 0.025288
1.000000 0.563000 0.040000
0.000000 0.634500 0.000000
0.034509 0.634500 0.000000
0.068570 0.634500 0.000000
0.102489 0.634500 0.000000
0.136409 0.634500 0.000000
0.170328 0.634500 0.000000
0.204248 0.634500 0.000000
0.238168 0.634500 0.000000
0.272087 0.634500 0.000000
0.306007 0.634500 0.000000
0.339926 0.634500 0.000000
0.373846 0.634500 0.000000
0.407765 0.634500 0.000000
0.441685 0.634500 0.000000
0.475604 0.634500 0.000000
0.509524 0.634500 0.000000
0.534299 0.634500 0.000000
0.570790 0.634500 0.000000
0.607282 0.634500 0.000000
0.642604 0.633348 0.000000
0.674494 0.629118 0.000000
0.706385 0.625319 0.000000
0.738275 0.621888 0.000000
0.770165 0.618774 0.000000
0.802056 0.615936 0.000000
0.833946 0.613337 0.000000
0.865836 0.610949 0.000000
0.897727 0.608748 0.000000
0.929617 0.606712 0.000000
0.961507 0.604823 0.000000
0.993398 0.603066 0.000000
1.000000 0.597048 0.025288
1.000000 0.594500 0.040000
0.000000 0.666000 0.000000
0.034276 0.666000 0.000000
0.068105 0.666000 0.000000
0.101795 0.666000 0.000000
0.135484 0.666000 0.000000
0.169174 0.666000 0.000000
0.202864 0.666000 0.000000
0.236553 0.666000 0.000000
0.270243 0.666000 0.000000
0.303933 0.666000 0.000000
0.337622 0.666000 0.000000
0.371312 0.666000 0.000000
0.405002 0.666000 0.000000
0.438691 0.666000 0.000000
0.472381 0.666000 0.000000
0.506071 0.666000 0.000000
0.530678 0.666000 0.000000
0.566922 0.666000 0.000000
0.603166 0.666000 0.000000
0.639410 0.666000 0.000000
0.674494 0.664857 0.000000
0.706385 0.660842 0.000000
0.738275 0.657216 0.000000
0.770165 0.653926 0.000000
0.802056 0.650926 0.000000
0.833946 0.648180 0.000000
0.865836 0.645656 0.000000
0.897727 0.643330 0.000000
0.929617 0.641178 0.000000
0.961507 0.639182 0.000000
0.993398 0.637325 0.000000
1.000000 0.629528 0.025288
1.000000 0.626000 0.040000
0.000000 0.697500 0.000000
0.034066 0.697500 0.000000
0.067688 0.697500 0.000000
0.101171 0.697500 0.000000
0.134654 0.697500 0.000000
0.168137 0.697500 0.000000
0.201621 0.697500 0.000000
0.235104 0.697500 0.000000
0.268587 0.697500 0.000000
0.302070 0.697500 0.000000
0.335554 0.697500 0.000000
0.369037 0.697500 0.000000
0.402520 0.697500 0.000000
0.436003 0.697500 0.000000
0.469486 0.697500 0.000000
0.502970 0.697500 0.000000
0.527426 0.697500 0.000000
0.563448 0.697500 0.000000
0.599470 0.697500 0.000000
0.635492 0.697500 0.000000
0.671514 0.697500 0.000000
0.706385 0.696365 0.000000
0.738275 0.692545 0.000000
0.770165 0.689077 0.000000
0.802056 0.685916 0.000000
0.833946 0.683022 0.000000
0.865836 0.680363 0.000000
0.897727 0.677911 0.000000
0.929617 0.675644 0.000000
0.961507 0.673540 0.000000
0.993398 0.671584 0.000000
1.000000 0.662009 0.025288
1.000000 0.657500 0.040000
0.000000 0.729000 0.000000
0.033876 0.729000 0.000000
0.067311 0.729000 0.000000
0.100608 0.729000 0.000000
0.133905 0.729000 0.000000
0.167201 0.729000 0.000000
0.200498 0.729000 0.000000
0.233795 0.729000 0.000000
0.267092 0.729000 0.000000
0.300389 0.729000 0.000000
0.333686 0.729000 0.000000
0.366982 0.729000 0.000000
0.400279 0.729000 0.000000
0.433576 0.729000 0.000000
0.466873 0.729000 0.000000
0.500170 0.729000 0.000000
0.524490 0.729000 0.000000
0.560311 0.729000 0.000000
0.596133 0.729000 0.000000
0.631954 0.729000 0.000000
0.667775 0.729000 0.000000
0.703597 0.729000 0.000000
0.738275 0.727873 0.000000
0.770165 0.724228 0.000000
0.802056 0.720906 0.000000
0.833946 0.717864 0.000000
0.865836 0.715070 0.000000
0.897727 0.712493 0.000000
0.929617 0.710110 0.000000
0.961507 0.707899 0.000000
0.993398 0.705843 0.000000
1.000000 0.694489 0.025288
1.000000 0.689000 0.040000
0.000000 0.760500 0.000000
0.033704 0.760500 0.000000
0.066969 0.760500 0.000000
0.100097 0.760500 0.000000
0.133224 0.760500 0.000000
0.166352 0.760500 0.000000
0.199480 0.760500 0.000000
0.232607 0.760500 0.000000
0.265735 0.760500 0.000000
0.298863 0.760500 0.000000
0.331990 0.760500 0.000000
0.365118 0.760500 0.000000
0.398246 0.760500 0.000000
0.431374 0.760500 0.000000
0.464501 0.760500 0.000000
0.497629 0.760500 0.000000
0.521826 0.760500 0.000000
0.557465 0.760500 0.000000
0.593104 0.760500 0.000000
0.628744 0.760500 0.000000
0.664383 0.760500 0.000000
0.700023 0.760500 0.000000
0.735662 0.760500 0.000000
0.770165 0.759380 0.000000
0.802056 0.755896 0.000000
0.833946 0.752707 0.000000
0.865836 0.749777 0.000000
0.897727 0.747075 0.000000
0.929617 0.744576 0.000000
0.961507 0.742258 0.000000
0.993398 0.740102 0.000000
1.000000 0.726970 0.025288
1.000000 0.720500 0.040000
0.000000 0.792000 0.000000
0.033547 0.792000 0.000000
0.066657 0.792000 0.000000
0.099631 0.792000 0.000000
0.132604 0.792000 0.000000
0.165578 0.792000 0.000000
0.198551 0.792000 0.000000
0.231525 0.792000 0.000000
0.264498 0.792000 0.000000
0.297472 0.792000 0.000000
0.330445 0.792000 0.000000
0.363419 0.792000 0.000000
0.396392 0.792000 0.000000
0.429366 0.792000 0.000000
0.462339 0.792000 0.000000
0.495313 0.792000 0.000000
0.519397 0.792000 0.000000
0.554871 0.792000 0.000000
0.590344 0.792000 0.000000
0.625818 0.792000 0.000000
0.661291 0.792000 0.000000
0.696765 0.792000 0.000000
0.732238 0.792000 0.000000
0.767712 0.792000 0.000000
0.802056 0.790886 0.000000
0.833946 0.787549 0.000000
0.865836 0.784483 0.000000
0.897727 0.781657 0.000000
0.929617 0.779042 0.000000
0.961507 0.776617 0.000000
0.993398 0.774361 0.000000
1.000000 0.759450 0.025288
1.000000 0.752000 0.040000
0.000000 0.823500 0.000000
0.033403 0.823500 0.000000
0.066372 0.823500 0.000000
0.099205 0.823500 0.000000
0.132037 0.823500 0.000000
0.164869 0.823500 0.000000
0.197702 0.823500 0.000000
0.230534 0.823500 0.000000
0.263366 0.823500 0.000000
0.296199 0.823500 0.000000
0.329031 0.823500 0.000000
0.361864 0.823500 0.000000
0.394696 0.823500 0.000000
0.427528 0.823500 0.000000
0.460361 0.823500 0.000000
0.493193 0.823500 0.000000
0.517174 0.823500 0.000000
0.552496 0.823500 0.000000
0.587818 0.823500 0.000000
0.623140 0.823500 0.000000
0.658461 0.823500 0.000000
0.693783 0.823500 0.000000
0.729105 0.823500 0.000000
0.764426 0.823500 0.000000
0.799748 0.823500 0.000000
0.833946 0.822392 0.000000
0.865836 0.819190 0.000000
0.897727 0.816238 0.000000
0.929617 0.813508 0.000000
0.961507 0.810975 0.000000
0.993398 0.808619 0.000000
1.000000 0.791931 0.025288
1.000000 0.783500 0.040000
0.000000 0.855000 0.000000
0.033272 0.855000 0.000000
0.066110 0.855000 0.000000
0.098813 0.855000 0.000000
0.131516 0.855000 0.000000
0.164218 0.855000 0.000000
0.196921 0.855000 0.000000
0.229624 0.855000 0.000000
0.262327 0.855000 0.000000
0.295029 0.855000 0.000000
0.327732 0.855000 0.000000
0.360435 0.855000 0.000000
0.393138 0.855000 0.000000
0.425840 0.855000 0.000000
0.458543 0.855000 0.000000
0.491246 0.855000 0.000000
0.515132 0.855000 0.000000
0.550315 0.855000 0.000000
0.585497 0.855000 0.000000
0.620679 0.855000 0.000000
0.655861 0.855000 0.000000
0.691044 0.855000 0.000000
0.726226 0.855000 0.000000
0.761408 0.855000 0.000000
