docs/luts/fuji_recipes/Velvia_PE_Velvia_Bulmer.cube
TITLE "Fujifilm Recipe: PE Velvia Bulmer (Velvia)"
# FilmSim=Velvia HL=-2 SH=2 Col=-2 WB=Auto WBR=0 WBB=0
LUT_3D_SIZE 9
DOMAIN_MIN 0.0 0.0 0.0
DOMAIN_MAX 1.0 1.0 1.0
0.000000 0.000000 0.000000
0.093679 0.020564 0.020564
0.186857 0.041017 0.041017
0.280034 0.061471 0.061471
0.415003 0.091098 0.091098
0.507051 0.111304 0.111304
0.599099 0.131510 0.131510
0.691148 0.151715 0.151715
0.770800 0.169200 0.169200
0.020203 0.092037 0.020203
0.093679 0.092397 0.020564
0.186857 0.112851 0.041017
0.280034 0.133304 0.061471
0.415003 0.162932 0.091098
0.507051 0.183137 0.111304
0.599099 0.203343 0.131510
0.691148 0.223549 0.151715
0.770800 0.241034 0.169200
0.040406 0.184074 0.040406
0.113522 0.184074 0.040406
0.186857 0.184684 0.041017
0.280034 0.205138 0.061471
0.415003 0.234765 0.091098
0.507051 0.254971 0.111304
0.599099 0.275177 0.131510
0.691148 0.295383 0.151715
0.770800 0.312867 0.169200
0.060610 0.276110 0.060610
0.133725 0.276110 0.060610
0.206449 0.276110 0.060610
0.280034 0.276972 0.061471
0.415003 0.306599 0.091098
0.507051 0.326805 0.111304
0.599099 0.347010 0.131510
0.691148 0.367216 0.151715
0.770800 0.384701 0.169200
0.080813 0.368147 0.080813
0.153928 0.368147 0.080813
0.226652 0.368147 0.080813
0.299376 0.368147 0.080813
0.415003 0.378433 0.091098
0.507051 0.398638 0.111304
0.599099 0.418844 0.131510
0.691148 0.439050 0.151715
0.770800 0.456534 0.169200
0.109958 0.500922 0.109958
0.183074 0.500922 0.109958
0.255798 0.500922 0.109958
0.328521 0.500922 0.109958
0.433863 0.500922 0.109958
0.507051 0.502267 0.111304
0.599099 0.522473 0.131510
0.691148 0.542679 0.151715
0.770800 0.560163 0.169200
0.129917 0.591843 0.129917
0.203032 0.591843 0.129917
0.275756 0.591843 0.129917
0.348480 0.591843 0.129917
0.453821 0.591843 0.129917
0.525664 0.591843 0.129917
0.599099 0.593436 0.131510
0.691148 0.613642 0.151715
0.770800 0.631126 0.169200
0.149875 0.682765 0.149875
0.222991 0.682765 0.149875
0.295714 0.682765 0.149875
0.368438 0.682765 0.149875
0.473780 0.682765 0.149875
0.545622 0.682765 0.149875
0.617465 0.682765 0.149875
0.691148 0.684605 0.151715
0.770800 0.702090 0.169200
0.169200 0.770800 0.169200
0.242315 0.770800 0.169200
0.315039 0.770800 0.169200
0.387763 0.770800 0.169200
0.493105 0.770800 0.169200
0.564947 0.770800 0.169200
0.636790 0.770800 0.169200
0.708632 0.770800 0.169200
0.770800 0.770800 0.169200
0.019959 0.019959 0.090926
0.093679 0.020564 0.091530
0.186857 0.041017 0.111984
0.280034 0.061471 0.132437
0.415003 0.091098 0.162065
0.507051 0.111304 0.182270
0.599099 0.131510 0.202476
0.691148 0.151715 0.222682
0.770800 0.169200 0.240167
0.020203 0.092037 0.091170
0.113929 0.112301 0.111199
0.216924 0.122937 0.121835
0.319919 0.133572 0.132471
0.463966 0.152035 0.150934
0.565589 0.161977 0.160876
0.667212 0.171919 0.170818
0.768835 0.181861 0.180760
0.790759 0.260993 0.260126
0.040406 0.184074 0.111373
0.124247 0.213848 0.121518
0.216924 0.214165 0.121835
0.319919 0.224801 0.132471
0.463966 0.243264 0.150934
0.565589 0.253206 0.160876
0.667212 0.263148 0.170818
0.768835 0.273090 0.180760
0.790759 0.332827 0.260126
0.060610 0.276110 0.131576
0.134752 0.315582 0.132023
0.227112 0.315582 0.132023
0.319919 0.316030 0.132471
0.463966 0.334492 0.150934
0.565589 0.344434 0.160876
0.667212 0.354377 0.170818
0.768835 0.364319 0.180760
0.790759 0.404660 0.260126
0.080813 0.368147 0.151779
0.152187 0.448883 0.149458
0.244547 0.448883 0.149458
0.336906 0.448883 0.149458
0.463966 0.450424 0.150934
0.565589 0.460807 0.160876
0.667212 0.471190 0.170818
0.768835 0.455547 0.180760
0.790759 0.476494 0.260126
0.109958 0.500922 0.180925
0.162943 0.558822 0.160214
0.255302 0.558822 0.160214
0.347662 0.558822 0.160214
0.473657 0.558822 0.160214
0.565589 0.559513 0.160876
0.667212 0.569896 0.170818
0.768835 0.580279 0.180760
0.790759 0.580123 0.260126
0.129917 0.591843 0.200883
0.172764 0.659201 0.170034
0.265123 0.659201 0.170034
0.357482 0.659201 0.170034
0.483913 0.659201 0.170034
0.575153 0.659201 0.170034
0.667212 0.660019 0.170818
0.768835 0.670402 0.180760
0.790759 0.651086 0.260126
0.149875 0.682765 0.220842
0.182584 0.759580 0.179855
0.274943 0.759580 0.179855
0.367302 0.759580 0.179855
0.494169 0.759580 0.179855
0.585409 0.759580 0.179855
0.676649 0.759580 0.179855
0.768835 0.760526 0.180760
0.790759 0.722049 0.260126
0.169200 0.770800 0.240167
0.262275 0.790759 0.260126
0.334999 0.790759 0.260126
0.407722 0.790759 0.260126
0.513064 0.790759 0.260126
0.584906 0.790759 0.260126
0.656749 0.790759 0.260126
0.728592 0.790759 0.260126
0.790759 0.790759 0.260126
0.039993 0.039993 0.182191
0.113109 0.039993 0.182191
0.186857 0.041017 0.183215
0.280034 0.061471 0.203669
0.415003 0.091098 0.233296
0.507051 0.111304 0.253502
0.599099 0.131510 0.273708
0.691148 0.151715 0.293913
0.770800 0.169200 0.311398
0.039993 0.111827 0.182191
0.124159 0.122531 0.211894
0.217051 0.123063 0.212426
0.320046 0.133699 0.223062
0.464099 0.152163 0.241526
0.565722 0.162105 0.251468
0.667345 0.172048 0.261410
0.768968 0.181990 0.271352
0.791003 0.261237 0.331601
0.040406 0.184074 0.182604
0.124561 0.214162 0.212296
0.227341 0.224583 0.222717
0.330336 0.235219 0.233353
0.474919 0.253799 0.251933
0.576542 0.263741 0.261875
0.678165 0.273683 0.271817
0.779788 0.283625 0.281759
0.810793 0.352860 0.351391
0.060610 0.276110 0.202808
0.135067 0.315896 0.222802
0.237529 0.325999 0.232905
0.330336 0.326447 0.233353
0.474919 0.345028 0.251933
0.576542 0.354970 0.261875
0.678165 0.364912 0.271817
0.779788 0.374854 0.281759
0.810793 0.424694 0.351391
0.080813 0.368147 0.223011
0.152505 0.449213 0.240240
0.255082 0.459836 0.250457
0.347441 0.459836 0.250457
0.474919 0.461377 0.251933
0.576542 0.471760 0.261875
0.678165 0.456140 0.271817
0.779788 0.466083 0.281759
0.810793 0.496528 0.351391
0.109958 0.500922 0.252156
0.163261 0.559152 0.250996
0.265837 0.569775 0.261213
0.358197 0.569775 0.261213
0.484610 0.569775 0.261213
0.576542 0.570466 0.261875
0.678165 0.580849 0.271817
0.779788 0.591232 0.281759
0.810793 0.600156 0.351391
0.129917 0.591843 0.272115
0.173081 0.659531 0.260816
0.275658 0.670154 0.271034
0.368017 0.670154 0.271034
0.494866 0.670154 0.271034
0.586106 0.670154 0.271034
0.678165 0.670973 0.271817
0.779788 0.681356 0.281759
0.810793 0.671120 0.351391
0.149875 0.682765 0.292073
0.182902 0.759910 0.270637
0.285478 0.770533 0.280854
0.377838 0.770533 0.280854
0.479335 0.770533 0.280854
0.596362 0.770533 0.280854
0.687602 0.770533 0.280854
0.779788 0.771479 0.281759
0.810793 0.742083 0.351391
0.169200 0.770800 0.311398
0.262879 0.791364 0.331962
0.355032 0.810793 0.351391
0.427756 0.810793 0.351391
0.533098 0.810793 0.351391
0.604940 0.810793 0.351391
0.676783 0.810793 0.351391
0.748626 0.810793 0.351391
0.810793 0.810793 0.351391
0.060027 0.060027 0.273456
0.133142 0.060027 0.273456
0.205866 0.060027 0.273456
0.280034 0.061471 0.274900
0.415003 0.091098 0.304528
0.507051 0.111304 0.324733
0.599099 0.131510 0.344939
0.691148 0.151715 0.365145
0.770800 0.169200 0.382629
0.060027 0.131861 0.273456
0.134576 0.132948 0.312775
0.226936 0.132948 0.312775
0.320046 0.133699 0.313526
0.464099 0.152163 0.331990
0.565722 0.162105 0.341932
0.667345 0.172048 0.351874
0.768968 0.181990 0.361816
0.791003 0.261237 0.402833
0.060027 0.203694 0.273456
0.134764 0.224365 0.312963
0.237441 0.234683 0.323281
0.330551 0.235434 0.324032
0.475145 0.254016 0.342614
0.576768 0.263958 0.352556
0.678391 0.273900 0.362498
0.780014 0.283843 0.372441
0.811206 0.353274 0.423036
0.060610 0.276110 0.274039
0.135067 0.315896 0.313266
0.238062 0.326532 0.323901
0.340754 0.336865 0.334234
0.485872 0.355563 0.352932
0.587495 0.365505 0.362874
0.689118 0.375447 0.372816
0.790741 0.385389 0.382759
0.830827 0.444728 0.442656
0.080813 0.368147 0.294242
0.152505 0.449213 0.330704
0.255620 0.460396 0.341460
0.357976 0.470789 0.351456
0.485872 0.472330 0.352932
0.587495 0.456734 0.362874
0.689118 0.466676 0.372816
0.790741 0.476618 0.382759
0.830827 0.516561 0.442656
0.109958 0.500922 0.323388
0.163261 0.559152 0.341460
0.266376 0.570335 0.352216
0.368732 0.580728 0.362212
0.495564 0.580728 0.362212
0.587495 0.581420 0.362874
0.689118 0.591803 0.372816
0.790741 0.602186 0.382759
0.830827 0.620190 0.442656
0.129917 0.591843 0.343346
0.173081 0.659531 0.351280
0.276196 0.670714 0.362036
0.378552 0.681107 0.372033
0.480049 0.681107 0.372033
0.597060 0.681107 0.372033
0.689118 0.681926 0.372816
0.790741 0.692309 0.382759
0.830827 0.691153 0.442656
0.149875 0.682765 0.363305
0.182902 0.759910 0.361101
0.286017 0.771093 0.371856
0.388373 0.781487 0.381853
0.489870 0.781487 0.381853
0.607316 0.781487 0.381853
0.698556 0.781487 0.381853
0.790741 0.782432 0.382759
0.830827 0.762117 0.442656
0.169200 0.770800 0.382629
0.262879 0.791364 0.403193
0.356057 0.811817 0.423647
0.447790 0.830827 0.442656
0.553132 0.830827 0.442656
0.624974 0.830827 0.442656
0.696817 0.830827 0.442656
0.768659 0.830827 0.442656
0.830827 0.830827 0.442656
0.080061 0.080061 0.364722
0.153176 0.080061 0.364722
0.225900 0.080061 0.364722
0.298624 0.080061 0.364722
0.415003 0.091098 0.375759
0.507051 0.111304 0.395965
0.599099 0.131510 0.416170
0.691148 0.151715 0.436376
0.770800 0.169200 0.453861
0.080061 0.151894 0.364722
0.151962 0.150334 0.445399
0.244321 0.150334 0.445399
0.336680 0.150334 0.445399
0.464099 0.152163 0.447309
0.565722 0.162105 0.457692
0.667345 0.172048 0.442338
0.768968 0.181990 0.452280
0.791003 0.261237 0.474064
0.080061 0.223728 0.364722
0.152151 0.241752 0.445596
0.254945 0.252187 0.456445
0.347304 0.252187 0.456445
0.475145 0.254016 0.458355
0.576768 0.263958 0.443020
0.678391 0.273900 0.452962
0.780014 0.283843 0.462905
0.811206 0.353274 0.494267
0.080061 0.295562 0.364722
0.152151 0.332981 0.445596
0.255266 0.343737 0.456779
0.350724 0.346835 0.434668
0.486191 0.355869 0.443702
0.587814 0.365811 0.453645
0.689437 0.375753 0.463587
0.791060 0.385696 0.473529
0.831410 0.445310 0.514470
0.080813 0.368147 0.365474
0.152505 0.449213 0.445965
0.255620 0.460396 0.457148
0.358735 0.471579 0.442680
0.496825 0.457327 0.453931
0.598449 0.467269 0.463873
0.700072 0.477211 0.473816
0.801695 0.487153 0.483758
0.850861 0.536595 0.533922
0.109958 0.500922 0.394619
0.163261 0.559152 0.457198
0.266376 0.570335 0.442680
0.369491 0.581518 0.453435
0.480764 0.591682 0.463211
0.598449 0.592373 0.463873
0.700072 0.602756 0.473816
0.801695 0.613139 0.483758
0.850861 0.640224 0.533922
0.129917 0.591843 0.414578
0.173081 0.659531 0.441744
0.276196 0.670714 0.452500
0.379312 0.681897 0.463256
0.490585 0.692061 0.473032
0.608013 0.692061 0.473032
0.700072 0.692879 0.473816
0.801695 0.703262 0.483758
0.850861 0.711187 0.533922
0.149875 0.682765 0.434536
0.182902 0.759910 0.451564
0.286017 0.771093 0.462320
0.389132 0.782276 0.473076
0.500405 0.792440 0.482852
0.618269 0.792440 0.482852
0.709509 0.792440 0.482852
0.801695 0.793385 0.483758
0.850861 0.782150 0.533922
0.169200 0.770800 0.453861
0.262879 0.791364 0.474425
0.356057 0.811817 0.494878
0.449234 0.832271 0.515332
0.573165 0.850861 0.533922
0.645008 0.850861 0.533922
0.716851 0.850861 0.533922
0.788693 0.850861 0.533922
0.850861 0.850861 0.533922
0.109048 0.109048 0.496776
0.182164 0.109048 0.496776
0.254888 0.109048 0.496776
0.327611 0.109048 0.496776
0.432953 0.109048 0.496776
0.507051 0.111304 0.499031
0.599099 0.131510 0.519237
0.691148 0.151715 0.539443
0.770800 0.169200 0.556927
0.109048 0.180882 0.496776
0.162624 0.160996 0.554378
0.254983 0.160996 0.554378
0.347342 0.160996 0.554378
0.473323 0.160996 0.554378
0.565722 0.162105 0.555537
0.667345 0.172048 0.565920
0.768968 0.181990 0.576303
0.791003 0.261237 0.577130
0.109048 0.252715 0.496776
0.162813 0.252414 0.554575
0.265607 0.262848 0.565424
0.357966 0.262848 0.565424
0.484369 0.262848 0.565424
0.576768 0.263958 0.566583
0.678391 0.273900 0.576966
0.780014 0.283843 0.587349
0.811206 0.353274 0.597334
0.109048 0.324549 0.496776
0.162813 0.343642 0.554575
0.265928 0.354398 0.565758
0.368590 0.364701 0.576469
0.495415 0.364701 0.576469
0.587814 0.365811 0.577629
0.689437 0.375753 0.588012
0.791060 0.385696 0.598394
0.831410 0.445310 0.617537
0.109048 0.396383 0.496776
0.162813 0.459978 0.554575
0.265928 0.471161 0.565758
0.369043 0.456383 0.576940
0.480712 0.466554 0.587515
0.598860 0.467664 0.588674
0.700483 0.477606 0.599057
0.802106 0.487548 0.609440
0.851613 0.537347 0.637740
0.109958 0.500922 0.497686
0.163261 0.559152 0.555042
0.266376 0.570335 0.566225
0.369491 0.581518 0.577408
0.482808 0.593807 0.589697
0.617182 0.611106 0.606997
0.718929 0.621613 0.617504
0.820676 0.632120 0.628011
0.879848 0.669211 0.665976
0.129917 0.591843 0.517644
0.173081 0.659531 0.565298
0.276196 0.670714 0.576481
0.379312 0.681897 0.587664
0.492629 0.694186 0.599953
0.626861 0.710908 0.616675
0.718929 0.711737 0.617504
0.820676 0.722244 0.628011
0.879848 0.740175 0.665976
0.149875 0.682765 0.537602
0.182902 0.759910 0.575554
0.286017 0.771093 0.586737
0.389132 0.782276 0.597920
0.502449 0.794565 0.610209
0.637239 0.811410 0.627054
0.728479 0.811410 0.627054
0.820676 0.812367 0.628011
0.879848 0.811138 0.665976
0.169200 0.770800 0.556927
0.262879 0.791364 0.577491
0.356057 0.811817 0.597945
0.449234 0.832271 0.618398
0.584203 0.861898 0.648025
0.673995 0.879848 0.665976
0.745838 0.879848 0.665976
0.817681 0.879848 0.665976
0.879848 0.879848 0.665976
0.128839 0.128839 0.586935
0.201955 0.128839 0.586935
0.274679 0.128839 0.586935
0.347402 0.128839 0.586935
0.452744 0.128839 0.586935
0.524587 0.128839 0.586935
0.599099 0.131510 0.589605
0.691148 0.151715 0.609811
0.770800 0.169200 0.627296
0.128839 0.200673 0.586935
0.172362 0.170734 0.653915
0.264721 0.170734 0.653915
0.357080 0.170734 0.653915
0.483493 0.170734 0.653915
0.574733 0.170734 0.653915
0.667345 0.172048 0.655288
0.768968 0.181990 0.665671
0.791003 0.261237 0.647499
0.128839 0.272507 0.586935
0.172551 0.262152 0.654113
0.275345 0.272587 0.664961
0.367704 0.272587 0.664961
0.494539 0.272587 0.664961
0.585779 0.272587 0.664961
0.678391 0.273900 0.666333
0.780014 0.283843 0.676716
0.811206 0.353274 0.667702
0.128839 0.344340 0.586935
0.172551 0.353381 0.654113
0.275666 0.364137 0.665295
0.378329 0.374440 0.676007
0.479826 0.374440 0.676007
0.596825 0.374440 0.676007
0.689437 0.375753 0.677379
0.791060 0.385696 0.687762
0.831410 0.445310 0.687905
0.128839 0.416174 0.586935
0.172551 0.470148 0.654113
0.275666 0.455365 0.665295
0.378781 0.466121 0.676478
0.490450 0.476292 0.687053
0.607871 0.476292 0.687053
0.700483 0.477606 0.688425
0.802106 0.487548 0.698808
0.851613 0.537347 0.708108
0.128839 0.519803 0.586935
0.172551 0.568854 0.654113
0.275666 0.580037 0.665295
0.378781 0.591220 0.676478
0.492099 0.603509 0.688767
0.626774 0.620698 0.705956
0.719402 0.622087 0.707345
0.821149 0.632594 0.717852
0.880758 0.670122 0.737254
0.129917 0.591843 0.588012
0.173081 0.659531 0.654666
0.276196 0.670714 0.665849
0.379312 0.681897 0.677032
0.492629 0.694186 0.689321
0.628034 0.712081 0.707216
0.729220 0.722028 0.717163
0.830968 0.732535 0.727670
0.899639 0.759966 0.756135
0.149875 0.682765 0.607971
0.182902 0.759910 0.664922
0.286017 0.771093 0.676105
0.389132 0.782276 0.687288
0.502449 0.794565 0.699577
0.638412 0.812583 0.717595
0.738771 0.821701 0.726713
0.830968 0.822658 0.727670
0.899639 0.830929 0.756135
0.169200 0.770800 0.627296
0.262879 0.791364 0.647859
0.356057 0.811817 0.668313
0.449234 0.832271 0.688766
0.584203 0.861898 0.718394
0.676251 0.882104 0.738599
0.765629 0.899639 0.756135
0.837472 0.899639 0.756135
0.899639 0.899639 0.756135
0.148630 0.148630 0.677094
0.221746 0.148630 0.677094
0.294470 0.148630 0.677094
0.367194 0.148630 0.677094
0.472535 0.148630 0.677094
0.544378 0.148630 0.677094
0.616220 0.148630 0.677094
0.691148 0.151715 0.680179
0.770800 0.169200 0.697664
0.148630 0.220464 0.677094
0.182100 0.180472 0.753453
0.274459 0.180472 0.753453
0.366818 0.180472 0.753453
0.493663 0.180472 0.753453
0.584903 0.180472 0.753453
0.676143 0.180472 0.753453
0.768968 0.181990 0.755038
0.791003 0.261237 0.717867
0.148630 0.292298 0.677094
0.182289 0.271890 0.753650
0.285083 0.282325 0.764499
0.377442 0.282325 0.764499
0.478940 0.282325 0.764499
0.595949 0.282325 0.764499
0.687189 0.282325 0.764499
0.780014 0.283843 0.766084
0.811206 0.353274 0.738070
0.148630 0.364131 0.677094
0.182289 0.363119 0.753650
0.285404 0.373875 0.764833
0.388067 0.384178 0.775545
0.489564 0.384178 0.775545
0.606995 0.384178 0.775545
0.698235 0.384178 0.775545
0.791060 0.385696 0.777130
0.831410 0.445310 0.758274
0.148630 0.435965 0.677094
0.182289 0.454347 0.753650
0.285404 0.465103 0.764833
0.388520 0.475859 0.776016
0.500188 0.486031 0.786591
0.618040 0.486031 0.786591
0.709281 0.486031 0.786591
0.802106 0.487548 0.788176
0.851613 0.537347 0.778477
0.148630 0.539594 0.677094
0.182289 0.579024 0.753650
0.285404 0.590207 0.764833
0.388520 0.601390 0.776016
0.501837 0.613679 0.788305
0.637065 0.630989 0.805615
0.728305 0.630989 0.805615
0.821149 0.632594 0.807220
0.880758 0.670122 0.807622
0.148630 0.610557 0.677094
0.182289 0.669148 0.753650
0.285404 0.680330 0.764833
0.388520 0.691513 0.776016
0.501837 0.703802 0.788305
0.637765 0.721812 0.806315
0.738684 0.731491 0.815994
0.831528 0.733095 0.817598
0.900717 0.761043 0.827581
0.149875 0.682765 0.678339
0.182902 0.759910 0.754290
0.286017 0.771093 0.765473
0.389132 0.782276 0.776655
0.502449 0.794565 0.788945
0.638412 0.812583 0.806962
0.740159 0.823090 0.817469
0.841259 0.832950 0.827329
0.919430 0.850720 0.846294
0.169200 0.770800 0.697664
0.262879 0.791364 0.718228
0.356057 0.811817 0.738681
0.449234 0.832271 0.759135
0.584203 0.861898 0.788762
0.676251 0.882104 0.808968
0.768299 0.902310 0.829174
0.857263 0.919430 0.846294
0.919430 0.919430 0.846294
0.168422 0.168422 0.767254
0.241537 0.168422 0.767254
0.314261 0.168422 0.767254
0.386985 0.168422 0.767254
0.492326 0.168422 0.767254
0.564169 0.168422 0.767254
0.636011 0.168422 0.767254
0.707854 0.168422 0.767254
0.770800 0.169200 0.768032
0.168422 0.240255 0.767254
0.258826 0.257529 0.790189
0.332368 0.257529 0.790189
0.405911 0.257529 0.790189
0.512167 0.257529 0.790189
0.584818 0.257529 0.790189
0.657469 0.257529 0.790189
0.730121 0.257529 0.790189
0.791003 0.261237 0.788235
0.168422 0.312089 0.767254
0.259172 0.330520 0.790550
0.351767 0.349566 0.810393
0.425442 0.349566 0.810393
0.531867 0.349566 0.810393
0.604650 0.349566 0.810393
0.677433 0.349566 0.810393
0.750215 0.349566 0.810393
0.811206 0.353274 0.808439
0.168422 0.383922 0.767254
0.259172 0.403164 0.790550
0.352349 0.422927 0.811003
0.444713 0.441603 0.830596
0.551373 0.441603 0.830596
0.624338 0.441603 0.830596
0.697303 0.441603 0.830596
0.770268 0.441603 0.830596
0.831410 0.445310 0.828642
0.168422 0.455756 0.767254
0.259172 0.475808 0.790550
0.352349 0.495705 0.811003
0.445527 0.515381 0.831457
0.570542 0.533640 0.850799
0.643778 0.533640 0.850799
0.717013 0.533640 0.850799
0.790248 0.533640 0.850799
0.851613 0.537347 0.848845
0.168422 0.559385 0.767254
0.259172 0.580335 0.790550
0.352349 0.600401 0.811003
0.445527 0.620313 0.831457
0.580657 0.649065 0.861120
0.671487 0.666575 0.879980
0.745243 0.666575 0.879980
0.818998 0.666575 0.879980
0.880758 0.670122 0.877991
0.168422 0.630348 0.767254
0.259172 0.652099 0.790550
0.352349 0.672297 0.811003
0.445527 0.692394 0.831457
0.580657 0.721457 0.861120
0.672705 0.740688 0.881325
0.763389 0.757497 0.899938
0.838137 0.757497 0.899938
0.900717 0.761043 0.897949
0.168422 0.701311 0.767254
0.259172 0.723863 0.790550
0.352349 0.744194 0.811003
0.445527 0.764476 0.831457
0.580657 0.793849 0.861120
0.672705 0.813585 0.881325
0.764753 0.832807 0.901531
0.855511 0.848419 0.919897
0.920675 0.851965 0.917907
0.169200 0.770800 0.768032
0.262879 0.791364 0.788596
0.356057 0.811817 0.809050
0.449234 0.832271 0.829503
0.584203 0.861898 0.859130
0.676251 0.882104 0.879336
0.768299 0.902310 0.899542
0.860348 0.922515 0.919748
0.939222 0.939222 0.936454
