docs/luts/fuji_recipes/Velvia_PE_Velvia_Bulmer.cube
TITLE "Fujifilm Recipe: PE Velvia Bulmer (Velvia)"
# FilmSim=Velvia HL=-2 SH=2 Col=-2 WB=Auto WBR=0 WBB=0
LUT_3D_SIZE 5
DOMAIN_MIN 0.0 0.0 0.0
DOMAIN_MAX 1.0 1.0 1.0
0.000000 0.000000 0.000000
0.186857 0.041017 0.041017
0.415003 0.091098 0.091098
0.599099 0.131510 0.131510
0.770800 0.169200 0.169200
0.040406 0.184074 0.040406
0.186857 0.184684 0.041017
0.415003 0.234765 0.091098
0.599099 0.275177 0.131510
0.770800 0.312867 0.169200
0.080813 0.368147 0.080813
0.226652 0.368147 0.080813
0.415003 0.378433 0.091098
0.599099 0.418844 0.131510
0.770800 0.456534 0.169200
0.129917 0.591843 0.129917
0.275756 0.591843 0.129917
0.453821 0.591843 0.129917
0.599099 0.593436 0.131510
0.770800 0.631126 0.169200
0.169200 0.770800 0.169200
0.315039 0.770800 0.169200
0.493105 0.770800 0.169200
0.636790 0.770800 0.169200
0.770800 0.770800 0.169200
0.039993 0.039993 0.182191
0.186857 0.041017 0.183215
0.415003 0.091098 0.233296
0.599099 0.131510 0.273708
0.770800 0.169200 0.311398
0.040406 0.184074 0.182604
0.227341 0.224583 0.222717
0.474919 0.253799 0.251933
0.678165 0.273683 0.271817
0.810793 0.352860 0.351391
0.080813 0.368147 0.223011
0.255082 0.459836 0.250457
0.474919 0.461377 0.251933
0.678165 0.456140 0.271817
0.810793 0.496528 0.351391
0.129917 0.591843 0.272115
0.275658 0.670154 0.271034
0.494866 0.670154 0.271034
0.678165 0.670973 0.271817
0.810793 0.671120 0.351391
0.169200 0.770800 0.311398
0.355032 0.810793 0.351391
0.533098 0.810793 0.351391
0.676783 0.810793 0.351391
0.810793 0.810793 0.351391
0.080061 0.080061 0.364722
0.225900 0.080061 0.364722
0.415003 0.091098 0.375759
0.599099 0.131510 0.416170
0.770800 0.169200 0.453861
0.080061 0.223728 0.364722
0.254945 0.252187 0.456445
0.475145 0.254016 0.458355
0.678391 0.273900 0.452962
0.811206 0.353274 0.494267
0.080813 0.368147 0.365474
0.255620 0.460396 0.457148
0.496825 0.457327 0.453931
0.700072 0.477211 0.473816
0.850861 0.536595 0.533922
0.129917 0.591843 0.414578
0.276196 0.670714 0.452500
0.490585 0.692061 0.473032
0.700072 0.692879 0.473816
0.850861 0.711187 0.533922
0.169200 0.770800 0.453861
0.356057 0.811817 0.494878
0.573165 0.850861 0.533922
0.716851 0.850861 0.533922
0.850861 0.850861 0.533922
0.128839 0.128839 0.586935
0.274679 0.128839 0.586935
0.452744 0.128839 0.586935
0.599099 0.131510 0.589605
0.770800 0.169200 0.627296
0.128839 0.272507 0.586935
0.275345 0.272587 0.664961
0.494539 0.272587 0.664961
0.678391 0.273900 0.666333
0.811206 0.353274 0.667702
0.128839 0.416174 0.586935
0.275666 0.455365 0.665295
0.490450 0.476292 0.687053
0.700483 0.477606 0.688425
0.851613 0.537347 0.708108
0.129917 0.591843 0.588012
0.276196 0.670714 0.665849
0.492629 0.694186 0.689321
0.729220 0.722028 0.717163
0.899639 0.759966 0.756135
0.169200 0.770800 0.627296
0.356057 0.811817 0.668313
0.584203 0.861898 0.718394
0.765629 0.899639 0.756135
0.899639 0.899639 0.756135
0.168422 0.168422 0.767254
0.314261 0.168422 0.767254
0.492326 0.168422 0.767254
0.636011 0.168422 0.767254
0.770800 0.169200 0.768032
0.168422 0.312089 0.767254
0.351767 0.349566 0.810393
0.531867 0.349566 0.810393
0.677433 0.349566 0.810393
0.811206 0.353274 0.808439
0.168422 0.455756 0.767254
0.352349 0.495705 0.811003
0.570542 0.533640 0.850799
0.717013 0.533640 0.850799
0.851613 0.537347 0.848845
0.168422 0.630348 0.767254
0.352349 0.672297 0.811003
0.580657 0.721457 0.861120
0.763389 0.757497 0.899938
0.900717 0.761043 0.897949
0.169200 0.770800 0.768032
0.356057 0.811817 0.809050
0.584203 0.861898 0.859130
0.768299 0.902310 0.899542
0.939222 0.939222 0.936454
