docs/luts/fuji_recipes/Velvia_VM_Valvia_Fujipro_Color_Cast.cube
TITLE "Fujifilm Recipe: VM Valvia Fujipro Color Cast (Velvia)"
# FilmSim=Velvia HL=-2 SH=-1 Col=-4 WB=Auto WBR=-2 WBB=-3
LUT_3D_SIZE 5
DOMAIN_MIN 0.0 0.0 0.0
DOMAIN_MAX 1.0 1.0 1.0
0.040000 0.040000 0.040000
0.222146 0.142457 0.142457
0.388631 0.236105 0.236105
0.554274 0.329279 0.329279
0.596938 0.353278 0.353278
0.146290 0.228960 0.146290
0.225979 0.228960 0.146290
0.388631 0.318775 0.236105
0.554274 0.411950 0.329279
0.596938 0.435948 0.353278
0.243438 0.401667 0.243438
0.323126 0.401667 0.243438
0.395964 0.401667 0.243438
0.554274 0.487509 0.329279
0.596938 0.511507 0.353278
0.340315 0.573894 0.340315
0.420004 0.573894 0.340315
0.492841 0.573894 0.340315
0.565310 0.573894 0.340315
0.596938 0.586856 0.353278
0.364000 0.616000 0.364000
0.443689 0.616000 0.364000
0.516526 0.616000 0.364000
0.588995 0.616000 0.364000
0.607660 0.616000 0.364000
0.137339 0.137339 0.213047
0.222146 0.142457 0.218165
0.388631 0.236105 0.311813
0.554274 0.329279 0.404987
0.596938 0.353278 0.428986
0.146290 0.228960 0.221998
0.323453 0.327239 0.318397
0.495213 0.405353 0.396511
0.669496 0.486711 0.477869
0.701642 0.523903 0.516252
0.243438 0.401667 0.319146
0.407969 0.508928 0.402914
0.501686 0.508928 0.402914
0.669496 0.584703 0.477869
0.701642 0.607762 0.516252
0.340315 0.573894 0.416023
0.496018 0.687501 0.491113
0.587618 0.687501 0.491113
0.676923 0.687501 0.491113
0.701642 0.690563 0.516252
0.364000 0.616000 0.439708
0.541028 0.713339 0.537047
0.613865 0.713339 0.537047
0.686334 0.713339 0.537047
0.704999 0.713339 0.537047
0.226946 0.226946 0.372349
0.306635 0.226946 0.372349
0.388631 0.236105 0.381508
0.554274 0.329279 0.474682
0.596938 0.353278 0.498680
0.226946 0.309616 0.372349
0.398207 0.401994 0.482764
0.503404 0.413465 0.494357
0.677687 0.494823 0.576604
0.710593 0.532165 0.602236
0.243438 0.401667 0.388840
0.412607 0.513612 0.497322
0.583102 0.590345 0.574055
0.751966 0.667173 0.650883
0.792224 0.692291 0.677287
0.340315 0.573894 0.485718
0.500212 0.692619 0.583474
0.669807 0.772744 0.660760
0.761843 0.772744 0.660760
0.792224 0.780430 0.677287
0.364000 0.616000 0.509403
0.546146 0.718457 0.611860
0.703472 0.802946 0.696349
0.775941 0.802946 0.696349
0.794606 0.802946 0.696349
0.315807 0.315807 0.530323
0.395495 0.315807 0.530323
0.468333 0.315807 0.530323
0.554274 0.329279 0.543796
0.596938 0.353278 0.567794
0.315807 0.398477 0.530323
0.475799 0.479585 0.648978
0.573758 0.483059 0.652486
0.677687 0.494823 0.664379
0.710593 0.532165 0.678454
0.315807 0.474036 0.530323
0.475799 0.577494 0.648978
0.656070 0.663312 0.734797
0.766726 0.681933 0.753417
0.808715 0.706605 0.773881
0.340315 0.573894 0.554832
0.500212 0.692619 0.669024
0.678005 0.780941 0.756732
0.841373 0.852274 0.828065
0.876679 0.863875 0.839666
0.364000 0.616000 0.578516
0.546146 0.718457 0.680973
0.712631 0.812105 0.774622
0.864802 0.891807 0.854323
0.883467 0.891807 0.854323
0.338694 0.338694 0.571011
0.418383 0.338694 0.571011
0.491220 0.338694 0.571011
0.563689 0.338694 0.571011
0.596938 0.353278 0.585595
0.338694 0.421364 0.571011
0.497067 0.500812 0.690850
0.594082 0.503882 0.694684
0.685451 0.503882 0.694684
0.710593 0.532165 0.698084
0.338694 0.496923 0.571011
0.497067 0.597783 0.690850
0.676554 0.683796 0.777888
0.775151 0.690359 0.784451
0.808715 0.706605 0.795158
0.340315 0.573894 0.572633
0.500212 0.692619 0.691058
0.678005 0.780941 0.779339
0.853431 0.864332 0.862730
0.897163 0.884359 0.882758
0.364000 0.616000 0.596317
0.546146 0.718457 0.698774
0.712631 0.812105 0.792423
0.878274 0.905279 0.885597
0.906354 0.914694 0.895011
