docs/luts/fuji_recipes/Velvia_RR_Split-Tones_B_W_2_2.cube
TITLE "Fujifilm Recipe: RR Split-Tones B&W 2/2 (Velvia)"
# FilmSim=Velvia HL=4 SH=4 Col=2 WB=Auto WBR=0 WBB=0
LUT_3D_SIZE 5
DOMAIN_MIN 0.0 0.0 0.0
DOMAIN_MAX 1.0 1.0 1.0
0.000000 0.000000 0.000000
0.121428 0.000000 0.000000
0.252005 0.000000 0.000000
0.474553 0.000000 0.000000
0.660786 0.000000 0.000000
0.000000 0.119478 0.000000
0.121428 0.119478 0.000000
0.252005 0.119478 0.000000
0.474553 0.119478 0.000000
0.660786 0.119478 0.000000
0.000000 0.248457 0.000000
0.121428 0.248457 0.000000
0.252005 0.248457 0.000000
0.474553 0.248457 0.000000
0.660786 0.248457 0.000000
0.000000 0.467213 0.000000
0.121428 0.467213 0.000000
0.252005 0.467213 0.000000
0.474553 0.467213 0.000000
0.660786 0.467213 0.000000
0.000000 0.651166 0.000000
0.121428 0.651166 0.000000
0.252005 0.651166 0.000000
0.474553 0.651166 0.000000
0.660786 0.651166 0.000000
0.000000 0.000000 0.118159
0.121428 0.000000 0.118159
0.252005 0.000000 0.118159
0.474553 0.000000 0.118159
0.660786 0.000000 0.118159
0.000000 0.119478 0.118159
0.145972 0.141962 0.139250
0.337038 0.062333 0.059599
0.607244 0.002288 0.000000
0.799980 0.001988 0.000000
0.000000 0.248457 0.118159
0.068281 0.332088 0.061492
0.337038 0.329683 0.059599
0.607244 0.226059 0.000000
0.799980 0.196382 0.000000
0.000000 0.467213 0.118159
0.005725 0.600524 0.000000
0.234417 0.600524 0.000000
0.607244 0.594509 0.000000
0.799980 0.508231 0.000000
0.000000 0.651166 0.118159
0.004953 0.790002 0.000000
0.202781 0.790002 0.000000
0.522428 0.790002 0.000000
0.799980 0.785481 0.000000
0.000000 0.000000 0.246057
0.121428 0.000000 0.246057
0.252005 0.000000 0.246057
0.474553 0.000000 0.246057
0.660786 0.000000 0.246057
0.000000 0.119478 0.246057
0.069016 0.064955 0.328562
0.336877 0.061765 0.324528
0.609185 0.000000 0.221175
0.801231 0.000000 0.191570
0.000000 0.248457 0.246057
0.066886 0.331662 0.326659
0.302581 0.295285 0.290350
0.626951 0.173575 0.168503
0.965945 0.005830 0.000000
0.000000 0.467213 0.246057
0.000000 0.605335 0.222227
0.184818 0.616513 0.172221
0.626951 0.611439 0.168503
0.965945 0.495793 0.000000
0.000000 0.651166 0.246057
0.000000 0.793102 0.190802
0.025159 0.946307 0.010831
0.520891 0.946307 0.010831
0.965945 0.942580 0.000000
0.000000 0.000000 0.462248
0.121428 0.000000 0.462248
0.252005 0.000000 0.462248
0.474553 0.000000 0.462248
0.660786 0.000000 0.462248
0.000000 0.119478 0.462248
0.003463 0.000000 0.597920
0.235350 0.000000 0.597920
0.609185 0.000000 0.587683
0.801231 0.000000 0.500754
0.000000 0.248457 0.462248
0.000000 0.228043 0.600789
0.186415 0.178880 0.608841
0.626375 0.172611 0.600336
0.969477 0.000000 0.482444
0.000000 0.467213 0.462248
0.000000 0.605335 0.596481
0.182453 0.615035 0.604487
0.570271 0.555178 0.544968
0.886945 0.397243 0.384683
0.000000 0.651166 0.462248
0.000000 0.793102 0.503875
0.015017 0.950874 0.488259
0.425042 0.869249 0.394092
0.886945 0.862609 0.384683
0.000000 0.000000 0.644659
0.121428 0.000000 0.644659
0.252005 0.000000 0.644659
0.474553 0.000000 0.644659
0.660786 0.000000 0.644659
0.000000 0.119478 0.644659
0.002978 0.000000 0.784503
0.202369 0.000000 0.784503
0.524751 0.000000 0.784503
0.801231 0.000000 0.776823
0.000000 0.248457 0.644659
0.000000 0.195201 0.786353
0.032505 0.024029 0.930684
0.524344 0.024029 0.930684
0.969477 0.000000 0.929915
0.000000 0.467213 0.644659
0.000000 0.513677 0.786353
0.026621 0.505258 0.933314
0.429043 0.410680 0.854599
0.884081 0.395092 0.843342
0.000000 0.651166 0.644659
0.000000 0.793102 0.783140
0.015017 0.950874 0.934940
0.419747 0.862291 0.845986
0.793631 0.773851 0.760471
