docs/luts/fuji_recipes/Velvia_JC_Velvia_LS.cube
TITLE "Fujifilm Recipe: JC Velvia LS (Velvia)"
# FilmSim=Velvia HL=-1 SH=3 Col=4 WB=Auto WBR=1 WBB=0
LUT_3D_SIZE 5
DOMAIN_MIN 0.0 0.0 0.0
DOMAIN_MAX 1.0 1.0 1.0
0.000000 0.000000 0.000000
0.223401 0.000000 0.000000
0.518508 0.000000 0.000000
0.764318 0.000000 0.000000
0.970000 0.000000 0.000000
0.000000 0.214720 0.000000
0.223401 0.214720 0.000000
0.518508 0.214720 0.000000
0.764318 0.214720 0.000000
0.970000 0.214720 0.000000
0.000000 0.429440 0.000000
0.223401 0.429440 0.000000
0.518508 0.429440 0.000000
0.764318 0.429440 0.000000
0.970000 0.429440 0.000000
0.000000 0.736880 0.000000
0.223401 0.736880 0.000000
0.518508 0.736880 0.000000
0.764318 0.736880 0.000000
0.970000 0.736880 0.000000
0.000000 0.970000 0.000000
0.223401 0.970000 0.000000
0.518508 0.970000 0.000000
0.764318 0.970000 0.000000
0.970000 0.970000 0.000000
0.000000 0.000000 0.212524
0.223401 0.000000 0.212524
0.518508 0.000000 0.212524
0.764318 0.000000 0.212524
0.970000 0.000000 0.212524
0.000000 0.214720 0.212524
0.229842 0.210880 0.206083
0.688569 0.049513 0.044716
0.981214 0.003998 0.000000
1.000000 0.184894 0.182524
0.000000 0.429440 0.212524
0.085766 0.641234 0.062007
0.688569 0.623501 0.044716
0.981214 0.394959 0.000000
1.000000 0.416622 0.182524
0.000000 0.736880 0.212524
0.020271 0.953539 0.000000
0.546561 0.953539 0.000000
0.981214 0.931254 0.000000
1.000000 0.748414 0.182524
0.000000 0.970000 0.212524
0.194262 1.000000 0.182524
0.512745 1.000000 0.182524
0.778026 1.000000 0.182524
1.000000 1.000000 0.182524
0.000000 0.000000 0.425444
0.223401 0.000000 0.425444
0.518508 0.000000 0.425444
0.764318 0.000000 0.425444
0.970000 0.000000 0.425444
0.000000 0.214720 0.425444
0.086950 0.067988 0.633123
0.687241 0.048219 0.612850
0.983390 0.000000 0.386121
1.000000 0.184720 0.412184
0.000000 0.429440 0.425444
0.079361 0.634656 0.625333
0.559812 0.393161 0.384433
0.950430 0.250473 0.241744
1.000000 0.399880 0.395444
0.000000 0.736880 0.425444
0.000000 0.964316 0.389134
0.327315 0.906828 0.257672
0.950430 0.890493 0.241744
1.000000 0.741194 0.395444
0.000000 0.970000 0.425444
0.193401 1.000000 0.411681
0.498761 1.000000 0.395444
0.771656 1.000000 0.395444
1.000000 1.000000 0.395444
0.000000 0.000000 0.730486
0.223401 0.000000 0.730486
0.518508 0.000000 0.730486
0.764318 0.000000 0.730486
0.970000 0.000000 0.730486
0.000000 0.214720 0.730486
0.016380 0.000000 0.949266
0.549281 0.000000 0.949266
0.983390 0.000000 0.921397
1.000000 0.184720 0.741459
0.000000 0.429440 0.730486
0.000000 0.399239 0.957867
0.328673 0.267759 0.894251
0.948014 0.248120 0.874111
1.000000 0.399440 0.733901
0.000000 0.736880 0.730486
0.000000 0.964316 0.952001
0.308540 0.887548 0.873581
0.784354 0.724417 0.710451
1.000000 0.708482 0.700486
0.000000 0.970000 0.730486
0.193401 1.000000 0.741238
0.488508 1.000000 0.728657
0.742794 1.000000 0.700486
1.000000 1.000000 0.700486
0.000000 0.000000 0.965381
0.223401 0.000000 0.965381
0.518508 0.000000 0.965381
0.764318 0.000000 0.965381
0.970000 0.000000 0.965381
0.000000 0.214720 0.965381
0.189885 0.180395 1.000000
0.511520 0.180395 1.000000
0.780217 0.180395 1.000000
1.000000 0.184720 0.995014
0.000000 0.429440 0.965381
0.189076 0.414529 1.000000
0.494304 0.395115 1.000000
0.772472 0.395115 1.000000
1.000000 0.399440 0.994868
0.000000 0.736880 0.965381
0.189076 0.749970 1.000000
0.483888 0.736095 1.000000
0.738013 0.702261 1.000000
1.000000 0.706880 0.994192
0.000000 0.970000 0.965381
0.193401 1.000000 0.995009
0.488508 1.000000 0.994767
0.734318 1.000000 0.994033
0.971663 0.971663 0.963718
