docs/luts/fuji_recipes/Velvia_RR_Ektachrome_100SW.cube
TITLE "Fujifilm Recipe: RR Ektachrome 100SW (Velvia)"
# FilmSim=Velvia HL=1 SH=2 Col=-1 WB=Auto WBR=3 WBB=-4
LUT_3D_SIZE 9
DOMAIN_MIN 0.0 0.0 0.0
DOMAIN_MAX 1.0 1.0 1.0
0.000000 0.000000 0.000000
0.127723 0.012632 0.012632
0.249998 0.024725 0.024725
0.372273 0.036818 0.036818
0.555398 0.054930 0.054930
0.698154 0.069048 0.069048
0.840910 0.083167 0.083167
0.910000 0.090000 0.090000
0.910000 0.090000 0.090000
0.011556 0.116846 0.011556
0.127723 0.117922 0.012632
0.249998 0.130015 0.024725
0.372273 0.142108 0.036818
0.555398 0.160219 0.054930
0.698154 0.174338 0.069048
0.840910 0.188457 0.083167
0.910000 0.195290 0.090000
0.910000 0.195290 0.090000
0.022668 0.229198 0.022668
0.137759 0.229198 0.022668
0.249998 0.231255 0.024725
0.372273 0.243348 0.036818
0.555398 0.261459 0.054930
0.698154 0.275578 0.069048
0.840910 0.289697 0.083167
0.910000 0.296530 0.090000
0.910000 0.296530 0.090000
0.033780 0.341550 0.033780
0.148871 0.341550 0.033780
0.259053 0.341550 0.033780
0.372273 0.344588 0.036818
0.555398 0.362700 0.054930
0.698154 0.376818 0.069048
0.840910 0.390937 0.083167
0.910000 0.397770 0.090000
0.910000 0.397770 0.090000
0.050236 0.507944 0.050236
0.165327 0.507944 0.050236
0.275509 0.507944 0.050236
0.385691 0.507944 0.050236
0.555398 0.512637 0.054930
0.698154 0.526756 0.069048
0.840910 0.540875 0.083167
0.910000 0.547708 0.090000
0.910000 0.547708 0.090000
0.063209 0.639115 0.063209
0.178300 0.639115 0.063209
0.288482 0.639115 0.063209
0.398664 0.639115 0.063209
0.563678 0.639115 0.063209
0.698154 0.644954 0.069048
0.840910 0.659073 0.083167
0.910000 0.665906 0.090000
0.910000 0.665906 0.090000
0.076182 0.770285 0.076182
0.191273 0.770285 0.076182
0.301455 0.770285 0.076182
0.411637 0.770285 0.076182
0.576651 0.770285 0.076182
0.705288 0.770285 0.076182
0.840910 0.777270 0.083167
0.910000 0.784103 0.090000
0.910000 0.784103 0.090000
0.089155 0.901456 0.089155
0.204246 0.901456 0.089155
0.314428 0.901456 0.089155
0.424610 0.901456 0.089155
0.589624 0.901456 0.089155
0.718261 0.901456 0.089155
0.846898 0.901456 0.089155
0.910000 0.902301 0.090000
0.910000 0.902301 0.090000
0.090000 0.910000 0.090000
0.205091 0.910000 0.090000
0.315273 0.910000 0.090000
0.425455 0.910000 0.090000
0.590469 0.910000 0.090000
0.719106 0.910000 0.090000
0.847743 0.910000 0.090000
0.910000 0.910000 0.090000
0.910000 0.910000 0.090000
0.010276 0.010276 0.103903
0.127723 0.012632 0.106259
0.249998 0.024725 0.118352
0.372273 0.036818 0.130445
0.555398 0.054930 0.148557
0.698154 0.069048 0.162675
0.840910 0.083167 0.176794
0.910000 0.090000 0.183627
0.910000 0.090000 0.183627
0.011556 0.116846 0.105183
0.140897 0.128449 0.113637
0.278046 0.125668 0.110856
0.415196 0.122886 0.108075
0.621866 0.125261 0.110449
0.782208 0.124237 0.109425
0.912639 0.131093 0.116685
0.920276 0.205566 0.193903
0.920276 0.205566 0.193903
0.022668 0.229198 0.116295
0.138588 0.254716 0.111329
0.278046 0.254243 0.110856
0.415196 0.251461 0.108075
0.621866 0.253836 0.110449
0.782208 0.252812 0.109425
0.912639 0.256165 0.116685
0.920276 0.306806 0.193903
0.920276 0.306806 0.193903
0.033780 0.341550 0.127407
0.136033 0.380735 0.108773
0.275964 0.380735 0.108773
0.415196 0.380036 0.108075
0.621866 0.382411 0.110449
0.782208 0.381387 0.109425
0.912639 0.381236 0.116685
0.920276 0.408046 0.193903
0.920276 0.408046 0.193903
0.050236 0.507944 0.143863
0.138048 0.568566 0.110789
0.277980 0.568566 0.110789
0.417911 0.568566 0.110789
0.621866 0.567560 0.110449
0.782208 0.564532 0.109425
0.912639 0.558378 0.116685
0.920276 0.557984 0.193903
0.920276 0.557984 0.193903
0.063209 0.639115 0.156836
0.137108 0.715895 0.109849
0.277039 0.715895 0.109849
0.416970 0.715895 0.109849
0.620091 0.715895 0.109849
0.782208 0.714643 0.109425
0.912639 0.704398 0.116685
0.920276 0.676182 0.193903
0.920276 0.676182 0.193903
0.076182 0.770285 0.169809
0.136167 0.863225 0.108908
0.276098 0.863225 0.108908
0.416030 0.863225 0.108908
0.617309 0.863225 0.108908
0.780679 0.863225 0.108908
0.912639 0.850419 0.116685
0.920276 0.794379 0.193903
0.920276 0.794379 0.193903
0.089155 0.901456 0.182782
0.193140 0.917936 0.170245
0.310669 0.917936 0.170245
0.428197 0.917936 0.170245
0.601712 0.917936 0.170245
0.738927 0.917936 0.170245
0.876141 0.917936 0.170245
0.920276 0.912577 0.193903
0.920276 0.912577 0.193903
0.090000 0.910000 0.183627
0.215367 0.920276 0.193903
0.325549 0.920276 0.193903
0.435731 0.920276 0.193903
0.600745 0.920276 0.193903
0.729382 0.920276 0.193903
0.858020 0.920276 0.193903
0.920276 0.920276 0.193903
0.920276 0.920276 0.193903
0.020193 0.020193 0.204172
0.135284 0.020193 0.204172
0.249998 0.024725 0.208704
0.372273 0.036818 0.220798
0.555398 0.054930 0.238909
0.698154 0.069048 0.253028
0.840910 0.083167 0.267146
0.910000 0.090000 0.273979
0.910000 0.090000 0.273979
0.020193 0.125483 0.204172
0.138863 0.126416 0.226352
0.277752 0.125373 0.225309
0.414902 0.122592 0.222528
0.621344 0.124944 0.224880
0.781686 0.123920 0.223856
0.913919 0.129628 0.227214
0.921556 0.206846 0.285536
0.921556 0.206846 0.285536
0.022668 0.229198 0.206647
0.138047 0.254174 0.225535
0.275765 0.251962 0.223323
0.412915 0.249181 0.220541
0.617820 0.251380 0.222741
0.778162 0.250357 0.221717
0.922772 0.247777 0.219138
0.930193 0.316723 0.294172
0.930193 0.316723 0.294172
0.033780 0.341550 0.217759
0.135491 0.380193 0.222979
0.273683 0.378454 0.221240
0.412915 0.377756 0.220541
0.617820 0.379955 0.222741
0.778162 0.378932 0.221717
0.922772 0.376352 0.219138
0.930193 0.417963 0.294172
0.930193 0.417963 0.294172
0.050236 0.507944 0.234216
0.137465 0.567605 0.224953
0.275524 0.564520 0.223081
0.415455 0.564520 0.223081
0.617820 0.563513 0.222741
0.778162 0.560486 0.221717
0.922772 0.555903 0.219138
0.930193 0.567901 0.294172
0.930193 0.567901 0.294172
0.063209 0.639115 0.247189
0.136525 0.714934 0.224013
0.274583 0.711849 0.222141
0.414515 0.711849 0.222141
0.616045 0.711849 0.222141
0.778162 0.710597 0.221717
0.922772 0.706014 0.219138
0.930193 0.686098 0.294172
0.930193 0.686098 0.294172
0.076182 0.770285 0.260161
0.135584 0.862264 0.223072
0.273643 0.859179 0.221200
0.413574 0.859179 0.221200
0.613263 0.859179 0.221200
0.776632 0.859179 0.221200
0.922772 0.856125 0.219138
0.930193 0.804296 0.294172
0.930193 0.804296 0.294172
0.089155 0.901456 0.273134
0.194065 0.920292 0.267706
0.315014 0.927853 0.270514
0.433751 0.927853 0.270514
0.608208 0.927853 0.270514
0.746833 0.927853 0.270514
0.885459 0.927853 0.270514
0.930193 0.922494 0.294172
0.930193 0.922494 0.294172
0.090000 0.910000 0.273979
0.217723 0.922632 0.286611
0.335466 0.930193 0.294172
0.445648 0.930193 0.294172
0.610662 0.930193 0.294172
0.739299 0.930193 0.294172
0.867936 0.930193 0.294172
0.930193 0.930193 0.294172
0.930193 0.930193 0.294172
0.030110 0.030110 0.304441
0.145201 0.030110 0.304441
0.255382 0.030110 0.304441
0.372273 0.036818 0.311150
0.555398 0.054930 0.329261
0.698154 0.069048 0.343380
0.840910 0.083167 0.357499
0.910000 0.090000 0.364332
0.910000 0.090000 0.364332
0.030110 0.135399 0.304441
0.136582 0.124135 0.338818
0.276513 0.124135 0.338818
0.414902 0.122592 0.337275
0.621344 0.124944 0.339627
0.781686 0.123920 0.338604
0.913919 0.129628 0.339262
0.921556 0.206846 0.375888
0.921556 0.206846 0.375888
0.030110 0.236640 0.304441
0.136335 0.252463 0.338571
0.273958 0.250154 0.336263
0.412346 0.248611 0.334720
0.616810 0.250767 0.336876
0.777152 0.249744 0.335852
0.925581 0.247542 0.333650
0.932668 0.319198 0.387000
0.932668 0.319198 0.387000
0.033780 0.341550 0.308112
0.135491 0.380193 0.337727
0.272641 0.377412 0.334945
0.410634 0.375475 0.333008
0.613773 0.377500 0.335033
0.774115 0.376476 0.334010
0.934027 0.375410 0.332943
0.940110 0.427880 0.394441
0.940110 0.427880 0.394441
0.050236 0.507944 0.324568
0.137465 0.567605 0.339701
0.274402 0.562670 0.336707
0.413000 0.560473 0.335373
0.613773 0.559467 0.335033
0.774115 0.556439 0.334010
0.934027 0.553369 0.332943
0.940110 0.577817 0.394441
0.940110 0.577817 0.394441
0.063209 0.639115 0.337541
0.136525 0.714934 0.338761
0.273461 0.710000 0.335766
0.412059 0.707803 0.334433
0.611998 0.707803 0.334433
0.774115 0.706551 0.334010
0.934027 0.703481 0.332943
0.940110 0.696015 0.394441
0.940110 0.696015 0.394441
0.076182 0.770285 0.350514
0.135584 0.862264 0.337820
0.272521 0.857329 0.334826
0.411119 0.855132 0.333492
0.609216 0.855132 0.333492
0.772586 0.855132 0.333492
0.934027 0.853592 0.332943
0.940110 0.814213 0.394441
0.940110 0.814213 0.394441
0.089155 0.901456 0.363487
0.194065 0.920292 0.364292
0.316340 0.932385 0.369518
0.437587 0.937770 0.370783
0.613356 0.937770 0.370783
0.753949 0.937770 0.370783
0.894541 0.937770 0.370783
0.940110 0.932411 0.394441
0.940110 0.932411 0.394441
0.090000 0.910000 0.364332
0.217723 0.922632 0.376964
0.339998 0.934725 0.389057
0.455564 0.940110 0.394441
0.620579 0.940110 0.394441
0.749216 0.940110 0.394441
0.877853 0.940110 0.394441
0.940110 0.940110 0.394441
0.940110 0.940110 0.394441
0.040026 0.040026 0.404711
0.155117 0.040026 0.404711
0.265299 0.040026 0.404711
0.375481 0.040026 0.404711
0.555398 0.054930 0.419614
0.698154 0.069048 0.433733
0.840910 0.083167 0.447851
0.910000 0.090000 0.454684
0.910000 0.090000 0.454684
0.040026 0.145316 0.404711
0.138224 0.125776 0.490942
0.278155 0.125776 0.490942
0.418086 0.125776 0.490942
0.621344 0.124944 0.488480
0.781686 0.123920 0.453351
0.913919 0.129628 0.451311
0.921556 0.206846 0.466240
0.921556 0.206846 0.466240
0.040026 0.246556 0.404711
0.137957 0.254085 0.490503
0.275403 0.251600 0.486408
0.415334 0.251600 0.486408
0.616810 0.250767 0.451623
0.777152 0.249744 0.450600
0.925581 0.247542 0.448398
0.932668 0.319198 0.477352
0.932668 0.319198 0.477352
0.040026 0.347797 0.404711
0.137957 0.382660 0.490503
0.274894 0.379666 0.485569
0.409052 0.373893 0.446174
0.612276 0.376591 0.448872
0.772618 0.375568 0.447848
0.932960 0.374544 0.446825
0.943780 0.431550 0.488464
0.943780 0.431550 0.488464
0.050236 0.507944 0.414920
0.137465 0.567605 0.489048
0.274402 0.562670 0.451454
0.411339 0.557736 0.448460
0.609727 0.555420 0.447325
0.770069 0.552393 0.446302
0.930411 0.549365 0.445278
0.950026 0.587734 0.494711
0.950026 0.587734 0.494711
0.063209 0.639115 0.427893
0.136525 0.714934 0.453508
0.273461 0.710000 0.450514
0.410398 0.705065 0.447519
0.607952 0.703756 0.446725
0.770069 0.702504 0.446302
0.930411 0.699477 0.445278
0.950026 0.705932 0.494711
0.950026 0.705932 0.494711
0.076182 0.770285 0.440866
0.135584 0.862264 0.452568
0.272521 0.857329 0.449573
0.409457 0.852395 0.446579
0.605170 0.851086 0.445784
0.768539 0.851086 0.445784
0.930411 0.849588 0.445278
0.950026 0.824130 0.494711
0.950026 0.824130 0.494711
0.089155 0.901456 0.453839
0.194065 0.920292 0.460878
0.316340 0.932385 0.467457
0.438615 0.944478 0.470979
0.616164 0.947687 0.471053
0.759690 0.947687 0.471053
0.903215 0.947687 0.471053
0.950026 0.942327 0.494711
0.950026 0.942327 0.494711
0.090000 0.910000 0.454684
0.217723 0.922632 0.467316
0.339998 0.934725 0.479409
0.462273 0.946818 0.491502
0.630495 0.950026 0.494711
0.759133 0.950026 0.494711
0.887770 0.950026 0.494711
0.950026 0.950026 0.494711
0.950026 0.950026 0.494711
0.056134 0.056134 0.567577
0.171225 0.056134 0.567577
0.281407 0.056134 0.567577
0.391589 0.056134 0.567577
0.556603 0.056134 0.567577
0.698154 0.069048 0.580492
0.840910 0.083167 0.594610
0.910000 0.090000 0.601443
0.910000 0.090000 0.601443
0.056134 0.161424 0.567577
0.137304 0.124856 0.635023
0.277235 0.124856 0.635023
0.417166 0.124856 0.635023
0.621086 0.124856 0.635023
0.781686 0.123920 0.632254
0.913919 0.129628 0.624875
0.921556 0.206846 0.613000
0.921556 0.206846 0.613000
0.056134 0.262664 0.567577
0.137038 0.253165 0.634584
0.274484 0.250680 0.630489
0.414415 0.250680 0.630489
0.616552 0.250680 0.630489
0.777152 0.249744 0.627720
0.925581 0.247542 0.623514
0.932668 0.319198 0.624111
0.932668 0.319198 0.624111
0.056134 0.363904 0.567577
0.137038 0.381740 0.634584
0.273974 0.378746 0.629650
0.411663 0.376504 0.625955
0.612018 0.376504 0.625955
0.772618 0.375568 0.623186
0.932960 0.374544 0.620159
0.943780 0.431550 0.635223
0.943780 0.431550 0.635223
0.056134 0.513842 0.567577
0.137038 0.566340 0.634584
0.273974 0.561406 0.629650
0.410911 0.556471 0.624715
0.611130 0.556824 0.625068
0.771529 0.553853 0.622098
0.931651 0.550606 0.618850
0.960236 0.597944 0.651680
0.960236 0.597944 0.651680
0.063209 0.639115 0.574652
0.136525 0.714934 0.633067
0.273461 0.710000 0.628133
0.410398 0.705065 0.623198
0.608424 0.704228 0.622361
0.770173 0.702608 0.620741
0.930295 0.699361 0.617494
0.966134 0.722040 0.657577
0.966134 0.722040 0.657577
0.076182 0.770285 0.587625
0.135584 0.862264 0.630286
0.272521 0.857329 0.625351
0.409457 0.852395 0.620416
0.605440 0.851356 0.619377
0.768532 0.851079 0.619100
0.930295 0.849472 0.617494
0.966134 0.840237 0.657577
0.966134 0.840237 0.657577
0.089155 0.901456 0.600598
0.194065 0.920292 0.615078
0.316340 0.932385 0.622667
0.438615 0.944478 0.627760
0.618655 0.962285 0.631325
0.767346 0.963489 0.630834
0.916591 0.963489 0.630834
0.966134 0.958435 0.657577
0.966134 0.958435 0.657577
0.090000 0.910000 0.601443
0.217723 0.922632 0.614075
0.339998 0.934725 0.626168
0.462273 0.946818 0.638262
0.645398 0.964930 0.656373
0.775240 0.966134 0.657577
0.903877 0.966134 0.657577
0.966134 0.966134 0.657577
0.966134 0.966134 0.657577
0.067712 0.067712 0.684641
0.182803 0.067712 0.684641
0.292985 0.067712 0.684641
0.403167 0.067712 0.684641
0.568181 0.067712 0.684641
0.698154 0.069048 0.685978
0.840910 0.083167 0.700097
0.910000 0.090000 0.706930
0.910000 0.090000 0.706930
0.067712 0.173002 0.684641
0.136464 0.124017 0.766508
0.276396 0.124017 0.766508
0.416327 0.124017 0.766508
0.618603 0.124017 0.766508
0.781686 0.123920 0.766222
0.913919 0.129628 0.755692
0.921556 0.206846 0.718486
0.921556 0.206846 0.718486
0.067712 0.274242 0.684641
0.136198 0.252326 0.766069
0.273644 0.249841 0.761974
0.413575 0.249841 0.761974
0.614069 0.249841 0.761974
0.777152 0.249744 0.761688
0.925581 0.247542 0.757482
0.932668 0.319198 0.729598
0.932668 0.319198 0.729598
0.067712 0.375482 0.684641
0.136198 0.380901 0.766069
0.273135 0.377906 0.761135
0.410824 0.375664 0.757440
0.609535 0.375664 0.757440
0.772618 0.375568 0.757154
0.932960 0.374544 0.754126
0.943780 0.431550 0.740709
0.943780 0.431550 0.740709
0.067712 0.525420 0.684641
0.136198 0.563858 0.766069
0.273135 0.558923 0.761135
0.410072 0.553988 0.756200
0.608468 0.554161 0.756373
0.771529 0.553853 0.756065
0.931651 0.550606 0.752818
0.960236 0.597944 0.757166
0.960236 0.597944 0.757166
0.067712 0.643617 0.684641
0.136198 0.713969 0.766069
0.273135 0.709034 0.761135
0.410072 0.704100 0.756200
0.607388 0.703193 0.755293
0.768546 0.700981 0.753081
0.928668 0.697734 0.749834
0.973209 0.729115 0.770139
0.973209 0.729115 0.770139
0.076182 0.770285 0.693112
0.135584 0.862264 0.764253
0.272521 0.857329 0.759319
0.409457 0.852395 0.754384
0.605440 0.851356 0.753345
0.765869 0.848416 0.750405
0.927632 0.846809 0.748799
0.977712 0.851815 0.774641
0.977712 0.851815 0.774641
0.089155 0.901456 0.706085
0.194065 0.920292 0.727842
0.316340 0.932385 0.737010
0.438615 0.944478 0.744558
0.618655 0.962285 0.753116
0.763078 0.975067 0.747898
0.923450 0.975067 0.747898
0.977712 0.970013 0.774641
0.977712 0.970013 0.774641
0.090000 0.910000 0.706930
0.217723 0.922632 0.719562
0.339998 0.934725 0.731655
0.462273 0.946818 0.743748
0.645398 0.964930 0.761859
0.786818 0.977712 0.774641
0.915455 0.977712 0.774641
0.977712 0.977712 0.774641
0.977712 0.977712 0.774641
0.079290 0.079290 0.801706
0.194381 0.079290 0.801706
0.304562 0.079290 0.801706
0.414744 0.079290 0.801706
0.579759 0.079290 0.801706
0.708396 0.079290 0.801706
0.840910 0.083167 0.805583
0.910000 0.090000 0.812416
0.910000 0.090000 0.812416
0.079290 0.184579 0.801706
0.135625 0.123178 0.897993
0.275556 0.123178 0.897993
0.415487 0.123178 0.897993
0.616121 0.123178 0.897993
0.779490 0.123178 0.897993
0.913919 0.129628 0.886509
0.921556 0.206846 0.823972
0.921556 0.206846 0.823972
0.079290 0.285820 0.801706
0.135359 0.251486 0.897554
0.272805 0.249001 0.893459
0.412736 0.249001 0.893459
0.611587 0.249001 0.893459
0.774956 0.249001 0.893459
0.925581 0.247542 0.891450
0.932668 0.319198 0.835084
0.932668 0.319198 0.835084
0.079290 0.387060 0.801706
0.135359 0.380061 0.897554
0.272295 0.377067 0.892620
0.409985 0.374825 0.888925
0.607053 0.374825 0.888925
0.770422 0.374825 0.888925
0.932960 0.374544 0.888094
0.943780 0.431550 0.846196
0.943780 0.431550 0.846196
0.079290 0.536997 0.801706
0.135359 0.561375 0.897554
0.272295 0.556440 0.892620
0.409232 0.551506 0.887685
0.605805 0.551498 0.887677
0.769174 0.551498 0.887677
0.931651 0.550606 0.886786
0.960236 0.597944 0.862652
0.960236 0.597944 0.862652
0.079290 0.655195 0.801706
0.135359 0.711486 0.897554
0.272295 0.706552 0.892620
0.409232 0.701617 0.887685
0.604725 0.700530 0.886598
0.766190 0.698625 0.884694
0.928668 0.697734 0.883802
0.973209 0.729115 0.875625
0.973209 0.729115 0.875625
0.079290 0.773393 0.801706
0.135359 0.861597 0.897554
0.272295 0.856663 0.892620
0.409232 0.851728 0.887685
0.604725 0.850641 0.886598
0.764847 0.847394 0.883351
0.925684 0.844861 0.880818
0.986182 0.860285 0.888598
0.986182 0.860285 0.888598
0.089155 0.901456 0.811571
0.194065 0.920292 0.840606
0.316340 0.932385 0.851353
0.438615 0.944478 0.861355
0.618655 0.962285 0.874906
0.761411 0.976403 0.879270
0.923105 0.987958 0.878239
0.989290 0.981591 0.891706
0.989290 0.981591 0.891706
0.090000 0.910000 0.812416
0.217723 0.922632 0.825048
0.339998 0.934725 0.837141
0.462273 0.946818 0.849234
0.645398 0.964930 0.867345
0.788154 0.979048 0.881464
0.927033 0.989290 0.891706
0.989290 0.989290 0.891706
0.989290 0.989290 0.891706
0.081984 0.081984 0.828952
0.197075 0.081984 0.828952
0.307257 0.081984 0.828952
0.417439 0.081984 0.828952
0.582453 0.081984 0.828952
0.711090 0.081984 0.828952
0.840910 0.083167 0.830134
0.910000 0.090000 0.836967
0.910000 0.090000 0.836967
0.081984 0.187274 0.828952
0.133898 0.121451 0.913111
0.273829 0.121451 0.913111
0.413760 0.121451 0.913111
0.614011 0.121451 0.913111
0.777381 0.121451 0.913111
0.913919 0.129628 0.913919
0.921556 0.206846 0.848524
0.921556 0.206846 0.848524
0.081984 0.288514 0.828952
0.133796 0.249924 0.914331
0.272609 0.248806 0.924062
0.412541 0.248806 0.924062
0.611009 0.248806 0.924062
0.774378 0.248806 0.924062
0.925581 0.247542 0.922630
0.932668 0.319198 0.859635
0.932668 0.319198 0.859635
0.081984 0.389754 0.828952
0.133796 0.378499 0.914331
0.272100 0.376872 0.923223
0.409789 0.374630 0.919528
0.606475 0.374630 0.919528
0.769844 0.374630 0.919528
0.932960 0.374544 0.919274
0.943780 0.431550 0.870747
0.943780 0.431550 0.870747
0.081984 0.539692 0.828952
0.133796 0.559430 0.914331
0.272100 0.555863 0.923223
0.409037 0.550928 0.918288
0.605185 0.550878 0.918238
0.768554 0.550878 0.918238
0.931651 0.550606 0.917966
0.960236 0.597944 0.887204
0.960236 0.597944 0.887204
0.081984 0.657890 0.828952
0.133796 0.709541 0.914331
0.272100 0.705974 0.923223
0.409037 0.701039 0.918288
0.604105 0.699910 0.917159
0.765570 0.698006 0.915254
0.928668 0.697734 0.914982
0.973209 0.729115 0.900177
0.973209 0.729115 0.900177
0.081984 0.776088 0.828952
0.133796 0.859652 0.914331
0.272100 0.856085 0.923223
0.409037 0.851151 0.918288
0.604105 0.850021 0.917159
0.764227 0.846774 0.913911
0.925684 0.844861 0.911998
0.986182 0.860285 0.913150
0.986182 0.860285 0.913150
0.089155 0.901456 0.836122
0.194065 0.920292 0.866851
0.316340 0.932385 0.877966
0.438615 0.944478 0.888539
0.618655 0.962285 0.903253
0.761411 0.976403 0.910281
0.922849 0.991016 0.909164
0.991984 0.984285 0.918952
0.991984 0.984285 0.918952
0.090000 0.910000 0.836967
0.217723 0.922632 0.849599
0.339998 0.934725 0.861693
0.462273 0.946818 0.873786
0.645398 0.964930 0.891897
0.788154 0.979048 0.906016
0.929728 0.991984 0.918952
0.991984 0.991984 0.918952
0.991984 0.991984 0.918952
