docs/luts/fuji_recipes/Velvia_MT_Velvia.cube
TITLE "Fujifilm Recipe: MT Velvia (Velvia)"
# FilmSim=Velvia HL=0 SH=0 Col=-4 WB=Auto WBR=2 WBB=0
LUT_3D_SIZE 5
DOMAIN_MIN 0.0 0.0 0.0
DOMAIN_MAX 1.0 1.0 1.0
0.000000 0.000000 0.000000
0.164833 0.089382 0.089382
0.337504 0.183014 0.183014
0.507306 0.275091 0.275091
0.633876 0.343724 0.343724
0.083869 0.154666 0.083869
0.164833 0.160179 0.089382
0.337504 0.253811 0.183014
0.507306 0.345888 0.275091
0.633876 0.414521 0.343724
0.167737 0.309331 0.167737
0.243188 0.309331 0.167737
0.337504 0.324608 0.183014
0.507306 0.416685 0.275091
0.633876 0.485318 0.343724
0.258481 0.476675 0.258481
0.333932 0.476675 0.258481
0.412970 0.476675 0.258481
0.507306 0.493285 0.275091
0.633876 0.561918 0.343724
0.343724 0.633876 0.343724
0.419175 0.633876 0.343724
0.498214 0.633876 0.343724
0.575940 0.633876 0.343724
0.633876 0.633876 0.343724
0.083011 0.083011 0.153084
0.164833 0.089382 0.159455
0.337504 0.183014 0.253087
0.507306 0.275091 0.345164
0.633876 0.343724 0.413797
0.083869 0.154666 0.153942
0.254068 0.248364 0.247477
0.437083 0.329520 0.328590
0.620033 0.406855 0.405899
0.727339 0.497932 0.497175
0.167737 0.309331 0.237810
0.322156 0.407256 0.315236
0.437083 0.420509 0.328590
0.620033 0.500353 0.405899
0.727339 0.571974 0.497175
0.258481 0.476675 0.328554
0.401570 0.584297 0.394685
0.502748 0.584297 0.394685
0.620033 0.601515 0.405899
0.727339 0.652084 0.497175
0.343724 0.633876 0.413797
0.502800 0.727339 0.497175
0.585461 0.727339 0.497175
0.666748 0.727339 0.497175
0.727339 0.727339 0.497175
0.166177 0.166177 0.306453
0.241628 0.166177 0.306453
0.337504 0.183014 0.323291
0.507306 0.275091 0.415367
0.633876 0.343724 0.484001
0.166177 0.236974 0.306453
0.321605 0.315616 0.405031
0.437908 0.330332 0.419639
0.620834 0.407663 0.499419
0.728236 0.498829 0.571493
0.167737 0.309331 0.308014
0.328187 0.413368 0.411672
0.516662 0.500857 0.499243
0.697855 0.578647 0.576914
0.814316 0.658951 0.657573
0.258481 0.476675 0.398757
0.405357 0.592688 0.490432
0.581442 0.665027 0.562793
0.697855 0.679411 0.576914
0.814316 0.739061 0.657573
0.343724 0.633876 0.484001
0.509463 0.734002 0.577259
0.672437 0.814316 0.657573
0.753725 0.814316 0.657573
0.814316 0.814316 0.657573
0.256143 0.256143 0.472363
0.331594 0.256143 0.472363
0.410632 0.256143 0.472363
0.507306 0.275091 0.491311
0.633876 0.343724 0.559945
0.256143 0.326940 0.472363
0.400331 0.394372 0.580568
0.501530 0.394372 0.580568
0.620834 0.407663 0.599711
0.728236 0.498829 0.650917
0.256143 0.397737 0.472363
0.404587 0.490226 0.586849
0.580917 0.564005 0.661877
0.699318 0.580122 0.678279
0.815948 0.660583 0.738629
0.258481 0.476675 0.474701
0.405357 0.592688 0.590098
0.597359 0.680840 0.678254
0.782562 0.765378 0.762960
0.908405 0.833150 0.831086
0.343724 0.633876 0.559945
0.509463 0.734002 0.656683
0.690047 0.831925 0.754606
0.847814 0.908405 0.831086
0.908405 0.908405 0.831086
0.342035 0.342035 0.630761
0.417486 0.342035 0.630761
0.496525 0.342035 0.630761
0.574250 0.342035 0.630761
0.633876 0.343724 0.632450
0.342035 0.412832 0.630761
0.500503 0.495572 0.726470
0.584245 0.495572 0.726470
0.666596 0.495572 0.726470
0.728236 0.498829 0.726745
0.342035 0.483629 0.630761
0.506205 0.576304 0.732236
0.671073 0.657325 0.814182
0.753936 0.657325 0.814182
0.815948 0.660583 0.814457
0.342035 0.560229 0.630761
0.506205 0.657485 0.732236
0.686789 0.754828 0.830159
0.847594 0.832337 0.909083
0.910850 0.835595 0.909359
0.343724 0.633876 0.632450
0.509463 0.734002 0.732511
0.690047 0.831925 0.830434
0.867630 0.928221 0.926730
0.998233 0.998233 0.996742
