docs/luts/fuji_recipes/Velvia_JC_Velvia_LS.cube
TITLE "Fujifilm Recipe: JC Velvia LS (Velvia)"
# FilmSim=Velvia HL=-1 SH=3 Col=4 WB=Auto WBR=1 WBB=0
LUT_3D_SIZE 9
DOMAIN_MIN 0.0 0.0 0.0
DOMAIN_MAX 1.0 1.0 1.0
0.000000 0.000000 0.000000
0.111993 0.000000 0.000000
0.223401 0.000000 0.000000
0.334808 0.000000 0.000000
0.518508 0.000000 0.000000
0.641413 0.000000 0.000000
0.764318 0.000000 0.000000
0.887224 0.000000 0.000000
0.970000 0.000000 0.000000
0.000000 0.107360 0.000000
0.111993 0.107360 0.000000
0.223401 0.107360 0.000000
0.334808 0.107360 0.000000
0.518508 0.107360 0.000000
0.641413 0.107360 0.000000
0.764318 0.107360 0.000000
0.887224 0.107360 0.000000
0.970000 0.107360 0.000000
0.000000 0.214720 0.000000
0.111993 0.214720 0.000000
0.223401 0.214720 0.000000
0.334808 0.214720 0.000000
0.518508 0.214720 0.000000
0.641413 0.214720 0.000000
0.764318 0.214720 0.000000
0.887224 0.214720 0.000000
0.970000 0.214720 0.000000
0.000000 0.322080 0.000000
0.111993 0.322080 0.000000
0.223401 0.322080 0.000000
0.334808 0.322080 0.000000
0.518508 0.322080 0.000000
0.641413 0.322080 0.000000
0.764318 0.322080 0.000000
0.887224 0.322080 0.000000
0.970000 0.322080 0.000000
0.000000 0.429440 0.000000
0.111993 0.429440 0.000000
0.223401 0.429440 0.000000
0.334808 0.429440 0.000000
0.518508 0.429440 0.000000
0.641413 0.429440 0.000000
0.764318 0.429440 0.000000
0.887224 0.429440 0.000000
0.970000 0.429440 0.000000
0.000000 0.618440 0.000000
0.111993 0.618440 0.000000
0.223401 0.618440 0.000000
0.334808 0.618440 0.000000
0.518508 0.618440 0.000000
0.641413 0.618440 0.000000
0.764318 0.618440 0.000000
0.887224 0.618440 0.000000
0.970000 0.618440 0.000000
0.000000 0.736880 0.000000
0.111993 0.736880 0.000000
0.223401 0.736880 0.000000
0.334808 0.736880 0.000000
0.518508 0.736880 0.000000
0.641413 0.736880 0.000000
0.764318 0.736880 0.000000
0.887224 0.736880 0.000000
0.970000 0.736880 0.000000
0.000000 0.855320 0.000000
0.111993 0.855320 0.000000
0.223401 0.855320 0.000000
0.334808 0.855320 0.000000
0.518508 0.855320 0.000000
0.641413 0.855320 0.000000
0.764318 0.855320 0.000000
0.887224 0.855320 0.000000
0.970000 0.855320 0.000000
0.000000 0.970000 0.000000
0.111993 0.970000 0.000000
0.223401 0.970000 0.000000
0.334808 0.970000 0.000000
0.518508 0.970000 0.000000
0.641413 0.970000 0.000000
0.764318 0.970000 0.000000
0.887224 0.970000 0.000000
0.970000 0.970000 0.000000
0.000000 0.000000 0.106064
0.111993 0.000000 0.106064
0.223401 0.000000 0.106064
0.334808 0.000000 0.106064
0.518508 0.000000 0.106064
0.641413 0.000000 0.106064
0.764318 0.000000 0.106064
0.887224 0.000000 0.106064
0.970000 0.000000 0.106064
0.000000 0.107360 0.106064
0.115504 0.105384 0.102553
0.292888 0.039408 0.036577
0.440873 0.002498 0.000000
0.627805 0.002024 0.000000
0.751769 0.001859 0.000000
0.875734 0.001756 0.000000
0.998572 0.001680 0.000000
1.000000 0.077450 0.076064
0.000000 0.214720 0.106064
0.054669 0.279066 0.041718
0.292888 0.273925 0.036577
0.440873 0.209419 0.000000
0.627805 0.169696 0.000000
0.751769 0.155870 0.000000
0.875734 0.147268 0.000000
0.998572 0.140899 0.000000
1.000000 0.192266 0.076064
0.000000 0.322080 0.106064
0.011751 0.428144 0.000000
0.232562 0.428144 0.000000
0.440873 0.416340 0.000000
0.627805 0.337368 0.000000
0.751769 0.309881 0.000000
0.875734 0.292780 0.000000
0.998572 0.280117 0.000000
1.000000 0.307082 0.076064
0.000000 0.429440 0.106064
0.009517 0.597761 0.000000
0.188346 0.597761 0.000000
0.367174 0.597761 0.000000
0.627805 0.581283 0.000000
0.751769 0.532727 0.000000
0.875734 0.438292 0.000000
0.998572 0.419336 0.000000
1.000000 0.421898 0.076064
0.000000 0.618440 0.106064
0.008618 0.728598 0.000000
0.170561 0.728598 0.000000
0.332503 0.728598 0.000000
0.583336 0.728598 0.000000
0.751769 0.718814 0.000000
0.875734 0.678016 0.000000
0.998572 0.650028 0.000000
1.000000 0.624024 0.076064
0.000000 0.736880 0.106064
0.008125 0.848059 0.000000
0.160790 0.848059 0.000000
0.313455 0.848059 0.000000
0.548817 0.848059 0.000000
0.717238 0.848059 0.000000
0.875734 0.838545 0.000000
0.998572 0.803614 0.000000
1.000000 0.750690 0.076064
0.000000 0.855320 0.106064
0.007789 0.967520 0.000000
0.154140 0.967520 0.000000
0.300491 0.967520 0.000000
0.525064 0.967520 0.000000
0.686520 0.967520 0.000000
0.847975 0.967520 0.000000
0.998572 0.957200 0.000000
1.000000 0.877356 0.076064
0.000000 0.970000 0.106064
0.082405 1.000000 0.076064
0.201550 1.000000 0.076064
0.320695 1.000000 0.076064
0.517152 1.000000 0.076064
0.648593 1.000000 0.076064
0.780034 1.000000 0.076064
0.911475 1.000000 0.076064
1.000000 1.000000 0.076064
0.000000 0.000000 0.212524
0.111993 0.000000 0.212524
0.223401 0.000000 0.212524
0.334808 0.000000 0.212524
0.518508 0.000000 0.212524
0.641413 0.000000 0.212524
0.764318 0.000000 0.212524
0.887224 0.000000 0.212524
0.970000 0.000000 0.212524
0.000000 0.107360 0.212524
0.055202 0.045082 0.274802
0.292120 0.038641 0.268361
0.442168 0.000000 0.204443
0.629089 0.000000 0.165115
0.753053 0.000000 0.151496
0.877018 0.000000 0.143033
0.999867 0.000000 0.136783
1.000000 0.077360 0.189839
0.000000 0.214720 0.212524
0.051158 0.275555 0.270758
0.229842 0.210880 0.206083
0.407225 0.144904 0.140107
0.688569 0.049513 0.044716
0.857250 0.004516 0.000000
0.981214 0.003998 0.000000
1.000000 0.108004 0.105032
1.000000 0.184894 0.182524
0.000000 0.322080 0.212524
0.000000 0.434073 0.207713
0.171404 0.386959 0.147645
0.407225 0.379421 0.140107
0.688569 0.284030 0.044716
0.857250 0.225316 0.000000
0.981214 0.199479 0.000000
1.000000 0.253308 0.105032
1.000000 0.300758 0.182524
0.000000 0.429440 0.212524
0.000000 0.603635 0.165611
0.085766 0.641234 0.062007
0.329125 0.641234 0.062007
0.688569 0.623501 0.044716
0.857250 0.446116 0.000000
0.981214 0.394959 0.000000
1.000000 0.398612 0.105032
1.000000 0.416622 0.182524
0.000000 0.618440 0.212524
0.000000 0.734473 0.149087
0.023025 0.834079 0.000000
0.258867 0.834079 0.000000
0.622529 0.834079 0.000000
0.857250 0.810003 0.000000
0.981214 0.715600 0.000000
1.000000 0.636220 0.105032
1.000000 0.620593 0.182524
0.000000 0.736880 0.212524
0.000000 0.853933 0.140066
0.020271 0.953539 0.000000
0.227900 0.953539 0.000000
0.546561 0.953539 0.000000
0.775619 0.953539 0.000000
0.981214 0.931254 0.000000
1.000000 0.796520 0.105032
1.000000 0.748414 0.182524
0.000000 0.855320 0.212524
0.000000 0.973394 0.133951
0.089022 1.000000 0.073000
0.253139 1.000000 0.073000
0.503836 1.000000 0.073000
0.684890 1.000000 0.073000
0.865944 1.000000 0.073000
1.000000 0.956820 0.105032
1.000000 0.876236 0.182524
0.000000 0.970000 0.212524
0.081993 1.000000 0.189554
0.194262 1.000000 0.182524
0.314495 1.000000 0.182524
0.512745 1.000000 0.182524
0.645385 1.000000 0.182524
0.778026 1.000000 0.182524
0.910667 1.000000 0.182524
1.000000 1.000000 0.182524
0.000000 0.000000 0.318984
0.111993 0.000000 0.318984
0.223401 0.000000 0.318984
0.334808 0.000000 0.318984
0.518508 0.000000 0.318984
0.641413 0.000000 0.318984
0.764318 0.000000 0.318984
0.887224 0.000000 0.318984
0.970000 0.000000 0.318984
0.000000 0.107360 0.318984
0.009334 0.000000 0.426344
0.233779 0.000000 0.426344
0.442168 0.000000 0.411405
0.629089 0.000000 0.332264
0.753053 0.000000 0.304859
0.877018 0.000000 0.287829
0.999867 0.000000 0.275251
1.000000 0.077360 0.303703
0.000000 0.214720 0.318984
0.000000 0.213888 0.430977
0.171937 0.152975 0.380729
0.405925 0.143604 0.371358
0.687241 0.048219 0.275974
0.859425 0.000000 0.216124
0.983390 0.000000 0.191049
1.000000 0.107227 0.248476
1.000000 0.184720 0.297267
0.000000 0.322080 0.318984
0.000000 0.434073 0.427677
0.164963 0.380518 0.373755
0.344180 0.316376 0.309613
0.624191 0.221337 0.214574
0.819500 0.149993 0.143230
1.000000 0.093244 0.086694
1.000000 0.215072 0.210659
1.000000 0.292365 0.288984
0.000000 0.429440 0.318984
0.000000 0.603635 0.340990
0.079361 0.634656 0.288153
0.266432 0.576855 0.231865
0.624191 0.559123 0.214574
0.819500 0.384510 0.143230
1.000000 0.320395 0.086694
1.000000 0.368112 0.210659
1.000000 0.409620 0.288984
0.000000 0.618440 0.318984
0.000000 0.734473 0.306966
0.004061 0.840794 0.212853
0.191132 0.782993 0.156565
0.564701 0.782993 0.156565
0.819500 0.769317 0.143230
1.000000 0.691352 0.086694
1.000000 0.616851 0.210659
1.000000 0.616039 0.288984
0.000000 0.736880 0.318984
0.000000 0.853933 0.288393
0.000000 0.964316 0.184093
0.122380 0.971206 0.087813
0.494193 0.971206 0.087813
0.762668 0.971206 0.087813
1.000000 0.941946 0.086694
1.000000 0.785686 0.210659
1.000000 0.745395 0.288984
0.000000 0.855320 0.318984
0.000000 0.973394 0.275802
0.083776 1.000000 0.225411
0.203382 1.000000 0.178480
0.396182 1.000000 0.178480
0.663384 1.000000 0.178480
0.856795 1.000000 0.178480
1.000000 0.954521 0.210659
1.000000 0.874751 0.288984
0.000000 0.970000 0.318984
0.081993 1.000000 0.303459
0.193401 1.000000 0.296666
0.306267 1.000000 0.288984
0.506896 1.000000 0.288984
0.641129 1.000000 0.288984
0.775362 1.000000 0.288984
0.909595 1.000000 0.288984
1.000000 1.000000 0.288984
0.000000 0.000000 0.425444
0.111993 0.000000 0.425444
0.223401 0.000000 0.425444
0.334808 0.000000 0.425444
0.518508 0.000000 0.425444
0.641413 0.000000 0.425444
0.764318 0.000000 0.425444
0.887224 0.000000 0.425444
0.970000 0.000000 0.425444
0.000000 0.107360 0.425444
0.007511 0.000000 0.594740
0.188125 0.000000 0.594740
0.368739 0.000000 0.594740
0.629089 0.000000 0.575619
0.753053 0.000000 0.526941
0.877018 0.000000 0.432626
0.999867 0.000000 0.413719
1.000000 0.077360 0.417568
0.000000 0.214720 0.425444
0.000000 0.169988 0.599330
0.086950 0.067988 0.633123
0.330309 0.067988 0.633123
0.687241 0.048219 0.612850
0.859425 0.000000 0.436800
0.983390 0.000000 0.386121
1.000000 0.107227 0.392700
1.000000 0.184720 0.412184
0.000000 0.322080 0.425444
0.000000 0.347643 0.599330
0.081838 0.297393 0.627874
0.288672 0.260868 0.486657
0.622319 0.219514 0.445303
0.817627 0.148169 0.373958
1.000000 0.089761 0.309310
1.000000 0.213726 0.361329
1.000000 0.292080 0.405016
0.000000 0.429440 0.425444
0.000000 0.603635 0.596604
0.079361 0.634656 0.625333
0.257113 0.567286 0.455098
0.559812 0.393161 0.384433
0.755121 0.321817 0.313089
0.950430 0.250473 0.241744
1.000000 0.322259 0.316139
1.000000 0.399880 0.395444
0.000000 0.618440 0.425444
0.000000 0.734473 0.535770
0.004061 0.840794 0.445405
0.181813 0.773424 0.379798
0.500322 0.718615 0.326424
0.755121 0.704939 0.313089
0.950430 0.631773 0.241744
1.000000 0.588331 0.316139
1.000000 0.609705 0.395444
0.000000 0.736880 0.425444
0.000000 0.853933 0.436720
0.000000 0.964316 0.389134
0.113061 0.961637 0.311046
0.327315 0.906828 0.257672
0.698290 0.906828 0.257672
0.950430 0.890493 0.241744
1.000000 0.769734 0.316139
1.000000 0.741194 0.395444
0.000000 0.855320 0.425444
0.000000 0.973394 0.417653
0.083776 1.000000 0.383162
0.194159 1.000000 0.338472
0.338994 1.000000 0.283960
0.630760 1.000000 0.283960
0.842916 1.000000 0.283960
1.000000 0.951136 0.316139
1.000000 0.872684 0.395444
0.000000 0.970000 0.425444
0.081993 1.000000 0.417364
0.193401 1.000000 0.411681
0.304808 1.000000 0.404006
0.498761 1.000000 0.395444
0.635209 1.000000 0.395444
0.771656 1.000000 0.395444
0.908103 1.000000 0.395444
1.000000 1.000000 0.395444
0.000000 0.000000 0.613039
0.111993 0.000000 0.613039
0.223401 0.000000 0.613039
0.334808 0.000000 0.613039
0.518508 0.000000 0.613039
0.641413 0.000000 0.613039
0.764318 0.000000 0.613039
0.887224 0.000000 0.613039
0.970000 0.000000 0.613039
0.000000 0.107360 0.613039
0.006786 0.000000 0.724435
0.169975 0.000000 0.724435
0.333163 0.000000 0.724435
0.585967 0.000000 0.724435
0.753053 0.000000 0.712179
0.877018 0.000000 0.671263
0.999867 0.000000 0.643247
1.000000 0.077360 0.618211
0.000000 0.214720 0.613039
0.000000 0.152869 0.729025
0.018663 0.000000 0.830807
0.258185 0.000000 0.830807
0.627568 0.000000 0.830807
0.859425 0.000000 0.800610
0.983390 0.000000 0.706193
1.000000 0.107227 0.628556
1.000000 0.184720 0.614682
0.000000 0.322080 0.613039
0.000000 0.312632 0.729025
0.007196 0.222751 0.832212
0.192444 0.164640 0.772539
0.566044 0.164640 0.772539
0.817627 0.148169 0.755647
1.000000 0.089761 0.678679
1.000000 0.213726 0.608466
1.000000 0.292080 0.609983
0.000000 0.429440 0.613039
0.000000 0.544025 0.729025
0.007196 0.560649 0.832212
0.184949 0.391662 0.764841
0.501121 0.335934 0.707616
0.752705 0.319464 0.690725
0.948014 0.248120 0.617559
1.000000 0.320098 0.578693
1.000000 0.399440 0.603418
0.000000 0.618440 0.613039
0.000000 0.734473 0.726463
0.004061 0.840794 0.828996
0.181813 0.773424 0.761626
0.459328 0.677620 0.665822
0.658216 0.608034 0.596236
0.853906 0.535249 0.523451
1.000000 0.510107 0.500263
1.000000 0.589348 0.583039
0.000000 0.736880 0.613039
0.000000 0.853933 0.681390
0.000000 0.964316 0.725799
0.113061 0.961637 0.691119
0.308540 0.887548 0.617030
0.601681 0.810219 0.539700
0.853906 0.793970 0.523451
1.000000 0.725979 0.500263
1.000000 0.727696 0.583039
0.000000 0.855320 0.613039
0.000000 0.973394 0.650570
0.083776 1.000000 0.640991
0.194159 1.000000 0.614232
0.315549 1.000000 0.566687
0.531540 0.998799 0.469560
0.800015 0.998799 0.469560
1.000000 0.941851 0.500263
1.000000 0.866044 0.583039
0.000000 0.970000 0.613039
0.081993 1.000000 0.618077
0.193401 1.000000 0.614352
0.304808 1.000000 0.609321
0.488508 1.000000 0.595602
0.616182 1.000000 0.583039
0.759746 1.000000 0.583039
0.903310 1.000000 0.583039
1.000000 1.000000 0.583039
0.000000 0.000000 0.730486
0.111993 0.000000 0.730486
0.223401 0.000000 0.730486
0.334808 0.000000 0.730486
0.518508 0.000000 0.730486
0.641413 0.000000 0.730486
0.764318 0.000000 0.730486
0.887224 0.000000 0.730486
0.970000 0.000000 0.730486
0.000000 0.107360 0.730486
0.006389 0.000000 0.842894
0.160025 0.000000 0.842894
0.313661 0.000000 0.842894
0.550567 0.000000 0.842894
0.720058 0.000000 0.842894
0.877018 0.000000 0.831003
0.999867 0.000000 0.796005
1.000000 0.077360 0.743827
0.000000 0.214720 0.730486
0.000000 0.143532 0.847485
0.016380 0.000000 0.949266
0.226596 0.000000 0.949266
0.549281 0.000000 0.949266
0.781193 0.000000 0.949266
0.983390 0.000000 0.921397
1.000000 0.107227 0.787664
1.000000 0.184720 0.741459
0.000000 0.322080 0.730486
0.000000 0.293538 0.847485
0.000000 0.191209 0.957867
0.124268 0.096464 0.959174
0.496127 0.096464 0.959174
0.764602 0.096464 0.959174
1.000000 0.089761 0.928139
1.000000 0.213726 0.776180
1.000000 0.292080 0.738306
0.000000 0.429440 0.730486
0.000000 0.509684 0.847485
0.000000 0.399239 0.957867
0.116773 0.323486 0.951476
0.328673 0.267759 0.894251
0.699679 0.267759 0.894251
0.948014 0.248120 0.874111
1.000000 0.320098 0.759160
1.000000 0.399440 0.733901
0.000000 0.618440 0.730486
0.000000 0.690931 0.847485
0.000000 0.740756 0.957867
0.116773 0.706723 0.951476
0.312251 0.632634 0.877388
0.602268 0.552086 0.796840
0.850708 0.532051 0.776805
1.000000 0.505664 0.711735
1.000000 0.588440 0.719609
0.000000 0.736880 0.730486
0.000000 0.853933 0.845025
0.000000 0.964316 0.952001
0.113061 0.961637 0.947670
0.308540 0.887548 0.873581
0.584877 0.793416 0.779449
0.784354 0.724417 0.710451
0.980044 0.651633 0.637666
1.000000 0.708482 0.700486
0.000000 0.855320 0.730486
0.000000 0.973394 0.807061
0.083776 1.000000 0.815023
0.194159 1.000000 0.801235
0.315549 1.000000 0.776738
0.514737 0.981996 0.709309
0.730463 0.929247 0.656560
0.980044 0.910353 0.637666
1.000000 0.856592 0.700486
0.000000 0.970000 0.730486
0.081993 1.000000 0.743737
0.193401 1.000000 0.741238
0.304808 1.000000 0.737862
0.488508 1.000000 0.728657
0.611413 1.000000 0.716751
0.742794 1.000000 0.700486
0.896488 1.000000 0.700486
1.000000 1.000000 0.700486
0.000000 0.000000 0.847933
0.111993 0.000000 0.847933
0.223401 0.000000 0.847933
0.334808 0.000000 0.847933
0.518508 0.000000 0.847933
0.641413 0.000000 0.847933
0.764318 0.000000 0.847933
0.887224 0.000000 0.847933
0.970000 0.000000 0.847933
0.000000 0.107360 0.847933
0.006119 0.000000 0.961353
0.153264 0.000000 0.961353
0.300410 0.000000 0.961353
0.526254 0.000000 0.961353
0.688585 0.000000 0.961353
0.850916 0.000000 0.961353
0.999867 0.000000 0.948764
1.000000 0.077360 0.869443
0.000000 0.214720 0.847933
0.000000 0.137207 0.965944
0.080784 0.067725 1.000000
0.248377 0.067725 1.000000
0.504436 0.067725 1.000000
0.689326 0.067725 1.000000
0.874216 0.067725 1.000000
1.000000 0.107227 0.946772
1.000000 0.184720 0.868236
0.000000 0.322080 0.847933
0.000000 0.280603 0.965944
0.076326 0.225507 1.000000
0.194646 0.174097 1.000000
0.392436 0.174097 1.000000
0.666598 0.174097 1.000000
0.865014 0.174097 1.000000
1.000000 0.213726 0.943894
1.000000 0.292080 0.866630
0.000000 0.429440 0.847933
0.000000 0.423998 0.965944
0.076326 0.387811 1.000000
0.186708 0.341014 1.000000
0.330202 0.280469 1.000000
0.631685 0.280469 1.000000
0.850878 0.280469 1.000000
1.000000 0.320098 0.939627
1.000000 0.399440 0.864385
0.000000 0.618440 0.847933
0.000000 0.659421 0.965944
0.076326 0.653057 1.000000
0.186708 0.625790 1.000000
0.308098 0.576980 1.000000
0.532716 0.482534 0.983839
0.801191 0.482534 0.983839
1.000000 0.505664 0.927739
1.000000 0.588440 0.857101
0.000000 0.736880 0.847933
0.000000 0.817615 0.965944
0.076326 0.832112 1.000000
0.186708 0.818917 1.000000
0.308098 0.795298 1.000000
0.519112 0.727650 0.970235
0.731051 0.671114 0.913699
0.976258 0.647846 0.890431
1.000000 0.706880 0.846516
0.000000 0.855320 0.847933
0.000000 0.973394 0.963552
0.083776 1.000000 0.989055
0.194159 1.000000 0.988239
0.315549 1.000000 0.986789
0.514737 0.981996 0.965860
0.710427 0.909211 0.893076
0.910492 0.840801 0.824666
1.000000 0.828951 0.817933
0.000000 0.970000 0.847933
0.081993 1.000000 0.869397
0.193401 1.000000 0.868124
0.304808 1.000000 0.866403
0.488508 1.000000 0.861712
0.611413 1.000000 0.855644
0.734318 1.000000 0.842325
0.876537 1.000000 0.817933
1.000000 1.000000 0.817933
0.000000 0.000000 0.965381
0.111993 0.000000 0.965381
0.223401 0.000000 0.965381
0.334808 0.000000 0.965381
0.518508 0.000000 0.965381
0.641413 0.000000 0.965381
0.764318 0.000000 0.965381
0.887224 0.000000 0.965381
0.970000 0.000000 0.965381
0.000000 0.107360 0.965381
0.078045 0.073035 1.000000
0.198504 0.073035 1.000000
0.318963 0.073035 1.000000
0.516822 0.073035 1.000000
0.649712 0.073035 1.000000
0.782603 0.073035 1.000000
0.915494 0.073035 1.000000
1.000000 0.077360 0.995059
0.000000 0.214720 0.965381
0.077669 0.188787 1.000000
0.189885 0.180395 1.000000
0.311665 0.180395 1.000000
0.511520 0.180395 1.000000
0.645868 0.180395 1.000000
0.780217 0.180395 1.000000
0.914566 0.180395 1.000000
1.000000 0.184720 0.995014
0.000000 0.322080 0.965381
0.077669 0.304918 1.000000
0.189076 0.297053 1.000000
0.301872 0.287755 1.000000
0.504395 0.287755 1.000000
0.640704 0.287755 1.000000
0.777012 0.287755 1.000000
0.913320 0.287755 1.000000
1.000000 0.292080 0.994953
0.000000 0.429440 0.965381
0.077669 0.421048 1.000000
0.189076 0.414529 1.000000
0.300484 0.405649 1.000000
0.494304 0.395115 1.000000
0.633388 0.395115 1.000000
0.772472 0.395115 1.000000
0.911555 0.395115 1.000000
1.000000 0.399440 0.994868
0.000000 0.618440 0.965381
0.077669 0.624717 1.000000
0.189076 0.620370 1.000000
0.300484 0.614441 1.000000
0.483888 0.599304 1.000000
0.611378 0.583821 1.000000
0.758812 0.583821 1.000000
0.906246 0.583821 1.000000
1.000000 0.588440 0.994592
0.000000 0.736880 0.965381
0.077669 0.752833 1.000000
0.189076 0.749970 1.000000
0.300484 0.746064 1.000000
0.483888 0.736095 1.000000
0.606794 0.722664 1.000000
0.738013 0.702261 1.000000
0.898161 0.702261 1.000000
1.000000 0.706880 0.994192
0.000000 0.855320 0.965381
0.077669 0.880948 1.000000
0.189076 0.879569 1.000000
0.300484 0.877688 1.000000
0.483888 0.872887 1.000000
0.606794 0.866417 1.000000
0.729699 0.852038 1.000000
0.872675 0.820701 1.000000
1.000000 0.825320 0.992964
0.000000 0.970000 0.965381
0.081993 1.000000 0.995058
0.193401 1.000000 0.995009
0.304808 1.000000 0.994944
0.488508 1.000000 0.994767
0.611413 1.000000 0.994537
0.734318 1.000000 0.994033
0.857424 0.999799 0.991854
0.971663 0.971663 0.963718
