docs/luts/fuji_recipes/Velvia_VM_Velvia.cube
TITLE "Fujifilm Recipe: VM Velvia (Velvia)"
# FilmSim=Velvia HL=0 SH=-1 Col=2 WB=Auto WBR=0 WBB=-1
LUT_3D_SIZE 9
DOMAIN_MIN 0.0 0.0 0.0
DOMAIN_MAX 1.0 1.0 1.0
0.040000 0.040000 0.040000
0.180668 0.018542 0.018542
0.317781 0.000000 0.000000
0.436353 0.000000 0.000000
0.546933 0.000000 0.000000
0.674494 0.000000 0.000000
0.802056 0.000000 0.000000
0.929617 0.000000 0.000000
1.000000 0.040000 0.040000
0.018918 0.178202 0.018918
0.180668 0.177825 0.018542
0.317781 0.156524 0.000000
0.436353 0.143413 0.000000
0.546933 0.137186 0.000000
0.674494 0.132881 0.000000
0.802056 0.130096 0.000000
0.929617 0.128148 0.000000
1.000000 0.157120 0.040000
0.000000 0.314240 0.000000
0.159924 0.314240 0.000000
0.317781 0.313049 0.000000
0.436353 0.286826 0.000000
0.546933 0.274373 0.000000
0.674494 0.265761 0.000000
0.802056 0.260193 0.000000
0.929617 0.256296 0.000000
1.000000 0.274240 0.040000
0.000000 0.431360 0.000000
0.146353 0.431360 0.000000
0.291921 0.431360 0.000000
0.436353 0.430239 0.000000
0.546933 0.411559 0.000000
0.674494 0.398642 0.000000
0.802056 0.390289 0.000000
0.929617 0.384444 0.000000
1.000000 0.391360 0.040000
0.000000 0.548480 0.000000
0.139567 0.548480 0.000000
0.278386 0.548480 0.000000
0.417205 0.548480 0.000000
0.546669 0.548480 0.000000
0.674494 0.531522 0.000000
0.802056 0.520385 0.000000
0.929617 0.512592 0.000000
1.000000 0.508480 0.040000
0.000000 0.666000 0.000000
0.135484 0.666000 0.000000
0.270243 0.666000 0.000000
0.405002 0.666000 0.000000
0.530678 0.666000 0.000000
0.674494 0.664857 0.000000
0.802056 0.650926 0.000000
0.929617 0.641178 0.000000
1.000000 0.626000 0.040000
0.000000 0.792000 0.000000
0.132604 0.792000 0.000000
0.264498 0.792000 0.000000
0.396392 0.792000 0.000000
0.519397 0.792000 0.000000
0.661291 0.792000 0.000000
0.802056 0.790886 0.000000
0.929617 0.779042 0.000000
1.000000 0.752000 0.040000
0.000000 0.918000 0.000000
0.130590 0.918000 0.000000
0.260481 0.918000 0.000000
0.390372 0.918000 0.000000
0.511509 0.918000 0.000000
0.651248 0.918000 0.000000
0.790987 0.918000 0.000000
0.929617 0.916906 0.000000
1.000000 0.878000 0.040000
0.040000 1.000000 0.040000
0.159210 1.000000 0.040000
0.277781 1.000000 0.040000
0.396353 1.000000 0.040000
0.506933 1.000000 0.040000
0.634494 1.000000 0.040000
0.762056 1.000000 0.040000
0.889617 1.000000 0.040000
1.000000 1.000000 0.040000
0.019695 0.019695 0.173107
0.180668 0.018542 0.171954
0.317781 0.000000 0.150755
0.436353 0.000000 0.138127
0.546933 0.000000 0.132129
0.674494 0.000000 0.127982
0.802056 0.000000 0.125301
0.929617 0.000000 0.123424
1.000000 0.040000 0.152803
0.018918 0.178202 0.172330
0.161540 0.157930 0.150473
0.323224 0.114817 0.107361
0.484908 0.071705 0.064248
0.641797 0.027498 0.020042
0.790089 0.007004 0.000000
0.918339 0.006457 0.000000
1.000000 0.052144 0.046589
1.000000 0.157120 0.152803
0.000000 0.314240 0.151328
0.119715 0.318395 0.108648
0.323224 0.317107 0.107361
0.484908 0.273994 0.064248
0.641797 0.229788 0.020042
0.790089 0.197016 0.000000
0.918339 0.181624 0.000000
1.000000 0.202829 0.046589
1.000000 0.274240 0.152803
0.000000 0.431360 0.138487
0.077130 0.478099 0.066063
0.281926 0.478099 0.066063
0.484908 0.476284 0.064248
0.641797 0.432078 0.020042
0.790089 0.387027 0.000000
0.918339 0.356792 0.000000
1.000000 0.353515 0.046589
1.000000 0.391360 0.152803
0.000000 0.548480 0.132066
0.037871 0.615999 0.026805
0.242668 0.615999 0.026805
0.447464 0.615999 0.026805
0.641797 0.609096 0.020042
0.790089 0.552422 0.000000
0.918339 0.508455 0.000000
1.000000 0.504201 0.046589
1.000000 0.508480 0.152803
0.000000 0.666000 0.128203
0.010464 0.781549 0.000000
0.204114 0.781549 0.000000
0.397765 0.781549 0.000000
0.587089 0.781549 0.000000
0.790089 0.776308 0.000000
0.918339 0.714851 0.000000
1.000000 0.660832 0.046589
1.000000 0.626000 0.152803
0.000000 0.792000 0.125477
0.009634 0.908229 0.000000
0.187928 0.908229 0.000000
0.366221 0.908229 0.000000
0.539726 0.908229 0.000000
0.731538 0.908229 0.000000
0.918339 0.903300 0.000000
1.000000 0.822943 0.046589
1.000000 0.752000 0.152803
0.000000 0.918000 0.123572
0.043386 1.000000 0.034910
0.200257 1.000000 0.034910
0.357127 1.000000 0.034910
0.509076 1.000000 0.034910
0.677840 1.000000 0.034910
0.846605 1.000000 0.034910
1.000000 0.985054 0.046589
1.000000 0.878000 0.152803
0.040000 1.000000 0.152803
0.159210 1.000000 0.152803
0.277781 1.000000 0.152803
0.396353 1.000000 0.152803
0.506933 1.000000 0.152803
0.634494 1.000000 0.152803
0.762056 1.000000 0.152803
0.889617 1.000000 0.152803
1.000000 1.000000 0.152803
0.000000 0.000000 0.306038
0.161401 0.000000 0.306038
0.317781 0.000000 0.302086
0.436353 0.000000 0.276782
0.546933 0.000000 0.264765
0.674494 0.000000 0.256455
0.802056 0.000000 0.251081
0.929617 0.000000 0.247321
1.000000 0.040000 0.266038
0.000000 0.158572 0.306038
0.121127 0.117518 0.305640
0.321654 0.113248 0.301370
0.483338 0.070135 0.258257
0.640199 0.025933 0.214055
0.794382 0.000000 0.179261
0.922632 0.000000 0.164825
1.000000 0.050882 0.191205
1.000000 0.157120 0.266038
0.000000 0.314240 0.303236
0.117385 0.316065 0.301898
0.282051 0.275935 0.261768
0.443735 0.232822 0.218655
0.599873 0.188730 0.174563
0.773692 0.143162 0.128995
0.947511 0.097593 0.083426
1.000000 0.170181 0.159187
1.000000 0.274240 0.266038
0.000000 0.431360 0.277503
0.074800 0.475770 0.259313
0.240754 0.436927 0.220470
0.443735 0.435112 0.218655
0.599873 0.391020 0.174563
0.773692 0.345451 0.128995
0.947511 0.299883 0.083426
1.000000 0.327165 0.159187
1.000000 0.391360 0.266038
0.000000 0.548480 0.264637
0.035548 0.613626 0.220061
0.201610 0.574075 0.181326
0.406407 0.574075 0.181326
0.599873 0.567173 0.174563
0.773692 0.520667 0.128995
0.947511 0.502173 0.083426
1.000000 0.484149 0.159187
1.000000 0.508480 0.266038
0.000000 0.666000 0.256896
0.000000 0.787920 0.178290
0.152313 0.762118 0.132029
0.357109 0.762118 0.132029
0.556465 0.762118 0.132029
0.773692 0.759021 0.128995
0.947511 0.712515 0.083426
1.000000 0.646656 0.159187
1.000000 0.626000 0.266038
0.000000 0.792000 0.251435
0.000000 0.914600 0.163504
0.107302 0.933809 0.087018
0.312099 0.933809 0.087018
0.510529 0.933809 0.087018
0.730853 0.933809 0.087018
0.947511 0.930143 0.083426
1.000000 0.815542 0.159187
1.000000 0.752000 0.266038
0.000000 0.918000 0.247616
0.041281 1.000000 0.182931
0.163767 1.000000 0.147507
0.327931 1.000000 0.147507
0.508338 1.000000 0.147507
0.662862 1.000000 0.147507
0.839473 1.000000 0.147507
1.000000 0.984429 0.159187
1.000000 0.878000 0.266038
0.040000 1.000000 0.266038
0.159210 1.000000 0.266038
0.277781 1.000000 0.266038
0.396353 1.000000 0.266038
0.506933 1.000000 0.266038
0.634494 1.000000 0.266038
0.762056 1.000000 0.266038
0.889617 1.000000 0.266038
1.000000 1.000000 0.266038
0.000000 0.000000 0.419272
0.147320 0.000000 0.419272
0.293850 0.000000 0.419272
0.436353 0.000000 0.415438
0.546933 0.000000 0.397400
0.674494 0.000000 0.384928
0.802056 0.000000 0.376862
0.929617 0.000000 0.371218
1.000000 0.040000 0.379272
0.000000 0.144737 0.419272
0.079955 0.076345 0.460047
0.284752 0.076345 0.460047
0.483338 0.070135 0.453837
0.640199 0.025933 0.409634
0.794382 0.000000 0.365626
0.922632 0.000000 0.336184
1.000000 0.050882 0.337089
1.000000 0.157120 0.379272
0.000000 0.289473 0.419272
0.079195 0.277875 0.459287
0.242167 0.236050 0.417462
0.440753 0.229840 0.411252
0.596836 0.185756 0.367168
0.770655 0.140188 0.321600
0.944474 0.094619 0.276031
1.000000 0.167343 0.308615
1.000000 0.274240 0.379272
0.000000 0.431360 0.416520
0.074800 0.475770 0.454892
0.236484 0.432657 0.411779
0.402563 0.393940 0.373062
0.557949 0.349962 0.329085
0.731768 0.304394 0.283516
0.905587 0.258825 0.237948
1.000000 0.288925 0.271785
1.000000 0.391360 0.379272
0.000000 0.548480 0.397208
0.035548 0.613626 0.415640
0.197352 0.569727 0.372647
0.365349 0.532151 0.335848
0.557949 0.525249 0.329085
0.731768 0.506684 0.283516
0.905587 0.461115 0.237948
1.000000 0.454997 0.271785
1.000000 0.508480 0.379272
0.000000 0.666000 0.385589
0.000000 0.787920 0.367274
0.148055 0.757770 0.323350
0.316052 0.720194 0.286551
0.514541 0.720194 0.286551
0.731768 0.717097 0.283516
0.905587 0.670592 0.237948
1.000000 0.626200 0.271785
1.000000 0.626000 0.379272
0.000000 0.792000 0.377393
0.000000 0.914600 0.336813
0.103044 0.929461 0.278339
0.271041 0.891885 0.241540
0.496100 0.891885 0.241540
0.688929 0.891885 0.241540
0.905587 0.888219 0.237948
1.000000 0.804864 0.271785
1.000000 0.752000 0.379272
0.000000 0.918000 0.371661
0.041281 1.000000 0.333077
0.159185 1.000000 0.300483
0.285280 1.000000 0.260105
0.477334 1.000000 0.260105
0.641095 1.000000 0.260105
0.829109 1.000000 0.260105
1.000000 0.983527 0.271785
1.000000 0.878000 0.379272
0.040000 1.000000 0.379272
0.159210 1.000000 0.379272
0.277781 1.000000 0.379272
0.396353 1.000000 0.379272
0.506933 1.000000 0.379272
0.634494 1.000000 0.379272
0.762056 1.000000 0.379272
0.889617 1.000000 0.379272
1.000000 1.000000 0.379272
0.000000 0.000000 0.532507
0.140285 0.000000 0.532507
0.279819 0.000000 0.532507
0.419353 0.000000 0.532507
0.546933 0.000000 0.530036
0.674494 0.000000 0.513400
0.802056 0.000000 0.502643
0.929617 0.000000 0.495115
1.000000 0.040000 0.492507
0.000000 0.137826 0.532507
0.042250 0.038640 0.591728
0.247046 0.038640 0.591728
0.451843 0.038640 0.591728
0.640199 0.025933 0.578760
0.794382 0.000000 0.551992
0.922632 0.000000 0.507543
1.000000 0.050882 0.482974
1.000000 0.157120 0.492507
0.000000 0.275652 0.532507
0.041492 0.240172 0.590955
0.204580 0.198463 0.548366
0.409376 0.198463 0.548366
0.596836 0.185756 0.562747
0.770655 0.140188 0.517179
0.944474 0.094619 0.471610
1.000000 0.167343 0.460920
1.000000 0.274240 0.492507
0.000000 0.413478 0.532507
0.041492 0.442461 0.590955
0.203296 0.399469 0.547055
0.363206 0.354583 0.529284
0.553474 0.345580 0.520281
0.727293 0.300011 0.474713
0.901112 0.254443 0.429144
1.000000 0.283805 0.428276
1.000000 0.391360 0.492507
0.000000 0.548480 0.529780
0.035548 0.613626 0.584889
0.197352 0.569727 0.568227
0.359156 0.525827 0.525234
0.516026 0.511195 0.483606
0.689844 0.465626 0.438038
0.863663 0.420058 0.392469
1.000000 0.408976 0.384383
1.000000 0.508480 0.492507
0.000000 0.666000 0.514283
0.000000 0.787920 0.556257
0.148055 0.757770 0.518929
0.309859 0.713870 0.475937
0.500053 0.678270 0.441072
0.689844 0.675173 0.438038
0.863663 0.628668 0.392469
1.000000 0.594106 0.384383
1.000000 0.626000 0.492507
0.000000 0.792000 0.503351
0.000000 0.914600 0.510123
0.103044 0.929461 0.473918
0.264848 0.885561 0.430926
0.455042 0.849961 0.396062
0.647005 0.849961 0.396062
0.863663 0.846295 0.392469
1.000000 0.788110 0.384383
1.000000 0.752000 0.492507
0.000000 0.918000 0.495706
0.041281 1.000000 0.483223
0.159185 1.000000 0.458132
0.277089 1.000000 0.420459
0.427875 1.000000 0.372703
0.606576 1.000000 0.372703
0.812673 1.000000 0.372703
1.000000 0.982113 0.384383
1.000000 0.878000 0.492507
0.040000 1.000000 0.492507
0.159210 1.000000 0.492507
0.277781 1.000000 0.492507
0.396353 1.000000 0.492507
0.506933 1.000000 0.492507
0.634494 1.000000 0.492507
0.762056 1.000000 0.492507
0.889617 1.000000 0.492507
1.000000 1.000000 0.492507
0.000000 0.000000 0.644636
0.136100 0.000000 0.644636
0.271471 0.000000 0.644636
0.406842 0.000000 0.644636
0.533090 0.000000 0.644636
0.674494 0.000000 0.640618
0.802056 0.000000 0.627195
0.929617 0.000000 0.617803
1.000000 0.040000 0.604636
0.000000 0.133714 0.644636
0.003527 0.000000 0.764363
0.203627 0.000000 0.764363
0.403728 0.000000 0.764363
0.599479 0.000000 0.764363
0.794382 0.000000 0.745241
0.922632 0.000000 0.684409
1.000000 0.050882 0.632849
1.000000 0.157120 0.604636
0.000000 0.267428 0.644636
0.000000 0.195558 0.766441
0.156970 0.150854 0.729970
0.361767 0.150854 0.729970
0.561216 0.150854 0.729970
0.770655 0.140188 0.719085
0.944474 0.094619 0.672579
1.000000 0.167343 0.616692
1.000000 0.274240 0.604636
0.000000 0.401142 0.644636
0.000000 0.394669 0.766441
0.155686 0.351859 0.728659
0.319301 0.310677 0.686608
0.517854 0.310677 0.686608
0.727293 0.300011 0.675722
0.901112 0.254443 0.629217
1.000000 0.283805 0.592954
1.000000 0.391360 0.604636
0.000000 0.534856 0.644636
0.000000 0.568152 0.766441
0.155686 0.527205 0.728659
0.317490 0.511157 0.684759
0.501893 0.470501 0.643246
0.683931 0.459835 0.632360
0.857749 0.414266 0.585855
1.000000 0.400266 0.554664
1.000000 0.508480 0.604636
0.000000 0.666000 0.641720
0.000000 0.787920 0.752265
0.148055 0.757770 0.720870
0.309859 0.713870 0.676971
0.487671 0.665627 0.628728
0.645351 0.630679 0.593780
0.819293 0.584298 0.547399
0.993236 0.537917 0.501017
1.000000 0.626000 0.604636
0.000000 0.792000 0.628079
0.000000 0.914600 0.689055
0.103044 0.929461 0.674934
0.264848 0.885561 0.631035
0.442661 0.837318 0.582792
0.602625 0.805581 0.551055
0.819293 0.801925 0.547399
0.993236 0.755544 0.501017
1.000000 0.752000 0.604636
0.000000 0.918000 0.618540
0.041281 1.000000 0.637528
0.159185 1.000000 0.619416
0.277089 1.000000 0.592407
0.406659 1.000000 0.541762
0.556812 0.977395 0.505241
0.777136 0.977395 0.505241
0.993236 0.973171 0.501017
1.000000 0.878000 0.604636
0.040000 1.000000 0.604636
0.159210 1.000000 0.604636
0.277781 1.000000 0.604636
0.396353 1.000000 0.604636
0.506933 1.000000 0.604636
0.634494 1.000000 0.604636
0.762056 1.000000 0.604636
0.889617 1.000000 0.604636
1.000000 1.000000 0.604636
0.000000 0.000000 0.766457
0.133103 0.000000 0.766457
0.265493 0.000000 0.766457
0.397882 0.000000 0.766457
0.521349 0.000000 0.766457
0.663777 0.000000 0.766457
0.802056 0.000000 0.762512
0.929617 0.000000 0.751093
1.000000 0.040000 0.726457
0.000000 0.130769 0.766457
0.003228 0.000000 0.886841
0.186348 0.000000 0.886841
0.369469 0.000000 0.886841
0.547810 0.000000 0.886841
0.744815 0.000000 0.886841
0.922632 0.000000 0.868760
1.000000 0.050882 0.789794
1.000000 0.157120 0.726457
0.000000 0.261538 0.766457
0.000000 0.178721 0.888919
0.113453 0.107336 0.895966
0.318249 0.107336 0.895966
0.516804 0.107336 0.895966
0.737128 0.107336 0.895966
0.944474 0.094619 0.882987
1.000000 0.167343 0.780544
1.000000 0.274240 0.726457
0.000000 0.392308 0.766457
0.000000 0.360689 0.888919
0.112169 0.308342 0.894654
0.275783 0.267160 0.852603
0.500842 0.267160 0.852603
0.693766 0.267160 0.852603
0.901112 0.254443 0.839625
1.000000 0.283805 0.766953
1.000000 0.391360 0.726457
0.000000 0.523077 0.766457
0.000000 0.518431 0.888919
0.112169 0.510631 0.894654
0.273973 0.467639 0.850755
0.458376 0.426983 0.809241
0.650404 0.426983 0.809241
0.857749 0.414266 0.796263
1.000000 0.400266 0.745031
1.000000 0.508480 0.726457
0.000000 0.654293 0.766457
0.000000 0.732840 0.888919
0.112169 0.721146 0.894654
0.273973 0.677246 0.850755
0.451785 0.629003 0.802512
0.604145 0.589474 0.762983
0.811525 0.576530 0.750039
0.985468 0.530149 0.703657
1.000000 0.626000 0.726457
0.000000 0.792000 0.763587
0.000000 0.914600 0.875505
0.103044 0.929461 0.885342
0.264848 0.885561 0.841442
0.442661 0.837318 0.793200
0.591769 0.794725 0.750606
0.774999 0.757631 0.713513
0.948942 0.711250 0.667131
1.000000 0.752000 0.726457
0.000000 0.918000 0.751989
0.041281 1.000000 0.799058
0.159185 1.000000 0.789017
0.277089 1.000000 0.774044
0.406659 1.000000 0.745969
0.545955 0.966539 0.704793
0.732842 0.933101 0.671355
0.948942 0.928877 0.667131
1.000000 0.878000 0.726457
0.040000 1.000000 0.726457
0.159210 1.000000 0.726457
0.277781 1.000000 0.726457
0.396353 1.000000 0.726457
0.506933 1.000000 0.726457
0.634494 1.000000 0.726457
0.762056 1.000000 0.726457
0.889617 1.000000 0.726457
1.000000 1.000000 0.726457
0.000000 0.000000 0.888277
0.131009 0.000000 0.888277
0.261316 0.000000 0.888277
0.391623 0.000000 0.888277
0.513148 0.000000 0.888277
0.653335 0.000000 0.888277
0.793522 0.000000 0.888277
0.929617 0.000000 0.884384
1.000000 0.040000 0.848277
0.000000 0.128712 0.888277
0.012296 0.009319 1.000000
0.181182 0.009319 1.000000
0.350068 0.009319 1.000000
0.513809 0.009319 1.000000
0.695500 0.009319 1.000000
0.877191 0.009319 1.000000
1.000000 0.050882 0.946740
1.000000 0.157120 0.848277
0.000000 0.257424 0.888277
0.011397 0.175390 1.000000
0.131137 0.125780 1.000000
0.310508 0.125780 1.000000
0.507625 0.125780 1.000000
0.676598 0.125780 1.000000
0.869568 0.125780 1.000000
1.000000 0.167343 0.944396
1.000000 0.274240 0.848277
0.000000 0.386136 0.888277
0.011397 0.342364 1.000000
0.129301 0.301487 1.000000
0.250461 0.242241 1.000000
0.464989 0.242241 1.000000
0.648033 0.242241 1.000000
0.858047 0.242241 1.000000
1.000000 0.283805 0.940953
1.000000 0.391360 0.848277
0.000000 0.514848 0.888277
0.011397 0.509337 1.000000
0.129301 0.479041 1.000000
0.247206 0.432621 1.000000
0.414858 0.383465 0.975237
0.605992 0.383465 0.975237
0.826316 0.383465 0.975237
1.000000 0.400266 0.935398
1.000000 0.508480 0.848277
0.000000 0.644000 0.888277
0.011397 0.683109 1.000000
0.129301 0.663028 1.000000
0.247206 0.632441 1.000000
0.408268 0.584591 0.968508
0.559851 0.545180 0.929097
0.780175 0.545180 0.929097
0.985468 0.530149 0.914065
1.000000 0.626000 0.848277
0.000000 0.782471 0.888277
0.011397 0.862742 1.000000
0.129301 0.854044 1.000000
0.247206 0.840796 1.000000
0.408268 0.802218 0.968508
0.556763 0.759719 0.926008
0.734362 0.716994 0.883283
0.939655 0.701962 0.868252
1.000000 0.752000 0.848277
0.000000 0.918000 0.885439
0.041281 1.000000 0.960588
0.159185 1.000000 0.958619
0.277089 1.000000 0.955682
0.406659 1.000000 0.950175
0.545955 0.966539 0.915201
0.719898 0.920157 0.868819
0.904648 0.884583 0.833245
1.000000 0.878000 0.848277
0.040000 1.000000 0.848277
0.159210 1.000000 0.848277
0.277781 1.000000 0.848277
0.396353 1.000000 0.848277
0.506933 1.000000 0.848277
0.634494 1.000000 0.848277
0.762056 1.000000 0.848277
0.889617 1.000000 0.848277
1.000000 1.000000 0.848277
0.010097 0.010097 1.000000
0.136972 0.010097 1.000000
0.263168 0.010097 1.000000
0.389364 0.010097 1.000000
0.507054 0.010097 1.000000
0.642818 0.010097 1.000000
0.778581 0.010097 1.000000
0.914345 0.010097 1.000000
1.000000 0.040000 0.970097
0.010097 0.134748 1.000000
0.130650 0.128413 1.000000
0.257583 0.128413 1.000000
0.384516 0.128413 1.000000
0.504174 0.128413 1.000000
0.640731 0.128413 1.000000
0.777288 0.128413 1.000000
0.913845 0.128413 1.000000
1.000000 0.157120 0.970097
0.010097 0.259399 1.000000
0.130503 0.253666 1.000000
0.249366 0.245533 1.000000
0.377704 0.245533 1.000000
0.518739 0.245533 1.000000
0.636755 0.245533 1.000000
0.774823 0.245533 1.000000
0.912891 0.245533 1.000000
1.000000 0.274240 0.970097
0.010097 0.384050 1.000000
0.130503 0.379066 1.000000
0.249074 0.372056 1.000000
0.368140 0.362653 1.000000
0.511343 0.362653 1.000000
0.631172 0.362653 1.000000
0.771362 0.362653 1.000000
0.911553 0.362653 1.000000
1.000000 0.391360 0.970097
0.010097 0.508701 1.000000
0.130503 0.504466 1.000000
0.249074 0.498872 1.000000
0.367646 0.490970 1.000000
0.500203 0.479773 1.000000
0.622764 0.479773 1.000000
0.766150 0.479773 1.000000
0.909536 0.479773 1.000000
1.000000 0.508480 0.970097
0.010097 0.633777 1.000000
0.130503 0.631576 1.000000
0.249074 0.627416 1.000000
0.367646 0.621541 1.000000
0.497949 0.611472 1.000000
0.606068 0.596097 1.000000
0.755800 0.596097 1.000000
0.905532 0.596097 1.000000
1.000000 0.626000 0.970097
0.010097 0.767879 1.000000
0.130503 0.766484 1.000000
0.249074 0.763847 1.000000
0.367646 0.760124 1.000000
0.497949 0.753741 1.000000
0.604591 0.743037 1.000000
0.734910 0.722097 1.000000
0.897451 0.722097 1.000000
1.000000 0.752000 0.970097
0.010097 0.901981 1.000000
0.130503 0.901392 1.000000
0.249074 0.900279 1.000000
0.367646 0.898706 1.000000
0.497949 0.896011 1.000000
0.604591 0.891491 1.000000
0.732153 0.881428 1.000000
0.867258 0.848097 1.000000
1.000000 0.878000 0.970097
0.040000 1.000000 0.970097
0.159210 1.000000 0.970097
0.277781 1.000000 0.970097
0.396353 1.000000 0.970097
0.506933 1.000000 0.970097
0.634494 1.000000 0.970097
0.762056 1.000000 0.970097
0.889617 1.000000 0.970097
1.000000 1.000000 0.970097
