docs/luts/fuji_recipes/Velvia_BT_Velvia_Travel.cube
TITLE "Fujifilm Recipe: BT Velvia Travel (Velvia)"
# FilmSim=Velvia HL=0 SH=3 Col=1 WB=Auto WBR=0 WBB=0
LUT_3D_SIZE 9
DOMAIN_MIN 0.0 0.0 0.0
DOMAIN_MAX 1.0 1.0 1.0
0.000000 0.000000 0.000000
0.109276 0.000000 0.000000
0.217966 0.000000 0.000000
0.326657 0.000000 0.000000
0.506933 0.000000 0.000000
0.634494 0.000000 0.000000
0.762056 0.000000 0.000000
0.889617 0.000000 0.000000
1.000000 0.000000 0.000000
0.000000 0.107360 0.000000
0.109276 0.107360 0.000000
0.217966 0.107360 0.000000
0.326657 0.107360 0.000000
0.506933 0.107360 0.000000
0.634494 0.107360 0.000000
0.762056 0.107360 0.000000
0.889617 0.107360 0.000000
1.000000 0.107360 0.000000
0.000000 0.214720 0.000000
0.109276 0.214720 0.000000
0.217966 0.214720 0.000000
0.326657 0.214720 0.000000
0.506933 0.214720 0.000000
0.634494 0.214720 0.000000
0.762056 0.214720 0.000000
0.889617 0.214720 0.000000
1.000000 0.214720 0.000000
0.000000 0.322080 0.000000
0.109276 0.322080 0.000000
0.217966 0.322080 0.000000
0.326657 0.322080 0.000000
0.506933 0.322080 0.000000
0.634494 0.322080 0.000000
0.762056 0.322080 0.000000
0.889617 0.322080 0.000000
1.000000 0.322080 0.000000
0.000000 0.429440 0.000000
0.109276 0.429440 0.000000
0.217966 0.429440 0.000000
0.326657 0.429440 0.000000
0.506933 0.429440 0.000000
0.634494 0.429440 0.000000
0.762056 0.429440 0.000000
0.889617 0.429440 0.000000
1.000000 0.429440 0.000000
0.000000 0.626000 0.000000
0.109276 0.626000 0.000000
0.217966 0.626000 0.000000
0.326657 0.626000 0.000000
0.506933 0.626000 0.000000
0.634494 0.626000 0.000000
0.762056 0.626000 0.000000
0.889617 0.626000 0.000000
1.000000 0.626000 0.000000
0.000000 0.752000 0.000000
0.109276 0.752000 0.000000
0.217966 0.752000 0.000000
0.326657 0.752000 0.000000
0.506933 0.752000 0.000000
0.634494 0.752000 0.000000
0.762056 0.752000 0.000000
0.889617 0.752000 0.000000
1.000000 0.752000 0.000000
0.000000 0.878000 0.000000
0.109276 0.878000 0.000000
0.217966 0.878000 0.000000
0.326657 0.878000 0.000000
0.506933 0.878000 0.000000
0.634494 0.878000 0.000000
0.762056 0.878000 0.000000
0.889617 0.878000 0.000000
1.000000 0.878000 0.000000
0.000000 1.000000 0.000000
0.109276 1.000000 0.000000
0.217966 1.000000 0.000000
0.326657 1.000000 0.000000
0.506933 1.000000 0.000000
0.634494 1.000000 0.000000
0.762056 1.000000 0.000000
0.889617 1.000000 0.000000
1.000000 1.000000 0.000000
0.000000 0.000000 0.106064
0.109276 0.000000 0.106064
0.217966 0.000000 0.106064
0.326657 0.000000 0.106064
0.506933 0.000000 0.106064
0.634494 0.000000 0.106064
0.762056 0.000000 0.106064
0.889617 0.000000 0.106064
1.000000 0.000000 0.106064
0.000000 0.107360 0.106064
0.110077 0.107205 0.105263
0.245863 0.080109 0.078167
0.381650 0.053012 0.051070
0.604002 0.017197 0.015255
0.748885 0.001871 0.000000
0.878512 0.001766 0.000000
1.000000 0.009808 0.008140
1.000000 0.107360 0.106064
0.000000 0.214720 0.106064
0.083789 0.241808 0.078976
0.245863 0.240999 0.078167
0.381650 0.213902 0.051070
0.604002 0.178086 0.015255
0.748885 0.156844 0.000000
0.878512 0.148054 0.000000
1.000000 0.147982 0.008140
1.000000 0.214720 0.106064
0.000000 0.322080 0.106064
0.057024 0.375933 0.052211
0.219908 0.375933 0.052211
0.381650 0.374792 0.051070
0.604002 0.338976 0.015255
0.748885 0.311818 0.000000
0.878512 0.294343 0.000000
1.000000 0.286156 0.008140
1.000000 0.322080 0.106064
0.000000 0.429440 0.106064
0.024453 0.580377 0.019640
0.187337 0.580377 0.019640
0.350220 0.580377 0.019640
0.604002 0.575629 0.015255
0.748885 0.537421 0.000000
0.878512 0.505085 0.000000
1.000000 0.424330 0.008140
1.000000 0.429440 0.106064
0.000000 0.626000 0.106064
0.004658 0.740253 0.000000
0.162292 0.740253 0.000000
0.319926 0.740253 0.000000
0.567569 0.740253 0.000000
0.748885 0.736623 0.000000
0.878512 0.693123 0.000000
1.000000 0.660721 0.008140
1.000000 0.626000 0.106064
0.000000 0.752000 0.106064
0.004393 0.868294 0.000000
0.153061 0.868294 0.000000
0.301729 0.868294 0.000000
0.533089 0.868294 0.000000
0.707568 0.868294 0.000000
0.878512 0.864811 0.000000
1.000000 0.822885 0.008140
1.000000 0.752000 0.106064
0.000000 0.878000 0.106064
0.004215 0.996335 0.000000
0.146855 0.996335 0.000000
0.289495 0.996335 0.000000
0.509365 0.996335 0.000000
0.676770 0.996335 0.000000
0.844175 0.996335 0.000000
1.000000 0.985049 0.008140
1.000000 0.878000 0.106064
0.000000 1.000000 0.106064
0.109276 1.000000 0.106064
0.217966 1.000000 0.106064
0.326657 1.000000 0.106064
0.506933 1.000000 0.106064
0.634494 1.000000 0.106064
0.762056 1.000000 0.106064
0.889617 1.000000 0.106064
1.000000 1.000000 0.106064
0.000000 0.000000 0.212524
0.109276 0.000000 0.212524
0.217966 0.000000 0.212524
0.326657 0.000000 0.212524
0.506933 0.000000 0.212524
0.634494 0.000000 0.212524
0.762056 0.000000 0.212524
0.889617 0.000000 0.212524
1.000000 0.000000 0.212524
0.000000 0.107360 0.212524
0.084014 0.081143 0.238742
0.245540 0.079786 0.237385
0.381327 0.052689 0.210288
0.603653 0.016876 0.174475
0.750157 0.000000 0.152448
0.879785 0.000000 0.143797
1.000000 0.009412 0.144818
1.000000 0.107360 0.212524
0.000000 0.214720 0.212524
0.082989 0.241007 0.237717
0.219323 0.214458 0.211167
0.355110 0.187362 0.184071
0.575325 0.151722 0.148432
0.734502 0.122174 0.118883
0.893678 0.092625 0.089334
1.000000 0.115581 0.112641
1.000000 0.214720 0.212524
0.000000 0.322080 0.212524
0.056224 0.375132 0.210952
0.193367 0.349392 0.185212
0.355110 0.348251 0.184071
0.575325 0.312612 0.148432
0.734502 0.283063 0.118883
0.893678 0.253515 0.089334
1.000000 0.259344 0.112641
1.000000 0.322080 0.212524
0.000000 0.429440 0.212524
0.023658 0.579512 0.178386
0.160973 0.551700 0.152817
0.323856 0.551700 0.152817
0.575325 0.546953 0.148432
0.734502 0.514966 0.118883
0.893678 0.414405 0.089334
1.000000 0.403108 0.112641
1.000000 0.429440 0.212524
0.000000 0.626000 0.212524
0.000000 0.743405 0.151345
0.129006 0.723902 0.120851
0.291890 0.723902 0.120851
0.545468 0.723902 0.120851
0.734502 0.721772 0.118883
0.893678 0.689785 0.089334
1.000000 0.646996 0.112641
1.000000 0.626000 0.212524
0.000000 0.752000 0.212524
0.000000 0.871447 0.142468
0.099819 0.881130 0.091664
0.262703 0.881130 0.091664
0.513873 0.881130 0.091664
0.705036 0.881130 0.091664
0.893678 0.878609 0.089334
1.000000 0.815720 0.112641
1.000000 0.752000 0.212524
0.000000 0.878000 0.212524
0.000000 0.999488 0.136513
0.108350 1.000000 0.100835
0.258429 1.000000 0.100835
0.423356 1.000000 0.100835
0.663770 1.000000 0.100835
0.839905 1.000000 0.100835
1.000000 0.984444 0.112641
1.000000 0.878000 0.212524
0.000000 1.000000 0.212524
0.109276 1.000000 0.212524
0.217966 1.000000 0.212524
0.326657 1.000000 0.212524
0.506933 1.000000 0.212524
0.634494 1.000000 0.212524
0.762056 1.000000 0.212524
0.889617 1.000000 0.212524
1.000000 1.000000 0.212524
0.000000 0.000000 0.318984
0.109276 0.000000 0.318984
0.217966 0.000000 0.318984
0.326657 0.000000 0.318984
0.506933 0.000000 0.318984
0.634494 0.000000 0.318984
0.762056 0.000000 0.318984
0.889617 0.000000 0.318984
1.000000 0.000000 0.318984
0.000000 0.107360 0.318984
0.057473 0.054602 0.371742
0.220357 0.054602 0.371742
0.381327 0.052689 0.369829
0.603653 0.016876 0.334016
0.750157 0.000000 0.306775
0.879785 0.000000 0.289366
1.000000 0.009412 0.281891
1.000000 0.107360 0.318984
0.000000 0.214720 0.318984
0.056996 0.215014 0.371264
0.193592 0.188727 0.344977
0.354563 0.186814 0.343065
0.574734 0.151179 0.307429
0.733910 0.121630 0.277880
0.893087 0.092081 0.248332
1.000000 0.114796 0.254545
1.000000 0.214720 0.318984
0.000000 0.322080 0.318984
0.056224 0.375132 0.370493
0.192011 0.348036 0.343396
0.328569 0.321711 0.317071
0.546649 0.286248 0.281609
0.705825 0.256699 0.252060
0.865002 0.227151 0.222511
1.000000 0.221510 0.217141
1.000000 0.322080 0.318984
0.000000 0.429440 0.318984
0.023658 0.579512 0.337927
0.159625 0.550234 0.311011
0.297492 0.523023 0.285994
0.546649 0.518276 0.281609
0.705825 0.417589 0.252060
0.865002 0.388040 0.222511
1.000000 0.373040 0.217141
1.000000 0.429440 0.318984
0.000000 0.626000 0.318984
0.000000 0.743405 0.307398
0.127659 0.722436 0.279044
0.265526 0.695226 0.254028
0.516791 0.695226 0.254028
0.705825 0.693096 0.252060
0.865002 0.661109 0.222511
1.000000 0.627926 0.217141
1.000000 0.626000 0.318984
0.000000 0.752000 0.318984
0.000000 0.871447 0.289368
0.098472 0.879665 0.249857
0.236339 0.852454 0.224841
0.415338 0.852454 0.224841
0.676360 0.852454 0.224841
0.865002 0.849932 0.222511
1.000000 0.805765 0.217141
1.000000 0.752000 0.318984
0.000000 0.878000 0.318984
0.000000 0.999488 0.277272
0.106177 1.000000 0.246019
0.216560 1.000000 0.205336
0.391301 1.000000 0.205336
0.643763 1.000000 0.205336
0.830379 1.000000 0.205336
1.000000 0.983603 0.217141
1.000000 0.878000 0.318984
0.000000 1.000000 0.318984
0.109276 1.000000 0.318984
0.217966 1.000000 0.318984
0.326657 1.000000 0.318984
0.506933 1.000000 0.318984
0.634494 1.000000 0.318984
0.762056 1.000000 0.318984
0.889617 1.000000 0.318984
1.000000 1.000000 0.318984
0.000000 0.000000 0.425444
0.109276 0.000000 0.425444
0.217966 0.000000 0.425444
0.326657 0.000000 0.425444
0.506933 0.000000 0.425444
0.634494 0.000000 0.425444
0.762056 0.000000 0.425444
0.889617 0.000000 0.425444
1.000000 0.000000 0.425444
0.000000 0.107360 0.425444
0.025184 0.022313 0.574362
0.188068 0.022313 0.574362
0.350951 0.022313 0.574362
0.603653 0.016876 0.568476
0.750157 0.000000 0.531213
0.879785 0.000000 0.434935
1.000000 0.009412 0.418965
1.000000 0.107360 0.425444
0.000000 0.214720 0.425444
0.024710 0.182728 0.573846
0.161481 0.156616 0.545443
0.324364 0.156616 0.545443
0.574734 0.151179 0.539557
0.733910 0.121630 0.437421
0.893087 0.092081 0.407873
1.000000 0.114796 0.397236
1.000000 0.214720 0.425444
0.000000 0.322080 0.425444
0.024710 0.343618 0.573846
0.160677 0.316702 0.544568
0.303170 0.296311 0.451213
0.545815 0.285481 0.440383
0.704991 0.255933 0.410834
0.864168 0.226384 0.381286
1.000000 0.220180 0.366331
1.000000 0.322080 0.425444
0.000000 0.429440 0.425444
0.023658 0.579512 0.572707
0.159625 0.550234 0.543430
0.295592 0.520957 0.443635
0.517972 0.420773 0.414785
0.677148 0.391225 0.385237
0.836325 0.361676 0.355688
0.995501 0.332128 0.326140
1.000000 0.429440 0.425444
0.000000 0.626000 0.425444
0.000000 0.743405 0.534464
0.127659 0.722436 0.438585
0.263626 0.693159 0.411669
0.418160 0.666549 0.387205
0.677148 0.664419 0.385237
0.836325 0.632432 0.355688
0.995501 0.600445 0.326140
1.000000 0.626000 0.425444
0.000000 0.752000 0.425444
0.000000 0.871447 0.436268
0.098472 0.879665 0.409398
0.234439 0.850387 0.382482
0.388974 0.823777 0.358018
0.647683 0.823777 0.358018
0.836325 0.821255 0.355688
0.995501 0.789268 0.326140
1.000000 0.752000 0.425444
0.000000 0.878000 0.425444
0.000000 0.999488 0.418031
0.106177 1.000000 0.393394
0.212867 1.000000 0.358100
0.359787 0.981005 0.328831
0.616087 0.981005 0.328831
0.807251 0.981005 0.328831
0.995501 0.978092 0.326140
1.000000 0.878000 0.425444
0.000000 1.000000 0.425444
0.109276 1.000000 0.425444
0.217966 1.000000 0.425444
0.326657 1.000000 0.425444
0.506933 1.000000 0.425444
0.634494 1.000000 0.425444
0.762056 1.000000 0.425444
0.889617 1.000000 0.425444
1.000000 1.000000 0.425444
0.000000 0.000000 0.620254
0.109276 0.000000 0.620254
0.217966 0.000000 0.620254
0.326657 0.000000 0.620254
0.506933 0.000000 0.620254
0.634494 0.000000 0.620254
0.762056 0.000000 0.620254
0.889617 0.000000 0.620254
1.000000 0.000000 0.620254
0.000000 0.107360 0.620254
0.002800 0.000000 0.735686
0.161635 0.000000 0.735686
0.320471 0.000000 0.735686
0.570083 0.000000 0.735686
0.750157 0.000000 0.729514
0.879785 0.000000 0.685891
1.000000 0.009412 0.653180
1.000000 0.107360 0.620254
0.000000 0.214720 0.620254
0.000000 0.155084 0.737567
0.129793 0.124928 0.716141
0.292677 0.124928 0.716141
0.546317 0.124928 0.716141
0.733910 0.121630 0.712570
0.893087 0.092081 0.680583
1.000000 0.114796 0.638965
1.000000 0.214720 0.620254
0.000000 0.322080 0.620254
0.000000 0.312986 0.737567
0.128989 0.285014 0.715267
0.266090 0.259231 0.687222
0.517398 0.259231 0.687222
0.704991 0.255933 0.683651
0.864168 0.226384 0.651664
1.000000 0.220180 0.619136
1.000000 0.322080 0.620254
0.000000 0.429440 0.620254
0.000000 0.543051 0.737567
0.128989 0.517070 0.715267
0.264956 0.418988 0.685989
0.418502 0.393534 0.658303
0.676072 0.390235 0.654732
0.835249 0.360687 0.622745
0.994425 0.331138 0.590758
1.000000 0.429440 0.620254
0.000000 0.626000 0.620254
0.000000 0.743405 0.734983
0.127659 0.722436 0.713826
0.263626 0.693159 0.684548
0.413045 0.660985 0.652374
0.638044 0.625315 0.616704
0.797407 0.593514 0.584903
0.956769 0.561713 0.553102
1.000000 0.626000 0.620254
0.000000 0.752000 0.620254
0.000000 0.871447 0.689656
0.098472 0.879665 0.682230
0.234439 0.850387 0.652953
0.383858 0.818213 0.620779
0.608750 0.784844 0.587410
0.797407 0.782337 0.584903
0.956769 0.750536 0.553102
1.000000 0.752000 0.620254
0.000000 0.878000 0.620254
0.000000 0.999488 0.658702
0.106177 1.000000 0.643197
0.212867 1.000000 0.621074
0.354671 0.975441 0.589183
0.577338 0.942256 0.555998
0.768502 0.942256 0.555998
0.956769 0.939360 0.553102
1.000000 0.878000 0.620254
0.000000 1.000000 0.620254
0.109276 1.000000 0.620254
0.217966 1.000000 0.620254
0.326657 1.000000 0.620254
0.506933 1.000000 0.620254
0.634494 1.000000 0.620254
0.762056 1.000000 0.620254
0.889617 1.000000 0.620254
1.000000 1.000000 0.620254
0.000000 0.000000 0.745198
0.109276 0.000000 0.745198
0.217966 0.000000 0.745198
0.326657 0.000000 0.745198
0.506933 0.000000 0.745198
0.634494 0.000000 0.745198
0.762056 0.000000 0.745198
0.889617 0.000000 0.745198
1.000000 0.000000 0.745198
0.000000 0.107360 0.745198
0.002637 0.000000 0.862654
0.152231 0.000000 0.862654
0.301826 0.000000 0.862654
0.534721 0.000000 0.862654
0.710288 0.000000 0.862654
0.879785 0.000000 0.856734
1.000000 0.009412 0.814052
1.000000 0.107360 0.745198
0.000000 0.214720 0.745198
0.000000 0.145895 0.864535
0.100851 0.095986 0.872051
0.263735 0.095986 0.872051
0.514987 0.095986 0.872051
0.706150 0.095986 0.872051
0.893087 0.092081 0.867824
1.000000 0.114796 0.806431
1.000000 0.214720 0.745198
0.000000 0.322080 0.745198
0.000000 0.294441 0.864535
0.100047 0.256072 0.871177
0.237148 0.230289 0.843132
0.416147 0.230289 0.843132
0.677231 0.230289 0.843132
0.864168 0.226384 0.838905
1.000000 0.220180 0.795799
1.000000 0.322080 0.745198
0.000000 0.429440 0.745198
0.000000 0.508669 0.864535
0.100047 0.416962 0.871177
0.236014 0.390045 0.841899
0.389560 0.364592 0.814213
0.648312 0.364592 0.814213
0.835249 0.360687 0.809986
0.994425 0.331138 0.777999
1.000000 0.429440 0.745198
0.000000 0.626000 0.745198
0.000000 0.699609 0.864535
0.100047 0.692547 0.871177
0.236014 0.663269 0.841899
0.385434 0.631095 0.809725
0.609013 0.596284 0.774914
0.795974 0.592081 0.770712
0.955337 0.560280 0.738911
1.000000 0.626000 0.745198
0.000000 0.752000 0.745198
0.000000 0.871447 0.862061
0.098472 0.879665 0.869471
0.234439 0.850387 0.840194
0.383858 0.818213 0.808020
0.605200 0.781294 0.771101
0.766258 0.751189 0.740996
0.925621 0.719388 0.709194
1.000000 0.752000 0.745198
0.000000 0.878000 0.745198
0.000000 0.999488 0.823900
0.106177 1.000000 0.816159
0.212867 1.000000 0.804761
0.354671 0.975441 0.776424
0.573788 0.938706 0.739689
0.737353 0.911108 0.712091
0.925621 0.908211 0.709194
1.000000 0.878000 0.745198
0.000000 1.000000 0.745198
0.109276 1.000000 0.745198
0.217966 1.000000 0.745198
0.326657 1.000000 0.745198
0.506933 1.000000 0.745198
0.634494 1.000000 0.745198
0.762056 1.000000 0.745198
0.889617 1.000000 0.745198
1.000000 1.000000 0.745198
0.000000 0.000000 0.870142
0.109276 0.000000 0.870142
0.217966 0.000000 0.870142
0.326657 0.000000 0.870142
0.506933 0.000000 0.870142
0.634494 0.000000 0.870142
0.762056 0.000000 0.870142
0.889617 0.000000 0.870142
1.000000 0.000000 0.870142
0.000000 0.107360 0.870142
0.002528 0.000000 0.989622
0.145920 0.000000 0.989622
0.289312 0.000000 0.989622
0.510450 0.000000 0.989622
0.678738 0.000000 0.989622
0.847026 0.000000 0.989622
1.000000 0.009412 0.974925
1.000000 0.107360 0.870142
0.000000 0.214720 0.870142
0.000000 0.139736 0.991502
0.099587 0.095005 1.000000
0.252991 0.095005 1.000000
0.421573 0.095005 1.000000
0.667410 0.095005 1.000000
0.847449 0.095005 1.000000
1.000000 0.114796 0.973897
1.000000 0.214720 0.870142
0.000000 0.322080 0.870142
0.000000 0.282011 0.991502
0.098192 0.245375 1.000000
0.208205 0.201347 0.999042
0.387204 0.201347 0.999042
0.645901 0.201347 0.999042
0.837064 0.201347 0.999042
1.000000 0.220180 0.972463
1.000000 0.322080 0.870142
0.000000 0.429440 0.870142
0.000000 0.424286 0.991502
0.098192 0.397147 1.000000
0.207072 0.361103 0.997809
0.360617 0.335649 0.970123
0.616981 0.335649 0.970123
0.808145 0.335649 0.970123
0.994425 0.331138 0.965240
1.000000 0.429440 0.870142
0.000000 0.626000 0.870142
0.000000 0.667962 0.991502
0.098192 0.654862 1.000000
0.207072 0.631938 0.997809
0.356491 0.599764 0.965635
0.577865 0.565135 0.931007
0.769028 0.565135 0.931007
0.955337 0.560280 0.926151
1.000000 0.626000 0.870142
0.000000 0.752000 0.870142
0.000000 0.834939 0.991502
0.098192 0.832985 1.000000
0.207072 0.820762 0.997809
0.356491 0.788588 0.965635
0.575747 0.751841 0.928889
0.737617 0.722547 0.899595
0.923925 0.717692 0.894740
1.000000 0.752000 0.870142
0.000000 0.878000 0.870142
0.000000 0.999488 0.989098
0.106177 1.000000 0.989122
0.212867 1.000000 0.988447
0.354671 0.975441 0.963665
0.573788 0.938706 0.926930
0.733151 0.906905 0.895129
0.894472 0.877063 0.865287
1.000000 0.878000 0.870142
0.000000 1.000000 0.870142
0.109276 1.000000 0.870142
0.217966 1.000000 0.870142
0.326657 1.000000 0.870142
0.506933 1.000000 0.870142
0.634494 1.000000 0.870142
0.762056 1.000000 0.870142
0.889617 1.000000 0.870142
1.000000 1.000000 0.870142
0.000000 0.000000 0.995086
0.109276 0.000000 0.995086
0.217966 0.000000 0.995086
0.326657 0.000000 0.995086
0.506933 0.000000 0.995086
0.634494 0.000000 0.995086
0.762056 0.000000 0.995086
0.889617 0.000000 0.995086
1.000000 0.000000 0.995086
0.000000 0.107360 0.995086
0.104973 0.103035 1.000000
0.214887 0.103035 1.000000
0.324801 0.103035 1.000000
0.506352 0.103035 1.000000
0.635349 0.103035 1.000000
0.764347 0.103035 1.000000
0.893344 0.103035 1.000000
1.000000 0.107360 0.995086
0.000000 0.214720 0.995086
0.104951 0.211585 1.000000
0.213684 0.210395 1.000000
0.323797 0.210395 1.000000
0.505459 0.210395 1.000000
0.634690 0.210395 1.000000
0.763921 0.210395 1.000000
0.893151 0.210395 1.000000
1.000000 0.214720 0.995086
0.000000 0.322080 0.995086
0.104951 0.320157 1.000000
0.213642 0.319125 1.000000
0.322404 0.317755 1.000000
0.504220 0.317755 1.000000
0.633775 0.317755 1.000000
0.763329 0.317755 1.000000
0.892884 0.317755 1.000000
1.000000 0.322080 0.995086
0.000000 0.429440 0.995086
0.104951 0.428729 1.000000
0.213642 0.427896 1.000000
0.322332 0.426735 1.000000
0.502385 0.425115 1.000000
0.632419 0.425115 1.000000
0.762453 0.425115 1.000000
0.892487 0.425115 1.000000
1.000000 0.429440 0.995086
0.000000 0.626000 0.995086
0.104951 0.626749 1.000000
0.213642 0.626061 1.000000
0.322332 0.625100 1.000000
0.502019 0.623483 1.000000
0.629806 0.621086 1.000000
0.760764 0.621086 1.000000
0.891723 0.621086 1.000000
1.000000 0.626000 0.995086
0.000000 0.752000 0.995086
0.104951 0.754171 1.000000
0.213642 0.753718 1.000000
0.322332 0.753085 1.000000
0.502019 0.752020 1.000000
0.629580 0.750289 1.000000
0.757548 0.747086 1.000000
0.890267 0.747086 1.000000
1.000000 0.752000 0.995086
0.000000 0.878000 0.995086
0.104951 0.881593 1.000000
0.213642 0.881375 1.000000
0.322332 0.881070 1.000000
0.502019 0.880557 1.000000
0.629580 0.879723 1.000000
0.757141 0.877976 1.000000
0.885678 0.873086 1.000000
1.000000 0.878000 0.995086
0.000000 1.000000 0.995086
0.109276 1.000000 0.995086
0.217966 1.000000 0.995086
0.326657 1.000000 0.995086
0.506933 1.000000 0.995086
0.634494 1.000000 0.995086
0.762056 1.000000 0.995086
0.889617 1.000000 0.995086
1.000000 1.000000 0.995086
