docs/luts/fuji_recipes/Velvia_HF_Vibrant_Color.cube
TITLE "Fujifilm Recipe: HF Vibrant Color (Velvia)"
# FilmSim=Velvia HL=-1 SH=2 Col=2 WB=Auto WBR=0 WBB=0
LUT_3D_SIZE 33
DOMAIN_MIN 0.0 0.0 0.0
DOMAIN_MAX 1.0 1.0 1.0
0.000000 0.000000 0.000000
0.028902 0.000000 0.000000
0.057427 0.000000 0.000000
0.085835 0.000000 0.000000
0.114243 0.000000 0.000000
0.142651 0.000000 0.000000
0.171058 0.000000 0.000000
0.199466 0.000000 0.000000
0.227874 0.000000 0.000000
0.256282 0.000000 0.000000
0.284689 0.000000 0.000000
0.313097 0.000000 0.000000
0.341505 0.000000 0.000000
0.369912 0.000000 0.000000
0.398320 0.000000 0.000000
0.426728 0.000000 0.000000
0.506517 0.000000 0.000000
0.536494 0.000000 0.000000
0.566471 0.000000 0.000000
0.596448 0.000000 0.000000
0.626425 0.000000 0.000000
0.656401 0.000000 0.000000
0.686378 0.000000 0.000000
0.716355 0.000000 0.000000
0.746332 0.000000 0.000000
0.776309 0.000000 0.000000
0.806286 0.000000 0.000000
0.836263 0.000000 0.000000
0.866240 0.000000 0.000000
0.896217 0.000000 0.000000
0.926194 0.000000 0.000000
0.956171 0.000000 0.000000
0.970000 0.000000 0.000000
0.000000 0.028060 0.000000
0.028902 0.028060 0.000000
0.057427 0.028060 0.000000
0.085835 0.028060 0.000000
0.114243 0.028060 0.000000
0.142651 0.028060 0.000000
0.171058 0.028060 0.000000
0.199466 0.028060 0.000000
0.227874 0.028060 0.000000
0.256282 0.028060 0.000000
0.284689 0.028060 0.000000
0.313097 0.028060 0.000000
0.341505 0.028060 0.000000
0.369912 0.028060 0.000000
0.398320 0.028060 0.000000
0.426728 0.028060 0.000000
0.506517 0.028060 0.000000
0.536494 0.028060 0.000000
0.566471 0.028060 0.000000
0.596448 0.028060 0.000000
0.626425 0.028060 0.000000
0.656401 0.028060 0.000000
0.686378 0.028060 0.000000
0.716355 0.028060 0.000000
0.746332 0.028060 0.000000
0.776309 0.028060 0.000000
0.806286 0.028060 0.000000
0.836263 0.028060 0.000000
0.866240 0.028060 0.000000
0.896217 0.028060 0.000000
0.926194 0.028060 0.000000
0.956171 0.028060 0.000000
0.970000 0.028060 0.000000
0.000000 0.056120 0.000000
0.028902 0.056120 0.000000
0.057427 0.056120 0.000000
0.085835 0.056120 0.000000
0.114243 0.056120 0.000000
0.142651 0.056120 0.000000
0.171058 0.056120 0.000000
0.199466 0.056120 0.000000
0.227874 0.056120 0.000000
0.256282 0.056120 0.000000
0.284689 0.056120 0.000000
0.313097 0.056120 0.000000
0.341505 0.056120 0.000000
0.369912 0.056120 0.000000
0.398320 0.056120 0.000000
0.426728 0.056120 0.000000
0.506517 0.056120 0.000000
0.536494 0.056120 0.000000
0.566471 0.056120 0.000000
0.596448 0.056120 0.000000
0.626425 0.056120 0.000000
0.656401 0.056120 0.000000
0.686378 0.056120 0.000000
0.716355 0.056120 0.000000
0.746332 0.056120 0.000000
0.776309 0.056120 0.000000
0.806286 0.056120 0.000000
0.836263 0.056120 0.000000
0.866240 0.056120 0.000000
0.896217 0.056120 0.000000
0.926194 0.056120 0.000000
0.956171 0.056120 0.000000
0.970000 0.056120 0.000000
0.000000 0.084180 0.000000
0.028902 0.084180 0.000000
0.057427 0.084180 0.000000
0.085835 0.084180 0.000000
0.114243 0.084180 0.000000
0.142651 0.084180 0.000000
0.171058 0.084180 0.000000
0.199466 0.084180 0.000000
0.227874 0.084180 0.000000
0.256282 0.084180 0.000000
0.284689 0.084180 0.000000
0.313097 0.084180 0.000000
0.341505 0.084180 0.000000
0.369912 0.084180 0.000000
0.398320 0.084180 0.000000
0.426728 0.084180 0.000000
0.506517 0.084180 0.000000
0.536494 0.084180 0.000000
0.566471 0.084180 0.000000
0.596448 0.084180 0.000000
0.626425 0.084180 0.000000
0.656401 0.084180 0.000000
0.686378 0.084180 0.000000
0.716355 0.084180 0.000000
0.746332 0.084180 0.000000
0.776309 0.084180 0.000000
0.806286 0.084180 0.000000
0.836263 0.084180 0.000000
0.866240 0.084180 0.000000
0.896217 0.084180 0.000000
0.926194 0.084180 0.000000
0.956171 0.084180 0.000000
0.970000 0.084180 0.000000
0.000000 0.112240 0.000000
0.028902 0.112240 0.000000
0.057427 0.112240 0.000000
0.085835 0.112240 0.000000
0.114243 0.112240 0.000000
0.142651 0.112240 0.000000
0.171058 0.112240 0.000000
0.199466 0.112240 0.000000
0.227874 0.112240 0.000000
0.256282 0.112240 0.000000
0.284689 0.112240 0.000000
0.313097 0.112240 0.000000
0.341505 0.112240 0.000000
0.369912 0.112240 0.000000
0.398320 0.112240 0.000000
0.426728 0.112240 0.000000
0.506517 0.112240 0.000000
0.536494 0.112240 0.000000
0.566471 0.112240 0.000000
0.596448 0.112240 0.000000
0.626425 0.112240 0.000000
0.656401 0.112240 0.000000
0.686378 0.112240 0.000000
0.716355 0.112240 0.000000
0.746332 0.112240 0.000000
0.776309 0.112240 0.000000
0.806286 0.112240 0.000000
0.836263 0.112240 0.000000
0.866240 0.112240 0.000000
0.896217 0.112240 0.000000
0.926194 0.112240 0.000000
0.956171 0.112240 0.000000
0.970000 0.112240 0.000000
0.000000 0.140300 0.000000
0.028902 0.140300 0.000000
0.057427 0.140300 0.000000
0.085835 0.140300 0.000000
0.114243 0.140300 0.000000
0.142651 0.140300 0.000000
0.171058 0.140300 0.000000
0.199466 0.140300 0.000000
0.227874 0.140300 0.000000
0.256282 0.140300 0.000000
0.284689 0.140300 0.000000
0.313097 0.140300 0.000000
0.341505 0.140300 0.000000
0.369912 0.140300 0.000000
0.398320 0.140300 0.000000
0.426728 0.140300 0.000000
0.506517 0.140300 0.000000
0.536494 0.140300 0.000000
0.566471 0.140300 0.000000
0.596448 0.140300 0.000000
0.626425 0.140300 0.000000
0.656401 0.140300 0.000000
0.686378 0.140300 0.000000
0.716355 0.140300 0.000000
0.746332 0.140300 0.000000
0.776309 0.140300 0.000000
0.806286 0.140300 0.000000
0.836263 0.140300 0.000000
0.866240 0.140300 0.000000
0.896217 0.140300 0.000000
0.926194 0.140300 0.000000
0.956171 0.140300 0.000000
0.970000 0.140300 0.000000
0.000000 0.168360 0.000000
0.028902 0.168360 0.000000
0.057427 0.168360 0.000000
0.085835 0.168360 0.000000
0.114243 0.168360 0.000000
0.142651 0.168360 0.000000
0.171058 0.168360 0.000000
0.199466 0.168360 0.000000
0.227874 0.168360 0.000000
0.256282 0.168360 0.000000
0.284689 0.168360 0.000000
0.313097 0.168360 0.000000
0.341505 0.168360 0.000000
0.369912 0.168360 0.000000
0.398320 0.168360 0.000000
0.426728 0.168360 0.000000
0.506517 0.168360 0.000000
0.536494 0.168360 0.000000
0.566471 0.168360 0.000000
0.596448 0.168360 0.000000
0.626425 0.168360 0.000000
0.656401 0.168360 0.000000
0.686378 0.168360 0.000000
0.716355 0.168360 0.000000
0.746332 0.168360 0.000000
0.776309 0.168360 0.000000
0.806286 0.168360 0.000000
0.836263 0.168360 0.000000
0.866240 0.168360 0.000000
0.896217 0.168360 0.000000
0.926194 0.168360 0.000000
0.956171 0.168360 0.000000
0.970000 0.168360 0.000000
0.000000 0.196420 0.000000
0.028902 0.196420 0.000000
0.057427 0.196420 0.000000
0.085835 0.196420 0.000000
0.114243 0.196420 0.000000
0.142651 0.196420 0.000000
0.171058 0.196420 0.000000
0.199466 0.196420 0.000000
0.227874 0.196420 0.000000
0.256282 0.196420 0.000000
0.284689 0.196420 0.000000
0.313097 0.196420 0.000000
0.341505 0.196420 0.000000
0.369912 0.196420 0.000000
0.398320 0.196420 0.000000
0.426728 0.196420 0.000000
0.506517 0.196420 0.000000
0.536494 0.196420 0.000000
0.566471 0.196420 0.000000
0.596448 0.196420 0.000000
0.626425 0.196420 0.000000
0.656401 0.196420 0.000000
0.686378 0.196420 0.000000
0.716355 0.196420 0.000000
0.746332 0.196420 0.000000
0.776309 0.196420 0.000000
0.806286 0.196420 0.000000
0.836263 0.196420 0.000000
0.866240 0.196420 0.000000
0.896217 0.196420 0.000000
0.926194 0.196420 0.000000
0.956171 0.196420 0.000000
0.970000 0.196420 0.000000
0.000000 0.224480 0.000000
0.028902 0.224480 0.000000
0.057427 0.224480 0.000000
0.085835 0.224480 0.000000
0.114243 0.224480 0.000000
0.142651 0.224480 0.000000
0.171058 0.224480 0.000000
0.199466 0.224480 0.000000
0.227874 0.224480 0.000000
0.256282 0.224480 0.000000
0.284689 0.224480 0.000000
0.313097 0.224480 0.000000
0.341505 0.224480 0.000000
0.369912 0.224480 0.000000
0.398320 0.224480 0.000000
0.426728 0.224480 0.000000
0.506517 0.224480 0.000000
0.536494 0.224480 0.000000
0.566471 0.224480 0.000000
0.596448 0.224480 0.000000
0.626425 0.224480 0.000000
0.656401 0.224480 0.000000
0.686378 0.224480 0.000000
0.716355 0.224480 0.000000
0.746332 0.224480 0.000000
0.776309 0.224480 0.000000
0.806286 0.224480 0.000000
0.836263 0.224480 0.000000
0.866240 0.224480 0.000000
0.896217 0.224480 0.000000
0.926194 0.224480 0.000000
0.956171 0.224480 0.000000
0.970000 0.224480 0.000000
0.000000 0.252540 0.000000
0.028902 0.252540 0.000000
0.057427 0.252540 0.000000
0.085835 0.252540 0.000000
0.114243 0.252540 0.000000
0.142651 0.252540 0.000000
0.171058 0.252540 0.000000
0.199466 0.252540 0.000000
0.227874 0.252540 0.000000
0.256282 0.252540 0.000000
0.284689 0.252540 0.000000
0.313097 0.252540 0.000000
0.341505 0.252540 0.000000
0.369912 0.252540 0.000000
0.398320 0.252540 0.000000
0.426728 0.252540 0.000000
0.506517 0.252540 0.000000
0.536494 0.252540 0.000000
0.566471 0.252540 0.000000
0.596448 0.252540 0.000000
0.626425 0.252540 0.000000
0.656401 0.252540 0.000000
0.686378 0.252540 0.000000
0.716355 0.252540 0.000000
0.746332 0.252540 0.000000
0.776309 0.252540 0.000000
0.806286 0.252540 0.000000
0.836263 0.252540 0.000000
0.866240 0.252540 0.000000
0.896217 0.252540 0.000000
0.926194 0.252540 0.000000
0.956171 0.252540 0.000000
0.970000 0.252540 0.000000
0.000000 0.280600 0.000000
0.028902 0.280600 0.000000
0.057427 0.280600 0.000000
0.085835 0.280600 0.000000
0.114243 0.280600 0.000000
0.142651 0.280600 0.000000
0.171058 0.280600 0.000000
0.199466 0.280600 0.000000
0.227874 0.280600 0.000000
0.256282 0.280600 0.000000
0.284689 0.280600 0.000000
0.313097 0.280600 0.000000
0.341505 0.280600 0.000000
0.369912 0.280600 0.000000
0.398320 0.280600 0.000000
0.426728 0.280600 0.000000
0.506517 0.280600 0.000000
0.536494 0.280600 0.000000
0.566471 0.280600 0.000000
0.596448 0.280600 0.000000
0.626425 0.280600 0.000000
0.656401 0.280600 0.000000
0.686378 0.280600 0.000000
0.716355 0.280600 0.000000
0.746332 0.280600 0.000000
0.776309 0.280600 0.000000
0.806286 0.280600 0.000000
0.836263 0.280600 0.000000
0.866240 0.280600 0.000000
0.896217 0.280600 0.000000
0.926194 0.280600 0.000000
0.956171 0.280600 0.000000
0.970000 0.280600 0.000000
0.000000 0.308660 0.000000
0.028902 0.308660 0.000000
0.057427 0.308660 0.000000
0.085835 0.308660 0.000000
0.114243 0.308660 0.000000
0.142651 0.308660 0.000000
0.171058 0.308660 0.000000
0.199466 0.308660 0.000000
0.227874 0.308660 0.000000
0.256282 0.308660 0.000000
0.284689 0.308660 0.000000
0.313097 0.308660 0.000000
0.341505 0.308660 0.000000
0.369912 0.308660 0.000000
0.398320 0.308660 0.000000
0.426728 0.308660 0.000000
0.506517 0.308660 0.000000
0.536494 0.308660 0.000000
0.566471 0.308660 0.000000
0.596448 0.308660 0.000000
0.626425 0.308660 0.000000
0.656401 0.308660 0.000000
0.686378 0.308660 0.000000
0.716355 0.308660 0.000000
0.746332 0.308660 0.000000
0.776309 0.308660 0.000000
0.806286 0.308660 0.000000
0.836263 0.308660 0.000000
0.866240 0.308660 0.000000
0.896217 0.308660 0.000000
0.926194 0.308660 0.000000
0.956171 0.308660 0.000000
0.970000 0.308660 0.000000
0.000000 0.336720 0.000000
0.028902 0.336720 0.000000
0.057427 0.336720 0.000000
0.085835 0.336720 0.000000
0.114243 0.336720 0.000000
0.142651 0.336720 0.000000
0.171058 0.336720 0.000000
0.199466 0.336720 0.000000
0.227874 0.336720 0.000000
0.256282 0.336720 0.000000
0.284689 0.336720 0.000000
0.313097 0.336720 0.000000
0.341505 0.336720 0.000000
0.369912 0.336720 0.000000
0.398320 0.336720 0.000000
0.426728 0.336720 0.000000
0.506517 0.336720 0.000000
0.536494 0.336720 0.000000
0.566471 0.336720 0.000000
0.596448 0.336720 0.000000
0.626425 0.336720 0.000000
0.656401 0.336720 0.000000
0.686378 0.336720 0.000000
0.716355 0.336720 0.000000
0.746332 0.336720 0.000000
0.776309 0.336720 0.000000
0.806286 0.336720 0.000000
0.836263 0.336720 0.000000
0.866240 0.336720 0.000000
0.896217 0.336720 0.000000
0.926194 0.336720 0.000000
0.956171 0.336720 0.000000
0.970000 0.336720 0.000000
0.000000 0.364780 0.000000
0.028902 0.364780 0.000000
0.057427 0.364780 0.000000
0.085835 0.364780 0.000000
0.114243 0.364780 0.000000
0.142651 0.364780 0.000000
0.171058 0.364780 0.000000
0.199466 0.364780 0.000000
0.227874 0.364780 0.000000
0.256282 0.364780 0.000000
0.284689 0.364780 0.000000
0.313097 0.364780 0.000000
0.341505 0.364780 0.000000
0.369912 0.364780 0.000000
0.398320 0.364780 0.000000
0.426728 0.364780 0.000000
0.506517 0.364780 0.000000
0.536494 0.364780 0.000000
0.566471 0.364780 0.000000
0.596448 0.364780 0.000000
0.626425 0.364780 0.000000
0.656401 0.364780 0.000000
0.686378 0.364780 0.000000
0.716355 0.364780 0.000000
0.746332 0.364780 0.000000
0.776309 0.364780 0.000000
0.806286 0.364780 0.000000
0.836263 0.364780 0.000000
0.866240 0.364780 0.000000
0.896217 0.364780 0.000000
0.926194 0.364780 0.000000
0.956171 0.364780 0.000000
0.970000 0.364780 0.000000
0.000000 0.392840 0.000000
0.028902 0.392840 0.000000
0.057427 0.392840 0.000000
0.085835 0.392840 0.000000
0.114243 0.392840 0.000000
0.142651 0.392840 0.000000
0.171058 0.392840 0.000000
0.199466 0.392840 0.000000
0.227874 0.392840 0.000000
0.256282 0.392840 0.000000
0.284689 0.392840 0.000000
0.313097 0.392840 0.000000
0.341505 0.392840 0.000000
0.369912 0.392840 0.000000
0.398320 0.392840 0.000000
0.426728 0.392840 0.000000
0.506517 0.392840 0.000000
0.536494 0.392840 0.000000
0.566471 0.392840 0.000000
0.596448 0.392840 0.000000
0.626425 0.392840 0.000000
0.656401 0.392840 0.000000
0.686378 0.392840 0.000000
0.716355 0.392840 0.000000
0.746332 0.392840 0.000000
0.776309 0.392840 0.000000
0.806286 0.392840 0.000000
0.836263 0.392840 0.000000
0.866240 0.392840 0.000000
0.896217 0.392840 0.000000
0.926194 0.392840 0.000000
0.956171 0.392840 0.000000
0.970000 0.392840 0.000000
0.000000 0.420900 0.000000
0.028902 0.420900 0.000000
0.057427 0.420900 0.000000
0.085835 0.420900 0.000000
0.114243 0.420900 0.000000
0.142651 0.420900 0.000000
0.171058 0.420900 0.000000
0.199466 0.420900 0.000000
0.227874 0.420900 0.000000
0.256282 0.420900 0.000000
0.284689 0.420900 0.000000
0.313097 0.420900 0.000000
0.341505 0.420900 0.000000
0.369912 0.420900 0.000000
0.398320 0.420900 0.000000
0.426728 0.420900 0.000000
0.506517 0.420900 0.000000
0.536494 0.420900 0.000000
0.566471 0.420900 0.000000
0.596448 0.420900 0.000000
0.626425 0.420900 0.000000
0.656401 0.420900 0.000000
0.686378 0.420900 0.000000
0.716355 0.420900 0.000000
0.746332 0.420900 0.000000
0.776309 0.420900 0.000000
0.806286 0.420900 0.000000
0.836263 0.420900 0.000000
0.866240 0.420900 0.000000
0.896217 0.420900 0.000000
0.926194 0.420900 0.000000
0.956171 0.420900 0.000000
0.970000 0.420900 0.000000
0.000000 0.448960 0.000000
0.028902 0.448960 0.000000
0.057427 0.448960 0.000000
0.085835 0.448960 0.000000
0.114243 0.448960 0.000000
0.142651 0.448960 0.000000
0.171058 0.448960 0.000000
0.199466 0.448960 0.000000
0.227874 0.448960 0.000000
0.256282 0.448960 0.000000
0.284689 0.448960 0.000000
0.313097 0.448960 0.000000
0.341505 0.448960 0.000000
0.369912 0.448960 0.000000
0.398320 0.448960 0.000000
0.426728 0.448960 0.000000
0.506517 0.448960 0.000000
0.536494 0.448960 0.000000
0.566471 0.448960 0.000000
0.596448 0.448960 0.000000
0.626425 0.448960 0.000000
0.656401 0.448960 0.000000
0.686378 0.448960 0.000000
0.716355 0.448960 0.000000
0.746332 0.448960 0.000000
0.776309 0.448960 0.000000
0.806286 0.448960 0.000000
0.836263 0.448960 0.000000
0.866240 0.448960 0.000000
0.896217 0.448960 0.000000
0.926194 0.448960 0.000000
0.956171 0.448960 0.000000
0.970000 0.448960 0.000000
0.000000 0.529610 0.000000
0.028902 0.529610 0.000000
0.057427 0.529610 0.000000
0.085835 0.529610 0.000000
0.114243 0.529610 0.000000
0.142651 0.529610 0.000000
0.171058 0.529610 0.000000
0.199466 0.529610 0.000000
0.227874 0.529610 0.000000
0.256282 0.529610 0.000000
0.284689 0.529610 0.000000
0.313097 0.529610 0.000000
0.341505 0.529610 0.000000
0.369912 0.529610 0.000000
0.398320 0.529610 0.000000
0.426728 0.529610 0.000000
0.506517 0.529610 0.000000
0.536494 0.529610 0.000000
0.566471 0.529610 0.000000
0.596448 0.529610 0.000000
0.626425 0.529610 0.000000
0.656401 0.529610 0.000000
0.686378 0.529610 0.000000
0.716355 0.529610 0.000000
0.746332 0.529610 0.000000
0.776309 0.529610 0.000000
0.806286 0.529610 0.000000
0.836263 0.529610 0.000000
0.866240 0.529610 0.000000
0.896217 0.529610 0.000000
0.926194 0.529610 0.000000
0.956171 0.529610 0.000000
0.970000 0.529610 0.000000
0.000000 0.559220 0.000000
0.028902 0.559220 0.000000
0.057427 0.559220 0.000000
0.085835 0.559220 0.000000
0.114243 0.559220 0.000000
0.142651 0.559220 0.000000
0.171058 0.559220 0.000000
0.199466 0.559220 0.000000
0.227874 0.559220 0.000000
0.256282 0.559220 0.000000
0.284689 0.559220 0.000000
0.313097 0.559220 0.000000
0.341505 0.559220 0.000000
0.369912 0.559220 0.000000
0.398320 0.559220 0.000000
0.426728 0.559220 0.000000
0.506517 0.559220 0.000000
0.536494 0.559220 0.000000
0.566471 0.559220 0.000000
0.596448 0.559220 0.000000
0.626425 0.559220 0.000000
0.656401 0.559220 0.000000
0.686378 0.559220 0.000000
0.716355 0.559220 0.000000
0.746332 0.559220 0.000000
0.776309 0.559220 0.000000
0.806286 0.559220 0.000000
0.836263 0.559220 0.000000
0.866240 0.559220 0.000000
0.896217 0.559220 0.000000
0.926194 0.559220 0.000000
0.956171 0.559220 0.000000
0.970000 0.559220 0.000000
0.000000 0.588830 0.000000
0.028902 0.588830 0.000000
0.057427 0.588830 0.000000
0.085835 0.588830 0.000000
0.114243 0.588830 0.000000
0.142651 0.588830 0.000000
0.171058 0.588830 0.000000
0.199466 0.588830 0.000000
0.227874 0.588830 0.000000
0.256282 0.588830 0.000000
0.284689 0.588830 0.000000
0.313097 0.588830 0.000000
0.341505 0.588830 0.000000
0.369912 0.588830 0.000000
0.398320 0.588830 0.000000
0.426728 0.588830 0.000000
0.506517 0.588830 0.000000
0.536494 0.588830 0.000000
0.566471 0.588830 0.000000
0.596448 0.588830 0.000000
0.626425 0.588830 0.000000
0.656401 0.588830 0.000000
0.686378 0.588830 0.000000
0.716355 0.588830 0.000000
0.746332 0.588830 0.000000
0.776309 0.588830 0.000000
0.806286 0.588830 0.000000
0.836263 0.588830 0.000000
0.866240 0.588830 0.000000
0.896217 0.588830 0.000000
0.926194 0.588830 0.000000
0.956171 0.588830 0.000000
0.970000 0.588830 0.000000
0.000000 0.618440 0.000000
0.028902 0.618440 0.000000
0.057427 0.618440 0.000000
0.085835 0.618440 0.000000
0.114243 0.618440 0.000000
0.142651 0.618440 0.000000
0.171058 0.618440 0.000000
0.199466 0.618440 0.000000
0.227874 0.618440 0.000000
0.256282 0.618440 0.000000
0.284689 0.618440 0.000000
0.313097 0.618440 0.000000
0.341505 0.618440 0.000000
0.369912 0.618440 0.000000
0.398320 0.618440 0.000000
0.426728 0.618440 0.000000
0.506517 0.618440 0.000000
0.536494 0.618440 0.000000
0.566471 0.618440 0.000000
0.596448 0.618440 0.000000
0.626425 0.618440 0.000000
0.656401 0.618440 0.000000
0.686378 0.618440 0.000000
0.716355 0.618440 0.000000
0.746332 0.618440 0.000000
0.776309 0.618440 0.000000
0.806286 0.618440 0.000000
0.836263 0.618440 0.000000
0.866240 0.618440 0.000000
0.896217 0.618440 0.000000
0.926194 0.618440 0.000000
0.956171 0.618440 0.000000
0.970000 0.618440 0.000000
0.000000 0.648050 0.000000
0.028902 0.648050 0.000000
0.057427 0.648050 0.000000
0.085835 0.648050 0.000000
0.114243 0.648050 0.000000
0.142651 0.648050 0.000000
0.171058 0.648050 0.000000
0.199466 0.648050 0.000000
0.227874 0.648050 0.000000
0.256282 0.648050 0.000000
0.284689 0.648050 0.000000
0.313097 0.648050 0.000000
0.341505 0.648050 0.000000
0.369912 0.648050 0.000000
0.398320 0.648050 0.000000
0.426728 0.648050 0.000000
0.506517 0.648050 0.000000
0.536494 0.648050 0.000000
0.566471 0.648050 0.000000
0.596448 0.648050 0.000000
0.626425 0.648050 0.000000
0.656401 0.648050 0.000000
0.686378 0.648050 0.000000
0.716355 0.648050 0.000000
0.746332 0.648050 0.000000
0.776309 0.648050 0.000000
0.806286 0.648050 0.000000
0.836263 0.648050 0.000000
0.866240 0.648050 0.000000
0.896217 0.648050 0.000000
0.926194 0.648050 0.000000
0.956171 0.648050 0.000000
0.970000 0.648050 0.000000
0.000000 0.677660 0.000000
0.028902 0.677660 0.000000
0.057427 0.677660 0.000000
0.085835 0.677660 0.000000
0.114243 0.677660 0.000000
0.142651 0.677660 0.000000
0.171058 0.677660 0.000000
0.199466 0.677660 0.000000
0.227874 0.677660 0.000000
0.256282 0.677660 0.000000
0.284689 0.677660 0.000000
0.313097 0.677660 0.000000
0.341505 0.677660 0.000000
0.369912 0.677660 0.000000
0.398320 0.677660 0.000000
0.426728 0.677660 0.000000
0.506517 0.677660 0.000000
0.536494 0.677660 0.000000
0.566471 0.677660 0.000000
0.596448 0.677660 0.000000
0.626425 0.677660 0.000000
0.656401 0.677660 0.000000
0.686378 0.677660 0.000000
0.716355 0.677660 0.000000
0.746332 0.677660 0.000000
0.776309 0.677660 0.000000
0.806286 0.677660 0.000000
0.836263 0.677660 0.000000
0.866240 0.677660 0.000000
0.896217 0.677660 0.000000
0.926194 0.677660 0.000000
0.956171 0.677660 0.000000
0.970000 0.677660 0.000000
0.000000 0.707270 0.000000
0.028902 0.707270 0.000000
0.057427 0.707270 0.000000
0.085835 0.707270 0.000000
0.114243 0.707270 0.000000
0.142651 0.707270 0.000000
0.171058 0.707270 0.000000
0.199466 0.707270 0.000000
0.227874 0.707270 0.000000
0.256282 0.707270 0.000000
0.284689 0.707270 0.000000
0.313097 0.707270 0.000000
0.341505 0.707270 0.000000
0.369912 0.707270 0.000000
0.398320 0.707270 0.000000
0.426728 0.707270 0.000000
0.506517 0.707270 0.000000
0.536494 0.707270 0.000000
0.566471 0.707270 0.000000
0.596448 0.707270 0.000000
0.626425 0.707270 0.000000
0.656401 0.707270 0.000000
0.686378 0.707270 0.000000
0.716355 0.707270 0.000000
0.746332 0.707270 0.000000
0.776309 0.707270 0.000000
0.806286 0.707270 0.000000
0.836263 0.707270 0.000000
0.866240 0.707270 0.000000
0.896217 0.707270 0.000000
0.926194 0.707270 0.000000
0.956171 0.707270 0.000000
0.970000 0.707270 0.000000
0.000000 0.736880 0.000000
0.028902 0.736880 0.000000
0.057427 0.736880 0.000000
0.085835 0.736880 0.000000
0.114243 0.736880 0.000000
0.142651 0.736880 0.000000
0.171058 0.736880 0.000000
0.199466 0.736880 0.000000
0.227874 0.736880 0.000000
0.256282 0.736880 0.000000
0.284689 0.736880 0.000000
0.313097 0.736880 0.000000
0.341505 0.736880 0.000000
0.369912 0.736880 0.000000
0.398320 0.736880 0.000000
0.426728 0.736880 0.000000
0.506517 0.736880 0.000000
0.536494 0.736880 0.000000
0.566471 0.736880 0.000000
0.596448 0.736880 0.000000
0.626425 0.736880 0.000000
0.656401 0.736880 0.000000
0.686378 0.736880 0.000000
0.716355 0.736880 0.000000
0.746332 0.736880 0.000000
0.776309 0.736880 0.000000
0.806286 0.736880 0.000000
0.836263 0.736880 0.000000
0.866240 0.736880 0.000000
0.896217 0.736880 0.000000
0.926194 0.736880 0.000000
0.956171 0.736880 0.000000
0.970000 0.736880 0.000000
0.000000 0.766490 0.000000
0.028902 0.766490 0.000000
0.057427 0.766490 0.000000
0.085835 0.766490 0.000000
0.114243 0.766490 0.000000
0.142651 0.766490 0.000000
0.171058 0.766490 0.000000
0.199466 0.766490 0.000000
0.227874 0.766490 0.000000
0.256282 0.766490 0.000000
0.284689 0.766490 0.000000
0.313097 0.766490 0.000000
0.341505 0.766490 0.000000
0.369912 0.766490 0.000000
0.398320 0.766490 0.000000
0.426728 0.766490 0.000000
0.506517 0.766490 0.000000
0.536494 0.766490 0.000000
0.566471 0.766490 0.000000
0.596448 0.766490 0.000000
0.626425 0.766490 0.000000
0.656401 0.766490 0.000000
0.686378 0.766490 0.000000
0.716355 0.766490 0.000000
0.746332 0.766490 0.000000
0.776309 0.766490 0.000000
0.806286 0.766490 0.000000
0.836263 0.766490 0.000000
0.866240 0.766490 0.000000
0.896217 0.766490 0.000000
0.926194 0.766490 0.000000
0.956171 0.766490 0.000000
0.970000 0.766490 0.000000
0.000000 0.796100 0.000000
0.028902 0.796100 0.000000
0.057427 0.796100 0.000000
0.085835 0.796100 0.000000
0.114243 0.796100 0.000000
0.142651 0.796100 0.000000
0.171058 0.796100 0.000000
0.199466 0.796100 0.000000
0.227874 0.796100 0.000000
0.256282 0.796100 0.000000
0.284689 0.796100 0.000000
0.313097 0.796100 0.000000
0.341505 0.796100 0.000000
0.369912 0.796100 0.000000
0.398320 0.796100 0.000000
0.426728 0.796100 0.000000
0.506517 0.796100 0.000000
0.536494 0.796100 0.000000
0.566471 0.796100 0.000000
0.596448 0.796100 0.000000
0.626425 0.796100 0.000000
0.656401 0.796100 0.000000
0.686378 0.796100 0.000000
0.716355 0.796100 0.000000
