docs/luts/Canon_Landscape_AdobeRGB.cube
TITLE "Canon Landscape (Adobe RGB)"
# Source: LA.ICC
LUT_3D_SIZE 5
DOMAIN_MIN 0.0 0.0 0.0
DOMAIN_MAX 1.0 1.0 1.0
0.000000 0.001686 0.003515
0.355622 0.014762 0.018792
0.710625 0.000000 0.020654
1.000000 0.000000 0.014439
1.000000 0.000000 0.056602
0.000000 0.370564 0.000000
0.328857 0.332215 0.000000
0.664150 0.277010 0.045968
0.980991 0.202727 0.109916
1.000000 0.105722 0.170316
0.000000 0.780497 0.000000
0.156217 0.695810 0.000000
0.615464 0.594791 0.000000
0.917160 0.477018 0.075416
1.000000 0.341485 0.195203
0.000000 0.989845 0.000000
0.000000 0.989618 0.000000
0.523090 0.951160 0.000000
0.859910 0.787589 0.000000
1.000000 0.607326 0.120962
0.000000 0.989565 0.000000
0.435640 0.989313 0.000000
0.662225 0.989016 0.000000
0.855741 0.988616 0.000000
1.000000 0.910647 0.000000
0.001263 0.005735 0.234802
0.290446 0.004473 0.212674
0.683625 0.004899 0.186529
1.000000 0.008524 0.149551
1.000000 0.019146 0.121968
0.000000 0.228417 0.215785
0.267358 0.247892 0.213836
0.629401 0.250289 0.211039
0.982034 0.234311 0.205809
1.000000 0.201408 0.205398
0.000000 0.607327 0.058322
0.090170 0.580502 0.108485
0.579016 0.537243 0.148462
0.909493 0.477279 0.182891
1.000000 0.400143 0.215991
0.000000 0.989939 0.000000
0.000000 0.952644 0.000000
0.495148 0.863205 0.000000
0.848847 0.757362 0.000000
1.000000 0.634847 0.129719
0.000000 0.989756 0.000000
0.130030 0.989529 0.000000
0.562595 0.989175 0.000000
0.821316 0.988726 0.000000
1.000000 0.907798 0.000000
0.044290 0.034381 0.598372
0.226903 0.026042 0.528500
0.653377 0.034536 0.458720
1.000000 0.103614 0.384751
1.000000 0.179851 0.313349
0.000000 0.113669 0.573790
0.203379 0.183561 0.524612
0.589965 0.240908 0.475506
0.977920 0.282030 0.424643
1.000000 0.308801 0.375012
0.000000 0.450601 0.490028
0.000000 0.481242 0.460730
0.534399 0.495516 0.432416
0.895509 0.493073 0.404363
1.000000 0.474137 0.377643
0.000000 0.837467 0.314464
0.000000 0.822061 0.309659
0.450956 0.790386 0.308182
0.828901 0.742278 0.309013
1.000000 0.677625 0.311640
0.000000 0.990009 0.000000
0.000000 0.989800 0.000000
0.440984 0.989457 0.000000
0.780765 0.988951 0.000000
1.000000 0.919927 0.094373
0.103097 0.072204 0.897818
0.186582 0.071835 0.897769
0.623559 0.093672 0.851952
1.000000 0.206626 0.733566
1.000000 0.335384 0.616135
0.103097 0.072204 0.897818
0.163851 0.150491 0.897483
0.550353 0.252979 0.858745
0.969474 0.347208 0.762002
1.000000 0.430489 0.665579
0.000000 0.316372 0.896164
0.000000 0.401969 0.887281
0.486442 0.471526 0.811483
0.876423 0.525456 0.735813
1.000000 0.563870 0.660574
0.000000 0.666473 0.817411
0.000000 0.708167 0.760613
0.395955 0.733779 0.705232
0.801539 0.743057 0.650877
1.000000 0.736018 0.597520
0.000000 0.991169 0.599464
0.000000 0.990885 0.563612
0.273730 0.990430 0.528534
0.734873 0.989744 0.493755
1.000000 0.947307 0.464258
0.103097 0.072204 0.897818
0.133488 0.072073 0.897796
0.583531 0.131540 0.897128
1.000000 0.313904 0.893382
1.000000 0.501816 0.889303
0.103097 0.072204 0.897818
0.111601 0.119789 0.897668
0.498432 0.270309 0.896266
0.952822 0.423304 0.892403
1.000000 0.565355 0.887662
0.024660 0.196787 0.897258
0.000000 0.333249 0.895953
0.424411 0.459729 0.893456
0.848718 0.571411 0.889377
1.000000 0.667950 0.884466
0.000000 0.509651 0.892822
0.000000 0.608679 0.890239
0.322355 0.691853 0.886999
0.765282 0.758835 0.883135
1.000000 0.809695 0.878815
0.000000 0.873373 0.879914
0.000000 0.927001 0.876989
0.000000 0.964453 0.874246
0.688514 0.985679 0.871695
1.000000 0.990609 0.869315
