docs/luts/Canon_Faithful_AdobeRGB.cube
TITLE "Canon Faithful (Adobe RGB)"
# Source: FA.ICC
LUT_3D_SIZE 33
DOMAIN_MIN 0.0 0.0 0.0
DOMAIN_MAX 1.0 1.0 1.0
0.000000 0.001686 0.003515
0.042287 0.001509 0.003913
0.083025 0.001320 0.004395
0.121087 0.001045 0.004828
0.157584 0.000749 0.005189
0.192559 0.000802 0.005398
0.226614 0.000798 0.005523
0.259817 0.000729 0.005494
0.292208 0.000562 0.005275
0.323848 0.000385 0.004859
0.354771 0.000141 0.004229
0.385066 0.000000 0.003355
0.414771 0.000000 0.002239
0.443922 0.000000 0.000822
0.472593 0.000000 0.000000
0.500837 0.000000 0.000000
0.528674 0.000000 0.000000
0.556238 0.000000 0.000000
0.583492 0.000000 0.000000
0.610524 0.000000 0.000000
0.637390 0.000000 0.000000
0.664170 0.000000 0.000000
0.690872 0.000000 0.000000
0.717557 0.000000 0.000000
0.744288 0.000000 0.000000
0.771139 0.000000 0.000000
0.798142 0.000000 0.000000
0.825317 0.000000 0.000000
0.852761 0.000000 0.000000
0.880526 0.000000 0.000000
0.908656 0.000000 0.000000
0.937210 0.000000 0.000000
0.966210 0.000000 0.000000
0.000000 0.033182 0.001887
0.039943 0.027498 0.002340
0.084369 0.022168 0.002993
0.124313 0.017152 0.003592
0.161824 0.012582 0.004138
0.197580 0.008620 0.004546
0.232194 0.004940 0.004823
0.265833 0.001505 0.004922
0.298474 0.000522 0.004755
0.330315 0.000328 0.004341
0.361448 0.000083 0.003749
0.391966 0.000000 0.002907
0.421859 0.000000 0.001839
0.451245 0.000000 0.000480
0.480132 0.000000 0.000000
0.508608 0.000000 0.000000
0.536695 0.000000 0.000000
0.564455 0.000000 0.000000
0.591939 0.000000 0.000000
0.619237 0.000000 0.000000
0.646352 0.000000 0.000000
0.673345 0.000000 0.000000
0.700279 0.000000 0.000000
0.727237 0.000000 0.000000
0.754214 0.000000 0.000000
0.781320 0.000000 0.000000
0.808562 0.000000 0.000000
0.836018 0.000000 0.000000
0.863740 0.000000 0.000000
0.891770 0.000000 0.000000
0.920165 0.000000 0.000000
0.948986 0.000000 0.000000
0.978272 0.000000 0.000000
0.000000 0.064566 0.000000
0.034862 0.058919 0.000260
0.083725 0.053632 0.000932
0.125620 0.048652 0.001508
0.164131 0.044195 0.002003
0.200699 0.040212 0.002380
0.235942 0.036509 0.002620
0.270080 0.033081 0.002721
0.303281 0.029886 0.002645
0.335614 0.026978 0.002370
0.367180 0.024247 0.001916
0.398078 0.021732 0.001228
0.428320 0.019399 0.000269
0.458014 0.017271 0.000000
0.487215 0.015259 0.000000
0.515971 0.013416 0.000000
0.544351 0.011696 0.000000
0.572382 0.010107 0.000000
0.600146 0.008517 0.000000
0.627696 0.007128 0.000000
0.655068 0.005646 0.000000
0.682326 0.004383 0.000000
0.709526 0.003029 0.000000
0.736757 0.001673 0.000000
0.763987 0.000295 0.000000
0.791351 0.000000 0.000000
0.818861 0.000000 0.000000
0.846586 0.000000 0.000000
0.874562 0.000000 0.000000
0.902866 0.000000 0.000000
0.931535 0.000000 0.000000
0.960635 0.000000 0.000000
0.990221 0.000000 0.000000
0.000000 0.096183 0.000000
0.025137 0.090543 0.000000
0.080665 0.085266 0.000000
0.125526 0.080332 0.000000
0.165569 0.075962 0.000000
0.203283 0.071916 0.000000
0.239348 0.068192 0.000015
0.274114 0.064756 0.000146
0.307823 0.061605 0.000125
0.340600 0.058669 0.000000
0.372573 0.055974 0.000000
0.403796 0.053469 0.000000
0.434387 0.051182 0.000000
0.464407 0.049033 0.000000
0.493889 0.047028 0.000000
0.522933 0.045172 0.000000
0.551575 0.043451 0.000000
0.579890 0.041751 0.000000
0.607943 0.040165 0.000000
0.635753 0.038672 0.000000
0.663407 0.037150 0.000000
0.690951 0.035793 0.000000
0.718424 0.034394 0.000000
0.745889 0.033042 0.000000
0.773417 0.031664 0.000000
0.801038 0.030230 0.000000
0.828819 0.028828 0.000000
0.856838 0.027247 0.000000
0.885090 0.025584 0.000000
0.913694 0.023824 0.000000
0.942629 0.021909 0.000000
0.972015 0.019811 0.000000
1.000000 0.017599 0.000000
0.000000 0.127947 0.000000
0.009849 0.122307 0.000000
0.074051 0.117032 0.000000
0.123050 0.112203 0.000000
0.165401 0.107799 0.000000
0.204586 0.103744 0.000000
0.241704 0.100017 0.000000
0.277282 0.096579 0.000000
0.311628 0.093430 0.000000
0.344941 0.090537 0.000000
0.377377 0.087898 0.000000
0.409038 0.085501 0.000000
0.440020 0.083262 0.000000
0.470363 0.081260 0.000000
0.500206 0.079405 0.000000
0.529566 0.077724 0.000000
0.558527 0.076157 0.000000
0.587135 0.074771 0.000000
0.615470 0.073435 0.000000
0.643583 0.072216 0.000000
0.671512 0.071051 0.000000
0.699334 0.069998 0.000000
0.727088 0.068944 0.000000
0.754839 0.067867 0.000000
0.782659 0.066846 0.000000
0.810577 0.065768 0.000000
0.838646 0.064658 0.000000
0.866920 0.063477 0.000000
0.895466 0.062214 0.000000
0.924347 0.060871 0.000000
0.953581 0.059343 0.000000
0.983249 0.057670 0.000000
1.000000 0.055652 0.000000
0.000000 0.159824 0.000000
0.000000 0.154174 0.000000
0.062416 0.148922 0.000000
0.117972 0.144132 0.000000
0.163454 0.139694 0.000000
0.204498 0.135624 0.000000
0.242903 0.131875 0.000000
0.279444 0.128431 0.000000
0.314563 0.125289 0.000000
0.348531 0.122420 0.000000
0.381516 0.119804 0.000000
0.413652 0.117436 0.000000
0.445053 0.115274 0.000000
0.475808 0.113311 0.000000
0.506020 0.111555 0.000000
0.535741 0.109937 0.000000
0.565031 0.108512 0.000000
0.593969 0.107213 0.000000
0.622618 0.106008 0.000000
0.651032 0.104923 0.000000
0.679268 0.103969 0.000000
0.707377 0.103064 0.000000
0.735443 0.102183 0.000000
0.763476 0.101334 0.000000
0.791563 0.100545 0.000000
0.819770 0.099723 0.000000
0.848114 0.098931 0.000000
0.876715 0.098047 0.000000
0.905548 0.097168 0.000000
0.934697 0.096116 0.000000
0.964244 0.095042 0.000000
0.994227 0.093798 0.000000
1.000000 0.092330 0.000000
0.000000 0.191797 0.000000
0.000000 0.186137 0.000000
0.042315 0.180925 0.000000
0.109679 0.176093 0.000000
0.159393 0.171641 0.000000
0.202833 0.167543 0.000000
0.242815 0.163780 0.000000
0.280535 0.160324 0.000000
0.316581 0.157181 0.000000
0.351267 0.154305 0.000000
0.384886 0.151691 0.000000
0.417566 0.149329 0.000000
0.449465 0.147185 0.000000
0.480667 0.145275 0.000000
0.511294 0.143528 0.000000
0.541380 0.141990 0.000000
0.571057 0.140606 0.000000
0.600341 0.139362 0.000000
0.629317 0.138232 0.000000
0.658057 0.137237 0.000000
0.686614 0.136356 0.000000
0.715015 0.135556 0.000000
0.743396 0.134788 0.000000
0.771728 0.134092 0.000000
0.800136 0.133426 0.000000
0.828629 0.132722 0.000000
0.857300 0.132067 0.000000
0.886164 0.131371 0.000000
0.915312 0.130598 0.000000
0.944785 0.129780 0.000000
0.974620 0.128901 0.000000
1.000000 0.127912 0.000000
1.000000 0.126784 0.000000
0.000000 0.223883 0.000000
0.000000 0.218222 0.000000
0.011033 0.212984 0.000000
0.097161 0.208132 0.000000
0.152903 0.203645 0.000000
0.199408 0.199515 0.000000
0.241362 0.195722 0.000000
0.280447 0.192266 0.000000
0.317551 0.189099 0.000000
0.353107 0.186213 0.000000
0.387431 0.183589 0.000000
0.420736 0.181226 0.000000
0.453193 0.179091 0.000000
0.484871 0.177177 0.000000
0.515955 0.175458 0.000000
0.546476 0.173936 0.000000
0.576530 0.172570 0.000000
0.606173 0.171357 0.000000
0.635533 0.170290 0.000000
0.664611 0.169337 0.000000
0.693471 0.168494 0.000000
0.722230 0.167745 0.000000
0.750913 0.167054 0.000000
0.779585 0.166407 0.000000
0.808297 0.165812 0.000000
0.837096 0.165208 0.000000
0.866075 0.164620 0.000000
0.895269 0.164001 0.000000
0.924713 0.163356 0.000000
0.954493 0.162668 0.000000
0.984630 0.161904 0.000000
1.000000 0.161058 0.000000
1.000000 0.160060 0.000000
0.000000 0.256065 0.000000
0.000000 0.250377 0.000000
0.000000 0.245099 0.000000
0.078334 0.240216 0.000000
0.143427 0.235704 0.000000
0.193934 0.231540 0.000000
0.238293 0.227729 0.000000
0.279074 0.224235 0.000000
0.317395 0.221039 0.000000
0.353953 0.218148 0.000000
0.389086 0.215504 0.000000
0.423105 0.213133 0.000000
0.456149 0.210992 0.000000
0.488387 0.209071 0.000000
0.519949 0.207356 0.000000
0.550927 0.205815 0.000000
0.581397 0.204482 0.000000
0.611459 0.203261 0.000000
0.641164 0.202218 0.000000
0.670632 0.201282 0.000000
0.699856 0.200472 0.000000
0.728970 0.199725 0.000000
0.757968 0.199068 0.000000
0.786973 0.198467 0.000000
0.816034 0.197888 0.000000
0.845165 0.197348 0.000000
0.874438 0.196811 0.000000
0.903965 0.196270 0.000000
0.933724 0.195672 0.000000
0.963812 0.195029 0.000000
0.994288 0.194371 0.000000
1.000000 0.193591 0.000000
1.000000 0.192665 0.000000
0.000000 0.288343 0.000000
0.000000 0.282628 0.000000
0.000000 0.277314 0.000000
0.047776 0.272385 0.000000
0.130058 0.267839 0.000000
0.186076 0.263635 0.000000
0.233468 0.259787 0.000000
0.276246 0.256255 0.000000
0.316051 0.253043 0.000000
0.353734 0.250114 0.000000
0.389802 0.247460 0.000000
0.424585 0.245048 0.000000
0.458311 0.242886 0.000000
0.491156 0.240949 0.000000
0.523235 0.239223 0.000000
0.554720 0.237687 0.000000
0.585635 0.236339 0.000000
0.616124 0.235138 0.000000
0.646262 0.234067 0.000000
0.676086 0.233123 0.000000
0.705703 0.232319 0.000000
0.735163 0.231603 0.000000
0.764553 0.230932 0.000000
0.793887 0.230342 0.000000
0.823273 0.229783 0.000000
0.852747 0.229290 0.000000
0.882361 0.228779 0.000000
0.912208 0.228227 0.000000
0.942308 0.227679 0.000000
0.972719 0.227118 0.000000
1.000000 0.226424 0.000000
1.000000 0.225719 0.000000
1.000000 0.224876 0.000000
0.000000 0.320746 0.000000
0.000000 0.314976 0.000000
0.000000 0.309619 0.000000
0.000000 0.304653 0.000000
0.111208 0.300048 0.000000
0.175293 0.295816 0.000000
0.226582 0.291921 0.000000
0.271790 0.288360 0.000000
0.313336 0.285103 0.000000
0.352341 0.282132 0.000000
0.389444 0.279453 0.000000
0.425113 0.277012 0.000000
0.459592 0.274818 0.000000
0.493096 0.272857 0.000000
0.525770 0.271108 0.000000
0.557771 0.269551 0.000000
0.589186 0.268173 0.000000
0.620154 0.266949 0.000000
0.650711 0.265880 0.000000
0.680957 0.264948 0.000000
0.710970 0.264107 0.000000
0.740807 0.263374 0.000000
0.770561 0.262720 0.000000
0.800266 0.262126 0.000000
0.830017 0.261571 0.000000
0.859848 0.261053 0.000000
0.889815 0.260539 0.000000
0.919975 0.260026 0.000000
0.950425 0.259498 0.000000
0.981165 0.258930 0.000000
1.000000 0.258291 0.000000
1.000000 0.257571 0.000000
1.000000 0.256762 0.000000
0.000000 0.353262 0.000000
0.000000 0.347449 0.000000
0.000000 0.342043 0.000000
0.000000 0.337025 0.000000
0.083317 0.332384 0.000000
0.160775 0.328095 0.000000
0.217256 0.324156 0.000000
0.265513 0.320537 0.000000
0.309099 0.317237 0.000000
0.349641 0.314234 0.000000
0.387963 0.311493 0.000000
0.424604 0.309032 0.000000
0.459922 0.306805 0.000000
0.494130 0.304810 0.000000
0.527464 0.303034 0.000000
0.560042 0.301436 0.000000
0.592013 0.300023 0.000000
0.623447 0.298776 0.000000
0.654486 0.297678 0.000000
0.685172 0.296712 0.000000
0.715611 0.295848 0.000000
0.745865 0.295106 0.000000
0.775997 0.294432 0.000000
0.806103 0.293821 0.000000
0.836204 0.293267 0.000000
0.866375 0.292731 0.000000
0.896714 0.292217 0.000000
0.927240 0.291692 0.000000
0.958033 0.291170 0.000000
0.989132 0.290580 0.000000
1.000000 0.289967 0.000000
1.000000 0.289242 0.000000
1.000000 0.288429 0.000000
0.000000 0.385925 0.000000
0.000000 0.380057 0.000000
0.000000 0.374587 0.000000
0.000000 0.369515 0.000000
0.033700 0.364827 0.000000
0.141080 0.360483 0.000000
0.204963 0.356492 0.000000
0.257067 0.352834 0.000000
0.303153 0.349480 0.000000
0.345479 0.346415 0.000000
0.385204 0.343634 0.000000
0.422983 0.341123 0.000000
0.459210 0.338856 0.000000
0.494238 0.336806 0.000000
0.528296 0.334989 0.000000
0.561493 0.333359 0.000000
0.594045 0.331917 0.000000
0.626030 0.330616 0.000000
0.657551 0.329503 0.000000
0.688721 0.328489 0.000000
0.719583 0.327600 0.000000
0.750263 0.326811 0.000000
0.780812 0.326116 0.000000
0.811315 0.325466 0.000000
0.841795 0.324889 0.000000
0.872371 0.324350 0.000000
0.903083 0.323806 0.000000
0.933956 0.323267 0.000000
0.965107 0.322703 0.000000
0.996580 0.322131 0.000000
1.000000 0.321478 0.000000
1.000000 0.320767 0.000000
1.000000 0.319955 0.000000
0.000000 0.418750 0.000000
0.000000 0.412816 0.000000
0.000000 0.407295 0.000000
0.000000 0.402161 0.000000
0.000000 0.397404 0.000000
0.113200 0.393018 0.000000
0.188833 0.388955 0.000000
0.246080 0.385234 0.000000
0.295240 0.381831 0.000000
0.339704 0.378706 0.000000
0.381049 0.375875 0.000000
0.420071 0.373300 0.000000
0.457397 0.370968 0.000000
0.493316 0.368887 0.000000
0.528132 0.367013 0.000000
0.562054 0.365324 0.000000
0.595220 0.363845 0.000000
0.627772 0.362505 0.000000
0.659855 0.361326 0.000000
0.691502 0.360279 0.000000
0.722863 0.359350 0.000000
0.753984 0.358524 0.000000
0.784977 0.357781 0.000000
0.815877 0.357122 0.000000
0.846771 0.356492 0.000000
0.877722 0.355909 0.000000
0.908815 0.355335 0.000000
0.940116 0.354773 0.000000
0.971626 0.354175 0.000000
1.000000 0.353570 0.000000
1.000000 0.352910 0.000000
1.000000 0.352158 0.000000
1.000000 0.351335 0.000000
0.000000 0.451736 0.000000
0.000000 0.445738 0.000000
0.000000 0.440147 0.000000
0.000000 0.434952 0.000000
0.000000 0.430131 0.000000
0.069013 0.425674 0.000000
0.167541 0.421559 0.000000
0.231979 0.417762 0.000000
0.285064 0.414288 0.000000
0.332127 0.411120 0.000000
0.375317 0.408222 0.000000
0.415833 0.405585 0.000000
0.454358 0.403206 0.000000
0.491289 0.401045 0.000000
0.526959 0.399115 0.000000
0.561640 0.397380 0.000000
0.595494 0.395838 0.000000
0.628693 0.394456 0.000000
0.661309 0.393228 0.000000
0.693508 0.392131 0.000000
0.725360 0.391152 0.000000
0.756977 0.390263 0.000000
0.788427 0.389482 0.000000
0.819767 0.388767 0.000000
0.851092 0.388095 0.000000
0.882453 0.387468 0.000000
0.913938 0.386850 0.000000
0.945613 0.386246 0.000000
0.977505 0.385628 0.000000
1.000000 0.384967 0.000000
1.000000 0.384262 0.000000
1.000000 0.383494 0.000000
1.000000 0.382651 0.000000
0.000000 0.484926 0.000000
0.000000 0.478848 0.000000
0.000000 0.473192 0.000000
0.000000 0.467917 0.000000
0.000000 0.463027 0.000000
0.000000 0.458491 0.000000
0.138406 0.454310 0.000000
0.213895 0.450451 0.000000
0.272154 0.446905 0.000000
0.322416 0.443660 0.000000
0.367878 0.440697 0.000000
0.410087 0.437994 0.000000
0.449956 0.435553 0.000000
0.488012 0.433330 0.000000
0.524664 0.431326 0.000000
0.560186 0.429539 0.000000
0.594775 0.427924 0.000000
0.628649 0.426478 0.000000
0.661891 0.425172 0.000000
0.694662 0.424038 0.000000
0.727055 0.422982 0.000000
0.759172 0.422064 0.000000
0.791092 0.421220 0.000000
0.822902 0.420445 0.000000
0.854664 0.419718 0.000000
0.886473 0.419039 0.000000
0.918381 0.418375 0.000000
0.950441 0.417715 0.000000
0.982761 0.417061 0.000000
1.000000 0.416343 0.000000
1.000000 0.415587 0.000000
1.000000 0.414801 0.000000
1.000000 0.413894 0.000000
0.000000 0.518315 0.000000
0.000000 0.512163 0.000000
0.000000 0.506420 0.000000
0.000000 0.501069 0.000000
0.000000 0.496101 0.000000
0.000000 0.491487 0.000000
0.094466 0.487234 0.000000
0.190413 0.483303 0.000000
0.255922 0.479672 0.000000
0.310243 0.476359 0.000000
0.358434 0.473309 0.000000
0.402641 0.470534 0.000000
0.444081 0.468024 0.000000
0.483438 0.465722 0.000000
0.521142 0.463655 0.000000
0.557594 0.461780 0.000000
0.593001 0.460114 0.000000
0.627604 0.458597 0.000000
0.661529 0.457229 0.000000
0.694902 0.456017 0.000000
0.727872 0.454918 0.000000
0.760519 0.453907 0.000000
0.792969 0.452997 0.000000
0.825263 0.452167 0.000000
0.857487 0.451380 0.000000
0.889745 0.450637 0.000000
0.922076 0.449916 0.000000
0.954594 0.449196 0.000000
0.987312 0.448459 0.000000
1.000000 0.447720 0.000000
1.000000 0.446905 0.000000
1.000000 0.446036 0.000000
1.000000 0.445117 0.000000
0.000000 0.551921 0.000000
0.000000 0.545685 0.000000
0.000000 0.539872 0.000000
0.000000 0.534432 0.000000
0.000000 0.529372 0.000000
0.000000 0.524684 0.000000
0.002810 0.520334 0.000000
0.158711 0.516314 0.000000
0.235402 0.512612 0.000000
0.295108 0.509210 0.000000
0.346681 0.506094 0.000000
0.393315 0.503240 0.000000
0.436546 0.500636 0.000000
0.477339 0.498262 0.000000
0.516304 0.496114 0.000000
0.553760 0.494161 0.000000
0.590094 0.492408 0.000000
0.625466 0.490820 0.000000
0.660119 0.489391 0.000000
0.694169 0.488089 0.000000
0.727758 0.486902 0.000000
0.760984 0.485851 0.000000
0.793952 0.484867 0.000000
0.826767 0.483940 0.000000
0.859504 0.483101 0.000000
0.892237 0.482291 0.000000
0.925030 0.481503 0.000000
0.957963 0.480712 0.000000
0.991132 0.479936 0.000000
1.000000 0.479110 0.000000
1.000000 0.478239 0.000000
1.000000 0.477313 0.000000
1.000000 0.476320 0.000000
0.000000 0.585777 0.000000
0.000000 0.579447 0.000000
0.000000 0.573535 0.000000
0.000000 0.568012 0.000000
0.000000 0.562863 0.000000
0.000000 0.558079 0.000000
0.000000 0.553638 0.000000
0.111902 0.549535 0.000000
0.208931 0.545740 0.000000
0.276320 0.542248 0.000000
0.332211 0.539037 0.000000
0.381756 0.536104 0.000000
0.427144 0.533410 0.000000
0.469616 0.530951 0.000000
0.509942 0.528722 0.000000
0.548585 0.526690 0.000000
0.585909 0.524843 0.000000
0.622194 0.523163 0.000000
0.657611 0.521657 0.000000
0.692394 0.520289 0.000000
0.726632 0.519028 0.000000
0.760479 0.517871 0.000000
0.794032 0.516805 0.000000
0.827387 0.515834 0.000000
0.860635 0.514902 0.000000
0.893874 0.514018 0.000000
0.927133 0.513146 0.000000
0.960561 0.512276 0.000000
0.994177 0.511421 0.000000
1.000000 0.510533 0.000000
1.000000 0.509604 0.000000
1.000000 0.508607 0.000000
1.000000 0.507527 0.000000
0.000000 0.619883 0.000000
0.000000 0.613454 0.000000
0.000000 0.607444 0.000000
0.000000 0.601829 0.000000
0.000000 0.596584 0.000000
0.000000 0.591697 0.000000
0.000000 0.587170 0.000000
0.013115 0.582970 0.000000
0.173469 0.579070 0.000000
0.252694 0.575491 0.000000
0.314435 0.572192 0.000000
0.367618 0.569160 0.000000
0.415613 0.566370 0.000000
0.460070 0.563823 0.000000
0.501981 0.561490 0.000000
0.541931 0.559373 0.000000
0.580389 0.557429 0.000000
0.617639 0.555674 0.000000
0.653956 0.554055 0.000000
0.689473 0.552604 0.000000
0.724432 0.551263 0.000000
0.758963 0.550025 0.000000
0.793116 0.548878 0.000000
0.827042 0.547802 0.000000
0.860840 0.546791 0.000000
0.894617 0.545828 0.000000
0.928392 0.544882 0.000000
0.962299 0.543932 0.000000
0.996380 0.543002 0.000000
1.000000 0.542015 0.000000
1.000000 0.541008 0.000000
1.000000 0.539922 0.000000
1.000000 0.538775 0.000000
0.000000 0.654264 0.000000
0.000000 0.647730 0.000000
0.000000 0.641614 0.000000
0.000000 0.635888 0.000000
0.000000 0.630545 0.000000
0.000000 0.625554 0.000000
0.000000 0.620923 0.000000
0.000000 0.616625 0.000000
0.120778 0.612626 0.000000
0.222311 0.608941 0.000000
0.292444 0.605539 0.000000
0.350430 0.602396 0.000000
0.401604 0.599518 0.000000
0.448431 0.596885 0.000000
0.492168 0.594458 0.000000
0.533614 0.592225 0.000000
0.573358 0.590196 0.000000
0.611702 0.588332 0.000000
0.648966 0.586623 0.000000
0.685360 0.585067 0.000000
0.721112 0.583631 0.000000
0.756319 0.582299 0.000000
0.791152 0.581065 0.000000
0.825720 0.579908 0.000000
0.860095 0.578789 0.000000
0.894410 0.577730 0.000000
0.928733 0.576705 0.000000
0.963144 0.575671 0.000000
0.997715 0.574638 0.000000
1.000000 0.573573 0.000000
1.000000 0.572481 0.000000
1.000000 0.571318 0.000000
1.000000 0.570085 0.000000
0.000000 0.688929 0.000000
0.000000 0.682285 0.000000
0.000000 0.676049 0.000000
0.000000 0.670217 0.000000
0.000000 0.664774 0.000000
0.000000 0.659671 0.000000
0.000000 0.654935 0.000000
0.000000 0.650511 0.000000
0.003562 0.646417 0.000000
0.181393 0.642625 0.000000
0.264942 0.639106 0.000000
0.329428 0.635867 0.000000
0.384696 0.632879 0.000000
0.434371 0.630136 0.000000
0.480281 0.627601 0.000000
0.523483 0.625277 0.000000
0.564656 0.623144 0.000000
0.604215 0.621173 0.000000
0.642565 0.619362 0.000000
0.679919 0.617696 0.000000
0.716494 0.616162 0.000000
0.752491 0.614732 0.000000
0.788034 0.613408 0.000000
0.823266 0.612146 0.000000
0.858266 0.610932 0.000000
0.893182 0.609783 0.000000
0.928052 0.608641 0.000000
0.962999 0.607519 0.000000
0.998128 0.606387 0.000000
1.000000 0.605231 0.000000
1.000000 0.604042 0.000000
1.000000 0.602797 0.000000
1.000000 0.601461 0.000000
0.000000 0.723899 0.000000
0.000000 0.717142 0.000000
0.000000 0.710801 0.000000
0.000000 0.704846 0.000000
0.000000 0.699271 0.000000
0.000000 0.694059 0.000000
0.000000 0.689208 0.000000
0.000000 0.684671 0.000000
0.000000 0.680457 0.000000
0.118709 0.676550 0.000000
0.229432 0.672936 0.000000
0.303556 0.669570 0.000000
0.364232 0.666485 0.000000
0.417517 0.663615 0.000000
0.466061 0.660961 0.000000
0.511307 0.658544 0.000000
0.554117 0.656284 0.000000
0.595083 0.654215 0.000000
0.634612 0.652293 0.000000
0.673034 0.650520 0.000000
0.710543 0.648878 0.000000
0.747404 0.647326 0.000000
0.783717 0.645887 0.000000
0.819658 0.644537 0.000000
0.855322 0.643221 0.000000
0.890871 0.641956 0.000000
0.926368 0.640719 0.000000
0.961871 0.639487 0.000000
0.997525 0.638262 0.000000
1.000000 0.637015 0.000000
1.000000 0.635710 0.000000
1.000000 0.634357 0.000000
1.000000 0.632942 0.000000
0.000000 0.759186 0.000000
0.000000 0.752314 0.000000
0.000000 0.745836 0.000000
0.000000 0.739751 0.000000
0.000000 0.734066 0.000000
0.000000 0.728742 0.000000
0.000000 0.723764 0.000000
0.000000 0.719106 0.000000
0.000000 0.714784 0.000000
0.000000 0.710741 0.000000
0.180492 0.707008 0.000000
0.271022 0.703522 0.000000
0.339340 0.700312 0.000000
0.397287 0.697330 0.000000
0.449081 0.694573 0.000000
0.496773 0.692018 0.000000
0.541501 0.689649 0.000000
0.584069 0.687466 0.000000
0.624968 0.685424 0.000000
0.664543 0.683538 0.000000
0.703137 0.681778 0.000000
0.740910 0.680123 0.000000
0.778091 0.678560 0.000000
0.814794 0.677076 0.000000
0.851203 0.675666 0.000000
0.887397 0.674290 0.000000
0.923533 0.672944 0.000000
0.959650 0.671612 0.000000
0.995867 0.670263 0.000000
1.000000 0.668913 0.000000
1.000000 0.667505 0.000000
1.000000 0.666037 0.000000
1.000000 0.664546 0.000000
0.000000 0.794820 0.000000
0.000000 0.787809 0.000000
0.000000 0.781209 0.000000
0.000000 0.775003 0.000000
0.000000 0.769176 0.000000
0.000000 0.763706 0.000000
0.000000 0.758600 0.000000
0.000000 0.753840 0.000000
0.000000 0.749370 0.000000
0.000000 0.745220 0.000000
0.099657 0.741349 0.000000
0.228367 0.737758 0.000000
0.308515 0.734404 0.000000
0.372878 0.731301 0.000000
0.428804 0.728422 0.000000
0.479520 0.725743 0.000000
0.526569 0.723255 0.000000
0.570992 0.720940 0.000000
0.613431 0.718788 0.000000
0.654371 0.716777 0.000000
0.694085 0.714890 0.000000
0.732899 0.713109 0.000000
0.771024 0.711434 0.000000
0.808587 0.709833 0.000000
0.845789 0.708281 0.000000
0.882721 0.706804 0.000000
0.919508 0.705333 0.000000
0.956291 0.703893 0.000000
0.993134 0.702430 0.000000
1.000000 0.700943 0.000000
1.000000 0.699433 0.000000
1.000000 0.697853 0.000000
1.000000 0.696278 0.000000
0.000000 0.830794 0.000000
0.000000 0.823636 0.000000
0.000000 0.816912 0.000000
0.000000 0.810571 0.000000
0.000000 0.804611 0.000000
0.000000 0.799023 0.000000
0.000000 0.793768 0.000000
0.000000 0.788856 0.000000
0.000000 0.784274 0.000000
0.000000 0.779981 0.000000
0.000000 0.775982 0.000000
0.167192 0.772245 0.000000
0.269357 0.768781 0.000000
0.343056 0.765546 0.000000
0.404560 0.762515 0.000000
0.459056 0.759718 0.000000
0.508910 0.757096 0.000000
0.555554 0.754666 0.000000
0.599832 0.752376 0.000000
0.642252 0.750244 0.000000
0.683289 0.748220 0.000000
0.723264 0.746323 0.000000
0.762393 0.744516 0.000000
0.800919 0.742782 0.000000
0.838973 0.741125 0.000000
0.876689 0.739493 0.000000
0.914204 0.737915 0.000000
0.951693 0.736344 0.000000
0.989169 0.734756 0.000000
1.000000 0.733147 0.000000
1.000000 0.731518 0.000000
1.000000 0.729817 0.000000
1.000000 0.728123 0.000000
0.000000 0.867137 0.000000
0.000000 0.859852 0.000000
0.000000 0.852972 0.000000
0.000000 0.846478 0.000000
0.000000 0.840392 0.000000
0.000000 0.834651 0.000000
0.000000 0.829274 0.000000
0.000000 0.824227 0.000000
0.000000 0.819498 0.000000
0.000000 0.815061 0.000000
0.000000 0.810920 0.000000
0.038836 0.807059 0.000000
0.216444 0.803444 0.000000
0.305892 0.800068 0.000000
0.375229 0.796915 0.000000
0.434685 0.793961 0.000000
0.488107 0.791218 0.000000
0.537403 0.788643 0.000000
0.583815 0.786227 0.000000
0.627998 0.783949 0.000000
0.670547 0.781797 0.000000
0.711837 0.779770 0.000000
0.752134 0.777828 0.000000
0.791674 0.775967 0.000000
0.830648 0.774156 0.000000
0.869242 0.772398 0.000000
