docs/luts/Canon_FineDetail_AdobeRGB.cube
TITLE "Canon Fine Detail (Adobe RGB)"
# Source: FDA.ICC
LUT_3D_SIZE 33
DOMAIN_MIN 0.0 0.0 0.0
DOMAIN_MAX 1.0 1.0 1.0
0.000000 0.001686 0.003515
0.039952 0.001523 0.003262
0.080306 0.001327 0.002970
0.118901 0.001050 0.002546
0.156985 0.000712 0.001973
0.194450 0.000778 0.001232
0.231899 0.000753 0.000282
0.269303 0.000642 0.000000
0.306645 0.000429 0.000000
0.343857 0.000169 0.000000
0.380973 0.000000 0.000000
0.417921 0.000000 0.000000
0.454668 0.000000 0.000000
0.491242 0.000000 0.000000
0.527558 0.000000 0.000000
0.563588 0.000000 0.000000
0.599364 0.000000 0.000000
0.634794 0.000000 0.000000
0.669898 0.000000 0.000000
0.704628 0.000000 0.000000
0.738935 0.000000 0.000000
0.772809 0.000000 0.000000
0.806240 0.000000 0.000000
0.839155 0.000000 0.000000
0.871586 0.000000 0.000000
0.903436 0.000000 0.000000
0.934762 0.000000 0.000000
0.965468 0.000000 0.000000
0.995535 0.000000 0.000000
1.000000 0.000000 0.000000
1.000000 0.000000 0.000000
1.000000 0.000000 0.000000
1.000000 0.000000 0.000000
0.000000 0.032131 0.001960
0.027811 0.031164 0.001763
0.072495 0.029980 0.001526
0.113300 0.028494 0.001158
0.152647 0.026772 0.000651
0.191004 0.025190 0.000000
0.229129 0.023311 0.000000
0.267034 0.021146 0.000000
0.304778 0.018686 0.000000
0.342371 0.015912 0.000000
0.379790 0.012798 0.000000
0.417016 0.009379 0.000000
0.454056 0.005620 0.000000
0.490848 0.001490 0.000000
0.527378 0.000000 0.000000
0.563534 0.000000 0.000000
0.599418 0.000000 0.000000
0.634979 0.000000 0.000000
0.670177 0.000000 0.000000
0.705006 0.000000 0.000000
0.739430 0.000000 0.000000
0.773423 0.000000 0.000000
0.806937 0.000000 0.000000
0.839973 0.000000 0.000000
0.872490 0.000000 0.000000
0.904444 0.000000 0.000000
0.935857 0.000000 0.000000
0.966650 0.000000 0.000000
0.996823 0.000000 0.000000
1.000000 0.000000 0.000000
1.000000 0.000000 0.000000
1.000000 0.000000 0.000000
1.000000 0.000000 0.000000
0.000000 0.062525 0.000206
0.014129 0.061679 0.000023
0.062667 0.060612 0.000000
0.106481 0.059297 0.000000
0.147350 0.057821 0.000000
0.186737 0.056318 0.000000
0.225593 0.054574 0.000000
0.264066 0.052573 0.000000
0.302249 0.050295 0.000000
0.340199 0.047712 0.000000
0.377925 0.044810 0.000000
0.415430 0.041577 0.000000
0.452689 0.037981 0.000000
0.489701 0.034126 0.000000
0.526440 0.029906 0.000000
0.562890 0.025340 0.000000
0.599023 0.020466 0.000000
0.634817 0.015277 0.000000
0.670247 0.009599 0.000000
0.705284 0.003669 0.000000
0.739913 0.000000 0.000000
0.774101 0.000000 0.000000
0.807750 0.000000 0.000000
0.840909 0.000000 0.000000
0.873529 0.000000 0.000000
0.905591 0.000000 0.000000
0.937091 0.000000 0.000000
0.968011 0.000000 0.000000
0.998274 0.000000 0.000000
1.000000 0.000000 0.000000
1.000000 0.000000 0.000000
1.000000 0.000000 0.000000
1.000000 0.000000 0.000000
0.000000 0.093134 0.000000
0.000000 0.092393 0.000000
0.047402 0.091455 0.000000
0.096797 0.090303 0.000000
0.140137 0.089024 0.000000
0.181101 0.087636 0.000000
0.220993 0.086055 0.000000
0.260259 0.084229 0.000000
0.299059 0.082154 0.000000
0.337513 0.079842 0.000000
0.375655 0.077269 0.000000
0.413528 0.074405 0.000000
0.451107 0.071240 0.000000
0.488416 0.067757 0.000000
0.525415 0.063933 0.000000
0.562091 0.059740 0.000000
0.598447 0.055182 0.000000
0.634443 0.050196 0.000000
0.670056 0.044662 0.000000
0.705286 0.038519 0.000000
0.740067 0.032175 0.000000
0.774379 0.025814 0.000000
0.808249 0.019113 0.000000
0.841597 0.012193 0.000000
0.874435 0.004725 0.000000
0.906703 0.000000 0.000000
0.938397 0.000000 0.000000
0.969479 0.000000 0.000000
0.999885 0.000000 0.000000
1.000000 0.000000 0.000000
1.000000 0.000000 0.000000
1.000000 0.000000 0.000000
1.000000 0.000000 0.000000
0.000000 0.123868 0.000000
0.000000 0.123221 0.000000
0.023279 0.122400 0.000000
0.082928 0.121389 0.000000
0.130352 0.120295 0.000000
0.173614 0.119053 0.000000
0.215009 0.117595 0.000000
0.255326 0.115960 0.000000
0.294951 0.114094 0.000000
0.334049 0.112010 0.000000
0.372718 0.109702 0.000000
0.411044 0.107140 0.000000
0.449021 0.104319 0.000000
0.486678 0.101243 0.000000
0.523988 0.097875 0.000000
0.560975 0.094204 0.000000
0.597595 0.090246 0.000000
0.633844 0.085946 0.000000
0.669701 0.081300 0.000000
0.705129 0.076231 0.000000
0.740115 0.070821 0.000000
0.774656 0.064862 0.000000
0.808697 0.058466 0.000000
0.842224 0.051352 0.000000
0.875218 0.043681 0.000000
0.907631 0.035157 0.000000
0.939462 0.026502 0.000000
0.970672 0.018162 0.000000
1.000000 0.009863 0.000000
1.000000 0.001158 0.000000
1.000000 0.000000 0.000000
1.000000 0.000000 0.000000
1.000000 0.000000 0.000000
0.000000 0.154641 0.000000
0.000000 0.154085 0.000000
0.000000 0.153375 0.000000
0.062209 0.152531 0.000000
0.117160 0.151577 0.000000
0.163886 0.150454 0.000000
0.207362 0.149166 0.000000
0.249103 0.147694 0.000000
0.289777 0.146036 0.000000
0.329691 0.144175 0.000000
0.369033 0.142112 0.000000
0.407896 0.139828 0.000000
0.446365 0.137316 0.000000
0.484441 0.134576 0.000000
0.522136 0.131588 0.000000
0.559438 0.128338 0.000000
0.596367 0.124843 0.000000
0.632920 0.121055 0.000000
0.669029 0.116955 0.000000
0.704716 0.112597 0.000000
0.739939 0.107880 0.000000
0.774711 0.102834 0.000000
0.808968 0.097446 0.000000
0.842681 0.091645 0.000000
0.875882 0.085416 0.000000
0.908491 0.078720 0.000000
0.940522 0.071434 0.000000
0.971896 0.063579 0.000000
1.000000 0.054981 0.000000
1.000000 0.045365 0.000000
1.000000 0.034726 0.000000
1.000000 0.024143 0.000000
1.000000 0.013758 0.000000
0.000000 0.185382 0.000000
0.000000 0.184932 0.000000
0.000000 0.184336 0.000000
0.027843 0.183633 0.000000
0.099118 0.182800 0.000000
0.151351 0.181823 0.000000
0.197756 0.180694 0.000000
0.241387 0.179407 0.000000
0.283392 0.177931 0.000000
0.324348 0.176291 0.000000
0.364497 0.174471 0.000000
0.404052 0.172431 0.000000
0.443083 0.170214 0.000000
0.481645 0.167780 0.000000
0.519777 0.165129 0.000000
0.557471 0.162248 0.000000
0.594744 0.159159 0.000000
0.631609 0.155806 0.000000
0.668035 0.152188 0.000000
0.704015 0.148344 0.000000
0.739493 0.144202 0.000000
0.774486 0.139822 0.000000
0.808984 0.135104 0.000000
0.842961 0.130087 0.000000
0.876354 0.124746 0.000000
0.909177 0.119071 0.000000
0.941388 0.113019 0.000000
0.972982 0.106490 0.000000
1.000000 0.099602 0.000000
1.000000 0.092212 0.000000
1.000000 0.084295 0.000000
1.000000 0.075693 0.000000
1.000000 0.066359 0.000000
0.000000 0.216065 0.000000
0.000000 0.215707 0.000000
0.000000 0.215238 0.000000
0.000000 0.214668 0.000000
0.073180 0.213961 0.000000
0.135132 0.213124 0.000000
0.185778 0.212142 0.000000
0.231931 0.211025 0.000000
0.275684 0.209758 0.000000
0.317885 0.208328 0.000000
0.359049 0.206733 0.000000
0.399385 0.204964 0.000000
0.439080 0.203014 0.000000
0.478231 0.200890 0.000000
0.516852 0.198550 0.000000
0.555011 0.196031 0.000000
0.592696 0.193281 0.000000
0.629917 0.190348 0.000000
0.666693 0.187170 0.000000
0.702947 0.183767 0.000000
0.738732 0.180133 0.000000
0.774025 0.176260 0.000000
0.808765 0.172126 0.000000
0.842962 0.167721 0.000000
0.876614 0.163048 0.000000
0.909659 0.158090 0.000000
0.942092 0.152820 0.000000
0.973894 0.147235 0.000000
1.000000 0.141384 0.000000
1.000000 0.135097 0.000000
1.000000 0.128441 0.000000
1.000000 0.121471 0.000000
1.000000 0.114004 0.000000
0.000000 0.246660 0.000000
0.000000 0.246392 0.000000
0.000000 0.246036 0.000000
0.000000 0.245570 0.000000
0.029380 0.244988 0.000000
0.113560 0.244298 0.000000
0.170823 0.243482 0.000000
0.220473 0.242550 0.000000
0.266411 0.241475 0.000000
0.310200 0.240256 0.000000
0.352567 0.238889 0.000000
0.393863 0.237375 0.000000
0.434342 0.235694 0.000000
0.474157 0.233858 0.000000
0.513373 0.231836 0.000000
0.552030 0.229648 0.000000
0.590166 0.227249 0.000000
0.627811 0.224681 0.000000
0.664913 0.221916 0.000000
0.701540 0.218944 0.000000
0.737661 0.215765 0.000000
0.773236 0.212365 0.000000
0.808266 0.208746 0.000000
0.842748 0.204897 0.000000
0.876641 0.200796 0.000000
0.909943 0.196448 0.000000
0.942594 0.191839 0.000000
0.974634 0.186994 0.000000
1.000000 0.181851 0.000000
1.000000 0.176428 0.000000
1.000000 0.170685 0.000000
1.000000 0.164674 0.000000
1.000000 0.158275 0.000000
0.000000 0.277104 0.000000
0.000000 0.276921 0.000000
0.000000 0.276670 0.000000
0.000000 0.276313 0.000000
0.000000 0.275873 0.000000
0.083011 0.275339 0.000000
0.151945 0.274690 0.000000
0.206518 0.273934 0.000000
0.255395 0.273053 0.000000
0.301153 0.272044 0.000000
0.344951 0.270912 0.000000
0.387406 0.269637 0.000000
0.428809 0.268229 0.000000
0.469391 0.266681 0.000000
0.509274 0.264966 0.000000
0.548499 0.263086 0.000000
0.587120 0.261055 0.000000
0.625209 0.258845 0.000000
0.662750 0.256464 0.000000
0.699771 0.253893 0.000000
0.736231 0.251151 0.000000
0.772139 0.248192 0.000000
0.807483 0.245043 0.000000
0.842246 0.241686 0.000000
0.876410 0.238130 0.000000
0.909976 0.234345 0.000000
0.942886 0.230326 0.000000
0.975161 0.226085 0.000000
1.000000 0.221599 0.000000
1.000000 0.216876 0.000000
1.000000 0.211876 0.000000
1.000000 0.206674 0.000000
1.000000 0.201144 0.000000
0.000000 0.307355 0.000000
0.000000 0.307262 0.000000
0.000000 0.307118 0.000000
0.000000 0.306895 0.000000
0.000000 0.306590 0.000000
0.030362 0.306199 0.000000
0.127322 0.305716 0.000000
0.189469 0.305138 0.000000
0.242273 0.304451 0.000000
0.290530 0.303666 0.000000
0.336143 0.302762 0.000000
0.379928 0.301749 0.000000
0.422428 0.300599 0.000000
0.463869 0.299325 0.000000
0.504481 0.297908 0.000000
0.544354 0.296358 0.000000
0.583562 0.294664 0.000000
0.622165 0.292813 0.000000
0.660158 0.290818 0.000000
0.697567 0.288640 0.000000
0.734421 0.286310 0.000000
0.770688 0.283800 0.000000
0.806361 0.281107 0.000000
0.841451 0.278231 0.000000
0.875925 0.275168 0.000000
0.909750 0.271904 0.000000
0.942947 0.268424 0.000000
0.975464 0.264765 0.000000
1.000000 0.260906 0.000000
1.000000 0.256779 0.000000
1.000000 0.252474 0.000000
1.000000 0.247918 0.000000
1.000000 0.243143 0.000000
0.000000 0.337379 0.000000
0.000000 0.337394 0.000000
0.000000 0.337351 0.000000
0.000000 0.337246 0.000000
0.000000 0.337083 0.000000
0.000000 0.336848 0.000000
0.092952 0.336539 0.000000
0.168352 0.336146 0.000000
0.226679 0.335663 0.000000
0.278185 0.335093 0.000000
0.325938 0.334417 0.000000
0.371332 0.333647 0.000000
0.415078 0.332776 0.000000
0.457551 0.331790 0.000000
0.499011 0.330675 0.000000
0.539617 0.329439 0.000000
0.579458 0.328071 0.000000
0.618618 0.326580 0.000000
0.657119 0.324939 0.000000
0.694974 0.323157 0.000000
0.732232 0.321230 0.000000
0.768890 0.319144 0.000000
0.804936 0.316908 0.000000
0.840349 0.314495 0.000000
0.875140 0.311898 0.000000
0.909265 0.309162 0.000000
0.942748 0.306204 0.000000
0.975537 0.303100 0.000000
1.000000 0.299791 0.000000
1.000000 0.296296 0.000000
1.000000 0.292598 0.000000
1.000000 0.288695 0.000000
1.000000 0.284588 0.000000
0.000000 0.367164 0.000000
0.000000 0.367279 0.000000
0.000000 0.367343 0.000000
0.000000 0.367367 0.000000
0.000000 0.367354 0.000000
0.000000 0.367275 0.000000
0.032863 0.367132 0.000000
0.141263 0.366916 0.000000
0.207927 0.366643 0.000000
0.263676 0.366289 0.000000
0.314168 0.365856 0.000000
0.361518 0.365330 0.000000
0.406709 0.364722 0.000000
0.450359 0.364017 0.000000
0.492777 0.363209 0.000000
0.534214 0.362282 0.000000
0.574755 0.361255 0.000000
0.614516 0.360110 0.000000
0.653588 0.358834 0.000000
0.691956 0.357433 0.000000
0.729669 0.355910 0.000000
0.766740 0.354248 0.000000
0.803168 0.352452 0.000000
0.838945 0.350493 0.000000
0.874070 0.348382 0.000000
0.908520 0.346144 0.000000
0.942290 0.343709 0.000000
0.975370 0.341140 0.000000
1.000000 0.338371 0.000000
1.000000 0.335461 0.000000
1.000000 0.332341 0.000000
1.000000 0.329045 0.000000
1.000000 0.325559 0.000000
0.000000 0.396681 0.000000
0.000000 0.396893 0.000000
0.000000 0.397063 0.000000
0.000000 0.397232 0.000000
0.000000 0.397337 0.000000
0.000000 0.397421 0.000000
0.000000 0.397450 0.000000
0.103944 0.397439 0.000000
0.185003 0.397376 0.000000
0.246718 0.397238 0.000000
0.300672 0.397027 0.000000
0.350351 0.396772 0.000000
0.397293 0.396418 0.000000
0.442284 0.395997 0.000000
0.485796 0.395478 0.000000
0.528134 0.394889 0.000000
0.569466 0.394184 0.000000
0.609928 0.393383 0.000000
0.649580 0.392479 0.000000
0.688491 0.391460 0.000000
0.726693 0.390345 0.000000
0.764221 0.389079 0.000000
0.801047 0.387720 0.000000
0.837212 0.386209 0.000000
0.872687 0.384585 0.000000
0.907494 0.382805 0.000000
0.941576 0.380886 0.000000
0.974948 0.378839 0.000000
1.000000 0.376620 0.000000
1.000000 0.374265 0.000000
1.000000 0.371738 0.000000
1.000000 0.369049 0.000000
1.000000 0.366181 0.000000
0.000000 0.425887 0.000000
0.000000 0.426199 0.000000
0.000000 0.426492 0.000000
0.000000 0.426782 0.000000
0.000000 0.427040 0.000000
0.000000 0.427279 0.000000
0.000000 0.427497 0.000000
0.039346 0.427669 0.000000
0.156125 0.427790 0.000000
0.226656 0.427887 0.000000
0.285150 0.427927 0.000000
0.337732 0.427910 0.000000
0.386709 0.427838 0.000000
0.433234 0.427689 0.000000
0.478009 0.427487 0.000000
0.521370 0.427188 0.000000
0.563570 0.426837 0.000000
0.604761 0.426373 0.000000
0.645094 0.425844 0.000000
0.684576 0.425204 0.000000
0.723325 0.424478 0.000000
0.761313 0.423658 0.000000
0.798591 0.422698 0.000000
0.835170 0.421649 0.000000
0.871034 0.420487 0.000000
0.906174 0.419199 0.000000
0.940596 0.417784 0.000000
0.974300 0.416236 0.000000
1.000000 0.414564 0.000000
1.000000 0.412733 0.000000
1.000000 0.410778 0.000000
1.000000 0.408677 0.000000
1.000000 0.406422 0.000000
0.000000 0.454754 0.000000
0.000000 0.455166 0.000000
0.000000 0.455576 0.000000
0.000000 0.455999 0.000000
0.000000 0.456414 0.000000
0.000000 0.456814 0.000000
0.000000 0.457202 0.000000
0.000000 0.457566 0.000000
0.117129 0.457917 0.000000
0.202576 0.458224 0.000000
0.267239 0.458509 0.000000
0.323397 0.458734 0.000000
0.374827 0.458933 0.000000
0.423201 0.459074 0.000000
0.469358 0.459163 0.000000
0.513864 0.459203 0.000000
0.557040 0.459169 0.000000
0.599051 0.459075 0.000000
0.640089 0.458894 0.000000
0.680228 0.458648 0.000000
0.719518 0.458306 0.000000
0.758031 0.457882 0.000000
0.795795 0.457379 0.000000
0.832777 0.456769 0.000000
0.869030 0.456070 0.000000
0.904575 0.455252 0.000000
0.939345 0.454339 0.000000
0.973367 0.453312 0.000000
1.000000 0.452158 0.000000
1.000000 0.450882 0.000000
1.000000 0.449498 0.000000
1.000000 0.447969 0.000000
1.000000 0.446320 0.000000
0.000000 0.483250 0.000000
0.000000 0.483763 0.000000
0.000000 0.484316 0.000000
0.000000 0.484866 0.000000
0.000000 0.485431 0.000000
0.000000 0.485998 0.000000
0.000000 0.486563 0.000000
0.000000 0.487131 0.000000
0.052470 0.487673 0.000000
0.172715 0.488211 0.000000
0.246340 0.488732 0.000000
0.307188 0.489226 0.000000
0.361567 0.489703 0.000000
0.412054 0.490133 0.000000
0.459827 0.490512 0.000000
0.505618 0.490862 0.000000
0.549844 0.491175 0.000000
0.592754 0.491430 0.000000
0.634570 0.491622 0.000000
0.675389 0.491748 0.000000
0.715310 0.491806 0.000000
0.754366 0.491813 0.000000
0.792629 0.491727 0.000000
0.830078 0.491565 0.000000
0.866779 0.491316 0.000000
0.902702 0.490987 0.000000
0.937829 0.490571 0.000000
0.972213 0.490034 0.000000
1.000000 0.489421 0.000000
1.000000 0.488690 0.000000
1.000000 0.487854 0.000000
1.000000 0.486925 0.000000
1.000000 0.485846 0.000000
0.000000 0.511357 0.000000
0.000000 0.511994 0.000000
0.000000 0.512643 0.000000
0.000000 0.513340 0.000000
0.000000 0.514060 0.000000
0.000000 0.514788 0.000000
0.000000 0.515538 0.000000
0.000000 0.516312 0.000000
0.000000 0.517074 0.000000
0.133356 0.517838 0.000000
0.221701 0.518602 0.000000
0.288678 0.519344 0.000000
0.346754 0.520088 0.000000
0.399710 0.520808 0.000000
0.449337 0.521516 0.000000
0.496575 0.522176 0.000000
0.541974 0.522814 0.000000
0.585896 0.523415 0.000000
0.628543 0.523973 0.000000
0.670098 0.524484 0.000000
0.710674 0.524948 0.000000
0.750315 0.525357 0.000000
0.789124 0.525706 0.000000
0.827043 0.525987 0.000000
0.864185 0.526217 0.000000
0.900517 0.526355 0.000000
0.936067 0.526421 0.000000
0.970795 0.526417 0.000000
1.000000 0.526318 0.000000
1.000000 0.526122 0.000000
1.000000 0.525859 0.000000
1.000000 0.525477 0.000000
1.000000 0.525016 0.000000
0.000000 0.539046 0.000000
0.000000 0.539780 0.000000
0.000000 0.540565 0.000000
0.000000 0.541391 0.000000
0.000000 0.542275 0.000000
0.000000 0.543180 0.000000
0.000000 0.544106 0.000000
0.000000 0.545073 0.000000
0.000000 0.546044 0.000000
0.072440 0.547042 0.000000
0.191668 0.548057 0.000000
0.267498 0.549072 0.000000
0.330159 0.550083 0.000000
0.386113 0.551089 0.000000
0.437861 0.552096 0.000000
0.486729 0.553094 0.000000
0.533441 0.554065 0.000000
0.578442 0.555013 0.000000
0.622006 0.555946 0.000000
0.664351 0.556839 0.000000
0.705647 0.557701 0.000000
0.745902 0.558517 0.000000
0.785242 0.559305 0.000000
0.823707 0.560035 0.000000
0.861308 0.560706 0.000000
0.898096 0.561335 0.000000
0.934032 0.561906 0.000000
0.969146 0.562380 0.000000
1.000000 0.562814 0.000000
1.000000 0.563177 0.000000
1.000000 0.563450 0.000000
1.000000 0.563659 0.000000
1.000000 0.563763 0.000000
0.000000 0.566273 0.000000
0.000000 0.567128 0.000000
0.000000 0.568037 0.000000
0.000000 0.569013 0.000000
0.000000 0.570040 0.000000
0.000000 0.571111 0.000000
0.000000 0.572235 0.000000
0.000000 0.573394 0.000000
0.000000 0.574596 0.000000
0.000000 0.575821 0.000000
0.153295 0.577077 0.000000
0.242844 0.578353 0.000000
0.311535 0.579640 0.000000
0.371091 0.580952 0.000000
0.425318 0.582270 0.000000
0.476035 0.583581 0.000000
0.524183 0.584887 0.000000
0.570370 0.586199 0.000000
0.614962 0.587497 0.000000
0.658168 0.588769 0.000000
0.700177 0.590029 0.000000
0.741113 0.591269 0.000000
0.781067 0.592480 0.000000
0.820073 0.593662 0.000000
0.858180 0.594800 0.000000
0.895408 0.595903 0.000000
0.931750 0.596967 0.000000
0.967264 0.597968 0.000000
1.000000 0.598927 0.000000
1.000000 0.599813 0.000000
1.000000 0.600652 0.000000
1.000000 0.601419 0.000000
1.000000 0.602106 0.000000
0.000000 0.593027 0.000000
0.000000 0.593997 0.000000
0.000000 0.595025 0.000000
0.000000 0.596154 0.000000
0.000000 0.597338 0.000000
0.000000 0.598588 0.000000
0.000000 0.599899 0.000000
0.000000 0.601267 0.000000
0.000000 0.602684 0.000000
0.000000 0.604140 0.000000
0.097974 0.605651 0.000000
0.213464 0.607183 0.000000
0.290451 0.608748 0.000000
0.354468 0.610351 0.000000
0.411626 0.611979 0.000000
0.464472 0.613619 0.000000
0.514255 0.615273 0.000000
0.561742 0.616932 0.000000
0.607378 0.618598 0.000000
0.651526 0.620272 0.000000
0.694322 0.621927 0.000000
0.735987 0.623577 0.000000
0.776550 0.625216 0.000000
0.816129 0.626837 0.000000
0.854763 0.628457 0.000000
0.892433 0.630035 0.000000
0.929240 0.631590 0.000000
0.965148 0.633097 0.000000
1.000000 0.634567 0.000000
1.000000 0.636006 0.000000
1.000000 0.637393 0.000000
1.000000 0.638735 0.000000
1.000000 0.640023 0.000000
0.000000 0.619270 0.000000
0.000000 0.620339 0.000000
0.000000 0.621523 0.000000
0.000000 0.622777 0.000000
0.000000 0.624137 0.000000
0.000000 0.625551 0.000000
0.000000 0.627056 0.000000
0.000000 0.628626 0.000000
0.000000 0.630276 0.000000
0.000000 0.631967 0.000000
0.000000 0.633722 0.000000
0.177224 0.635516 0.000000
0.266396 0.637374 0.000000
0.336100 0.639274 0.000000
0.396700 0.641209 0.000000
0.451958 0.643172 0.000000
0.503551 0.645166 0.000000
0.552476 0.647178 0.000000
0.599300 0.649227 0.000000
0.644440 0.651277 0.000000
0.688110 0.653351 0.000000
0.730496 0.655418 0.000000
0.771717 0.657492 0.000000
0.811915 0.659563 0.000000
0.851060 0.661628 0.000000
0.889248 0.663699 0.000000
0.926515 0.665728 0.000000
0.962866 0.667771 0.000000
0.998289 0.669765 0.000000
1.000000 0.671745 0.000000
1.000000 0.673687 0.000000
1.000000 0.675599 0.000000
1.000000 0.677480 0.000000
0.000000 0.644958 0.000000
0.000000 0.646163 0.000000
0.000000 0.647474 0.000000
0.000000 0.648879 0.000000
0.000000 0.650384 0.000000
0.000000 0.651997 0.000000
0.000000 0.653700 0.000000
0.000000 0.655475 0.000000
0.000000 0.657333 0.000000
0.000000 0.659263 0.000000
0.000000 0.661274 0.000000
0.128431 0.663344 0.000000
0.238451 0.665488 0.000000
0.315614 0.667686 0.000000
0.380450 0.669932 0.000000
0.438479 0.672214 0.000000
0.492115 0.674559 0.000000
0.542618 0.676939 0.000000
0.590724 0.679346 0.000000
0.636904 0.681792 0.000000
0.681503 0.684258 0.000000
0.724686 0.686748 0.000000
0.766635 0.689263 0.000000
0.807424 0.691801 0.000000
0.847141 0.694319 0.000000
0.885862 0.696860 0.000000
0.923572 0.699402 0.000000
0.960356 0.701944 0.000000
0.996204 0.704473 0.000000
1.000000 0.706989 0.000000
1.000000 0.709496 0.000000
1.000000 0.711970 0.000000
1.000000 0.714445 0.000000
0.000000 0.670090 0.000000
0.000000 0.671415 0.000000
0.000000 0.672844 0.000000
0.000000 0.674422 0.000000
0.000000 0.676086 0.000000
0.000000 0.677878 0.000000
0.000000 0.679777 0.000000
0.000000 0.681759 0.000000
0.000000 0.683856 0.000000
0.000000 0.686031 0.000000
0.000000 0.688280 0.000000
0.041673 0.690635 0.000000
0.204948 0.693056 0.000000
0.292700 0.695542 0.000000
0.362703 0.698104 0.000000
0.423970 0.700741 0.000000
0.479913 0.703416 0.000000
0.532150 0.706163 0.000000
0.581669 0.708942 0.000000
0.628999 0.711773 0.000000
0.674553 0.714660 0.000000
0.718564 0.717577 0.000000
0.761243 0.720522 0.000000
0.802692 0.723489 0.000000
0.843006 0.726483 0.000000
0.882247 0.729509 0.000000
0.920472 0.732543 0.000000
0.957690 0.735593 0.000000
0.993941 0.738651 0.000000
1.000000 0.741705 0.000000
1.000000 0.744777 0.000000
1.000000 0.747833 0.000000
1.000000 0.750903 0.000000
0.000000 0.694623 0.000000
0.000000 0.696070 0.000000
0.000000 0.697645 0.000000
0.000000 0.699360 0.000000
0.000000 0.701199 0.000000
0.000000 0.703167 0.000000
0.000000 0.705260 0.000000
0.000000 0.707467 0.000000
0.000000 0.709781 0.000000
0.000000 0.712196 0.000000
0.000000 0.714713 0.000000
0.000000 0.717327 0.000000
0.162743 0.720041 0.000000
0.266630 0.722830 0.000000
0.343244 0.725710 0.000000
0.408393 0.728679 0.000000
0.466936 0.731706 0.000000
0.521083 0.734803 0.000000
0.572113 0.737981 0.000000
0.620671 0.741201 0.000000
0.667255 0.744486 0.000000
0.712163 0.747825 0.000000
0.755611 0.751202 0.000000
0.797746 0.754625 0.000000
0.838664 0.758104 0.000000
0.878472 0.761610 0.000000
0.917211 0.765149 0.000000
0.954882 0.768712 0.000000
0.991579 0.772293 0.000000
1.000000 0.775901 0.000000
1.000000 0.779517 0.000000
1.000000 0.783144 0.000000
1.000000 0.786839 0.000000
0.000000 0.718528 0.000000
0.000000 0.720098 0.000000
0.000000 0.721810 0.000000
0.000000 0.723670 0.000000
0.000000 0.725699 0.000000
0.000000 0.727843 0.000000
0.000000 0.730140 0.000000
0.000000 0.732555 0.000000
0.000000 0.735101 0.000000
0.000000 0.737760 0.000000
0.000000 0.740539 0.000000
0.000000 0.743433 0.000000
0.102316 0.746436 0.000000
0.236544 0.749532 0.000000
0.321879 0.752720 0.000000
0.391592 0.756017 0.000000
0.453145 0.759399 0.000000
0.509433 0.762866 0.000000
0.562079 0.766413 0.000000
0.611993 0.770041 0.000000
0.659656 0.773732 0.000000
0.705507 0.777499 0.000000
0.749756 0.781316 0.000000
0.792608 0.785202 0.000000
0.834182 0.789141 0.000000
0.874532 0.793127 0.000000
0.913784 0.797162 0.000000
0.951966 0.801252 0.000000
0.989078 0.805359 0.000000
1.000000 0.809504 0.000000
1.000000 0.813685 0.000000
1.000000 0.817896 0.000000
1.000000 0.822201 0.000000
0.000000 0.741764 0.000000
0.000000 0.743456 0.000000
0.000000 0.745318 0.000000
0.000000 0.747357 0.000000
0.000000 0.749532 0.000000
0.000000 0.751881 0.000000
0.000000 0.754368 0.000000
0.000000 0.756998 0.000000
0.000000 0.759777 0.000000
0.000000 0.762689 0.000000
0.000000 0.765728 0.000000
0.000000 0.768890 0.000000
0.000000 0.772190 0.000000
0.200610 0.775585 0.000000
0.298237 0.779108 0.000000
0.373586 0.782737 0.000000
0.438513 0.786473 0.000000
0.497198 0.790298 0.000000
0.551658 0.794232 0.000000
0.602930 0.798253 0.000000
0.651783 0.802350 0.000000
0.698592 0.806541 0.000000
0.743720 0.810817 0.000000
0.787314 0.815153 0.000000
0.829519 0.819556 0.000000
0.870495 0.824032 0.000000
