docs/luts/Canon_Portrait_sRGB.cube
TITLE "Canon Portrait (sRGB)"
# Source: PS.ICC
LUT_3D_SIZE 9
DOMAIN_MIN 0.0 0.0 0.0
DOMAIN_MAX 1.0 1.0 1.0
0.000000 0.001686 0.003515
0.207940 0.000000 0.000000
0.388381 0.000000 0.000000
0.537278 0.000000 0.000000
0.652207 0.000000 0.000000
0.733447 0.000000 0.000000
0.781144 0.000000 0.000000
0.795386 0.000000 0.000000
0.776232 0.000000 0.000000
0.000000 0.175882 0.017271
0.176794 0.145078 0.000000
0.364473 0.118730 0.000000
0.522059 0.096250 0.000000
0.647072 0.077538 0.000000
0.739075 0.063293 0.000000
0.797932 0.054059 0.000000
0.823669 0.051292 0.000000
0.816163 0.055531 0.000000
0.000000 0.353960 0.000000
0.168836 0.321249 0.000000
0.350416 0.293270 0.000000
0.515213 0.269827 0.000000
0.650027 0.250946 0.000000
0.752779 0.236914 0.000000
0.822803 0.227802 0.000000
0.859896 0.223877 0.000000
0.863961 0.225347 0.000000
0.114388 0.534054 0.000000
0.193737 0.499516 0.000000
0.353659 0.469658 0.000000
0.520984 0.444468 0.000000
0.663831 0.424034 0.000000
0.776451 0.408394 0.000000
0.857123 0.397660 0.000000
0.905314 0.391989 0.000000
0.920810 0.391404 0.039146
0.203228 0.716211 0.000000
0.242327 0.679740 0.000000
0.374830 0.648020 0.000000
0.540058 0.621034 0.000000
0.688912 0.598776 0.000000
0.810264 0.581340 0.000000
0.900995 0.568809 0.000000
0.959939 0.561228 0.000000
0.986626 0.558737 0.039698
0.283095 0.900442 0.000000
0.303228 0.862098 0.000000
0.411968 0.828480 0.000000
0.572017 0.799595 0.000000
0.724986 0.775485 0.000000
0.854133 0.756151 0.000000
0.954329 0.741755 0.000000
1.000000 0.732262 0.000000
1.000000 0.727780 0.000000
0.359259 1.000000 0.000000
0.369585 1.000000 0.000000
0.461530 1.000000 0.000000
0.615602 0.980183 0.000000
0.771501 0.954185 0.000000
0.907602 0.932978 0.000000
1.000000 0.916643 0.000000
1.000000 0.905221 0.000000
1.000000 0.898791 0.000000
0.244020 1.000000 0.000000
0.324281 1.000000 0.000000
0.456945 1.000000 0.000000
0.627047 1.000000 0.000000
0.787522 1.000000 0.000000
0.922227 1.000000 0.000000
1.000000 1.000000 0.000000
1.000000 1.000000 0.000000
1.000000 0.998107 0.000000
0.000000 1.000000 0.000000
0.000000 1.000000 0.000000
0.263424 1.000000 0.000000
0.496066 1.000000 0.000000
0.679170 1.000000 0.000000
0.826769 1.000000 0.000000
0.940656 1.000000 0.000000
1.000000 1.000000 0.000000
1.000000 1.000000 0.000000
0.000000 0.000000 0.119839
0.186723 0.000000 0.070464
0.380386 0.000000 0.023852
0.540791 0.000000 0.000000
0.667941 0.000000 0.000000
0.761878 0.000000 0.000000
0.822530 0.000000 0.000000
0.849989 0.000000 0.000000
0.844246 0.000000 0.000000
0.000000 0.148726 0.141139
0.133929 0.123996 0.104399
0.334446 0.103888 0.071673
0.505329 0.087560 0.039523
0.643663 0.075070 0.011622
0.748944 0.066943 0.000000
0.821098 0.064390 0.000000
0.860105 0.068096 0.000000
0.865911 0.078389 0.000000
0.000000 0.312262 0.121646
0.115177 0.285785 0.098054
0.302159 0.264008 0.079434
0.480065 0.246814 0.064186
0.628351 0.234135 0.053633
0.744474 0.226186 0.051311
0.827880 0.223201 0.060844
0.878341 0.225481 0.082825
0.895746 0.233122 0.114498
0.081725 0.478125 0.045119
0.143000 0.449816 0.035094
0.289119 0.426245 0.031823
0.467633 0.407307 0.032633
0.623739 0.393051 0.040682
0.749742 0.383582 0.059794
0.843854 0.379044 0.088939
0.905484 0.379544 0.126833
0.934351 0.385184 0.171946
0.171100 0.646146 0.000000
0.191177 0.615916 0.000000
0.297830 0.590464 0.000000
0.469291 0.569733 0.000000
0.630447 0.553672 0.000000
0.765078 0.542471 0.000000
0.869265 0.536091 0.055738
0.941622 0.534704 0.120673
0.981723 0.538412 0.184613
0.247318 0.816278 0.000000
0.251822 0.784124 0.000000
0.326329 0.756773 0.000000
0.485108 0.734182 0.000000
0.648596 0.716265 0.000000
0.790551 0.703179 0.000000
0.904061 0.694945 0.000000
0.986703 0.691663 0.034732
1.000000 0.693380 0.147523
0.319843 0.988465 0.000000
0.314763 0.954420 0.000000
0.369555 0.925182 0.000000
0.514210 0.900650 0.000000
0.677819 0.880836 0.000000
0.825905 0.865886 0.000000
0.948064 0.855765 0.000000
1.000000 0.850534 0.000000
1.000000 0.850285 0.000000
0.372898 1.000000 0.000000
0.378710 1.000000 0.000000
0.421835 1.000000 0.000000
0.554259 1.000000 0.000000
0.717229 1.000000 0.000000
0.870648 1.000000 0.000000
1.000000 1.000000 0.000000
1.000000 1.000000 0.000000
1.000000 0.994429 0.000000
0.111622 1.000000 0.000000
0.202928 1.000000 0.000000
0.319049 1.000000 0.000000
0.488838 1.000000 0.000000
0.662445 1.000000 0.000000
0.813265 1.000000 0.000000
0.934453 1.000000 0.000000
1.000000 1.000000 0.000000
1.000000 1.000000 0.000000
0.000000 0.000000 0.255991
0.174513 0.000000 0.203561
0.381098 0.000000 0.156321
0.554651 0.000000 0.112717
0.695044 0.000000 0.070506
0.802224 0.000000 0.026661
0.876181 0.000000 0.000000
0.916908 0.000000 0.000000
0.924401 0.000000 0.000000
0.000000 0.135486 0.276412
0.105512 0.116819 0.237119
0.317290 0.102644 0.203874
0.501250 0.092418 0.175818
0.652752 0.086097 0.153110
0.771306 0.084482 0.136470
0.856763 0.088340 0.127428
0.909030 0.098454 0.127560
0.928175 0.114767 0.137736
0.000000 0.283778 0.259860
0.081532 0.263436 0.233652
0.267335 0.247899 0.213835
0.457937 0.236869 0.199608
0.619466 0.230332 0.191384
0.748911 0.228542 0.189934
0.845654 0.231757 0.196329
0.909451 0.240152 0.211200
0.940233 0.253951 0.234571
0.053665 0.435124 0.203468
0.101054 0.412980 0.190650
0.238781 0.395640 0.184381
0.427439 0.382969 0.183906
0.596555 0.374945 0.189542
0.735987 0.371702 0.202357
0.843461 0.373330 0.223000
0.918441 0.379996 0.251875
0.960739 0.391836 0.288871
0.143726 0.588845 0.091686
0.136986 0.564845 0.095456
0.237436 0.545639 0.105919
0.411746 0.531147 0.121703
0.585016 0.521328 0.143416
0.732874 0.516363 0.172077
0.850447 0.516194 0.208295
0.936261 0.521046 0.252320
0.989749 0.530952 0.303848
0.216276 0.744791 0.000000
0.204738 0.718897 0.000000
0.261712 0.697786 0.000000
0.412156 0.681406 0.000000
0.585344 0.669755 0.006571
0.739984 0.662873 0.079543
0.866706 0.660887 0.143822
0.962818 0.663852 0.208716
1.000000 0.671799 0.277901
0.284198 0.902879 0.000000
0.272379 0.875027 0.000000
0.303562 0.852011 0.000000
0.428158 0.833763 0.000000
0.597586 0.820233 0.000000
0.757235 0.811466 0.000000
0.892285 0.807548 0.000000
0.998094 0.808564 0.095433
1.000000 0.814545 0.202502
0.349863 1.000000 0.000000
0.337906 1.000000 0.000000
0.355384 1.000000 0.000000
0.457619 0.988178 0.000000
0.621088 0.972754 0.000000
0.784375 0.962108 0.000000
0.926935 0.956301 0.000000
1.000000 0.955332 0.000000
1.000000 0.959349 0.000000
0.308593 1.000000 0.000000
0.342814 1.000000 0.000000
0.388246 1.000000 0.000000
0.491980 1.000000 0.000000
0.647690 1.000000 0.000000
0.799395 1.000000 0.000000
0.926216 1.000000 0.000000
1.000000 1.000000 0.000000
1.000000 1.000000 0.000000
0.000000 0.010170 0.402612
0.176820 0.000000 0.347222
0.394798 0.000000 0.298013
0.581167 0.000000 0.254326
0.734617 0.000000 0.215997
0.854978 0.000000 0.183274
0.942203 0.000000 0.156810
0.996131 0.006126 0.138229
1.000000 0.028196 0.129029
0.000000 0.136468 0.422035
0.094553 0.123642 0.379730
0.313748 0.115400 0.343955
0.510150 0.111110 0.314255
0.674704 0.110824 0.290601
0.806383 0.115414 0.273391
0.905079 0.125654 0.263309
0.970672 0.141855 0.260995
1.000000 0.163900 0.266826
0.000000 0.268770 0.405383
0.054799 0.254559 0.376149
0.246946 0.245124 0.353580
0.449189 0.240200 0.337221
0.623625 0.239756 0.327174
0.766245 0.244062 0.323826
0.876230 0.253381 0.327626
0.953328 0.267942 0.339051
0.997459 0.287818 0.358312
0.037346 0.405219 0.351584
0.041980 0.389307 0.335523
0.203908 0.378162 0.326210
0.400806 0.371675 0.323125
0.582618 0.369851 0.326447
0.735184 0.372802 0.336514
0.856018 0.380608 0.353817
0.944324 0.393429 0.378687
0.999984 0.411407 0.411268
0.123075 0.544456 0.257542
0.113474 0.526676 0.255146
0.195210 0.513687 0.259523
0.368056 0.505470 0.270240
0.552881 0.501921 0.287173
0.713785 0.503136 0.310926
0.844693 0.509219 0.341955
0.943857 0.520243 0.380523
1.000000 0.536340 0.426723
0.190287 0.686075 0.102719
0.181270 0.666363 0.119466
0.219953 0.651512 0.142578
0.353591 0.641409 0.170900
0.535362 0.636054 0.204183
0.702542 0.635432 0.243595
0.842488 0.639664 0.289801
0.951944 0.648815 0.343208
1.000000 0.663013 0.403932
0.253319 0.829976 0.000000
0.244103 0.808375 0.000000
0.260509 0.791590 0.000000
0.358268 0.779574 0.000000
0.530725 0.772293 0.022804
0.701658 0.769789 0.113838
0.849594 0.772099 0.187329
0.968692 0.779370 0.261493
1.000000 0.791593 0.339948
0.314645 0.976014 0.000000
0.304932 0.952484 0.000000
0.310215 0.933754 0.000000
0.379713 0.919893 0.000000
0.538887 0.910718 0.000000
0.711211 0.906285 0.000000
0.865977 0.906681 0.000000
0.994057 0.911955 0.100908
1.000000 0.922219 0.223147
0.374071 1.000000 0.000000
0.363959 1.000000 0.000000
0.359988 1.000000 0.000000
0.413462 1.000000 0.000000
0.558395 1.000000 0.000000
0.730589 1.000000 0.000000
0.891258 1.000000 0.000000
1.000000 1.000000 0.000000
1.000000 1.000000 0.000000
0.000000 0.051715 0.560299
0.194536 0.043512 0.501842
0.421992 0.037377 0.449887
0.620623 0.033694 0.404039
0.786954 0.033319 0.364163
0.920386 0.040246 0.330651
1.000000 0.056752 0.303876
1.000000 0.081624 0.284439
1.000000 0.113486 0.273008
0.000000 0.151284 0.578554
0.102664 0.144072 0.533186
0.324354 0.141351 0.494472
0.532354 0.142761 0.462171
0.709598 0.148569 0.436189
0.854335 0.159277 0.416797
0.966199 0.175593 0.404355
1.000000 0.197732 0.399204
1.000000 0.225640 0.401711
0.000000 0.267401 0.561067
0.058068 0.259192 0.528748
0.241762 0.255768 0.503177
0.454095 0.256791 0.484098
0.640994 0.262388 0.471504
0.796606 0.272701 0.465559
0.919744 0.288056 0.466579
1.000000 0.308650 0.474919
1.000000 0.334559 0.490752
0.043148 0.388660 0.507413
0.031982 0.378888 0.488124
0.185808 0.373911 0.475706
0.388328 0.373598 0.469802
0.582173 0.377919 0.470361
0.747626 0.386948 0.477663
0.881600 0.400874 0.491999
0.983210 0.419882 0.513589
1.000000 0.443921 0.542602
0.112605 0.513141 0.416359
0.105884 0.501542 0.410309
0.172486 0.494792 0.411141
0.338793 0.492814 0.418559
0.534348 0.495510 0.432426
0.708023 0.502910 0.452947
0.852101 0.515181 0.480542
0.964555 0.532374 0.515456
1.000000 0.554647 0.557756
0.171158 0.640263 0.283851
0.164941 0.626803 0.291849
0.192831 0.618148 0.306709
0.310167 0.614334 0.328194
0.498999 0.615242 0.355886
0.678417 0.620865 0.390153
0.831484 0.631310 0.431378
0.954257 0.646705 0.479902
1.000000 0.667088 0.535800
0.227767 0.769834 0.073082
0.221087 0.754429 0.108563
0.222317 0.743898 0.146988
0.305389 0.738178 0.188666
0.477606 0.737177 0.234169
0.659368 0.740925 0.284787
0.820117 0.749516 0.341525
0.952500 0.763011 0.405041
1.000000 0.781479 0.475531
0.283752 0.901709 0.000000
0.276539 0.884395 0.000000
0.271276 0.871903 0.000000
0.322407 0.864250 0.000000
0.470834 0.861347 0.000000
0.651287 0.863195 0.106509
0.818169 0.869833 0.197330
0.959328 0.881386 0.283668
1.000000 0.897878 0.372849
0.338894 1.000000 0.000000
0.331124 1.000000 0.000000
0.325371 1.000000 0.000000
0.355081 0.992436 0.000000
0.478223 0.987720 0.000000
0.654161 0.987610 0.000000
0.825597 0.992259 0.000000
0.974720 1.000000 0.042695
1.000000 1.000000 0.206812
0.007093 0.090539 0.729053
0.226382 0.086977 0.667500
0.462452 0.086836 0.612569
0.673093 0.090795 0.563980
0.852217 0.099920 0.521721
0.998708 0.115567 0.485899
1.000000 0.138537 0.456905
1.000000 0.168510 0.435077
1.000000 0.204786 0.420707
0.000000 0.178961 0.746062
0.127052 0.177193 0.697569
0.349251 0.179942 0.655843
0.568044 0.187089 0.620654
0.757671 0.198751 0.591926
0.915298 0.215617 0.569840
1.000000 0.237953 0.554575
1.000000 0.266005 0.546541
1.000000 0.299797 0.545841
0.016052 0.279612 0.727514
0.080635 0.277235 0.692058
0.252210 0.279633 0.663454
0.472958 0.286536 0.641428
0.671771 0.298062 0.625997
0.840063 0.314325 0.617237
0.976264 0.335681 0.615373
1.000000 0.362217 0.620606
1.000000 0.394134 0.633144
0.068532 0.385538 0.673169
0.062328 0.381859 0.650792
0.185006 0.382921 0.635213
0.390283 0.388677 0.626340
0.595363 0.399052 0.624072
0.773379 0.414105 0.628448
0.920320 0.434144 0.639764
1.000000 0.459105 0.658180
1.000000 0.489305 0.683913
0.115245 0.495059 0.582522
0.111648 0.489621 0.573154
0.168418 0.489065 0.570732
0.324652 0.493249 0.575030
0.529707 0.502128 0.585880
0.715733 0.515681 0.603440
0.872746 0.534091 0.627907
0.998393 0.557448 0.659508
1.000000 0.585830 0.698386
0.161115 0.607514 0.454083
0.157976 0.600223 0.458012
0.172999 0.597840 0.468930
0.282653 0.600257 0.486639
0.476772 0.607397 0.510807
0.667885 0.619232 0.541628
0.833853 0.635952 0.579397
0.969788 0.657516 0.624271
1.000000 0.684086 0.676410
0.208656 0.722574 0.281906
0.204899 0.713395 0.300528
0.203512 0.709105 0.326113
0.270227 0.709658 0.358303
0.438720 0.714974 0.396683
0.630687 0.724976 0.441439
0.804036 0.739771 0.492921
0.949495 0.759522 0.551500
1.000000 0.784199 0.617267
0.257961 0.840118 0.000000
0.253290 0.829017 0.044061
0.250898 0.822773 0.114074
0.285733 0.821413 0.174110
0.417602 0.824797 0.233938
0.604919 0.832907 0.296728
0.783675 0.845833 0.364595
0.937796 0.863627 0.438643
1.000000 0.886368 0.519299
0.308016 0.959993 0.000000
0.302601 0.946955 0.000000
0.299315 0.938802 0.000000
0.318000 0.935459 0.000000
0.413836 0.936881 0.000000
0.591133 0.943069 0.036483
0.773011 0.954054 0.172005
0.934776 0.969879 0.275009
1.000000 0.990582 0.376720
0.089368 0.140576 0.908263
0.272329 0.142595 0.844149
0.516620 0.148992 0.786168
0.738906 0.160114 0.734658
0.930594 0.176813 0.689572
1.000000 0.199778 0.651064
1.000000 0.229149 0.619351
1.000000 0.264928 0.594666
1.000000 0.306764 0.577261
0.052426 0.218780 0.923660
0.164409 0.222468 0.872976
0.388316 0.230787 0.828147
0.617244 0.243663 0.789934
0.819009 0.261357 0.758316
0.989361 0.284240 0.733305
1.000000 0.312675 0.715176
1.000000 0.346744 0.704042
1.000000 0.386433 0.700131
0.079166 0.304957 0.904393
0.118111 0.308327 0.866299
0.277563 0.316455 0.834600
0.505738 0.329088 0.809536
0.715956 0.346464 0.791145
0.896781 0.368685 0.779417
1.000000 0.395986 0.774552
1.000000 0.428560 0.776717
1.000000 0.466414 0.786033
0.104478 0.395881 0.849585
0.100810 0.398075 0.824017
0.200175 0.405093 0.805351
0.406864 0.416813 0.793433
0.622296 0.433155 0.788164
0.812456 0.454247 0.789584
0.972231 0.480212 0.797890
1.000000 0.511237 0.813191
1.000000 0.547470 0.835690
0.131575 0.490369 0.758409
0.130353 0.491015 0.745864
0.174755 0.496569 0.740305
0.325830 0.506862 0.741477
0.539232 0.521828 0.749330
0.737049 0.541461 0.763868
0.906747 0.565958 0.785270
1.000000 0.595405 0.813688
1.000000 0.629860 0.849313
0.162461 0.587902 0.630686
0.162037 0.586864 0.631307
0.164327 0.590675 0.638831
0.271419 0.599295 0.653192
0.468947 0.612624 0.674232
0.671134 0.630647 0.701911
0.849683 0.653493 0.736433
0.998611 0.681189 0.778018
1.000000 0.713924 0.826756
0.198177 0.688343 0.464548
0.197394 0.685385 0.478590
0.199133 0.687355 0.499626
0.252584 0.694132 0.527536
0.414492 0.705689 0.561988
0.615869 0.721979 0.603045
0.801450 0.742993 0.650871
0.959931 0.768963 0.705759
1.000000 0.799828 0.767770
0.238419 0.791389 0.250049
0.236672 0.786512 0.280289
0.237272 0.786528 0.317010
0.263645 0.791451 0.360267
0.379462 0.801118 0.409687
0.572361 0.815530 0.465083
0.762645 0.834678 0.526939
0.929699 0.858752 0.595666
1.000000 0.887711 0.671403
0.281933 0.896981 0.000000
0.279136 0.890171 0.000000
0.278525 0.888224 0.003888
0.286026 0.891136 0.119270
0.366136 0.898875 0.200909
0.541978 0.911331 0.278634
0.733878 0.928594 0.358853
0.908093 0.950703 0.444058
1.000000 0.977713 0.535312
0.147541 0.202371 1.000000
0.331380 0.210658 1.000000
0.584312 0.223699 0.968635
0.818058 0.241856 0.915382
1.000000 0.265552 0.868112
1.000000 0.295256 0.826707
1.000000 0.331003 0.792058
1.000000 0.372824 0.764375
1.000000 0.420493 0.743843
0.117097 0.270314 1.000000
0.211851 0.279612 1.000000
0.440924 0.293654 1.000000
0.679960 0.312474 0.968127
0.893572 0.336227 0.934284
1.000000 0.365266 0.906901
1.000000 0.399802 0.886157
1.000000 0.439865 0.872117
1.000000 0.485527 0.865009
0.131642 0.342955 1.000000
0.162206 0.351944 1.000000
0.316752 0.365782 1.000000
0.552228 0.384298 0.985994
0.773607 0.407481 0.965094
0.966670 0.435621 0.950693
1.000000 0.468911 0.942924
1.000000 0.507479 0.941999
1.000000 0.551368 0.947942
0.144742 0.419315 1.000000
0.142648 0.427348 1.000000
0.228707 0.440276 0.983857
0.437699 0.457871 0.969236
0.662868 0.480109 0.961110
0.864940 0.507132 0.959543
1.000000 0.539091 0.964598
1.000000 0.576129 0.976450
1.000000 0.618323 0.995167
0.158780 0.498988 0.943356
0.159121 0.505669 0.928058
0.195358 0.517203 0.919517
0.342051 0.533534 0.917643
0.562810 0.554501 0.922307
0.771932 0.580172 0.933511
0.954061 0.610699 0.951354
1.000000 0.646130 0.975940
1.000000 0.686654 1.000000
0.175925 0.581704 0.816778
0.177694 0.586704 0.814126
0.182196 0.596673 0.818473
0.275900 0.611438 0.829690
0.475739 0.630900 0.847578
0.688302 0.655060 0.872178
0.879002 0.683982 0.903023
1.000000 0.717816 0.940492
1.000000 0.756584 0.984745
0.198270 0.667278 0.651916
0.200363 0.670557 0.662483
0.204785 0.678670 0.679950
0.250982 0.691724 0.704390
0.405324 0.709463 0.735525
0.615114 0.731947 0.773317
0.812583 0.759179 0.817907
0.983824 0.791306 0.869458
1.000000 0.828317 0.926867
0.226972 0.755654 0.447407
0.228335 0.757034 0.471734
0.232070 0.763319 0.502969
0.253550 0.774460 0.541096
0.356949 0.790415 0.585949
0.553983 0.811081 0.637268
0.755463 0.836507 0.695249
0.935051 0.866757 0.760083
1.000000 0.901966 0.832049
0.261569 0.846796 0.183803
0.261699 0.846222 0.228437
0.264084 0.850493 0.278144
0.268748 0.859725 0.333449
0.335164 0.873756 0.394342
0.507050 0.892503 0.460804
0.708400 0.916043 0.533354
0.894915 0.944438 0.612403
1.000000 0.977680 0.698278
0.441106 0.251600 1.000000
0.417431 0.289581 1.000000
0.665314 0.311070 1.000000
0.910512 0.336000 1.000000
1.000000 0.366510 1.000000
1.000000 0.402738 1.000000
1.000000 0.444864 0.973004
1.000000 0.492804 0.942996
1.000000 0.546521 0.919826
0.403292 0.316775 1.000000
0.324740 0.344925 1.000000
0.506775 0.368658 1.000000
0.755938 0.393469 1.000000
0.981427 0.423370 1.000000
1.000000 0.458598 1.000000
1.000000 0.499270 1.000000
1.000000 0.545425 1.000000
1.000000 0.597120 1.000000
0.290670 0.388194 1.000000
0.208819 0.407940 1.000000
0.368571 0.427527 1.000000
0.612168 0.451874 1.000000
0.844471 0.480986 1.000000
1.000000 0.515083 1.000000
1.000000 0.554401 1.000000
1.000000 0.598940 1.000000
1.000000 0.648860 1.000000
0.188004 0.455570 1.000000
0.186829 0.469414 1.000000
0.268253 0.488120 1.000000
0.482044 0.511578 1.000000
0.716977 0.539686 1.000000
0.930740 0.572643 1.000000
1.000000 0.610588 1.000000
1.000000 0.653593 1.000000
1.000000 0.701814 1.000000
0.193209 0.520753 1.000000
0.194699 0.533326 1.000000
0.226575 0.550811 1.000000
0.372054 0.573057 1.000000
0.600169 0.599988 1.000000
0.820344 0.631654 1.000000
1.000000 0.668112 1.000000
1.000000 0.709602 1.000000
1.000000 0.756180 1.000000
0.199759 0.588707 1.000000
0.202998 0.599785 1.000000
0.208937 0.615785 1.000000
0.294230 0.636600 1.000000
0.496749 0.662118 1.000000
0.719212 0.692326 1.000000
0.921796 0.727312 1.000000
1.000000 0.767171 1.000000
1.000000 0.812028 1.000000
0.209846 0.659494 0.848257
0.214088 0.668917 0.855542
0.220899 0.683205 0.869773
0.262769 0.702377 0.890648
0.410989 0.726297 0.917996
0.628543 0.754946 0.951788
0.837412 0.788307 0.992060
1.000000 0.826516 1.000000
1.000000 0.869640 1.000000
0.225594 0.733115 0.646108
0.229884 0.740711 0.666625
0.236524 0.753176 0.694087
0.249214 0.770553 0.728558
0.349816 0.792757 0.769825
0.550153 0.819624 0.817733
0.762148 0.851287 0.872370
0.954006 0.887725 0.932491
1.000000 0.929080 0.999161
0.248796 0.809552 0.402133
0.252046 0.815225 0.436990
0.257658 0.825800 0.478721
0.265632 0.841274 0.527242
0.320209 0.861545 0.582494
0.486742 0.886618 0.644193
0.696934 0.916447 0.712407
0.895384 0.951055 0.787415
1.000000 0.990543 0.869335
