docs/luts/Canon_Neutral_AdobeRGB.cube
TITLE "Canon Neutral (Adobe RGB)"
# Source: NA.ICC
LUT_3D_SIZE 33
DOMAIN_MIN 0.0 0.0 0.0
DOMAIN_MAX 1.0 1.0 1.0
0.000000 0.001686 0.003515
0.030631 0.000607 0.002909
0.066140 0.000000 0.002262
0.102786 0.000000 0.002081
0.137914 0.000000 0.000674
0.173233 0.000000 0.000000
0.208801 0.000000 0.000000
0.245126 0.000000 0.000000
0.282010 0.000000 0.000000
0.319506 0.000000 0.000000
0.357558 0.000000 0.000000
0.395970 0.000000 0.000000
0.434779 0.000000 0.000000
0.473893 0.000000 0.000000
0.513509 0.000000 0.000000
0.553604 0.000000 0.000000
0.594045 0.000000 0.000000
0.634782 0.000000 0.000000
0.675805 0.000000 0.000000
0.717015 0.000000 0.000000
0.758449 0.000000 0.000000
0.799966 0.000000 0.000000
0.841625 0.000000 0.000000
0.883391 0.000000 0.000000
0.925201 0.000000 0.000000
0.967057 0.000000 0.000000
1.000000 0.000000 0.000000
1.000000 0.000000 0.000000
1.000000 0.000000 0.000000
1.000000 0.000000 0.000000
1.000000 0.000000 0.000000
1.000000 0.000000 0.000000
1.000000 0.000000 0.000000
0.000000 0.032938 0.000000
0.024072 0.031585 0.000000
0.062559 0.030487 0.000000
0.099457 0.029488 0.000000
0.135438 0.028417 0.000000
0.170986 0.027907 0.000000
0.206726 0.027486 0.000000
0.243023 0.027136 0.000000
0.279741 0.027103 0.000000
0.316988 0.026752 0.000000
0.354651 0.026742 0.000000
0.392662 0.026897 0.000000
0.431161 0.026719 0.000000
0.470064 0.026635 0.000000
0.509402 0.026448 0.000000
0.549040 0.026226 0.000000
0.589058 0.025911 0.000000
0.629372 0.025477 0.000000
0.669962 0.024849 0.000000
0.710771 0.024044 0.000000
0.751765 0.023194 0.000000
0.792938 0.022092 0.000000
0.834210 0.020763 0.000000
0.875571 0.019111 0.000000
0.916997 0.017454 0.000000
0.958407 0.015439 0.000000
0.999818 0.012970 0.000000
1.000000 0.010038 0.000000
1.000000 0.007057 0.000000
1.000000 0.003785 0.000000
1.000000 0.000000 0.000000
1.000000 0.000000 0.000000
1.000000 0.000000 0.000000
0.000000 0.063489 0.000000
0.017734 0.061861 0.000000
0.058840 0.060476 0.000000
0.097536 0.059314 0.000000
0.134144 0.058316 0.000000
0.169966 0.057703 0.000000
0.205718 0.057317 0.000000
0.241839 0.057190 0.000000
0.278297 0.057012 0.000000
0.315260 0.057043 0.000000
0.352454 0.057062 0.000000
0.390102 0.057161 0.000000
0.428222 0.057514 0.000000
0.466734 0.057638 0.000000
0.505595 0.057880 0.000000
0.544839 0.058053 0.000000
0.584414 0.058289 0.000000
0.624280 0.058302 0.000000
0.664417 0.058264 0.000000
0.704804 0.058166 0.000000
0.745370 0.057919 0.000000
0.786134 0.057534 0.000000
0.826975 0.056989 0.000000
0.867885 0.056088 0.000000
0.908914 0.055133 0.000000
0.949908 0.053792 0.000000
0.990924 0.052302 0.000000
1.000000 0.050158 0.000000
1.000000 0.047805 0.000000
1.000000 0.044923 0.000000
1.000000 0.041473 0.000000
1.000000 0.037564 0.000000
1.000000 0.032814 0.000000
0.000000 0.094454 0.000000
0.007687 0.092789 0.000000
0.052507 0.091487 0.000000
0.093945 0.090427 0.000000
0.131682 0.089565 0.000000
0.168058 0.088884 0.000000
0.204094 0.088531 0.000000
0.240240 0.088428 0.000000
0.276594 0.088286 0.000000
0.313251 0.088438 0.000000
0.350119 0.088668 0.000000
0.387466 0.088962 0.000000
0.425179 0.089432 0.000000
0.463333 0.089804 0.000000
0.501809 0.090249 0.000000
0.540674 0.090572 0.000000
0.579852 0.091041 0.000000
0.619325 0.091495 0.000000
0.659015 0.091923 0.000000
0.698958 0.092098 0.000000
0.739103 0.092344 0.000000
0.779427 0.092425 0.000000
0.819885 0.092371 0.000000
0.860377 0.092213 0.000000
0.900928 0.091968 0.000000
0.941560 0.091411 0.000000
0.982151 0.090735 0.000000
1.000000 0.089749 0.000000
1.000000 0.088367 0.000000
1.000000 0.086843 0.000000
1.000000 0.084921 0.000000
1.000000 0.082718 0.000000
1.000000 0.080000 0.000000
0.000000 0.125517 0.000000
0.000000 0.123921 0.000000
0.041302 0.122599 0.000000
0.088107 0.121545 0.000000
0.127670 0.120783 0.000000
0.165106 0.120191 0.000000
0.201654 0.119883 0.000000
0.238026 0.119718 0.000000
0.274336 0.119728 0.000000
0.310745 0.119925 0.000000
0.347506 0.120218 0.000000
0.384607 0.120604 0.000000
0.422016 0.121095 0.000000
0.459838 0.121637 0.000000
0.498002 0.122175 0.000000
0.536490 0.122869 0.000000
0.575270 0.123469 0.000000
0.614358 0.124205 0.000000
0.653650 0.124731 0.000000
0.693238 0.125321 0.000000
0.732948 0.125796 0.000000
0.772832 0.126274 0.000000
0.812859 0.126566 0.000000
0.853005 0.126766 0.000000
0.893133 0.126855 0.000000
0.933373 0.126695 0.000000
0.973538 0.126495 0.000000
1.000000 0.126022 0.000000
1.000000 0.125324 0.000000
1.000000 0.124391 0.000000
1.000000 0.123242 0.000000
1.000000 0.121822 0.000000
1.000000 0.120002 0.000000
0.000000 0.156597 0.000000
0.000000 0.155003 0.000000
0.024478 0.153679 0.000000
0.079213 0.152695 0.000000
0.122080 0.151921 0.000000
0.161073 0.151412 0.000000
0.198391 0.151146 0.000000
0.234988 0.151018 0.000000
0.271407 0.151082 0.000000
0.307944 0.151334 0.000000
0.344618 0.151659 0.000000
0.381529 0.152151 0.000000
0.418732 0.152740 0.000000
0.456280 0.153439 0.000000
0.494136 0.154139 0.000000
0.532251 0.154921 0.000000
0.570703 0.155655 0.000000
0.609417 0.156479 0.000000
0.648375 0.157233 0.000000
0.687514 0.158019 0.000000
0.726836 0.158701 0.000000
0.766343 0.159384 0.000000
0.805976 0.159949 0.000000
0.845644 0.160438 0.000000
0.885459 0.160825 0.000000
0.925236 0.161013 0.000000
0.965034 0.161077 0.000000
1.000000 0.160986 0.000000
1.000000 0.160699 0.000000
1.000000 0.160246 0.000000
1.000000 0.159506 0.000000
1.000000 0.158530 0.000000
1.000000 0.157303 0.000000
0.000000 0.187668 0.000000
0.000000 0.186072 0.000000
0.001872 0.184813 0.000000
0.065504 0.183857 0.000000
0.113793 0.183110 0.000000
0.155073 0.182610 0.000000
0.193695 0.182356 0.000000
0.231066 0.182271 0.000000
0.267904 0.182422 0.000000
0.304599 0.182716 0.000000
0.341324 0.183149 0.000000
0.378151 0.183644 0.000000
0.415211 0.184350 0.000000
0.452562 0.185097 0.000000
0.490118 0.185891 0.000000
0.528010 0.186754 0.000000
0.566132 0.187679 0.000000
0.604479 0.188599 0.000000
0.643032 0.189584 0.000000
0.681858 0.190483 0.000000
0.720804 0.191377 0.000000
0.759954 0.192207 0.000000
0.799169 0.192968 0.000000
0.838489 0.193697 0.000000
0.877874 0.194289 0.000000
0.917251 0.194736 0.000000
0.956647 0.195132 0.000000
0.995964 0.195320 0.000000
1.000000 0.195345 0.000000
1.000000 0.195136 0.000000
1.000000 0.194796 0.000000
1.000000 0.194208 0.000000
1.000000 0.193361 0.000000
0.000000 0.218679 0.000000
0.000000 0.217154 0.000000
0.000000 0.215908 0.000000
0.044202 0.214935 0.000000
0.102536 0.214253 0.000000
0.147327 0.213771 0.000000
0.187805 0.213564 0.000000
0.226307 0.213524 0.000000
0.263764 0.213692 0.000000
0.300797 0.213977 0.000000
0.337666 0.214473 0.000000
0.374514 0.215114 0.000000
0.411523 0.215872 0.000000
0.448684 0.216703 0.000000
0.486068 0.217619 0.000000
0.523629 0.218598 0.000000
0.561489 0.219594 0.000000
0.599524 0.220664 0.000000
0.637778 0.221706 0.000000
0.676212 0.222807 0.000000
0.714799 0.223815 0.000000
0.753559 0.224864 0.000000
0.792418 0.225788 0.000000
0.831372 0.226649 0.000000
0.870352 0.227511 0.000000
0.909388 0.228164 0.000000
0.948334 0.228718 0.000000
0.987313 0.229211 0.000000
1.000000 0.229474 0.000000
1.000000 0.229535 0.000000
1.000000 0.229443 0.000000
1.000000 0.229176 0.000000
1.000000 0.228620 0.000000
0.000000 0.249618 0.000000
0.000000 0.248094 0.000000
0.000000 0.246830 0.000000
0.013764 0.245921 0.000000
0.087416 0.245255 0.000000
0.137699 0.244791 0.000000
0.180651 0.244608 0.000000
0.220557 0.244602 0.000000
0.258925 0.244827 0.000000
0.296406 0.245221 0.000000
0.333546 0.245749 0.000000
0.370532 0.246452 0.000000
0.407523 0.247247 0.000000
0.444589 0.248175 0.000000
0.481799 0.249185 0.000000
0.519171 0.250250 0.000000
0.556805 0.251412 0.000000
0.594532 0.252553 0.000000
0.632510 0.253764 0.000000
0.670610 0.254949 0.000000
0.708846 0.256109 0.000000
0.747227 0.257290 0.000000
0.785726 0.258406 0.000000
0.824296 0.259494 0.000000
0.862925 0.260459 0.000000
0.901548 0.261345 0.000000
0.940170 0.262140 0.000000
0.978753 0.262734 0.000000
1.000000 0.263246 0.000000
1.000000 0.263525 0.000000
1.000000 0.263693 0.000000
1.000000 0.263661 0.000000
1.000000 0.263385 0.000000
0.000000 0.280358 0.000000
0.000000 0.278883 0.000000
0.000000 0.277691 0.000000
0.000000 0.276767 0.000000
0.066766 0.276123 0.000000
0.125705 0.275708 0.000000
0.172093 0.275565 0.000000
0.213881 0.275635 0.000000
0.253309 0.275886 0.000000
0.291523 0.276356 0.000000
0.329006 0.276929 0.000000
0.366222 0.277721 0.000000
0.403324 0.278616 0.000000
0.440286 0.279599 0.000000
0.477433 0.280688 0.000000
0.514621 0.281827 0.000000
0.551991 0.283101 0.000000
0.589526 0.284405 0.000000
0.627171 0.285700 0.000000
0.664989 0.287009 0.000000
0.702916 0.288315 0.000000
0.740982 0.289641 0.000000
0.779074 0.290898 0.000000
0.817307 0.292136 0.000000
0.855555 0.293285 0.000000
0.893835 0.294337 0.000000
0.932036 0.295259 0.000000
0.970252 0.296101 0.000000
1.000000 0.296750 0.000000
1.000000 0.297315 0.000000
1.000000 0.297677 0.000000
1.000000 0.297898 0.000000
1.000000 0.297835 0.000000
0.000000 0.310956 0.000000
0.000000 0.309483 0.000000
0.000000 0.308315 0.000000
0.000000 0.307485 0.000000
0.035251 0.306853 0.000000
0.110473 0.306518 0.000000
0.161850 0.306387 0.000000
0.206100 0.306509 0.000000
0.246944 0.306852 0.000000
0.285954 0.307327 0.000000
0.324044 0.308005 0.000000
0.361538 0.308818 0.000000
0.398756 0.309787 0.000000
0.435858 0.310882 0.000000
0.472867 0.312089 0.000000
0.509927 0.313297 0.000000
0.547136 0.314668 0.000000
0.584463 0.316080 0.000000
0.621856 0.317503 0.000000
0.659394 0.318967 0.000000
0.696962 0.320388 0.000000
0.734750 0.321833 0.000000
0.772524 0.323292 0.000000
0.810393 0.324628 0.000000
0.848292 0.325922 0.000000
0.886194 0.327142 0.000000
0.924075 0.328247 0.000000
0.961911 0.329264 0.000000
0.999634 0.330146 0.000000
1.000000 0.330884 0.000000
1.000000 0.331436 0.000000
1.000000 0.331839 0.000000
1.000000 0.332063 0.000000
0.000000 0.341377 0.000000
0.000000 0.339918 0.000000
0.000000 0.338770 0.000000
0.000000 0.337955 0.000000
0.000000 0.337392 0.000000
0.091113 0.337089 0.000000
0.149769 0.337048 0.000000
0.197075 0.337213 0.000000
0.239726 0.337580 0.000000
0.279872 0.338160 0.000000
0.318637 0.338885 0.000000
0.356516 0.339815 0.000000
0.393967 0.340862 0.000000
0.431136 0.342063 0.000000
0.468169 0.343349 0.000000
0.505155 0.344694 0.000000
0.542200 0.346143 0.000000
0.579329 0.347632 0.000000
0.616469 0.349170 0.000000
0.653736 0.350760 0.000000
0.691070 0.352332 0.000000
0.728506 0.353960 0.000000
0.765987 0.355489 0.000000
0.803506 0.356976 0.000000
0.841050 0.358423 0.000000
0.878605 0.359792 0.000000
0.916132 0.361132 0.000000
0.953573 0.362294 0.000000
0.990977 0.363366 0.000000
1.000000 0.364276 0.000000
1.000000 0.365066 0.000000
1.000000 0.365645 0.000000
1.000000 0.366084 0.000000
0.000000 0.371579 0.000000
0.000000 0.370157 0.000000
0.000000 0.369057 0.000000
0.000000 0.368290 0.000000
0.000000 0.367789 0.000000
0.065129 0.367553 0.000000
0.135246 0.367549 0.000000
0.186898 0.367765 0.000000
0.231630 0.368205 0.000000
0.273145 0.368824 0.000000
0.312737 0.369635 0.000000
0.351121 0.370643 0.000000
0.388859 0.371787 0.000000
0.426203 0.373051 0.000000
0.463303 0.374406 0.000000
0.500208 0.375913 0.000000
0.537203 0.377451 0.000000
0.574105 0.379066 0.000000
0.611087 0.380732 0.000000
0.648108 0.382416 0.000000
0.685165 0.384138 0.000000
0.722292 0.385864 0.000000
0.759479 0.387549 0.000000
0.796689 0.389213 0.000000
0.833883 0.390790 0.000000
0.871109 0.392349 0.000000
0.908275 0.393819 0.000000
0.945380 0.395173 0.000000
0.982388 0.396410 0.000000
1.000000 0.397530 0.000000
1.000000 0.398513 0.000000
1.000000 0.399297 0.000000
1.000000 0.399945 0.000000
0.000000 0.401539 0.000000
0.000000 0.400195 0.000000
0.000000 0.399173 0.000000
0.000000 0.398410 0.000000
0.000000 0.397962 0.000000
0.024535 0.397774 0.000000
0.117900 0.397834 0.000000
0.175142 0.398105 0.000000
0.222746 0.398629 0.000000
0.265848 0.399354 0.000000
0.306329 0.400237 0.000000
0.345417 0.401301 0.000000
0.383525 0.402543 0.000000
0.421074 0.403915 0.000000
0.458285 0.405388 0.000000
0.495228 0.406945 0.000000
0.532061 0.408586 0.000000
0.568876 0.410349 0.000000
0.605686 0.412114 0.000000
0.642452 0.413942 0.000000
0.679319 0.415795 0.000000
0.716158 0.417653 0.000000
0.753048 0.419498 0.000000
0.789929 0.421282 0.000000
0.826814 0.423040 0.000000
0.863669 0.424757 0.000000
0.900484 0.426361 0.000000
0.937249 0.427895 0.000000
0.973924 0.429297 0.000000
1.000000 0.430630 0.000000
1.000000 0.431788 0.000000
1.000000 0.432763 0.000000
1.000000 0.433619 0.000000
0.000000 0.431300 0.000000
0.000000 0.429993 0.000000
0.000000 0.429017 0.000000
0.000000 0.428316 0.000000
0.000000 0.427887 0.000000
0.000000 0.427791 0.000000
0.096421 0.427897 0.000000
0.161961 0.428239 0.000000
0.212928 0.428849 0.000000
0.257913 0.429654 0.000000
0.299619 0.430632 0.000000
0.339399 0.431783 0.000000
0.377947 0.433107 0.000000
0.415771 0.434566 0.000000
0.453087 0.436159 0.000000
0.490127 0.437821 0.000000
0.526938 0.439584 0.000000
0.563593 0.441430 0.000000
0.600257 0.443357 0.000000
0.636850 0.445324 0.000000
0.673438 0.447309 0.000000
0.710050 0.449275 0.000000
0.746637 0.451245 0.000000
0.783229 0.453202 0.000000
0.819772 0.455085 0.000000
0.856337 0.456975 0.000000
0.892819 0.458755 0.000000
0.929191 0.460445 0.000000
0.965503 0.462045 0.000000
1.000000 0.463532 0.000000
1.000000 0.464883 0.000000
1.000000 0.466058 0.000000
1.000000 0.467094 0.000000
0.000000 0.460808 0.000000
0.000000 0.459544 0.000000
0.000000 0.458602 0.000000
0.000000 0.457968 0.000000
0.000000 0.457620 0.000000
0.000000 0.457552 0.000000
0.068180 0.457757 0.000000
0.146849 0.458200 0.000000
0.202175 0.458870 0.000000
0.249338 0.459719 0.000000
0.292458 0.460817 0.000000
0.333006 0.462043 0.000000
0.372211 0.463472 0.000000
0.410318 0.465025 0.000000
0.447855 0.466715 0.000000
0.484945 0.468525 0.000000
0.521767 0.470415 0.000000
0.558364 0.472349 0.000000
0.594818 0.474399 0.000000
0.631274 0.476477 0.000000
0.667643 0.478623 0.000000
0.703973 0.480726 0.000000
0.740329 0.482844 0.000000
0.776580 0.484941 0.000000
0.812844 0.486990 0.000000
0.849075 0.489031 0.000000
0.885197 0.490983 0.000000
0.921268 0.492871 0.000000
0.957183 0.494624 0.000000
0.993010 0.496278 0.000000
1.000000 0.497824 0.000000
1.000000 0.499222 0.000000
1.000000 0.500424 0.000000
0.000000 0.490011 0.000000
0.000000 0.488799 0.000000
0.000000 0.487900 0.000000
0.000000 0.487338 0.000000
0.000000 0.487058 0.000000
0.000000 0.487081 0.000000
0.025493 0.487355 0.000000
0.129572 0.487877 0.000000
0.190492 0.488638 0.000000
0.240370 0.489588 0.000000
0.284927 0.490736 0.000000
0.326553 0.492102 0.000000
0.366281 0.493614 0.000000
0.404835 0.495281 0.000000
0.442530 0.497081 0.000000
0.479736 0.499001 0.000000
0.516533 0.501007 0.000000
0.553093 0.503089 0.000000
0.589440 0.505228 0.000000
0.625729 0.507438 0.000000
0.661891 0.509688 0.000000
0.697992 0.511991 0.000000
0.734052 0.514269 0.000000
0.770038 0.516524 0.000000
0.806000 0.518743 0.000000
0.841895 0.520907 0.000000
0.877711 0.523029 0.000000
0.913410 0.525081 0.000000
0.949036 0.527042 0.000000
0.984456 0.528878 0.000000
1.000000 0.530626 0.000000
1.000000 0.532165 0.000000
1.000000 0.533571 0.000000
0.000000 0.518918 0.000000
0.000000 0.517799 0.000000
0.000000 0.516986 0.000000
0.000000 0.516475 0.000000
0.000000 0.516288 0.000000
0.000000 0.516358 0.000000
0.000000 0.516691 0.000000
0.109217 0.517314 0.000000
0.177807 0.518158 0.000000
0.230812 0.519200 0.000000
0.277179 0.520458 0.000000
0.319863 0.521901 0.000000
0.360279 0.523513 0.000000
0.399232 0.525279 0.000000
0.437244 0.527213 0.000000
0.474523 0.529218 0.000000
0.511346 0.531350 0.000000
0.547859 0.533566 0.000000
0.584188 0.535879 0.000000
0.620250 0.538193 0.000000
0.656256 0.540609 0.000000
0.692110 0.543050 0.000000
0.727886 0.545457 0.000000
0.763617 0.547871 0.000000
0.799245 0.550235 0.000000
0.834849 0.552590 0.000000
0.870341 0.554912 0.000000
0.905718 0.557101 0.000000
0.940957 0.559251 0.000000
0.976100 0.561282 0.000000
1.000000 0.563152 0.000000
1.000000 0.564929 0.000000
1.000000 0.566565 0.000000
0.000000 0.547564 0.000000
0.000000 0.546474 0.000000
0.000000 0.545739 0.000000
0.000000 0.545291 0.000000
0.000000 0.545165 0.000000
0.000000 0.545335 0.000000
0.000000 0.545765 0.000000
0.085186 0.546460 0.000000
0.164430 0.547402 0.000000
0.221117 0.548534 0.000000
0.269355 0.549882 0.000000
0.313186 0.551436 0.000000
0.354310 0.553165 0.000000
0.393771 0.555058 0.000000
0.431974 0.557072 0.000000
0.469450 0.559221 0.000000
0.506310 0.561505 0.000000
0.542762 0.563830 0.000000
0.578951 0.566285 0.000000
0.614904 0.568761 0.000000
0.650663 0.571287 0.000000
0.686339 0.573879 0.000000
0.721871 0.576423 0.000000
0.757289 0.579004 0.000000
0.792661 0.581557 0.000000
0.827898 0.584055 0.000000
0.863071 0.586566 0.000000
0.898124 0.588943 0.000000
0.932998 0.591242 0.000000
0.967777 0.593468 0.000000
1.000000 0.595566 0.000000
1.000000 0.597534 0.000000
1.000000 0.599341 0.000000
0.000000 0.575820 0.000000
0.000000 0.574808 0.000000
0.000000 0.574130 0.000000
0.000000 0.573781 0.000000
0.000000 0.573741 0.000000
0.000000 0.573993 0.000000
0.000000 0.574527 0.000000
0.054173 0.575302 0.000000
0.150126 0.576347 0.000000
0.211178 0.577601 0.000000
0.261498 0.579061 0.000000
0.306601 0.580686 0.000000
0.348420 0.582523 0.000000
0.388371 0.584532 0.000000
0.426840 0.586687 0.000000
0.464443 0.588954 0.000000
0.501379 0.591358 0.000000
0.537793 0.593841 0.000000
0.573894 0.596399 0.000000
0.609700 0.599044 0.000000
0.645257 0.601723 0.000000
0.680730 0.604458 0.000000
0.716016 0.607186 0.000000
0.751155 0.609901 0.000000
0.786206 0.612632 0.000000
0.821167 0.615314 0.000000
0.855995 0.617990 0.000000
0.890679 0.620572 0.000000
0.925224 0.623051 0.000000
0.959632 0.625474 0.000000
0.993810 0.627729 0.000000
1.000000 0.629918 0.000000
1.000000 0.631942 0.000000
0.000000 0.603760 0.000000
0.000000 0.602829 0.000000
0.000000 0.602211 0.000000
0.000000 0.601920 0.000000
0.000000 0.601968 0.000000
0.000000 0.602322 0.000000
0.000000 0.602954 0.000000
0.012548 0.603838 0.000000
0.135242 0.604959 0.000000
0.201266 0.606307 0.000000
0.253819 0.607895 0.000000
0.300082 0.609661 0.000000
0.342788 0.611628 0.000000
0.383100 0.613725 0.000000
0.421952 0.616021 0.000000
0.459668 0.618412 0.000000
0.496618 0.620951 0.000000
0.533072 0.623594 0.000000
0.568978 0.626301 0.000000
0.604694 0.629062 0.000000
0.640071 0.631909 0.000000
0.675240 0.634801 0.000000
0.710307 0.637687 0.000000
0.745222 0.640590 0.000000
0.779916 0.643452 0.000000
0.814564 0.646345 0.000000
0.849060 0.649173 0.000000
0.883381 0.651945 0.000000
0.917648 0.654626 0.000000
0.951660 0.657232 0.000000
0.985504 0.659713 0.000000
1.000000 0.662053 0.000000
1.000000 0.664308 0.000000
0.000000 0.631313 0.000000
0.000000 0.630439 0.000000
0.000000 0.629933 0.000000
0.000000 0.629749 0.000000
0.000000 0.629866 0.000000
0.000000 0.630311 0.000000
0.000000 0.630988 0.000000
0.000000 0.631994 0.000000
0.120058 0.633252 0.000000
0.191742 0.634736 0.000000
0.246625 0.636418 0.000000
0.294094 0.638316 0.000000
0.337454 0.640383 0.000000
0.378309 0.642644 0.000000
0.417388 0.645022 0.000000
0.455218 0.647560 0.000000
0.492191 0.650256 0.000000
0.528546 0.653016 0.000000
0.564413 0.655897 0.000000
0.599890 0.658795 0.000000
0.635085 0.661818 0.000000
0.669992 0.664856 0.000000
0.704808 0.667897 0.000000
0.739432 0.670955 0.000000
0.773853 0.674038 0.000000
0.808194 0.677082 0.000000
0.842331 0.680086 0.000000
0.876354 0.683060 0.000000
0.910178 0.685939 0.000000
0.943839 0.688701 0.000000
0.977316 0.691400 0.000000
1.000000 0.693999 0.000000
1.000000 0.696438 0.000000
0.000000 0.658515 0.000000
0.000000 0.657716 0.000000
0.000000 0.657281 0.000000
0.000000 0.657195 0.000000
0.000000 0.657425 0.000000
0.000000 0.657933 0.000000
0.000000 0.658756 0.000000
0.000000 0.659829 0.000000
0.104972 0.661189 0.000000
0.182911 0.662788 0.000000
0.240038 0.664596 0.000000
0.288711 0.666607 0.000000
0.332809 0.668813 0.000000
0.373926 0.671194 0.000000
0.413245 0.673738 0.000000
0.451151 0.676420 0.000000
0.488133 0.679226 0.000000
0.524349 0.682140 0.000000
0.560115 0.685139 0.000000
0.595379 0.688254 0.000000
0.630393 0.691398 0.000000
0.665137 0.694604 0.000000
0.699589 0.697820 0.000000
0.733950 0.701099 0.000000
0.768083 0.704334 0.000000
0.802073 0.707558 0.000000
0.835864 0.710747 0.000000
0.869497 0.713906 0.000000
0.902962 0.716989 0.000000
0.936265 0.719959 0.000000
0.969349 0.722857 0.000000
1.000000 0.725648 0.000000
1.000000 0.728304 0.000000
0.000000 0.685287 0.000000
0.000000 0.684581 0.000000
0.000000 0.684247 0.000000
0.000000 0.684237 0.000000
0.000000 0.684584 0.000000
0.000000 0.685200 0.000000
0.000000 0.686109 0.000000
0.000000 0.687335 0.000000
0.090704 0.688801 0.000000
0.175289 0.690508 0.000000
0.234497 0.692414 0.000000
0.284130 0.694539 0.000000
0.328793 0.696919 0.000000
0.370307 0.699434 0.000000
0.409640 0.702096 0.000000
0.447630 0.704934 0.000000
0.484510 0.707880 0.000000
0.520689 0.710957 0.000000
0.556201 0.714118 0.000000
0.591317 0.717387 0.000000
0.626042 0.720711 0.000000
0.660554 0.724075 0.000000
0.694719 0.727477 0.000000
0.728751 0.730923 0.000000
0.762512 0.734326 0.000000
0.796160 0.737721 0.000000
0.829628 0.741105 0.000000
0.862925 0.744447 0.000000
0.896011 0.747734 0.000000
0.928926 0.750921 0.000000
0.961609 0.754045 0.000000
0.994095 0.757061 0.000000
1.000000 0.759907 0.000000
0.000000 0.711657 0.000000
0.000000 0.711033 0.000000
0.000000 0.710768 0.000000
0.000000 0.710877 0.000000
0.000000 0.711333 0.000000
0.000000 0.712040 0.000000
0.000000 0.713062 0.000000
0.000000 0.714401 0.000000
0.079064 0.715992 0.000000
0.169620 0.717826 0.000000
0.230415 0.719869 0.000000
0.280840 0.722149 0.000000
0.325726 0.724638 0.000000
0.367369 0.727279 0.000000
0.406796 0.730117 0.000000
0.444662 0.733080 0.000000
0.481547 0.736203 0.000000
0.517494 0.739434 0.000000
0.552837 0.742752 0.000000
0.587634 0.746185 0.000000
0.622146 0.749643 0.000000
0.656279 0.753197 0.000000
0.690207 0.756764 0.000000
0.723840 0.760390 0.000000
0.757352 0.764028 0.000000
0.790599 0.767606 0.000000
0.823724 0.771164 0.000000
0.856633 0.774728 0.000000
0.889368 0.778208 0.000000
0.921896 0.781631 0.000000
0.954177 0.784910 0.000000
0.986238 0.788166 0.000000
1.000000 0.791250 0.000000
0.000000 0.737552 0.000000
0.000000 0.737050 0.000000
0.000000 0.736922 0.000000
0.000000 0.737106 0.000000
0.000000 0.737633 0.000000
0.000000 0.738491 0.000000
0.000000 0.739654 0.000000
0.000000 0.741065 0.000000
0.071995 0.742791 0.000000
0.166347 0.744725 0.000000
0.227924 0.746935 0.000000
0.278770 0.749356 0.000000
0.323844 0.751969 0.000000
0.365432 0.754770 0.000000
0.404850 0.757739 0.000000
0.442602 0.760859 0.000000
0.479190 0.764147 0.000000
0.514958 0.767537 0.000000
0.550044 0.771026 0.000000
0.584587 0.774603 0.000000
0.618763 0.778282 0.000000
0.652600 0.781999 0.000000
0.686147 0.785743 0.000000
0.719467 0.789542 0.000000
0.752588 0.793366 0.000000
0.785471 0.797155 0.000000
0.818162 0.800914 0.000000
0.850676 0.804676 0.000000
0.882985 0.808374 0.000000
0.915114 0.811969 0.000000
0.946999 0.815494 0.000000
0.978648 0.818938 0.000000
1.000000 0.822261 0.000000
0.000000 0.763019 0.000000
0.000000 0.762610 0.000000
0.000000 0.762549 0.000000
0.000000 0.762880 0.000000
0.000000 0.763539 0.000000
0.000000 0.764504 0.000000
0.000000 0.765762 0.000000
0.000000 0.767320 0.000000
0.072056 0.769160 0.000000
0.166272 0.771243 0.000000
0.227828 0.773577 0.000000
0.278476 0.776151 0.000000
0.323350 0.778878 0.000000
0.364816 0.781860 0.000000
0.403943 0.784971 0.000000
0.441400 0.788253 0.000000
0.477729 0.791695 0.000000
0.513125 0.795238 0.000000
0.547934 0.798901 0.000000
0.582167 0.802672 0.000000
0.615967 0.806536 0.000000
0.649427 0.810412 0.000000
0.682600 0.814372 0.000000
0.715520 0.818345 0.000000
0.748189 0.822348 0.000000
0.780735 0.826341 0.000000
