docs/luts/Canon_Landscape_sRGB.cube
TITLE "Canon Landscape (sRGB)"
# Source: LS.ICC
LUT_3D_SIZE 9
DOMAIN_MIN 0.0 0.0 0.0
DOMAIN_MAX 1.0 1.0 1.0
0.000000 0.001686 0.003515
0.181209 0.015242 0.010644
0.352771 0.019104 0.007140
0.514078 0.021403 0.001088
0.665181 0.022008 0.000000
0.806099 0.020685 0.000000
0.936791 0.017867 0.000000
1.000000 0.016056 0.000000
1.000000 0.020005 0.000731
0.026379 0.173873 0.012377
0.178283 0.170402 0.016629
0.347700 0.165997 0.019393
0.509851 0.160375 0.021871
0.662655 0.153500 0.025862
0.805524 0.145250 0.032497
0.938364 0.135502 0.043421
1.000000 0.125313 0.063693
1.000000 0.116654 0.094331
0.095291 0.355065 0.000000
0.185404 0.339987 0.002654
0.342377 0.324120 0.014528
0.502098 0.307317 0.028675
0.655039 0.289535 0.046475
0.799133 0.270707 0.066037
0.933618 0.250733 0.087391
1.000000 0.230022 0.113454
1.000000 0.209922 0.146882
0.167704 0.543463 0.000000
0.209512 0.516828 0.000000
0.340736 0.489406 0.000000
0.492791 0.461178 0.004642
0.643579 0.432062 0.036190
0.787584 0.402082 0.070930
0.923034 0.371099 0.103098
1.000000 0.339308 0.136689
1.000000 0.307725 0.176231
0.242986 0.739040 0.000000
0.252180 0.700865 0.000000
0.347474 0.661880 0.000000
0.484497 0.622129 0.000000
0.629661 0.581573 0.000000
0.771761 0.540181 0.041203
0.907082 0.497939 0.093325
1.000000 0.454771 0.137424
1.000000 0.411650 0.185620
0.321132 0.941805 0.000000
0.310376 0.892036 0.000000
0.366940 0.841561 0.000000
0.480700 0.790278 0.000000
0.615287 0.738187 0.000000
0.753000 0.685376 0.000000
0.886648 0.631659 0.043735
1.000000 0.577155 0.113836
1.000000 0.522403 0.174238
0.339522 0.989535 0.000000
0.341384 0.989531 0.000000
0.388696 0.989521 0.000000
0.485244 0.965553 0.000000
0.603290 0.901971 0.000000
0.732820 0.837627 0.000000
0.862791 0.772479 0.000000
0.988114 0.706511 0.044084
1.000000 0.640113 0.137410
0.339522 0.989535 0.000000
0.339522 0.989535 0.000000
0.368188 0.989535 0.000000
0.457391 0.989444 0.000000
0.579677 0.989276 0.000000
0.712446 0.989061 0.000000
0.836921 0.920403 0.000000
0.959030 0.842975 0.000000
1.000000 0.764854 0.047880
0.339522 0.989535 0.000000
0.339522 0.989535 0.000000
0.351706 0.989555 0.000000
0.422817 0.989479 0.000000
0.536733 0.989331 0.000000
0.666767 0.989122 0.000000
0.799136 0.988882 0.000000
0.927485 0.986516 0.000000
1.000000 0.896808 0.000000
0.000000 0.002451 0.094619
0.142044 0.001548 0.087429
0.322392 0.000986 0.079706
0.492632 0.011102 0.070520
0.652671 0.018235 0.059548
0.802569 0.026986 0.045974
0.942232 0.037911 0.029674
1.000000 0.052910 0.022110
1.000000 0.071288 0.031424
0.011814 0.115710 0.106238
0.133929 0.123996 0.104399
0.313272 0.131484 0.102620
0.484866 0.137691 0.100602
0.646773 0.142570 0.098410
0.798744 0.146245 0.096458
0.940608 0.148804 0.095393
1.000000 0.151508 0.100288
1.000000 0.155479 0.114256
0.071123 0.291359 0.096433
0.138870 0.288228 0.100769
0.303871 0.284229 0.105416
0.473325 0.279324 0.110195
0.635739 0.273390 0.115379
0.789014 0.266432 0.121490
0.932661 0.258433 0.129128
1.000000 0.249917 0.141307
1.000000 0.241962 0.161026
0.141383 0.474512 0.053653
0.165991 0.459803 0.069039
0.298886 0.444265 0.083311
0.460199 0.427921 0.096915
0.620618 0.410719 0.110634
0.774057 0.392603 0.125129
0.918722 0.373499 0.140996
1.000000 0.353696 0.160108
1.000000 0.334092 0.186390
0.214534 0.664936 0.000000
0.214380 0.638668 0.000000
0.304036 0.611600 0.010770
0.448414 0.583733 0.046424
0.603062 0.555060 0.077308
0.754748 0.525563 0.104311
0.899440 0.495169 0.130696
1.000000 0.463911 0.157674
1.000000 0.432752 0.192161
0.290615 0.862564 0.000000
0.275977 0.824693 0.000000
0.324190 0.786073 0.000000
0.441750 0.746696 0.000000
0.585146 0.706524 0.000000
0.732359 0.665555 0.038886
0.875524 0.623759 0.090964
1.000000 0.581097 0.132578
1.000000 0.538231 0.177220
0.339522 0.989535 0.000000
0.339522 0.989535 0.000000
0.361548 0.967753 0.000000
0.444725 0.916852 0.000000
0.569873 0.865156 0.000000
0.708629 0.812695 0.000000
0.848138 0.759404 0.000000
0.982906 0.705316 0.069002
1.000000 0.650784 0.136440
0.339522 0.989535 0.000000
0.339522 0.989535 0.000000
0.353203 0.989555 0.000000
0.430399 0.989475 0.000000
0.551930 0.989311 0.000000
0.685976 0.966941 0.000000
0.818671 0.902181 0.000000
0.950341 0.836619 0.000000
1.000000 0.770353 0.037344
0.339522 0.989535 0.000000
0.339522 0.989535 0.000000
0.342860 0.989536 0.000000
0.398215 0.989508 0.000000
0.508197 0.989361 0.000000
0.641656 0.989170 0.000000
0.780467 0.988928 0.000000
0.915294 0.975049 0.000000
1.000000 0.897186 0.000000
0.000541 0.005317 0.223087
0.105164 0.004624 0.206419
0.293784 0.003672 0.190621
0.472670 0.001073 0.175093
0.641679 0.018048 0.159217
0.800453 0.038246 0.142753
0.949092 0.063736 0.125306
1.000000 0.092029 0.111814
1.000000 0.121838 0.105348
0.006732 0.063158 0.232687
0.092360 0.082626 0.221331
0.280716 0.101267 0.210937
0.461424 0.118849 0.201039
0.632465 0.135392 0.191399
0.793448 0.150928 0.181917
0.944304 0.165535 0.172845
1.000000 0.180735 0.167598
1.000000 0.196909 0.168129
0.050822 0.231401 0.224908
0.096450 0.240049 0.218822
0.267358 0.247892 0.213836
0.446242 0.254770 0.209432
0.617982 0.260708 0.205676
0.780444 0.265555 0.202573
0.933157 0.269478 0.200342
1.000000 0.273109 0.201449
1.000000 0.277202 0.208262
0.117401 0.408969 0.197003
0.129168 0.406168 0.196742
0.259259 0.402546 0.197572
0.429487 0.398055 0.199158
0.599313 0.392702 0.201480
0.762119 0.386463 0.204784
0.915967 0.379183 0.209144
1.000000 0.371346 0.216233
1.000000 0.363776 0.229459
0.187856 0.594099 0.142098
0.182321 0.579692 0.149492
0.263282 0.564545 0.158032
0.414200 0.548584 0.167043
0.578172 0.531826 0.176716
0.739319 0.514173 0.187060
0.893343 0.495654 0.198634
1.000000 0.476294 0.211838
1.000000 0.457104 0.232124
0.261469 0.786476 0.010353
0.251568 0.760512 0.045934
0.285166 0.733792 0.076622
0.404831 0.706324 0.101354
0.556702 0.678042 0.123465
0.713363 0.648973 0.144569
0.865981 0.619061 0.165590
1.000000 0.588304 0.187341
1.000000 0.557363 0.215245
0.338249 0.986159 0.000000
0.323774 0.948571 0.000000
0.326295 0.910329 0.000000
0.406579 0.871295 0.000000
0.538240 0.831487 0.000000
0.686130 0.790915 0.049380
0.835106 0.749532 0.097381
0.979311 0.707323 0.135698
1.000000 0.664654 0.175048
0.339522 0.989535 0.000000
0.339522 0.989535 0.000000
0.344203 0.989546 0.000000
0.407066 0.989492 0.000000
0.526229 0.989365 0.000000
0.660119 0.940041 0.000000
0.802153 0.887161 0.000000
0.943283 0.833461 0.008066
1.000000 0.779131 0.095990
0.339522 0.989535 0.000000
0.339522 0.989535 0.000000
0.339522 0.989535 0.000000
0.378058 0.989506 0.000000
0.482045 0.989401 0.000000
0.618113 0.989218 0.000000
0.763163 0.988973 0.000000
0.904716 0.966725 0.000000
1.000000 0.900784 0.000000
0.011424 0.013943 0.380910
0.074650 0.012100 0.354379
0.267704 0.009989 0.329251
0.454722 0.006534 0.305009
0.632265 0.022933 0.281293
0.799877 0.054855 0.257784
0.957454 0.092020 0.234267
1.000000 0.132204 0.213796
1.000000 0.173021 0.197045
0.013436 0.028458 0.387561
0.059068 0.050641 0.366393
0.251045 0.077503 0.346636
0.440111 0.105009 0.327800
0.619848 0.132509 0.309673
0.789750 0.159407 0.292055
0.949604 0.185827 0.274986
1.000000 0.213247 0.260780
1.000000 0.241218 0.250365
0.041351 0.176476 0.378037
0.064267 0.196415 0.362102
0.233881 0.215732 0.347561
0.421315 0.234181 0.334048
0.602026 0.251681 0.321372
0.773488 0.268233 0.309442
0.935237 0.283961 0.298336
1.000000 0.299598 0.289828
1.000000 0.315672 0.285391
0.098782 0.347247 0.351071
0.101602 0.356188 0.340442
0.222826 0.364373 0.331242
0.400853 0.371702 0.323105
0.579872 0.378136 0.315949
0.751822 0.383671 0.309696
0.914812 0.388305 0.304429
1.000000 0.392398 0.301378
1.000000 0.396754 0.302958
0.164288 0.526684 0.304621
0.163229 0.524122 0.299607
0.226394 0.520890 0.296162
0.382187 0.516822 0.293823
0.555174 0.511891 0.292433
0.725609 0.506101 0.292066
0.888847 0.499441 0.292790
1.000000 0.491977 0.295113
1.000000 0.484737 0.302956
0.234666 0.713764 0.233638
0.229274 0.699649 0.235230
0.250894 0.684831 0.238614
0.370308 0.669237 0.243027
0.530196 0.652848 0.248349
0.696151 0.635638 0.254647
0.858132 0.617597 0.261991
1.000000 0.598708 0.270592
1.000000 0.579706 0.284624
0.308665 0.908134 0.114510
0.298899 0.882473 0.129324
0.296332 0.856087 0.145066
0.371178 0.828957 0.160763
0.508584 0.801085 0.176347
0.665364 0.772373 0.191961
0.823752 0.742853 0.207994
0.977301 0.712571 0.224791
1.000000 0.681799 0.245858
0.339694 0.989568 0.000000
0.339753 0.989582 0.000000
0.339757 0.989577 0.000000
0.387694 0.989564 0.000000
0.494902 0.956508 0.015135
0.636007 0.916309 0.074201
0.787291 0.875304 0.114128
0.937866 0.833494 0.147469
1.000000 0.791017 0.180156
0.339522 0.989535 0.000000
0.339528 0.989540 0.000000
0.339545 0.989552 0.000000
0.362687 0.989547 0.000000
0.458388 0.989468 0.000000
0.596189 0.989278 0.000000
0.747234 0.989032 0.000000
0.895758 0.961592 0.000000
1.000000 0.907530 0.047396
0.039014 0.030724 0.568175
0.062440 0.026799 0.531645
0.245833 0.022662 0.496753
0.439225 0.017404 0.463121
0.624874 0.034647 0.430436
0.801117 0.075958 0.398511
0.967505 0.123369 0.367052
1.000000 0.174702 0.338214
1.000000 0.226511 0.311908
0.039889 0.031103 0.571721
0.049191 0.029472 0.540614
0.226141 0.064229 0.511088
0.421368 0.097849 0.482838
0.609328 0.134528 0.455584
0.787853 0.172080 0.429149
0.956523 0.209911 0.403478
1.000000 0.249017 0.380249
1.000000 0.288636 0.359817
0.052239 0.130046 0.559422
0.054868 0.159331 0.533640
0.205587 0.188868 0.509402
0.399216 0.218128 0.486411
0.588212 0.246771 0.464505
0.768446 0.274755 0.443495
0.939045 0.302096 0.423441
1.000000 0.329608 0.405620
1.000000 0.357439 0.390849
0.091759 0.290387 0.530775
0.096323 0.310669 0.510229
0.192176 0.330397 0.491241
0.375250 0.349263 0.473490
0.562671 0.367331 0.456924
0.743463 0.384561 0.441365
0.915418 0.400908 0.426866
1.000000 0.416897 0.414237
1.000000 0.433060 0.405197
0.147519 0.463234 0.484757
0.150037 0.472433 0.469489
0.195973 0.480931 0.455837
0.353293 0.488627 0.443516
0.534424 0.495530 0.432405
0.713819 0.501522 0.422365
0.886173 0.506679 0.413403
1.000000 0.511092 0.405871
1.000000 0.515711 0.402643
0.211849 0.644550 0.419696
0.210739 0.642290 0.409915
0.223591 0.639328 0.401906
0.339011 0.635610 0.395261
0.506002 0.631055 0.389808
0.680916 0.625729 0.385480
0.852017 0.619525 0.382281
1.000000 0.612456 0.380365
1.000000 0.605386 0.382693
0.281829 0.833499 0.331369
0.276496 0.819665 0.327771
0.270960 0.805216 0.326067
0.339344 0.789955 0.325863
0.481297 0.773977 0.326771
0.646604 0.757109 0.328767
0.814195 0.739505 0.331935
0.977011 0.721060 0.336274
1.000000 0.702221 0.344179
0.340655 0.989724 0.210628
0.340678 0.989719 0.212209
0.336336 0.978448 0.217535
0.359610 0.951689 0.226514
0.465423 0.924136 0.236213
0.613845 0.895780 0.246638
0.774254 0.866707 0.257809
0.934135 0.836774 0.269891
1.000000 0.806203 0.284265
0.339948 0.989624 0.016736
0.339974 0.989627 0.037878
0.339986 0.989648 0.061784
0.352059 0.989634 0.084366
0.437471 0.989556 0.105215
0.575990 0.989406 0.124772
0.732742 0.989151 0.143971
0.888588 0.959665 0.168675
1.000000 0.917466 0.194585
0.081957 0.057505 0.784809
0.072781 0.051627 0.738344
0.231019 0.045208 0.693501
0.427278 0.037202 0.650190
0.620004 0.055011 0.608067
0.804410 0.101584 0.566981
0.979416 0.158355 0.526704
1.000000 0.220262 0.488871
1.000000 0.282905 0.452947
0.082052 0.057536 0.785240
0.073893 0.052373 0.744175
0.209323 0.066168 0.704749
0.406494 0.099193 0.666781
0.601422 0.142360 0.630045
0.788090 0.189399 0.594372
0.965392 0.237924 0.559645
1.000000 0.288365 0.527130
1.000000 0.339371 0.496878
0.083174 0.100324 0.769907
0.081155 0.132648 0.734217
0.186668 0.169404 0.700110
0.381222 0.207761 0.667446
0.577125 0.246616 0.636038
0.765571 0.285507 0.605751
0.944787 0.324101 0.576474
1.000000 0.363211 0.549223
1.000000 0.402624 0.524471
0.102761 0.240408 0.738680
0.106076 0.271014 0.708265
0.171911 0.301420 0.679428
0.353903 0.331385 0.652015
0.548281 0.360694 0.625913
0.737323 0.389308 0.600908
0.917977 0.417234 0.577068
1.000000 0.444899 0.554991
1.000000 0.472821 0.535795
0.142700 0.404578 0.690997
0.147087 0.425155 0.665780
0.176518 0.445137 0.642203
0.328995 0.464444 0.620126
0.516573 0.482925 0.599286
0.704372 0.500618 0.579734
0.885426 0.517466 0.561280
1.000000 0.533672 0.544310
1.000000 0.550062 0.530629
0.196903 0.579389 0.625968
0.199092 0.588777 0.606074
0.206465 0.597591 0.587857
0.312587 0.605642 0.571165
0.484782 0.612875 0.555730
0.667953 0.619278 0.541620
0.847948 0.624882 0.528665
1.000000 0.629643 0.516923
1.000000 0.634420 0.508655
0.259961 0.762541 0.542255
0.258736 0.760543 0.527790
0.257355 0.757849 0.515081
0.312501 0.754461 0.503980
0.457025 0.750304 0.494227
0.630177 0.745333 0.485715
0.806699 0.739509 0.478428
0.978571 0.732931 0.472377
1.000000 0.725928 0.469306
0.329459 0.953403 0.436173
0.324120 0.939856 0.427567
0.318549 0.925667 0.420827
0.334434 0.910758 0.415903
0.438957 0.895102 0.412302
0.594117 0.878651 0.409979
0.763211 0.861436 0.408798
0.932270 0.843360 0.408837
1.000000 0.824663 0.411053
0.341602 0.989876 0.313244
0.341580 0.989868 0.309400
0.341526 0.989876 0.307511
0.346456 0.989872 0.307544
0.419737 0.989802 0.308973
0.557815 0.989640 0.311567
0.719883 0.989384 0.315276
0.883213 0.960990 0.322548
1.000000 0.930674 0.331061
0.100927 0.069719 0.881317
0.100927 0.069719 0.881317
0.223826 0.069178 0.881269
0.420324 0.065370 0.866453
0.618353 0.081244 0.814680
0.810247 0.131808 0.764081
0.993483 0.197062 0.714552
1.000000 0.269218 0.667273
1.000000 0.342614 0.621640
0.100927 0.069719 0.881317
0.100927 0.069719 0.881317
0.200679 0.077026 0.881255
0.396967 0.109871 0.879909
0.596874 0.156427 0.833533
0.790971 0.211514 0.788338
0.976489 0.270085 0.744240
1.000000 0.331449 0.702222
1.000000 0.393505 0.662081
0.102086 0.083203 0.881308
0.104929 0.114903 0.881281
0.178354 0.157356 0.881224
0.369029 0.204246 0.877592
0.569623 0.251792 0.836501
0.765348 0.300747 0.796637
0.952806 0.350166 0.757966
1.000000 0.400498 0.721185
1.000000 0.451341 0.686529
0.116112 0.196788 0.881179
0.123353 0.237263 0.881095
0.166749 0.278362 0.880960
0.339166 0.318794 0.859326
0.537633 0.358672 0.823527
0.733970 0.398265 0.789009
0.922817 0.437436 0.755671
1.000000 0.476624 0.724035
1.000000 0.516105 0.694834
0.148924 0.351162 0.880720
0.157297 0.383211 0.880566
0.173810 0.414329 0.856805
0.311638 0.444791 0.824944
0.502733 0.474544 0.794414
0.697747 0.503657 0.765236
0.887045 0.532025 0.737245
1.000000 0.559883 0.710746
1.000000 0.587940 0.686980
0.194483 0.518961 0.858647
0.198492 0.539780 0.828817
0.202622 0.560068 0.800664
0.293575 0.579727 0.774082
0.467690 0.598544 0.748895
0.657961 0.616610 0.725041
0.846268 0.633869 0.702446
1.000000 0.650397 0.681109
1.000000 0.666954 0.662697
0.246896 0.695590 0.774735
0.248859 0.705304 0.750200
0.250810 0.714370 0.727389
0.293184 0.722708 0.706151
0.436980 0.730316 0.686410
0.616764 0.737093 0.667990
0.801548 0.743056 0.650851
0.982239 0.748261 0.634975
1.000000 0.753124 0.621647
0.308718 0.880634 0.672258
0.307320 0.878899 0.653160
0.305768 0.876506 0.635763
0.316456 0.873444 0.620114
0.416815 0.869615 0.605938
0.577286 0.864972 0.593127
0.754624 0.859554 0.581578
0.932479 0.853329 0.571298
1.000000 0.846536 0.563045
0.346139 0.990475 0.552047
0.345708 0.990414 0.538079
0.345419 0.990365 0.525839
0.345157 0.990340 0.515414
0.406169 0.990282 0.506530
0.542134 0.990087 0.498900
0.707957 0.983365 0.492856
0.879993 0.965672 0.488617
1.000000 0.947216 0.485615
0.100927 0.069719 0.881317
0.100927 0.069719 0.881317
0.205514 0.069277 0.881288
0.408305 0.067468 0.881134
0.615884 0.095428 0.880761
0.817033 0.160083 0.880023
1.000000 0.237899 0.878870
1.000000 0.321835 0.874212
1.000000 0.405787 0.818772
0.100927 0.069719 0.881317
0.100927 0.069719 0.881317
0.180568 0.069442 0.881294
0.381414 0.107402 0.881138
0.590918 0.165778 0.880710
0.794340 0.233294 0.879922
0.989008 0.304221 0.878728
1.000000 0.377743 0.878077
1.000000 0.451294 0.856009
0.100927 0.069719 0.881317
0.102905 0.094389 0.881286
0.157413 0.140271 0.881253
0.350558 0.196103 0.881046
0.560473 0.255733 0.880556
0.765526 0.316865 0.879719
0.962101 0.378443 0.878510
1.000000 0.440932 0.877635
1.000000 0.503674 0.877097
0.109580 0.153845 0.881233
0.117073 0.202521 0.881165
0.147292 0.253683 0.881070
0.318807 0.305558 0.880774
0.525793 0.357468 0.880245
0.731178 0.409120 0.879375
0.929051 0.460275 0.878102
1.000000 0.511537 0.877049
1.000000 0.562992 0.876555
0.136155 0.298168 0.880935
0.146530 0.341264 0.880758
0.157493 0.384155 0.880559
0.291273 0.426583 0.880242
0.488743 0.468283 0.879628
0.692241 0.509326 0.878760
0.890435 0.549662 0.877530
1.000000 0.589484 0.876228
1.000000 0.629498 0.871998
0.178785 0.459870 0.880098
0.188558 0.492722 0.879865
0.198374 0.524941 0.879608
0.275757 0.556504 0.879253
0.452467 0.587274 0.878679
0.650161 0.617249 0.877826
0.846980 0.646443 0.876704
1.000000 0.674812 0.873517
1.000000 0.703017 0.845117
0.232594 0.631599 0.878517
0.239802 0.653202 0.878260
0.246749 0.674188 0.878017
0.280617 0.694471 0.877697
0.421720 0.713980 0.877226
0.607123 0.732663 0.876486
0.799335 0.750320 0.850716
0.988329 0.767191 0.825145
1.000000 0.783834 0.801873
0.294013 0.811559 0.875941
0.297627 0.821739 0.875776
0.300859 0.831225 0.874384
0.308149 0.839899 0.848624
0.400747 0.847827 0.824395
0.564490 0.854939 0.801596
0.748989 0.861294 0.780157
0.935161 0.866820 0.760037
1.000000 0.871841 0.741785
0.355449 0.991595 0.809985
0.354331 0.991455 0.786175
0.353377 0.991359 0.764094
0.352499 0.991246 0.743736
0.397438 0.988973 0.725031
0.528549 0.984705 0.707822
0.698839 0.979646 0.691950
0.879173 0.973800 0.677427
1.000000 0.967153 0.664188
0.100927 0.069719 0.881317
0.100927 0.069719 0.881317
0.188923 0.069389 0.881279
0.397089 0.067615 0.881144
0.613168 0.105980 0.880755
0.823334 0.184749 0.879958
1.000000 0.275856 0.878656
1.000000 0.372487 0.878126
1.000000 0.469581 0.877426
0.100927 0.069719 0.881317
0.100927 0.069719 0.881317
0.162899 0.069503 0.881291
0.367135 0.106778 0.881151
0.585108 0.175241 0.880682
0.797561 0.254725 0.879847
1.000000 0.337764 0.878494
1.000000 0.423494 0.877778
1.000000 0.509395 0.877061
0.100927 0.069719 0.881317
0.101692 0.080463 0.881290
0.139808 0.126481 0.881254
0.333412 0.190669 0.881055
0.551620 0.261191 0.880572
0.765587 0.333887 0.879637
0.971320 0.407313 0.878249
1.000000 0.481803 0.877315
1.000000 0.556438 0.876596
0.105308 0.117813 0.881284
0.112248 0.171822 0.881212
0.132569 0.232175 0.881099
0.299111 0.294836 0.880839
0.513838 0.358056 0.880231
0.728147 0.421315 0.879284
0.935149 0.484308 0.877877
1.000000 0.547471 0.876696
1.000000 0.610733 0.875987
0.125577 0.249106 0.881055
0.137230 0.302727 0.880899
0.150357 0.356698 0.880675
0.269900 0.410541 0.880348
0.473778 0.463845 0.879715
0.686062 0.516596 0.878709
0.893307 0.568676 0.877316
1.000000 0.620380 0.875878
1.000000 0.672273 0.875219
0.162946 0.403945 0.880459
0.175348 0.448176 0.880168
0.188262 0.492020 0.879883
0.254494 0.535228 0.879452
0.434764 0.577748 0.878828
0.640834 0.619444 0.877829
0.846659 0.660395 0.876493
1.000000 0.700633 0.874821
1.000000 0.740996 0.874200
0.212619 0.569904 0.879178
0.223412 0.603232 0.878848
0.234023 0.635916 0.878465
0.262010 0.667989 0.878068
0.401903 0.699274 0.877463
0.594754 0.729740 0.876546
0.796309 0.759424 0.875357
0.994619 0.788306 0.873791
1.000000 0.816970 0.872912
0.270676 0.744470 0.877024
0.278300 0.766453 0.876696
0.285716 0.787764 0.876336
0.293105 0.808430 0.875981
0.382492 0.828341 0.875509
0.551274 0.847447 0.874778
0.744065 0.865753 0.873768
0.939095 0.883232 0.872416
1.000000 0.900195 0.871276
0.334922 0.926878 0.873747
0.338688 0.937346 0.873504
0.342231 0.947177 0.873289
0.345569 0.956326 0.873102
0.383870 0.964773 0.872846
0.515662 0.972449 0.872390
0.692441 0.979303 0.871622
0.880977 0.985358 0.870590
1.000000 0.990590 0.869245
