docs/luts/Canon_Portrait_AdobeRGB.cube
TITLE "Canon Portrait (Adobe RGB)"
# Source: PA.ICC
LUT_3D_SIZE 9
DOMAIN_MIN 0.0 0.0 0.0
DOMAIN_MAX 1.0 1.0 1.0
0.000000 0.001686 0.003515
0.191866 0.000000 0.001597
0.357553 0.000000 0.000000
0.504543 0.000000 0.000000
0.630599 0.000000 0.000000
0.736442 0.000000 0.000000
0.822140 0.000000 0.000000
0.887408 0.000000 0.000000
0.932800 0.000000 0.000000
0.000000 0.191720 0.002105
0.148574 0.143714 0.000000
0.339169 0.103901 0.000000
0.495382 0.071092 0.000000
0.629269 0.044130 0.000000
0.742070 0.024799 0.000000
0.834587 0.014800 0.000000
0.906924 0.012710 0.000000
0.959205 0.019422 0.000000
0.000000 0.369516 0.000000
0.000000 0.322811 0.000000
0.294421 0.284272 0.000000
0.475758 0.253818 0.000000
0.622727 0.231351 0.000000
0.745368 0.216930 0.000000
0.846142 0.210730 0.000000
0.925956 0.213090 0.000000
0.985081 0.224248 0.003619
0.000000 0.533445 0.000000
0.000000 0.487975 0.000000
0.195125 0.450712 0.000000
0.437514 0.421629 0.000000
0.605725 0.400718 0.000000
0.741521 0.387990 0.000000
0.852376 0.383593 0.000000
0.940645 0.387659 0.032264
1.000000 0.400261 0.121781
0.000000 0.683385 0.000000
0.000000 0.639145 0.000000
0.000000 0.603108 0.000000
0.376012 0.575302 0.000000
0.578121 0.555703 0.000000
0.731252 0.544413 0.000000
0.854112 0.541388 0.000000
0.951916 0.546801 0.045018
1.000000 0.560670 0.168120
0.000000 0.819325 0.000000
0.000000 0.776352 0.000000
0.000000 0.741542 0.000000
0.278956 0.714957 0.000000
0.540811 0.696637 0.000000
0.716196 0.686584 0.000000
0.853095 0.684841 0.000000
0.961574 0.691502 0.000000
1.000000 0.706638 0.160391
0.000000 0.941349 0.000000
0.000000 0.899547 0.000000
0.000000 0.865980 0.000000
0.053832 0.840638 0.000000
0.495278 0.823523 0.000000
0.698930 0.814718 0.000000
0.851796 0.814200 0.000000
0.971834 0.822070 0.000000
1.000000 0.838432 0.056299
0.000000 1.000000 0.000000
0.000000 1.000000 0.000000
0.000000 0.976443 0.000000
0.000000 0.952321 0.000000
0.443902 0.936404 0.000000
0.682527 0.928800 0.000000
0.852728 0.929526 0.000000
0.984896 0.938622 0.000000
1.000000 0.956111 0.000000
0.000000 1.000000 0.000000
0.000000 1.000000 0.000000
0.000000 1.000000 0.000000
0.000000 1.000000 0.000000
0.391926 1.000000 0.000000
0.671097 1.000000 0.000000
0.859002 1.000000 0.000000
1.000000 1.000000 0.000000
1.000000 1.000000 0.000000
0.000000 0.000000 0.135642
0.186783 0.000000 0.078489
0.356805 0.000000 0.028784
0.505975 0.000000 0.000000
0.636206 0.000000 0.000000
0.746854 0.000000 0.000000
0.837669 0.000000 0.000000
0.908638 0.000000 0.000000
0.959680 0.000000 0.000000
0.000000 0.168280 0.144346
0.133929 0.123996 0.104399
0.328204 0.087758 0.068678
0.489243 0.058596 0.033868
0.628133 0.035375 0.005320
0.746462 0.020517 0.000000
0.844562 0.013647 0.000000
0.922550 0.014194 0.000000
0.980428 0.025047 0.000000
0.000000 0.341146 0.101314
0.000000 0.298152 0.080186
0.279668 0.263368 0.064233
0.465058 0.236634 0.052291
0.616831 0.217836 0.045621
0.744663 0.207076 0.046859
0.850809 0.204571 0.059019
0.936114 0.210726 0.082567
1.000000 0.225663 0.115608
0.000000 0.500298 0.000000
0.000000 0.458537 0.000000
0.174057 0.425014 0.000000
0.423003 0.399677 0.000000
0.595566 0.382527 0.018120
0.736217 0.373551 0.058915
0.852216 0.372903 0.102646
0.945771 0.380671 0.150176
1.000000 0.397003 0.203108
0.000000 0.645559 0.000000
0.000000 0.605067 0.000000
0.000000 0.572783 0.000000
0.356841 0.548714 0.000000
0.563830 0.532850 0.000000
0.721591 0.525312 0.000000
0.849361 0.526026 0.082372
0.952369 0.535189 0.165795
1.000000 0.552816 0.243415
0.000000 0.776854 0.000000
0.000000 0.737573 0.000000
0.000000 0.706543 0.000000
0.250479 0.683744 0.000000
0.521979 0.669134 0.000000
0.702164 0.662810 0.000000
0.843943 0.664858 0.000000
0.957395 0.675247 0.120578
1.000000 0.694141 0.237917
0.000000 0.894204 0.000000
0.000000 0.856160 0.000000
0.000000 0.826330 0.000000
0.000000 0.804739 0.000000
0.470887 0.791389 0.000000
0.680297 0.786310 0.000000
0.838037 0.789563 0.000000
0.963035 0.801153 0.000000
1.000000 0.821286 0.172883
0.000000 0.993332 0.000000
0.000000 0.960750 0.000000
0.000000 0.932197 0.000000
0.000000 0.911796 0.000000
0.411941 0.899664 0.000000
0.658855 0.895775 0.000000
0.834183 0.900232 0.000000
0.971388 0.913065 0.000000
1.000000 0.934304 0.000000
0.000000 1.000000 0.000000
0.000000 1.000000 0.000000
0.000000 1.000000 0.000000
0.000000 1.000000 0.000000
0.347749 0.993841 0.000000
0.641432 0.991232 0.000000
0.835210 0.996776 0.000000
0.984774 1.000000 0.000000
1.000000 1.000000 0.000000
0.000000 0.000000 0.293343
0.179762 0.000000 0.228240
0.353109 0.000000 0.169591
0.507714 0.000000 0.115037
0.643520 0.000000 0.061443
0.759790 0.000000 0.006506
0.856292 0.000000 0.000000
0.932902 0.000000 0.000000
0.989614 0.000000 0.000000
0.000000 0.151305 0.299670
0.122419 0.110972 0.252302
0.319642 0.078478 0.211299
0.485556 0.052775 0.175949
0.629882 0.033125 0.145782
0.753776 0.021557 0.120912
0.857491 0.017106 0.102077
0.941132 0.021231 0.090701
1.000000 0.037743 0.089332
0.000000 0.318235 0.265443
0.000000 0.278972 0.236405
0.267328 0.247885 0.213802
0.456900 0.224880 0.197140
0.613601 0.209755 0.186578
0.746758 0.202682 0.182681
0.858354 0.203880 0.186209
0.949121 0.213713 0.197824
1.000000 0.232325 0.217993
0.000000 0.472301 0.181332
0.000000 0.434355 0.172405
0.154148 0.404596 0.169844
0.410575 0.383003 0.173199
0.587783 0.369543 0.182834
0.733451 0.364343 0.199471
0.854682 0.367419 0.223583
0.953630 0.378930 0.255544
1.000000 0.399009 0.295278
0.000000 0.612746 0.000000
0.000000 0.576026 0.000000
0.000000 0.547502 0.030621
0.339273 0.527234 0.080286
0.551596 0.515134 0.123246
0.714162 0.511326 0.167613
0.847035 0.515834 0.216365
0.955242 0.528727 0.270777
1.000000 0.550092 0.331473
0.000000 0.739348 0.000000
0.000000 0.703841 0.000000
0.000000 0.676573 0.000000
0.222040 0.657509 0.000000
0.504863 0.646672 0.000000
0.690158 0.644132 0.036586
0.836845 0.649918 0.152167
0.955511 0.664113 0.239820
1.000000 0.686756 0.325900
0.000000 0.852088 0.000000
0.000000 0.817721 0.000000
0.000000 0.791709 0.000000
0.000000 0.773886 0.000000
0.447815 0.764275 0.000000
0.663380 0.762937 0.000000
0.826247 0.769938 0.000000
0.956328 0.785299 0.139410
1.000000 0.809181 0.272117
0.000000 0.950611 0.000000
0.000000 0.917734 0.000000
0.000000 0.892899 0.000000
0.000000 0.876298 0.000000
0.380604 0.867882 0.000000
0.636759 0.867778 0.000000
0.817504 0.875967 0.000000
0.959815 0.892538 0.000000
1.000000 0.917556 0.135267
0.000000 1.000000 0.000000
0.000000 1.000000 0.000000
0.000000 0.980115 0.000000
0.000000 0.964716 0.000000
0.302934 0.957550 0.000000
0.613595 0.958615 0.000000
0.813385 0.968037 0.000000
0.968118 0.985765 0.000000
1.000000 1.000000 0.000000
0.000000 0.000000 0.469653
0.177868 0.000000 0.397003
0.353218 0.000000 0.331222
0.512740 0.000000 0.271583
0.653945 0.000000 0.217657
0.775802 0.000000 0.168732
0.877896 0.000000 0.124100
0.960177 0.000000 0.082497
1.000000 0.000000 0.042153
0.000000 0.142104 0.471323
0.117260 0.105715 0.416364
0.314891 0.077155 0.368286
0.485308 0.055252 0.326815
0.634902 0.039171 0.291640
0.764258 0.029729 0.262918
0.873543 0.028054 0.240849
0.962694 0.036704 0.225924
1.000000 0.058761 0.218810
0.000000 0.301286 0.435207
0.000000 0.265761 0.398301
0.258404 0.238359 0.368243
0.451772 0.219023 0.344811
0.613380 0.207496 0.327857
0.751738 0.204068 0.317697
0.868762 0.208837 0.314583
0.965065 0.222315 0.318891
1.000000 0.244558 0.330910
0.000000 0.449811 0.358340
0.000000 0.415562 0.339942
0.137245 0.389584 0.328313
0.400780 0.371705 0.323114
0.582656 0.361995 0.324516
0.733369 0.360487 0.332766
0.859854 0.367269 0.348297
0.964158 0.382466 0.371253
1.000000 0.406243 0.401886
0.000000 0.585173 0.230405
0.000000 0.552208 0.233047
0.000000 0.527487 0.242102
0.323750 0.510967 0.257238
0.541612 0.502644 0.278585
0.709163 0.502556 0.306664
0.847226 0.510830 0.341823
0.960689 0.527459 0.384244
1.000000 0.552555 0.434073
0.000000 0.706949 0.000000
0.000000 0.675189 0.000000
0.000000 0.651709 0.055912
0.193351 0.636424 0.121174
0.489601 0.629359 0.176275
0.680241 0.630586 0.231836
0.832089 0.640133 0.291220
0.955969 0.658072 0.355954
1.000000 0.684466 0.426765
0.000000 0.814961 0.000000
0.000000 0.784411 0.000000
0.000000 0.762118 0.000000
0.000000 0.748061 0.000000
0.426150 0.742203 0.000000
0.648381 0.744648 0.037579
0.816493 0.755411 0.177968
0.951820 0.774597 0.278866
1.000000 0.802184 0.376561
0.000000 0.909048 0.000000
0.000000 0.879690 0.000000
0.000000 0.858632 0.000000
0.000000 0.845800 0.000000
0.349582 0.841170 0.000000
0.616270 0.844801 0.000000
0.802685 0.856724 0.000000
0.950270 0.877071 0.104233
1.000000 0.905871 0.271271
0.000000 0.985808 0.000000
0.000000 0.961074 0.000000
0.000000 0.941231 0.000000
0.000000 0.929589 0.000000
0.255039 0.926144 0.000000
0.587165 0.930992 0.000000
0.793378 0.944143 0.000000
0.953478 0.965599 0.000000
1.000000 0.995398 0.000000
0.005476 0.000000 0.664798
0.182719 0.000000 0.584563
0.358017 0.000000 0.511428
0.521681 0.000000 0.445050
0.667918 0.000000 0.385185
0.795103 0.000000 0.331758
0.902787 0.000000 0.284644
0.990604 0.000000 0.243892
1.000000 0.000000 0.209675
0.000000 0.141343 0.661137
0.121807 0.109204 0.598643
0.314953 0.084710 0.543275
0.489018 0.066272 0.494769
0.643437 0.053648 0.453021
0.778088 0.047183 0.418050
0.892804 0.048939 0.389964
0.987499 0.061549 0.368958
1.000000 0.085286 0.355274
0.000000 0.290834 0.620853
0.000000 0.258981 0.576286
0.254118 0.235261 0.538753
0.450296 0.219398 0.508105
0.616472 0.211401 0.484258
0.759966 0.211425 0.467289
0.882312 0.219704 0.457342
0.984025 0.236595 0.454591
1.000000 0.262309 0.459173
0.000000 0.433083 0.542541
0.000000 0.402576 0.516081
0.125821 0.380276 0.496512
0.394203 0.366101 0.483733
0.580548 0.360102 0.477803
0.736243 0.362178 0.478706
0.867970 0.372657 0.486739
0.977637 0.391481 0.502031
1.000000 0.418860 0.524749
0.000000 0.563063 0.423093
0.000000 0.533825 0.415288
0.000000 0.512892 0.414358
0.311025 0.500088 0.420001
0.534313 0.495525 0.432377
0.706875 0.499186 0.451574
0.850026 0.511142 0.477946
0.968827 0.531484 0.511588
1.000000 0.560297 0.552679
0.000000 0.679737 0.248655
0.000000 0.651773 0.263419
0.000000 0.632053 0.284418
0.164978 0.620572 0.311160
0.476603 0.617266 0.343912
0.672709 0.622282 0.383129
0.829759 0.635620 0.429151
0.958902 0.657290 0.482206
1.000000 0.687398 0.542470
0.000000 0.782897 0.000000
0.000000 0.756069 0.000000
0.000000 0.737600 0.005403
0.000000 0.727320 0.118980
0.406024 0.725238 0.193284
0.635431 0.731526 0.262933
0.808939 0.746057 0.334456
0.949568 0.768973 0.410518
1.000000 0.800355 0.492179
0.000000 0.872306 0.000000
0.000000 0.846716 0.000000
0.000000 0.829402 0.000000
0.000000 0.820297 0.000000
0.318776 0.819418 0.000000
0.597460 0.826879 0.000000
0.789900 0.842620 0.162101
0.942898 0.866733 0.284378
1.000000 0.899293 0.396213
0.000000 0.947817 0.000000
0.000000 0.923442 0.000000
0.000000 0.907348 0.000000
0.000000 0.899455 0.000000
0.201267 0.899796 0.000000
0.562061 0.908385 0.000000
0.775098 0.925257 0.000000
0.940855 0.950527 0.000000
1.000000 0.984228 0.229702
0.060944 0.030496 0.878656
0.196137 0.000000 0.790965
0.368417 0.000000 0.710398
0.534968 0.000000 0.636819
0.685759 0.000000 0.570097
0.818038 0.000000 0.510197
0.931007 0.000000 0.457080
1.000000 0.000000 0.410709
1.000000 0.000000 0.371307
0.000000 0.149403 0.869489
0.137690 0.121477 0.799549
0.320866 0.100373 0.736743
0.497100 0.085116 0.680955
0.655847 0.075348 0.632166
0.795467 0.071772 0.590303
0.915445 0.076409 0.555419
1.000000 0.091287 0.527646
1.000000 0.117162 0.507068
0.000000 0.287371 0.824233
0.000000 0.259179 0.772098
0.255907 0.238949 0.727102
0.453027 0.226516 0.689157
0.623215 0.221778 0.658143
0.771584 0.225048 0.634089
0.899125 0.236559 0.617072
1.000000 0.256732 0.607159
1.000000 0.285757 0.604512
0.000000 0.422505 0.742122
0.000000 0.395672 0.707899
0.123541 0.377047 0.680751
0.391703 0.366453 0.660549
0.581852 0.364010 0.647275
0.742301 0.369631 0.640959
0.879133 0.383599 0.641710
0.994026 0.405977 0.649594
1.000000 0.436879 0.664786
0.000000 0.546626 0.621888
0.000000 0.521142 0.605762
0.000000 0.503892 0.596681
0.302189 0.494826 0.594414
0.530064 0.493942 0.599002
0.707489 0.501295 0.610552
0.855777 0.516934 0.629161
0.979781 0.540893 0.654986
1.000000 0.573329 0.688089
0.000000 0.657971 0.459499
0.000000 0.633738 0.462416
0.000000 0.617802 0.472178
0.138670 0.610090 0.488592
0.466352 0.610591 0.511616
0.667821 0.619281 0.541565
0.830094 0.636334 0.578538
0.964471 0.661727 0.622713
1.000000 0.695567 0.674216
0.000000 0.756044 0.233871
0.000000 0.733049 0.262516
0.000000 0.718306 0.296340
0.000000 0.711823 0.335295
0.387981 0.713590 0.379757
0.624770 0.723574 0.430284
0.803846 0.741888 0.487280
0.949824 0.768619 0.551084
1.000000 0.803713 0.621913
0.000000 0.840607 0.000000
0.000000 0.818755 0.000000
0.000000 0.805226 0.000000
0.000000 0.799932 0.051641
0.287997 0.802856 0.171884
0.580510 0.814071 0.260726
0.779222 0.833615 0.346617
0.937724 0.861508 0.435076
1.000000 0.897872 0.528251
0.000000 0.911447 0.000000
0.000000 0.890812 0.000000
0.000000 0.878427 0.000000
0.000000 0.874340 0.000000
0.132843 0.878442 0.000000
0.538266 0.890806 0.000000
0.758746 0.911482 0.079132
0.930284 0.940568 0.252762
1.000000 0.978052 0.383816
0.270248 0.035761 1.000000
0.218474 0.030750 1.000000
0.384120 0.000000 0.927424
0.553023 0.000000 0.847180
0.707761 0.000000 0.773321
0.844635 0.000000 0.706411
0.962445 0.000000 0.646386
1.000000 0.000000 0.593376
1.000000 0.000000 0.547501
0.123121 0.160256 1.000000
0.164161 0.141201 1.000000
0.333432 0.123174 0.947752
0.510112 0.110393 0.885719
0.672443 0.102919 0.829650
0.816645 0.101797 0.780665
0.941646 0.109070 0.738707
1.000000 0.126171 0.703854
1.000000 0.154145 0.676177
0.000000 0.291101 1.000000
0.019485 0.266557 0.984266
0.264988 0.249664 0.933078
0.460574 0.240359 0.888477
0.634027 0.238672 0.850180
0.786847 0.244907 0.818926
0.919356 0.259467 0.794684
1.000000 0.282745 0.777617
1.000000 0.314871 0.767677
0.000000 0.418386 0.957722
0.000000 0.395197 0.916863
0.133672 0.380101 0.882637
0.393920 0.373006 0.855021
0.586974 0.373918 0.834394
0.751842 0.383002 0.820800
0.893576 0.400353 0.814282
1.000000 0.426127 0.814845
1.000000 0.460474 0.822618
0.000000 0.536168 0.835433
0.000000 0.514354 0.811524
0.000000 0.500804 0.794701
0.298417 0.495372 0.784875
0.529511 0.498093 0.781976
0.711368 0.509005 0.786067
0.864545 0.528227 0.797256
0.993728 0.555805 0.815586
1.000000 0.591798 0.841099
0.000000 0.641836 0.673227
0.000000 0.621361 0.667564
0.000000 0.609177 0.668877
0.117649 0.605159 0.677043
0.459508 0.609392 0.692115
0.665943 0.621826 0.714123
0.833303 0.642525 0.743149
0.972880 0.671593 0.779396
1.000000 0.709079 0.822927
0.000000 0.734601 0.467202
0.000000 0.715362 0.481057
0.000000 0.704428 0.501643
0.000000 0.701716 0.528787
0.372840 0.707253 0.562617
0.616855 0.721019 0.603193
0.801365 0.743077 0.650767
0.952699 0.773490 0.705435
1.000000 0.812336 0.767347
0.000000 0.814078 0.178773
0.000000 0.796039 0.226577
0.000000 0.786273 0.276107
0.000000 0.784806 0.328893
0.257880 0.791557 0.385883
0.565877 0.806548 0.448142
0.770870 0.829852 0.516449
0.935028 0.861561 0.591253
1.000000 0.901644 0.672787
0.000000 0.880095 0.000000
0.000000 0.863191 0.000000
0.000000 0.854626 0.000000
0.000000 0.854296 0.000000
0.001230 0.862192 0.089937
0.516137 0.878371 0.221007
0.744443 0.902881 0.326224
0.921911 0.935710 0.429034
1.000000 0.977004 0.534737
0.572436 0.000000 1.000000
0.489586 0.000000 1.000000
0.452493 0.024776 1.000000
0.575598 0.027784 1.000000
0.733637 0.007171 0.992745
0.874887 0.000000 0.920363
0.997774 0.001763 0.853806
1.000000 0.006591 0.793823
1.000000 0.031974 0.740985
0.521180 0.105287 1.000000
0.449681 0.113522 1.000000
0.416170 0.135218 1.000000
0.528412 0.140594 1.000000
0.693481 0.135337 1.000000
0.841803 0.136672 0.987287
0.971513 0.146295 0.939303
1.000000 0.165880 0.898131
1.000000 0.196139 0.863245
0.360179 0.282006 1.000000
0.284369 0.270391 1.000000
0.281576 0.267030 1.000000
0.473392 0.260667 1.000000
0.649139 0.261835 1.000000
0.805978 0.270863 1.000000
0.943146 0.288267 0.988393
1.000000 0.314456 0.964623
1.000000 0.349595 0.947785
0.000000 0.420916 1.000000
0.000000 0.401232 1.000000
0.155387 0.389505 1.000000
0.401647 0.385741 1.000000
0.596368 0.389933 1.000000
0.765105 0.402226 1.000000
0.911418 0.422835 1.000000
1.000000 0.451905 0.995659
1.000000 0.489574 0.996018
0.000000 0.531933 1.000000
0.000000 0.513724 1.000000
0.000000 0.503768 1.000000
0.300971 0.501892 0.990453
0.533159 0.508123 0.980424
0.718822 0.522510 0.977211
0.876663 0.545146 0.980849
1.000000 0.576176 0.991446
1.000000 0.615709 1.000000
0.000000 0.631632 0.900645
0.000000 0.614852 0.887290
0.000000 0.606293 0.880730
0.108526 0.605994 0.881260
0.456706 0.613833 0.888669
0.667510 0.629906 0.902835
0.839653 0.654213 0.923859
0.984277 0.686888 0.951795
1.000000 0.727938 0.986641
0.000000 0.718799 0.696616
0.000000 0.703295 0.701387
0.000000 0.696073 0.713092
0.000000 0.697143 0.731750
0.361464 0.706397 0.757221
0.612065 0.723907 0.789677
0.801807 0.749667 0.829123
0.958384 0.783800 0.875740
1.000000 0.826290 0.928476
0.000000 0.792914 0.445519
0.000000 0.778658 0.470650
0.000000 0.772693 0.502392
0.000000 0.775023 0.540604
0.229770 0.785581 0.585277
0.553976 0.804339 0.636569
0.765302 0.831419 0.694757
0.934917 0.866835 0.759961
1.000000 0.910664 0.832292
0.000000 0.853872 0.022535
0.000000 0.840746 0.140982
0.000000 0.835973 0.218059
0.000000 0.839466 0.289265
0.000000 0.851187 0.360981
0.496012 0.871195 0.436167
0.732480 0.899484 0.516364
0.915979 0.936126 0.602513
1.000000 0.981168 0.695060
0.811065 0.000000 1.000000
0.732847 0.000000 1.000000
0.689281 0.000000 1.000000
0.688882 0.009600 1.000000
0.764339 0.085165 1.000000
0.909647 0.075268 1.000000
1.000000 0.067543 1.000000
1.000000 0.077591 1.000000
1.000000 0.090451 0.951219
0.770437 0.000000 1.000000
0.703837 0.000000 1.000000
0.664898 0.061004 1.000000
0.669852 0.124416 1.000000
0.719043 0.172191 1.000000
0.871068 0.175927 1.000000
1.000000 0.188065 1.000000
1.000000 0.210224 1.000000
1.000000 0.243072 1.000000
0.670533 0.247890 1.000000
0.612220 0.243145 1.000000
0.577933 0.249584 1.000000
0.593120 0.267949 1.000000
0.668784 0.290926 1.000000
0.829127 0.302652 1.000000
0.970619 0.322742 1.000000
1.000000 0.351712 1.000000
1.000000 0.389817 1.000000
0.463641 0.406874 1.000000
0.404222 0.396434 1.000000
0.370888 0.395302 1.000000
0.415339 0.404706 1.000000
0.610284 0.411973 1.000000
0.782216 0.427341 1.000000
0.932892 0.451083 1.000000
1.000000 0.483278 1.000000
1.000000 0.524141 1.000000
0.000000 0.534103 1.000000
0.000000 0.519381 1.000000
0.000000 0.512879 1.000000
0.310529 0.514397 1.000000
0.541235 0.523978 1.000000
0.730061 0.541738 1.000000
0.892190 0.567739 1.000000
1.000000 0.602167 1.000000
1.000000 0.645052 1.000000
0.000000 0.627470 1.000000
0.000000 0.614324 1.000000
0.000000 0.609383 1.000000
0.115484 0.612642 1.000000
0.458586 0.624015 1.000000
0.672742 0.643618 1.000000
0.849334 0.671461 1.000000
0.998767 0.707635 1.000000
1.000000 0.752233 1.000000
0.000000 0.708810 0.937345
0.000000 0.697008 0.934111
0.000000 0.693539 0.937839
0.000000 0.698255 0.948374
0.355259 0.711179 0.965675
0.610796 0.732336 0.989758
0.805519 0.761727 1.000000
0.967076 0.799443 1.000000
1.000000 0.845564 1.000000
0.000000 0.777392 0.691849
0.000000 0.766884 0.707088
0.000000 0.764718 0.729308
0.000000 0.770810 0.758457
0.205941 0.785091 0.794386
0.545496 0.807609 0.837259
0.762706 0.838429 0.886965
0.937733 0.877538 0.942604
1.000000 0.925014 1.000000
0.000000 0.833009 0.393001
0.000000 0.823689 0.430306
0.000000 0.822722 0.473837
0.000000 0.830009 0.523468
0.000000 0.845557 0.579274
0.478565 0.869345 0.641510
0.723165 0.901416 0.710430
0.912695 0.941833 0.786257
1.000000 0.990630 0.869129
