docs/luts/Canon_Landscape_sRGB.cube
TITLE "Canon Landscape (sRGB)"
# Source: LS.ICC
LUT_3D_SIZE 33
DOMAIN_MIN 0.0 0.0 0.0
DOMAIN_MAX 1.0 1.0 1.0
0.000000 0.001686 0.003515
0.041358 0.003224 0.003665
0.090276 0.013543 0.003655
0.136606 0.014344 0.003955
0.181209 0.015242 0.010644
0.225125 0.016382 0.010018
0.268242 0.017400 0.009321
0.310819 0.018296 0.008359
0.352771 0.019104 0.007140
0.394014 0.019801 0.005916
0.434711 0.020546 0.004461
0.474677 0.021029 0.002889
0.514078 0.021403 0.001088
0.552820 0.021815 0.000000
0.590881 0.021718 0.000000
0.628352 0.022123 0.000000
0.665181 0.022008 0.000000
0.701329 0.021850 0.000000
0.736928 0.021667 0.000000
0.771809 0.021146 0.000000
0.806099 0.020685 0.000000
0.839727 0.020228 0.000000
0.872703 0.019549 0.000000
0.905067 0.018823 0.000000
0.936791 0.017867 0.000000
0.967876 0.016968 0.000000
0.998324 0.015997 0.000000
1.000000 0.014938 0.000000
1.000000 0.016056 0.000000
1.000000 0.017019 0.000000
1.000000 0.018241 0.000000
1.000000 0.018925 0.000000
1.000000 0.020005 0.000731
0.000000 0.043693 0.012831
0.042965 0.044967 0.013136
0.089963 0.045969 0.013178
0.135599 0.046852 0.013169
0.180023 0.048239 0.013087
0.223865 0.049369 0.012932
0.267030 0.050211 0.012477
0.309686 0.051156 0.011807
0.351691 0.051993 0.011014
0.393058 0.052729 0.010096
0.433811 0.053190 0.009071
0.473948 0.053591 0.007815
0.513438 0.053904 0.006596
0.552302 0.054080 0.005127
0.590521 0.054030 0.003571
0.628149 0.054066 0.002074
0.665082 0.053664 0.000864
0.701370 0.053322 0.000000
0.737078 0.052922 0.000000
0.772117 0.052413 0.000000
0.806510 0.051711 0.000000
0.840299 0.050903 0.000000
0.873404 0.049866 0.000000
0.905912 0.048614 0.000000
0.937790 0.047278 0.000000
0.969034 0.045973 0.000000
0.999601 0.044477 0.000000
1.000000 0.043223 0.000000
1.000000 0.043564 0.000000
1.000000 0.043778 0.005702
1.000000 0.044219 0.012321
1.000000 0.044381 0.019431
1.000000 0.044551 0.027183
0.003850 0.086331 0.013778
0.045759 0.086919 0.014280
0.090378 0.087421 0.014778
0.134939 0.087851 0.015080
0.179014 0.088269 0.015142
0.222671 0.088776 0.015292
0.265814 0.089104 0.015167
0.308429 0.089388 0.014918
0.350433 0.089605 0.014572
0.391882 0.089658 0.014118
0.432736 0.089673 0.013552
0.472924 0.089527 0.012898
0.512509 0.089145 0.011974
0.551468 0.088869 0.011260
0.589831 0.088420 0.010384
0.627507 0.087765 0.009821
0.664593 0.087151 0.009234
0.701027 0.086284 0.008892
0.736844 0.085509 0.008496
0.772030 0.084483 0.008242
0.806562 0.083362 0.007922
0.840474 0.082168 0.008068
0.873749 0.080851 0.008242
0.906379 0.079389 0.008510
0.938414 0.077878 0.009303
0.969780 0.076086 0.010101
1.000000 0.074338 0.011580
1.000000 0.072652 0.014145
1.000000 0.072074 0.021474
1.000000 0.071612 0.029153
1.000000 0.071058 0.037647
1.000000 0.070231 0.046079
1.000000 0.069530 0.054276
0.013554 0.129841 0.013784
0.051027 0.129705 0.014573
0.092238 0.129511 0.015267
0.135047 0.129358 0.015886
0.178393 0.129178 0.016553
0.221670 0.128834 0.016726
0.264622 0.128539 0.017230
0.307123 0.128051 0.017463
0.349115 0.127524 0.017465
0.390572 0.126948 0.017483
0.431414 0.126246 0.017401
0.471667 0.125486 0.017191
0.511323 0.124624 0.017186
0.550338 0.123628 0.017195
0.588785 0.122666 0.017340
0.626591 0.121464 0.017572
0.663756 0.120238 0.017720
0.700316 0.118937 0.018174
0.736239 0.117519 0.018690
0.771580 0.116026 0.019368
0.806228 0.114402 0.020310
0.840272 0.112664 0.021338
0.873682 0.110816 0.022554
0.906447 0.108881 0.024252
0.938607 0.106829 0.026255
0.970083 0.104726 0.028550
1.000000 0.102406 0.031176
1.000000 0.100350 0.035697
1.000000 0.099114 0.044375
1.000000 0.097625 0.052711
1.000000 0.096339 0.060743
1.000000 0.094883 0.068581
1.000000 0.093285 0.076031
0.026379 0.173873 0.012377
0.057894 0.173092 0.013415
0.094880 0.172205 0.014634
0.135975 0.171334 0.015596
0.178283 0.170402 0.016629
0.220932 0.169385 0.017433
0.263559 0.168285 0.017984
0.305851 0.167221 0.018763
0.347700 0.165997 0.019393
0.389101 0.164724 0.019918
0.429895 0.163307 0.020479
0.470182 0.161889 0.021086
0.509851 0.160375 0.021871
0.548982 0.158820 0.022753
0.587456 0.157155 0.023706
0.625347 0.155344 0.024719
0.662655 0.153500 0.025862
0.699285 0.151579 0.027230
0.735314 0.149561 0.028706
0.770742 0.147414 0.030473
0.805524 0.145250 0.032497
0.839686 0.142944 0.034654
0.873213 0.140484 0.037266
0.906088 0.137959 0.040159
0.938364 0.135502 0.043421
0.970013 0.132784 0.046962
1.000000 0.130033 0.050636
1.000000 0.127322 0.055612
1.000000 0.125313 0.063693
1.000000 0.123186 0.071684
1.000000 0.121066 0.079299
1.000000 0.118890 0.086904
1.000000 0.116654 0.094331
0.042488 0.218498 0.009405
0.066704 0.216980 0.011002
0.099344 0.215391 0.012294
0.137851 0.213767 0.013797
0.178826 0.212087 0.015250
0.220672 0.210390 0.016439
0.262645 0.208549 0.017695
0.304652 0.206742 0.018991
0.346264 0.204830 0.020168
0.387480 0.202834 0.021444
0.428248 0.200825 0.022775
0.468499 0.198692 0.024324
0.508184 0.196508 0.025804
0.547340 0.194214 0.027345
0.585861 0.191861 0.029296
0.623794 0.189460 0.031111
0.661179 0.186952 0.033249
0.697906 0.184406 0.035596
0.734040 0.181741 0.038053
0.769547 0.178974 0.040911
0.804446 0.176192 0.043889
0.838740 0.173251 0.047048
0.872345 0.170200 0.050526
0.905400 0.167142 0.054124
0.937739 0.163960 0.057908
0.969538 0.160709 0.061992
1.000000 0.157420 0.066251
1.000000 0.154093 0.071577
1.000000 0.151312 0.079492
1.000000 0.148464 0.087275
1.000000 0.145665 0.095031
1.000000 0.142674 0.102619
1.000000 0.139696 0.110145
0.060086 0.263574 0.004734
0.077483 0.261326 0.006772
0.105516 0.259005 0.008478
0.141021 0.256689 0.010475
0.180151 0.254289 0.012268
0.220759 0.251816 0.014134
0.262098 0.249366 0.016088
0.303509 0.246719 0.017969
0.344829 0.244107 0.019895
0.385861 0.241465 0.021885
0.426511 0.238735 0.024101
0.466649 0.235910 0.026078
0.506330 0.233052 0.028373
0.545447 0.230065 0.030798
0.584009 0.227029 0.033411
0.622010 0.223989 0.036283
0.659422 0.220769 0.039392
0.696231 0.217563 0.042504
0.732426 0.214228 0.045975
0.768004 0.210836 0.049405
0.803010 0.207351 0.053144
0.837404 0.203799 0.057184
0.871136 0.200170 0.061101
0.904249 0.196460 0.065402
0.936769 0.192705 0.069817
0.968651 0.188805 0.074385
0.999897 0.184805 0.079145
1.000000 0.180810 0.084661
1.000000 0.177357 0.092747
1.000000 0.173800 0.100699
1.000000 0.170180 0.108509
1.000000 0.166627 0.116247
1.000000 0.162986 0.123992
0.077620 0.309096 0.000000
0.089671 0.306146 0.001509
0.113245 0.303105 0.003732
0.145457 0.300058 0.006087
0.182258 0.296928 0.008340
0.221472 0.293773 0.010837
0.261814 0.290514 0.013075
0.302666 0.287229 0.015698
0.343528 0.283887 0.018112
0.384236 0.280536 0.020691
0.424689 0.277086 0.023481
0.464678 0.273512 0.026350
0.504286 0.269949 0.029389
0.543367 0.266310 0.032579
0.581925 0.262582 0.036221
0.619925 0.258805 0.039958
0.657350 0.254970 0.043799
0.694242 0.251058 0.047762
0.730494 0.247060 0.051889
0.766182 0.243010 0.056118
0.801216 0.238873 0.060555
0.835683 0.234620 0.065064
0.869571 0.230381 0.069633
0.902793 0.225999 0.074497
0.935397 0.221539 0.079454
0.967360 0.217007 0.084686
0.998734 0.212452 0.089913
1.000000 0.207750 0.095717
1.000000 0.203601 0.104008
1.000000 0.199312 0.112150
1.000000 0.195075 0.120171
1.000000 0.190697 0.128239
1.000000 0.186345 0.136190
0.095291 0.355065 0.000000
0.103233 0.351385 0.000000
0.122503 0.347629 0.000000
0.151116 0.343863 0.000000
0.185404 0.339987 0.002654
0.222868 0.336100 0.005504
0.262099 0.332164 0.008399
0.302059 0.328192 0.011355
0.342377 0.324120 0.014528
0.382709 0.319993 0.017905
0.422804 0.315869 0.021340
0.462669 0.311619 0.024809
0.502098 0.307317 0.028675
0.541121 0.302955 0.032762
0.579592 0.298549 0.036998
0.617594 0.294089 0.041753
0.655039 0.289535 0.046475
0.691906 0.284922 0.051181
0.728284 0.280270 0.055981
0.763997 0.275526 0.060998
0.799133 0.270707 0.066037
0.833632 0.265821 0.071191
0.867604 0.260898 0.076397
0.900937 0.255846 0.081792
0.933618 0.250733 0.087391
0.965720 0.245553 0.092958
0.997216 0.240316 0.098868
1.000000 0.234955 0.105032
1.000000 0.230022 0.113454
1.000000 0.225122 0.121926
1.000000 0.220067 0.130234
1.000000 0.215039 0.138634
1.000000 0.209922 0.146882
0.113096 0.401465 0.000000
0.117903 0.397081 0.000000
0.133308 0.392610 0.000000
0.158203 0.388099 0.000000
0.189713 0.383552 0.000000
0.225113 0.378910 0.000000
0.262871 0.374254 0.001836
0.301840 0.369523 0.005313
0.341434 0.364752 0.009015
0.381238 0.359959 0.012921
0.421016 0.355060 0.016971
0.460568 0.350122 0.021308
0.499818 0.345129 0.025788
0.538721 0.340079 0.030843
0.577135 0.334974 0.036074
0.615068 0.329781 0.041627
0.652511 0.324546 0.047308
0.689380 0.319208 0.052764
0.725743 0.313852 0.058438
0.761539 0.308436 0.064090
0.796715 0.302948 0.069762
0.831298 0.297348 0.075579
0.865280 0.291733 0.081465
0.898694 0.286023 0.087504
0.931501 0.280209 0.093552
0.963711 0.274464 0.099789
0.995246 0.268482 0.106161
1.000000 0.262487 0.112584
1.000000 0.256829 0.121466
1.000000 0.251200 0.130257
1.000000 0.245438 0.138859
1.000000 0.239677 0.147533
1.000000 0.233891 0.156124
0.131089 0.448360 0.000000
0.129136 0.443218 0.000000
0.145410 0.438037 0.000000
0.166683 0.432799 0.000000
0.195057 0.427521 0.000000
0.228222 0.422211 0.000000
0.264308 0.416787 0.000000
0.302111 0.411354 0.000000
0.340832 0.405902 0.001601
0.379969 0.400336 0.006034
0.419263 0.394730 0.010863
0.458467 0.389058 0.015695
0.497481 0.383359 0.021061
0.536173 0.377615 0.026761
0.574463 0.371779 0.032798
0.612338 0.365896 0.039265
0.649720 0.359957 0.045925
0.686603 0.353964 0.052561
0.722898 0.347890 0.059044
0.758711 0.341759 0.065486
0.793972 0.335567 0.071934
0.828599 0.329288 0.078414
0.862668 0.322968 0.084978
0.896134 0.316593 0.091553
0.929000 0.310156 0.098227
0.961339 0.303629 0.105121
0.992999 0.297006 0.111923
1.000000 0.290328 0.118893
1.000000 0.283912 0.127937
1.000000 0.277554 0.137091
1.000000 0.271090 0.146152
1.000000 0.264580 0.155110
1.000000 0.258128 0.164139
0.149287 0.495696 0.000000
0.147015 0.489809 0.000000
0.158570 0.483914 0.000000
0.176386 0.477947 0.000000
0.201734 0.471934 0.000000
0.232355 0.465908 0.000000
0.266496 0.459779 0.000000
0.302861 0.453623 0.000000
0.340533 0.447420 0.000000
0.378904 0.441142 0.000000
0.417644 0.434832 0.002370
0.456476 0.428467 0.007990
0.495117 0.422045 0.013906
0.533571 0.415583 0.020335
0.571658 0.409018 0.027273
0.609465 0.402455 0.034643
0.646705 0.395803 0.042380
0.683550 0.389091 0.050160
0.719867 0.382303 0.057530
0.755680 0.375503 0.065057
0.790902 0.368591 0.072325
0.825621 0.361673 0.079546
0.859711 0.354647 0.086896
0.893246 0.347561 0.094119
0.926218 0.340421 0.101403
0.958553 0.333180 0.108789
0.990278 0.325911 0.116236
1.000000 0.318555 0.123739
1.000000 0.311398 0.132993
1.000000 0.304300 0.142555
1.000000 0.297166 0.152053
1.000000 0.289970 0.161442
1.000000 0.282736 0.170815
0.167704 0.543463 0.000000
0.165157 0.536894 0.000000
0.172821 0.530244 0.000000
0.187352 0.523543 0.000000
0.209512 0.516828 0.000000
0.237545 0.510065 0.000000
0.269536 0.503211 0.000000
0.304311 0.496361 0.000000
0.340736 0.489406 0.000000
0.378209 0.482429 0.000000
0.416233 0.475402 0.000000
0.454484 0.468330 0.000000
0.492791 0.461178 0.004642
0.530935 0.454002 0.011733
0.568791 0.446730 0.019303
0.606378 0.439423 0.027502
0.643579 0.432062 0.036190
0.680281 0.424660 0.045455
0.716572 0.417187 0.054260
0.752324 0.409630 0.062647
0.787584 0.402082 0.070930
0.822259 0.394404 0.079068
0.856423 0.386697 0.087081
0.890018 0.378925 0.095086
0.923034 0.371099 0.103098
0.955452 0.363164 0.111066
0.987265 0.355223 0.119077
1.000000 0.347152 0.127166
1.000000 0.339308 0.136689
1.000000 0.331445 0.146689
1.000000 0.323596 0.156649
1.000000 0.315689 0.166499
1.000000 0.307725 0.176231
0.186199 0.591686 0.000000
0.183431 0.584372 0.000000
0.188107 0.577041 0.000000
0.199438 0.569594 0.000000
0.218478 0.562167 0.000000
0.243716 0.554672 0.000000
0.273459 0.547110 0.000000
0.306406 0.539495 0.000000
0.341448 0.531862 0.000000
0.377887 0.524173 0.000000
0.415038 0.516404 0.000000
0.452674 0.508606 0.000000
0.490503 0.500764 0.000000
0.528237 0.492816 0.000706
0.565920 0.484900 0.008963
0.603192 0.476867 0.017833
0.640250 0.468815 0.027328
0.676868 0.460663 0.037652
0.713024 0.452464 0.048199
0.748784 0.444233 0.058185
0.784000 0.435959 0.067622
0.818692 0.427556 0.076671
0.852843 0.419175 0.085682
0.886445 0.410690 0.094481
0.919520 0.402203 0.103170
0.951959 0.393542 0.111802
0.983884 0.384921 0.120532
1.000000 0.376162 0.129185
1.000000 0.367533 0.139026
1.000000 0.359018 0.149511
1.000000 0.350401 0.159950
1.000000 0.341776 0.170262
1.000000 0.333055 0.180442
0.204927 0.640348 0.000000
0.201825 0.632295 0.000000
0.203929 0.624246 0.000000
0.212655 0.616095 0.000000
0.228596 0.607937 0.000000
0.250973 0.599722 0.000000
0.278344 0.591463 0.000000
0.309282 0.583106 0.000000
0.342776 0.574773 0.000000
0.377954 0.566319 0.000000
0.414198 0.557874 0.000000
0.451139 0.549338 0.000000
0.488296 0.540733 0.000000
0.525677 0.532157 0.000000
0.562923 0.523467 0.000000
0.600020 0.514736 0.005672
0.636763 0.505943 0.016057
0.673268 0.497124 0.027077
0.709343 0.488218 0.039012
0.744970 0.479291 0.050939
0.780159 0.470281 0.061911
0.814823 0.461200 0.072372
0.848962 0.452074 0.082275
0.882622 0.442893 0.092133
0.915676 0.433661 0.101637
0.948184 0.424354 0.111072
0.980142 0.415028 0.120492
1.000000 0.405582 0.129830
1.000000 0.396212 0.139913
1.000000 0.386940 0.150988
1.000000 0.377618 0.161946
1.000000 0.368254 0.172748
1.000000 0.358857 0.183458
0.223869 0.689483 0.000000
0.220506 0.680728 0.000000
0.220587 0.671917 0.000000
0.226822 0.663075 0.000000
0.239902 0.654178 0.000000
0.259377 0.645204 0.000000
0.284182 0.636240 0.000000
0.312995 0.627196 0.000000
0.344787 0.618102 0.000000
0.378569 0.608984 0.000000
0.413729 0.599744 0.000000
0.449768 0.590539 0.000000
0.486299 0.581209 0.000000
0.523090 0.571869 0.000000
0.559952 0.562488 0.000000
0.596678 0.553029 0.000000
0.633283 0.543548 0.002215
0.669496 0.533982 0.013861
0.705450 0.524394 0.026598
0.740989 0.514750 0.040186
0.776050 0.504983 0.053431
0.810674 0.495250 0.065596
0.844828 0.485404 0.076960
0.878434 0.475526 0.087933
0.911538 0.465582 0.098447
0.944095 0.455585 0.108756
0.976057 0.445500 0.118846
1.000000 0.435410 0.128915
1.000000 0.425274 0.139379
1.000000 0.415305 0.151093
1.000000 0.405228 0.162608
1.000000 0.395171 0.173993
1.000000 0.385058 0.185122
0.242986 0.739040 0.000000
0.239302 0.729539 0.000000
0.235603 0.720044 0.000000
0.241773 0.710444 0.000000
0.252180 0.700865 0.000000
0.268920 0.691186 0.000000
0.291042 0.681458 0.000000
0.317615 0.671694 0.000000
0.347474 0.661880 0.000000
0.379797 0.652053 0.000000
0.413711 0.642142 0.000000
0.448743 0.632148 0.000000
0.484497 0.622129 0.000000
0.520694 0.612112 0.000000
0.557021 0.601957 0.000000
0.593391 0.591777 0.000000
0.629661 0.581573 0.000000
0.665676 0.571310 0.000000
0.701397 0.561009 0.011462
0.736762 0.550607 0.025756
0.771761 0.540181 0.041203
0.806338 0.529727 0.055908
0.840426 0.519177 0.069229
0.873973 0.508564 0.081489
0.907082 0.497939 0.093325
0.939656 0.487235 0.104658
0.971653 0.476459 0.115710
1.000000 0.465631 0.126509
1.000000 0.454771 0.137424
1.000000 0.444067 0.149792
1.000000 0.433336 0.162014
1.000000 0.422498 0.173925
1.000000 0.411650 0.185620
0.262215 0.789045 0.000000
0.258344 0.778871 0.000000
0.254385 0.768616 0.000000
0.257533 0.758312 0.000000
0.265429 0.747986 0.000000
0.279413 0.737606 0.000000
0.298930 0.727133 0.000000
0.323167 0.716662 0.000000
0.351048 0.706146 0.000000
0.381611 0.695560 0.000000
0.414160 0.684916 0.000000
0.448138 0.674250 0.000000
0.482995 0.663500 0.000000
0.518441 0.652738 0.000000
0.554248 0.641909 0.000000
0.590112 0.631000 0.000000
0.626013 0.620064 0.000000
0.661750 0.609104 0.000000
0.697260 0.598047 0.000000
0.732478 0.586991 0.008666
0.767281 0.575843 0.024753
0.801757 0.564635 0.042239
0.835746 0.553355 0.058232
0.869335 0.542099 0.072677
0.902381 0.530739 0.085963
0.934904 0.519313 0.098622
0.966944 0.507826 0.110737
0.998398 0.496293 0.122481
1.000000 0.484713 0.134038
1.000000 0.473259 0.146999
1.000000 0.461774 0.159875
1.000000 0.450283 0.172479
1.000000 0.438692 0.184778
0.281716 0.839531 0.000000
0.277458 0.828596 0.000000
0.273228 0.817610 0.000000
0.274023 0.806610 0.000000
0.279610 0.795551 0.000000
0.290997 0.784466 0.000000
0.307937 0.773280 0.000000
0.329686 0.762083 0.000000
0.355413 0.750801 0.000000
0.384154 0.739499 0.000000
0.415212 0.728147 0.000000
0.447962 0.716750 0.000000
0.481808 0.705332 0.000000
0.516439 0.693803 0.000000
0.551555 0.682248 0.000000
0.586953 0.670653 0.000000
0.622382 0.658997 0.000000
0.657795 0.647304 0.000000
0.693002 0.635550 0.000000
0.727985 0.623756 0.000000
0.762643 0.611894 0.005546
0.796971 0.599978 0.023523
0.830866 0.588028 0.042808
0.864362 0.576008 0.060378
0.897384 0.563938 0.076041
0.929897 0.551802 0.090359
0.961928 0.539635 0.103785
0.993406 0.527420 0.116669
1.000000 0.515081 0.129170
1.000000 0.502873 0.142695
1.000000 0.490695 0.156394
1.000000 0.478497 0.169716
1.000000 0.466184 0.182646
0.301297 0.890451 0.000000
0.296787 0.878791 0.000000
0.292298 0.867121 0.000000
0.291155 0.855341 0.000000
0.294597 0.843591 0.000000
0.303525 0.831760 0.000000
0.317883 0.819853 0.000000
0.337221 0.807937 0.000000
0.360707 0.795964 0.000000
0.387551 0.783953 0.000000
0.416942 0.771864 0.000000
0.448277 0.759739 0.000000
0.481038 0.747584 0.000000
0.514748 0.735362 0.000000
0.549105 0.723070 0.000000
0.583870 0.710751 0.000000
0.618797 0.698386 0.000000
0.653807 0.685976 0.000000
0.688709 0.673523 0.000000
0.723427 0.660971 0.000000
0.757893 0.648416 0.000000
0.792036 0.635799 0.002078
0.825792 0.623107 0.021994
0.859195 0.610391 0.043369
0.892110 0.597564 0.062476
0.924593 0.584728 0.079244
0.956583 0.571879 0.094618
0.988056 0.558913 0.108829
1.000000 0.545915 0.122507
1.000000 0.532938 0.136654
1.000000 0.520007 0.151341
1.000000 0.507041 0.165398
1.000000 0.494078 0.179163
0.321132 0.941805 0.000000
0.316334 0.929434 0.000000
0.311566 0.917015 0.000000
0.308831 0.904550 0.000000
0.310376 0.892036 0.000000
0.317021 0.879496 0.000000
0.328880 0.866881 0.000000
0.345691 0.854225 0.000000
0.366940 0.841561 0.000000
0.391664 0.828788 0.000000
0.419362 0.815986 0.000000
0.449205 0.803138 0.000000
0.480700 0.790278 0.000000
0.513366 0.777329 0.000000
0.546874 0.764340 0.000000
0.580974 0.751308 0.000000
0.615287 0.738187 0.000000
0.649864 0.725063 0.000000
0.684358 0.711880 0.000000
0.718760 0.698658 0.000000
0.753000 0.685376 0.000000
0.786933 0.672029 0.000000
0.820530 0.658625 0.000000
0.853808 0.645163 0.020326
0.886648 0.631659 0.043735
0.919060 0.618156 0.064560
0.951020 0.604540 0.082463
0.982489 0.590885 0.098736
1.000000 0.577155 0.113836
1.000000 0.563411 0.128823
1.000000 0.549813 0.144596
1.000000 0.536112 0.159660
1.000000 0.522403 0.174238
0.339522 0.989535 0.000000
0.336012 0.980511 0.000000
0.330944 0.967374 0.000000
0.325883 0.954212 0.000000
0.326944 0.940987 0.000000
0.331334 0.927695 0.000000
0.340879 0.914365 0.000000
0.355237 0.900998 0.000000
0.374112 0.887565 0.000000
0.396755 0.874108 0.000000
0.422544 0.860599 0.000000
0.450749 0.847027 0.000000
0.480876 0.833417 0.000000
0.512436 0.819761 0.000000
0.545001 0.806042 0.000000
0.578274 0.792297 0.000000
0.611989 0.778492 0.000000
0.645920 0.764619 0.000000
0.680005 0.750708 0.000000
0.714071 0.736746 0.000000
0.747960 0.722729 0.000000
0.781731 0.708705 0.000000
0.815121 0.694551 0.000000
0.848216 0.680440 0.000000
0.880943 0.666217 0.018372
0.913269 0.651977 0.044044
0.945126 0.637645 0.066493
0.976573 0.623262 0.085593
1.000000 0.608838 0.102791
1.000000 0.594371 0.118783
1.000000 0.580005 0.135977
1.000000 0.565619 0.152199
1.000000 0.551145 0.167727
0.339522 0.989535 0.000000
0.339522 0.989535 0.000000
0.339522 0.989535 0.000000
0.339522 0.989535 0.000000
0.343692 0.989531 0.000000
0.346460 0.976347 0.000000
0.353720 0.962278 0.000000
0.365708 0.948196 0.000000
0.382247 0.934062 0.000000
0.402715 0.919876 0.000000
0.426489 0.905640 0.000000
0.453035 0.891362 0.000000
0.481647 0.877005 0.000000
0.511971 0.862631 0.000000
0.543475 0.848199 0.000000
0.575828 0.833715 0.000000
0.608803 0.819191 0.000000
0.642180 0.804607 0.000000
0.675756 0.789996 0.000000
0.709379 0.775332 0.000000
0.742951 0.760603 0.000000
0.776387 0.745829 0.000000
0.809590 0.731020 0.000000
0.842465 0.716129 0.000000
0.875069 0.701220 0.000000
0.907244 0.686217 0.016297
0.939056 0.671193 0.044179
0.970426 0.656122 0.068382
1.000000 0.640951 0.088507
1.000000 0.625759 0.106688
1.000000 0.610655 0.125179
1.000000 0.595544 0.142928
1.000000 0.580351 0.159595
0.339522 0.989535 0.000000
0.339522 0.989535 0.000000
0.339522 0.989535 0.000000
0.339522 0.989535 0.000000
0.342391 0.989533 0.000000
0.348992 0.989553 0.000000
0.359934 0.989546 0.000000
0.374987 0.989513 0.000000
0.391395 0.980996 0.000000
0.409642 0.966079 0.000000
0.431345 0.951103 0.000000
0.456028 0.936119 0.000000
0.483078 0.921078 0.000000
0.512012 0.905965 0.000000
0.542333 0.890817 0.000000
0.573793 0.875612 0.000000
0.605948 0.860384 0.000000
0.638577 0.845051 0.000000
0.671579 0.829740 0.000000
0.704677 0.814317 0.000000
0.737870 0.798890 0.000000
0.770981 0.783404 0.000000
0.803905 0.767864 0.000000
0.836588 0.752242 0.000000
0.868995 0.736606 0.000000
0.901040 0.720910 0.000000
0.932710 0.705183 0.013938
0.963979 0.689365 0.044351
0.994825 0.673528 0.070106
1.000000 0.657622 0.091536
1.000000 0.641739 0.111830
1.000000 0.625880 0.131369
1.000000 0.610000 0.149554
0.339522 0.989535 0.000000
0.339522 0.989535 0.000000
0.339522 0.989535 0.000000
0.339522 0.989535 0.000000
0.341384 0.989531 0.000000
0.346820 0.989525 0.000000
0.356606 0.989539 0.000000
0.370586 0.989512 0.000000
0.388696 0.989521 0.000000
0.410300 0.989486 0.000000
0.434937 0.989470 0.000000
0.459884 0.981326 0.000000
0.485244 0.965553 0.000000
0.512659 0.949743 0.000000
0.541732 0.933857 0.000000
0.572079 0.917973 0.000000
0.603290 0.901971 0.000000
0.635160 0.885959 0.000000
0.667568 0.869919 0.000000
0.700103 0.853780 0.000000
0.732820 0.837627 0.000000
0.765529 0.821405 0.000000
0.798151 0.805144 0.000000
0.830565 0.788852 0.000000
0.862791 0.772479 0.000000
0.894672 0.756037 0.000000
0.926189 0.739597 0.000000
0.957344 0.723086 0.011450
0.988114 0.706511 0.044084
1.000000 0.689896 0.071786
1.000000 0.673277 0.094983
1.000000 0.656701 0.117317
1.000000 0.640113 0.137410
0.339522 0.989535 0.000000
0.339522 0.989535 0.000000
0.339522 0.989535 0.000000
0.339522 0.989535 0.000000
0.339522 0.989535 0.000000
0.344931 0.989534 0.000000
0.353501 0.989551 0.000000
0.366379 0.989528 0.000000
0.383330 0.989502 0.000000
0.404018 0.989505 0.000000
0.427863 0.989472 0.000000
0.454271 0.989425 0.000000
0.482763 0.989398 0.000000
0.512925 0.989372 0.000000
0.541673 0.977368 0.000000
0.570789 0.960724 0.000000
0.601045 0.944052 0.000000
0.632056 0.927300 0.000000
0.663676 0.910520 0.000000
0.695628 0.893680 0.000000
0.727848 0.876824 0.000000
0.760133 0.859891 0.000000
0.792370 0.842914 0.000000
0.824492 0.825876 0.000000
0.856413 0.808798 0.000000
0.888113 0.791664 0.000000
0.919505 0.774486 0.000000
0.950502 0.757264 0.000000
0.981164 0.739968 0.008970
1.000000 0.722638 0.043982
1.000000 0.705256 0.073298
1.000000 0.687964 0.099741
1.000000 0.670619 0.122472
0.339522 0.989535 0.000000
0.339522 0.989535 0.000000
0.339522 0.989535 0.000000
0.339522 0.989535 0.000000
0.339522 0.989535 0.000000
0.343250 0.989545 0.000000
0.350635 0.989541 0.000000
0.362260 0.989533 0.000000
0.378058 0.989506 0.000000
0.397812 0.989506 0.000000
0.420729 0.989467 0.000000
0.446484 0.989441 0.000000
0.474423 0.989400 0.000000
0.504099 0.989366 0.000000
0.535053 0.989332 0.000000
0.567055 0.989295 0.000000
0.599160 0.986549 0.000000
0.629259 0.969110 0.000000
0.660050 0.951585 0.000000
0.691370 0.934050 0.000000
0.722965 0.916453 0.000000
0.754711 0.898792 0.000000
0.786574 0.881097 0.000000
0.818319 0.863323 0.000000
0.849987 0.845559 0.000000
0.881400 0.827693 0.000000
