docs/luts/Canon_FineDetail_AdobeRGB.cube
TITLE "Canon Fine Detail (Adobe RGB)"
# Source: FDA.ICC
LUT_3D_SIZE 9
DOMAIN_MIN 0.0 0.0 0.0
DOMAIN_MAX 1.0 1.0 1.0
0.000000 0.001686 0.003515
0.156985 0.000712 0.001973
0.306645 0.000429 0.000000
0.454668 0.000000 0.000000
0.599364 0.000000 0.000000
0.738935 0.000000 0.000000
0.871586 0.000000 0.000000
0.995535 0.000000 0.000000
1.000000 0.000000 0.000000
0.000000 0.123868 0.000000
0.130352 0.120295 0.000000
0.294951 0.114094 0.000000
0.449021 0.104319 0.000000
0.597595 0.090246 0.000000
0.740115 0.070821 0.000000
0.875218 0.043681 0.000000
1.000000 0.009863 0.000000
1.000000 0.000000 0.000000
0.000000 0.246660 0.000000
0.029380 0.244988 0.000000
0.266411 0.241475 0.000000
0.434342 0.235694 0.000000
0.590166 0.227249 0.000000
0.737661 0.215765 0.000000
0.876641 0.200796 0.000000
1.000000 0.181851 0.000000
1.000000 0.158275 0.000000
0.000000 0.367164 0.000000
0.000000 0.367354 0.000000
0.207927 0.366643 0.000000
0.406709 0.364722 0.000000
0.574755 0.361255 0.000000
0.729669 0.355910 0.000000
0.874070 0.348382 0.000000
1.000000 0.338371 0.000000
1.000000 0.325559 0.000000
0.000000 0.483250 0.000000
0.000000 0.485431 0.000000
0.052470 0.487673 0.000000
0.361567 0.489703 0.000000
0.549844 0.491175 0.000000
0.715310 0.491806 0.000000
0.866779 0.491316 0.000000
1.000000 0.489421 0.000000
1.000000 0.485846 0.000000
0.000000 0.593027 0.000000
0.000000 0.597338 0.000000
0.000000 0.602684 0.000000
0.290451 0.608748 0.000000
0.514255 0.615273 0.000000
0.694322 0.621927 0.000000
0.854763 0.628457 0.000000
1.000000 0.634567 0.000000
1.000000 0.640023 0.000000
0.000000 0.694623 0.000000
0.000000 0.701199 0.000000
0.000000 0.709781 0.000000
0.162743 0.720041 0.000000
0.466936 0.731706 0.000000
0.667255 0.744486 0.000000
0.838664 0.758104 0.000000
0.991579 0.772293 0.000000
1.000000 0.786839 0.000000
0.000000 0.786172 0.000000
0.000000 0.795155 0.000000
0.000000 0.807095 0.000000
0.000000 0.821686 0.000000
0.406666 0.838637 0.000000
0.635344 0.857648 0.000000
0.819948 0.878480 0.000000
0.981242 0.900822 0.000000
1.000000 0.924585 0.000000
0.000000 0.865801 0.000000
0.000000 0.877343 0.000000
0.000000 0.892788 0.000000
0.000000 0.911823 0.000000
0.331567 0.934175 0.000000
0.600992 0.959568 0.000000
0.800775 0.987711 0.000000
0.981475 0.988321 0.000000
1.000000 0.988083 0.000000
0.002840 0.005780 0.139448
0.161362 0.002288 0.121441
0.309620 0.001538 0.102834
0.457133 0.000000 0.082768
0.602142 0.000000 0.059862
0.742783 0.000000 0.031015
0.877316 0.000000 0.000896
1.000000 0.000000 0.000000
1.000000 0.000000 0.000000
0.000000 0.125342 0.121320
0.134039 0.124105 0.104514
0.296943 0.119570 0.086929
0.450568 0.110940 0.067642
0.599486 0.097576 0.044793
0.743128 0.078376 0.017759
0.880086 0.051355 0.000000
1.000000 0.014801 0.000000
1.000000 0.000000 0.000000
0.000000 0.245867 0.092415
0.037678 0.246597 0.075852
0.267849 0.244895 0.057470
0.435150 0.240375 0.035316
0.591256 0.232633 0.011788
0.739844 0.221267 0.000000
0.880678 0.205835 0.000000
1.000000 0.185836 0.000000
1.000000 0.160581 0.000000
0.000000 0.363969 0.033123
0.000000 0.366644 0.013545
0.209705 0.367871 0.000000
0.407117 0.367309 0.000000
0.575306 0.364617 0.000000
0.731242 0.359486 0.000000
0.877434 0.351584 0.000000
1.000000 0.340585 0.000000
1.000000 0.326198 0.000000
0.000000 0.477393 0.000000
0.000000 0.482177 0.000000
0.063231 0.486446 0.000000
0.362324 0.489917 0.000000
0.550267 0.492260 0.000000
0.716569 0.493191 0.000000
0.869736 0.492399 0.000000
1.000000 0.489630 0.000000
1.000000 0.484596 0.000000
0.000000 0.584264 0.000000
0.000000 0.591253 0.000000
0.000000 0.598714 0.000000
0.292988 0.606323 0.000000
0.515141 0.613808 0.000000
0.695715 0.620841 0.000000
0.857661 0.627164 0.000000
1.000000 0.632499 0.000000
1.000000 0.636563 0.000000
0.000000 0.682654 0.000000
0.000000 0.692021 0.000000
0.000000 0.702790 0.000000
0.173028 0.714670 0.000000
0.469237 0.727384 0.000000
0.669304 0.740630 0.000000
0.841933 0.754134 0.000000
0.997117 0.767626 0.000000
1.000000 0.780929 0.000000
0.000000 0.770721 0.000000
0.000000 0.782571 0.000000
0.000000 0.796798 0.000000
0.000000 0.813103 0.000000
0.412057 0.831164 0.000000
0.638792 0.850736 0.000000
0.824112 0.871524 0.000000
0.987411 0.893273 0.000000
1.000000 0.915870 0.000000
0.000000 0.846575 0.000000
0.000000 0.861061 0.000000
0.000000 0.878870 0.000000
0.000000 0.899704 0.000000
0.343079 0.923279 0.000000
0.606759 0.949303 0.000000
0.806379 0.977513 0.000000
0.984913 0.988315 0.000000
1.000000 0.988083 0.000000
0.017797 0.011834 0.285431
0.166385 0.010797 0.266659
0.312430 0.005733 0.247952
0.458660 0.003300 0.229184
0.603274 0.000000 0.210460
0.744406 0.000000 0.191809
0.880194 0.000000 0.173364
1.000000 0.000000 0.155341
1.000000 0.000000 0.138154
0.000000 0.126645 0.265857
0.138143 0.127933 0.249096
0.297960 0.125249 0.232275
0.450306 0.118049 0.215468
0.598884 0.105678 0.198721
0.743025 0.087173 0.182110
0.881244 0.060792 0.165760
1.000000 0.022831 0.149888
1.000000 0.000000 0.135052
0.000000 0.244213 0.242952
0.045742 0.247569 0.228484
0.267408 0.247946 0.213904
0.433266 0.244939 0.199237
0.588991 0.238181 0.184623
0.738052 0.227220 0.170207
0.880111 0.211681 0.156255
1.000000 0.190974 0.143162
1.000000 0.164425 0.131614
0.000000 0.359673 0.212319
0.000000 0.365114 0.200459
0.208033 0.368542 0.188270
0.403748 0.369600 0.175800
0.571505 0.367984 0.163238
0.727865 0.363337 0.150844
0.875267 0.355345 0.139001
1.000000 0.343678 0.128449
1.000000 0.328036 0.120189
0.000000 0.470357 0.167846
0.000000 0.478011 0.158714
0.059121 0.484587 0.148836
0.357613 0.489786 0.138281
0.545073 0.493278 0.127266
0.711776 0.494794 0.116145
0.866114 0.494010 0.105627
1.000000 0.490650 0.096816
1.000000 0.484430 0.091486
0.000000 0.574255 0.093083
0.000000 0.584221 0.086037
0.000000 0.594085 0.077118
0.287004 0.603522 0.066038
0.508823 0.612229 0.052562
0.689733 0.619945 0.036957
0.852817 0.626359 0.022471
1.000000 0.631201 0.012761
1.000000 0.634197 0.010949
0.000000 0.669424 0.000000
0.000000 0.681850 0.000000
0.000000 0.695119 0.000000
0.164646 0.708906 0.000000
0.462100 0.722954 0.000000
0.662421 0.736967 0.000000
0.836130 0.750647 0.000000
0.993160 0.763747 0.000000
1.000000 0.776049 0.000000
0.000000 0.753992 0.000000
0.000000 0.768993 0.000000
0.000000 0.785798 0.000000
0.000000 0.804096 0.000000
0.404517 0.823595 0.000000
0.631378 0.844013 0.000000
0.817592 0.865070 0.000000
0.982669 0.886501 0.000000
1.000000 0.908203 0.000000
0.000000 0.826051 0.000000
0.000000 0.843785 0.000000
0.000000 0.864257 0.000000
0.000000 0.887193 0.000000
0.335876 0.912268 0.000000
0.599306 0.939225 0.000000
0.799543 0.967785 0.000000
0.976304 0.988395 0.000000
1.000000 0.988144 0.000000
0.044049 0.021066 0.431300
0.177047 0.022000 0.411515
0.318994 0.017133 0.391643
0.463072 0.010353 0.371847
0.606506 0.005884 0.352308
0.747370 0.000000 0.333216
0.883739 0.000000 0.314881
1.000000 0.000000 0.297614
1.000000 0.000000 0.281818
0.000000 0.128140 0.407580
0.147879 0.131937 0.390239
0.302199 0.131323 0.372780
0.452134 0.125763 0.355360
0.599530 0.114616 0.338231
0.743402 0.097175 0.321580
0.882242 0.071865 0.305711
1.000000 0.034675 0.290891
1.000000 0.000000 0.277586
0.000000 0.241880 0.383795
0.063694 0.248084 0.369377
0.269674 0.250759 0.354787
0.432664 0.249542 0.340226
0.587139 0.244006 0.325913
0.735888 0.233768 0.312133
0.878531 0.218391 0.299207
1.000000 0.197399 0.287550
1.000000 0.169932 0.277569
0.000000 0.354431 0.356768
0.000000 0.362900 0.345783
0.208890 0.368787 0.334525
0.400851 0.371734 0.323220
0.567222 0.371441 0.312119
0.723247 0.367567 0.301581
0.871185 0.359784 0.291997
1.000000 0.347772 0.283802
1.000000 0.331187 0.277538
0.000000 0.462278 0.323225
0.000000 0.473078 0.316224
0.059331 0.482220 0.308790
0.352399 0.489419 0.301210
0.538455 0.494343 0.293771
0.704793 0.496727 0.286877
0.859633 0.496233 0.280973
1.000000 0.492576 0.276582
1.000000 0.485513 0.274393
0.000000 0.563167 0.279198
0.000000 0.576396 0.276856
0.000000 0.588919 0.273864
0.278912 0.600452 0.270591
0.499841 0.610690 0.267352
0.680476 0.619365 0.264585
0.844053 0.626162 0.262861
0.995142 0.630800 0.262820
1.000000 0.633006 0.265165
0.000000 0.655099 0.218331
0.000000 0.670871 0.221698
0.000000 0.686895 0.224170
0.149062 0.702891 0.226068
0.450636 0.718570 0.227825
0.650973 0.733620 0.230031
0.825213 0.747769 0.233309
0.983555 0.760740 0.238456
1.000000 0.772311 0.246652
0.000000 0.736134 0.121930
0.000000 0.754585 0.135168
0.000000 0.774255 0.146251
0.000000 0.794846 0.155888
0.390224 0.816050 0.164839
0.617850 0.837623 0.174022
0.804729 0.859237 0.184333
0.971104 0.880635 0.196623
1.000000 0.901688 0.213448
0.000000 0.804406 0.000000
0.000000 0.825675 0.000000
0.000000 0.849109 0.000000
0.000000 0.874415 0.000000
0.318024 0.901300 0.013781
0.583878 0.929489 0.053786
0.784912 0.958691 0.086886
0.959814 0.988610 0.117134
1.000000 0.988352 0.166884
0.078274 0.032897 0.573838
0.196424 0.035993 0.552947
0.332846 0.032638 0.531724
0.473806 0.022309 0.510428
0.615297 0.015665 0.489258
0.755196 0.008772 0.468489
0.891476 0.000348 0.448380
1.000000 0.000000 0.429287
1.000000 0.000000 0.411607
0.011099 0.129803 0.544402
0.166486 0.136141 0.526397
0.313254 0.137688 0.507969
0.459573 0.133949 0.489473
0.604921 0.124295 0.471085
0.747797 0.108092 0.453114
0.886523 0.084133 0.435819
1.000000 0.049698 0.419528
1.000000 0.004112 0.404600
0.000000 0.238954 0.517415
0.093418 0.248212 0.502789
0.278665 0.253411 0.487740
0.437106 0.254192 0.472524
0.589281 0.250139 0.457407
0.736926 0.240903 0.442730
0.879404 0.226011 0.428791
1.000000 0.204942 0.415925
1.000000 0.177051 0.404569
0.000000 0.348340 0.490031
0.000000 0.360078 0.479358
0.217340 0.368650 0.468159
0.402542 0.373771 0.456751
0.566234 0.375062 0.445411
0.721027 0.372243 0.434512
0.868725 0.364950 0.424354
1.000000 0.352866 0.415386
1.000000 0.335629 0.408035
0.000000 0.453232 0.459494
0.000000 0.467431 0.453329
0.078664 0.479413 0.446585
0.351422 0.488884 0.439533
0.534373 0.495518 0.432487
0.699391 0.499023 0.425850
0.853944 0.499105 0.419983
0.999376 0.495453 0.415337
1.000000 0.487765 0.412372
0.000000 0.551071 0.423006
0.000000 0.567806 0.422003
0.000000 0.583285 0.420313
0.275021 0.597195 0.418223
0.492641 0.609250 0.416091
0.671879 0.619139 0.414274
0.835182 0.626599 0.413216
0.986860 0.631307 0.413390
1.000000 0.633018 0.415361
0.000000 0.639744 0.377426
0.000000 0.659129 0.382391
0.000000 0.678213 0.386525
0.138389 0.696687 0.390116
0.440011 0.714266 0.393536
0.639202 0.730644 0.397240
0.813243 0.745540 0.401647
0.972172 0.758685 0.407288
1.000000 0.769803 0.414767
0.000000 0.717268 0.318619
0.000000 0.739450 0.330708
0.000000 0.762266 0.341701
0.000000 0.785422 0.351937
0.375412 0.808621 0.361826
0.602843 0.831601 0.371883
0.789670 0.854068 0.382581
0.956698 0.875730 0.394498
1.000000 0.896408 0.408630
0.000000 0.781758 0.239307
0.000000 0.806834 0.260887
0.000000 0.833519 0.280620
0.000000 0.861492 0.299105
0.297081 0.890467 0.316905
0.565533 0.920148 0.334557
0.766840 0.950302 0.352763
0.942494 0.980616 0.372059
1.000000 0.988700 0.397747
0.115941 0.047776 0.709811
0.226626 0.051347 0.687785
0.357125 0.049915 0.665143
0.494075 0.041471 0.642181
0.633036 0.028356 0.619116
0.771227 0.020442 0.596227
0.906779 0.010960 0.573812
1.000000 0.000058 0.552206
1.000000 0.000000 0.531791
0.068457 0.131565 0.673343
0.195749 0.140378 0.654609
0.334218 0.144165 0.635181
0.475981 0.142379 0.615393
0.618443 0.134371 0.595484
0.759584 0.119571 0.575752
0.897506 0.097041 0.556514
1.000000 0.064877 0.538045
1.000000 0.019306 0.520740
0.000000 0.235469 0.641545
0.133012 0.247913 0.626639
0.297717 0.255820 0.610978
0.450038 0.258820 0.594895
0.598874 0.256497 0.578701
0.744586 0.248470 0.562660
0.886193 0.234334 0.547144
1.000000 0.213538 0.532451
1.000000 0.185470 0.518971
0.000000 0.341427 0.611757
0.000000 0.356634 0.601222
0.237288 0.368150 0.589868
0.412537 0.375658 0.578052
0.572139 0.378821 0.566071
0.724728 0.377290 0.554238
0.871426 0.370768 0.542919
1.000000 0.358888 0.532501
1.000000 0.341296 0.523364
0.000000 0.443264 0.581351
0.000000 0.461095 0.575770
0.117717 0.476177 0.569322
0.359131 0.488167 0.562336
0.536764 0.496776 0.555110
0.699242 0.501693 0.548040
0.852654 0.502610 0.541443
0.997895 0.499238 0.535780
1.000000 0.491266 0.531459
0.000000 0.538000 0.547814
0.000000 0.558526 0.547850
0.000000 0.577207 0.546920
0.281199 0.593763 0.545351
0.491550 0.607891 0.543519
0.667953 0.619289 0.541758
0.829941 0.627661 0.540451
0.981405 0.632742 0.540060
1.000000 0.634258 0.541034
0.000000 0.623414 0.508614
0.000000 0.646683 0.514942
0.000000 0.669090 0.520233
0.145853 0.690322 0.524802
0.435245 0.710050 0.528972
0.631371 0.728033 0.533152
0.804054 0.743960 0.537752
0.962741 0.757565 0.543246
1.000000 0.768548 0.550072
0.000000 0.697440 0.460990
0.000000 0.723609 0.474482
0.000000 0.749844 0.486765
0.000000 0.775841 0.498206
0.366219 0.801324 0.509121
0.590980 0.825996 0.519999
0.776544 0.849577 0.531194
0.943366 0.871790 0.543222
1.000000 0.892374 0.556599
0.000000 0.758157 0.401779
0.000000 0.787334 0.423502
0.000000 0.817531 0.443785
0.000000 0.848447 0.462976
0.281404 0.879791 0.481547
0.549413 0.911283 0.499889
0.749765 0.942633 0.518480
0.925267 0.973569 0.537801
1.000000 0.989159 0.560258
0.162320 0.063540 0.835964
0.269470 0.065242 0.812811
0.394421 0.065405 0.788746
0.527030 0.059401 0.764017
0.662796 0.045231 0.738935
0.798766 0.033882 0.713736
0.932911 0.023113 0.688783
1.000000 0.011005 0.664369
1.000000 0.000000 0.640843
0.122300 0.133215 0.791245
0.236972 0.144369 0.771769
0.367672 0.150445 0.751293
0.504341 0.150684 0.730134
0.643288 0.144426 0.708570
0.782044 0.131134 0.686924
0.918562 0.109928 0.665480
1.000000 0.079685 0.644585
1.000000 0.036282 0.624530
0.006013 0.231328 0.753280
0.181648 0.247071 0.738027
0.329195 0.257879 0.721729
0.474555 0.263287 0.704678
0.619190 0.262911 0.687202
0.762246 0.256335 0.669658
0.902253 0.243143 0.652309
1.000000 0.222850 0.635519
1.000000 0.194848 0.619655
0.000000 0.333635 0.719511
0.045689 0.352522 0.709038
0.270726 0.367225 0.697460
0.434160 0.377361 0.685086
0.588381 0.382614 0.672263
0.737797 0.382662 0.659316
0.882687 0.377133 0.646586
1.000000 0.365712 0.634432
1.000000 0.348070 0.623268
0.000000 0.432340 0.687382
0.000000 0.454060 0.682281
0.170263 0.472486 0.676027
0.379134 0.487263 0.668903
0.549299 0.498097 0.661288
0.707936 0.504676 0.653503
0.859210 0.506706 0.645899
1.000000 0.503866 0.638924
1.000000 0.495882 0.632917
0.000000 0.523960 0.654469
0.000000 0.548518 0.655395
0.000000 0.570681 0.655081
0.301973 0.590135 0.653827
0.500646 0.606604 0.651984
0.672399 0.619778 0.649968
0.831957 0.629369 0.648105
0.982297 0.635076 0.646790
1.000000 0.636638 0.646495
0.000000 0.606115 0.618420
0.000000 0.633542 0.626025
0.000000 0.659534 0.632303
0.177898 0.683775 0.637565
0.441085 0.705955 0.642181
0.631575 0.725816 0.646533
0.801520 0.743052 0.651006
0.958971 0.757370 0.655993
1.000000 0.768506 0.661941
0.000000 0.676659 0.576804
0.000000 0.707092 0.591834
0.000000 0.737017 0.605444
0.000000 0.766144 0.617943
0.368723 0.794167 0.629675
0.586796 0.820810 0.641093
0.769403 0.845797 0.652548
0.934903 0.868828 0.664468
1.000000 0.889644 0.677308
0.000000 0.733635 0.527148
0.000000 0.767182 0.550449
0.000000 0.801178 0.572165
0.000000 0.835314 0.592679
0.279728 0.869296 0.612294
0.540502 0.902847 0.631478
0.738001 0.935702 0.650603
0.912120 0.967552 0.670136
1.000000 0.989689 0.691276
0.216836 0.071076 0.897864
0.325633 0.074013 0.897776
0.447394 0.078383 0.897639
0.575545 0.074317 0.872757
0.707673 0.063196 0.845575
0.841001 0.047126 0.818023
0.973242 0.035295 0.790364
1.000000 0.021348 0.762979
1.000000 0.010150 0.736553
0.183084 0.134413 0.894920
0.292031 0.147733 0.874680
0.416245 0.156052 0.853117
0.547709 0.158404 0.830552
0.682625 0.154008 0.807269
0.818409 0.142277 0.783623
0.952901 0.122457 0.759865
1.000000 0.093535 0.736356
1.000000 0.054898 0.713635
0.112650 0.226387 0.849510
0.240826 0.245530 0.833914
0.375462 0.259367 0.816898
0.513602 0.267396 0.798834
0.653429 0.269168 0.780035
0.793112 0.264267 0.760836
0.930887 0.252267 0.741561
1.000000 0.232685 0.722515
1.000000 0.205149 0.704190
0.000000 0.324907 0.810389
0.152715 0.347665 0.799942
0.318786 0.365734 0.788051
0.470243 0.378740 0.775076
0.618102 0.386342 0.761306
0.763544 0.388182 0.747114
0.905819 0.383955 0.732848
1.000000 0.373268 0.718830
1.000000 0.355771 0.705458
0.000000 0.420402 0.774998
0.000000 0.446262 0.770359
0.233291 0.468256 0.764200
0.414098 0.486072 0.756856
0.575199 0.499390 0.748707
0.728856 0.507915 0.740087
0.877132 0.511324 0.731340
1.000000 0.509301 0.722869
1.000000 0.501555 0.715050
0.000000 0.508929 0.741047
0.000000 0.537757 0.742762
0.027976 0.563638 0.742934
0.339478 0.586283 0.741896
0.523429 0.605342 0.739942
0.688815 0.620560 0.737461
0.844770 0.631625 0.734865
0.993061 0.638258 0.732493
1.000000 0.640151 0.730760
0.000000 0.587818 0.706102
0.000000 0.619677 0.714918
0.000000 0.649515 0.722077
0.230938 0.677036 0.727952
0.461499 0.701938 0.732860
0.643662 0.723934 0.737179
0.809352 0.742751 0.741297
0.964452 0.758072 0.745621
1.000000 0.769637 0.750569
0.000000 0.654928 0.667957
0.000000 0.689890 0.684535
0.000000 0.723773 0.699382
0.000000 0.756292 0.712874
0.387705 0.787123 0.725296
0.594558 0.816016 0.737079
0.772239 0.842667 0.748569
0.935125 0.866792 0.760234
1.000000 0.888115 0.772447
0.000000 0.708207 0.624299
0.000000 0.746391 0.649410
0.000000 0.784445 0.672690
0.000000 0.822053 0.694461
0.298895 0.858961 0.715130
0.543680 0.894863 0.735052
0.735681 0.929467 0.754618
0.907017 0.962509 0.774266
1.000000 0.990190 0.794650
0.288095 0.070625 0.897813
0.397016 0.071655 0.897718
0.515606 0.078176 0.897563
0.640852 0.078503 0.897283
0.770057 0.072356 0.896923
0.900914 0.057807 0.896415
1.000000 0.045206 0.875464
1.000000 0.029814 0.844972
1.000000 0.022163 0.815583
0.251219 0.128265 0.897641
0.360530 0.145789 0.897489
0.481109 0.158146 0.897263
0.608446 0.164198 0.896987
0.739508 0.162730 0.888443
0.871884 0.152583 0.862680
1.000000 0.134048 0.836527
1.000000 0.106193 0.810314
1.000000 0.071656 0.784975
0.196948 0.219081 0.897143
0.312908 0.242459 0.896857
0.438740 0.260032 0.893333
0.569989 0.270903 0.874235
0.704618 0.275046 0.854044
0.840395 0.272037 0.833125
0.975318 0.261430 0.811829
1.000000 0.242741 0.790442
1.000000 0.216463 0.769822
0.090622 0.315051 0.881279
0.242295 0.341864 0.870829
0.382849 0.363549 0.858620
0.523349 0.379677 0.844976
0.664411 0.389874 0.830203
0.805139 0.393793 0.814703
0.944169 0.391062 0.798765
1.000000 0.381356 0.782774
1.000000 0.364685 0.767420
0.000000 0.407378 0.841303
0.111850 0.437575 0.837020
0.307472 0.463411 0.830930
0.466202 0.484521 0.823294
0.617567 0.500603 0.814548
0.765345 0.511304 0.804974
0.909693 0.516363 0.795010
1.000000 0.515426 0.784947
1.000000 0.508371 0.775400
0.000000 0.492801 0.804764
0.000000 0.526177 0.807296
0.190569 0.556046 0.807892
0.394597 0.582118 0.806947
0.562899 0.604060 0.804778
0.720583 0.621597 0.801798
0.871840 0.634417 0.798312
1.000000 0.642236 0.794769
1.000000 0.644800 0.791606
0.000000 0.568497 0.769404
0.000000 0.605030 0.779350
0.000000 0.638975 0.787340
0.300067 0.670044 0.793691
0.499434 0.697947 0.798794
0.671126 0.722352 0.802957
0.831112 0.743022 0.806639
0.982775 0.759636 0.810178
1.000000 0.771921 0.814006
0.000000 0.632191 0.732910
0.000000 0.671947 0.751016
0.000000 0.710067 0.767059
0.148136 0.746237 0.781409
0.425988 0.780161 0.794410
0.617954 0.811579 0.806453
0.788751 0.840167 0.817885
0.947696 0.865663 0.829144
1.000000 0.887813 0.840628
0.000000 0.681832 0.693131
0.000000 0.724907 0.720065
0.000000 0.767300 0.744907
0.000000 0.808677 0.767946
0.340882 0.848759 0.789558
0.563056 0.887275 0.810099
0.746888 0.923918 0.830013
0.913829 0.958440 0.849658
1.000000 0.990523 0.869337
