docs/luts/Canon_Portrait_sRGB.cube
TITLE "Canon Portrait (sRGB)"
# Source: PS.ICC
LUT_3D_SIZE 33
DOMAIN_MIN 0.0 0.0 0.0
DOMAIN_MAX 1.0 1.0 1.0
0.000000 0.001686 0.003515
0.044556 0.000000 0.004212
0.103390 0.000000 0.002984
0.157392 0.000000 0.000909
0.207940 0.000000 0.000000
0.256229 0.000000 0.000000
0.302424 0.000000 0.000000
0.346454 0.000000 0.000000
0.388381 0.000000 0.000000
0.428635 0.000000 0.000000
0.467044 0.000000 0.000000
0.503232 0.000000 0.000000
0.537278 0.000000 0.000000
0.569193 0.000000 0.000000
0.598973 0.000000 0.000000
0.626693 0.000000 0.000000
0.652207 0.000000 0.000000
0.675660 0.000000 0.000000
0.697011 0.000000 0.000000
0.716284 0.000000 0.000000
0.733447 0.000000 0.000000
0.748477 0.000000 0.000000
0.761484 0.000000 0.000000
0.772358 0.000000 0.000000
0.781144 0.000000 0.000000
0.787852 0.000000 0.000000
0.792474 0.000000 0.000000
0.794999 0.000000 0.000000
0.795386 0.000000 0.000000
0.793757 0.000000 0.000000
0.789998 0.000000 0.000000
0.784157 0.000000 0.000000
0.776232 0.000000 0.000000
0.000000 0.044663 0.014689
0.041300 0.036846 0.000915
0.095027 0.030287 0.000000
0.148745 0.024227 0.000000
0.199404 0.019788 0.000000
0.248206 0.015804 0.000000
0.294750 0.002891 0.000000
0.339235 0.000000 0.000000
0.381908 0.000000 0.000000
0.422479 0.000000 0.000000
0.461034 0.000000 0.000000
0.497644 0.000000 0.000000
0.532390 0.000000 0.000000
0.565036 0.000000 0.000000
0.595549 0.000000 0.000000
0.623934 0.000000 0.000000
0.650214 0.000000 0.000000
0.674400 0.000000 0.000000
0.696454 0.000000 0.000000
0.716436 0.000000 0.000000
0.734318 0.000000 0.000000
0.750061 0.000000 0.000000
0.763776 0.000000 0.000000
0.775424 0.000000 0.000000
0.784914 0.000000 0.000000
0.792266 0.000000 0.000000
0.797541 0.000000 0.000000
0.800782 0.000000 0.000000
0.801929 0.000000 0.000000
0.801002 0.000000 0.000000
0.797997 0.000000 0.000000
0.792938 0.000000 0.000000
0.785783 0.000000 0.000000
0.000000 0.088034 0.017264
0.034543 0.080086 0.011786
0.087991 0.072316 0.000000
0.140349 0.064910 0.000000
0.191009 0.057978 0.000000
0.240099 0.051465 0.000000
0.287276 0.045093 0.000000
0.332520 0.038977 0.000000
0.375739 0.033016 0.000000
0.416988 0.027977 0.000000
0.456147 0.023362 0.000000
0.493262 0.019072 0.000000
0.528374 0.015520 0.000000
0.561382 0.011992 0.000000
0.592490 0.009087 0.000000
0.621467 0.000000 0.000000
0.648497 0.000000 0.000000
0.673289 0.000000 0.000000
0.696125 0.000000 0.000000
0.716806 0.000000 0.000000
0.735404 0.000000 0.000000
0.751952 0.000000 0.000000
0.766340 0.000000 0.000000
0.778620 0.000000 0.000000
0.788774 0.000000 0.000000
0.796861 0.000000 0.000000
0.802925 0.000000 0.000000
0.806876 0.000000 0.000000
0.808729 0.000000 0.000000
0.808524 0.000000 0.000000
0.806237 0.000000 0.000000
0.801874 0.000000 0.000000
0.795422 0.000000 0.000000
0.000000 0.131837 0.018463
0.033703 0.123733 0.012626
0.081607 0.115997 0.001155
0.132875 0.108475 0.000000
0.183612 0.101354 0.000000
0.233080 0.094512 0.000000
0.280462 0.087880 0.000000
0.326116 0.081618 0.000000
0.369913 0.075493 0.000000
0.411704 0.069627 0.000000
0.451504 0.063811 0.000000
0.489290 0.058225 0.000000
0.525034 0.052834 0.000000
0.558751 0.047661 0.000000
0.590377 0.042352 0.000000
0.619978 0.037375 0.000000
0.647529 0.032929 0.000000
0.672998 0.028992 0.000000
0.696380 0.025281 0.000000
0.717686 0.021965 0.000000
0.737044 0.019029 0.000000
0.754234 0.016661 0.000000
0.769273 0.014429 0.000000
0.782239 0.013038 0.000000
0.793135 0.011700 0.000000
0.801966 0.010666 0.000000
0.808720 0.009966 0.000000
0.813365 0.009752 0.000000
0.815972 0.009732 0.000000
0.816506 0.010050 0.000000
0.814909 0.010888 0.000000
0.811299 0.011861 0.000000
0.805600 0.013264 0.000000
0.000000 0.175882 0.017271
0.038550 0.167736 0.011858
0.078331 0.159966 0.007847
0.126822 0.152361 0.000000
0.176794 0.145078 0.000000
0.226066 0.138146 0.000000
0.273985 0.131460 0.000000
0.320142 0.124910 0.000000
0.364473 0.118730 0.000000
0.406850 0.112788 0.000000
0.447266 0.107005 0.000000
0.485694 0.101579 0.000000
0.522059 0.096250 0.000000
0.556394 0.091317 0.000000
0.588686 0.086568 0.000000
0.618869 0.081985 0.000000
0.647072 0.077538 0.000000
0.673149 0.073542 0.000000
0.697193 0.069852 0.000000
0.719154 0.066351 0.000000
0.739075 0.063293 0.000000
0.756885 0.060416 0.000000
0.772655 0.057943 0.000000
0.786321 0.055813 0.000000
0.797932 0.054059 0.000000
0.807449 0.052589 0.000000
0.814941 0.051803 0.000000
0.820321 0.051427 0.000000
0.823669 0.051292 0.000000
0.824885 0.051621 0.000000
0.824052 0.052439 0.000000
0.821168 0.053725 0.000000
0.816163 0.055531 0.000000
0.000000 0.220223 0.013821
0.025592 0.211924 0.009094
0.078700 0.204012 0.005154
0.123238 0.196314 0.000000
0.171710 0.188939 0.000000
0.220436 0.181798 0.000000
0.268330 0.175014 0.000000
0.314734 0.168461 0.000000
0.359442 0.162208 0.000000
0.402311 0.156231 0.000000
0.443252 0.150431 0.000000
0.482260 0.144977 0.000000
0.519218 0.139731 0.000000
0.554160 0.134719 0.000000
0.587102 0.130139 0.000000
0.617989 0.125622 0.000000
0.646835 0.121460 0.000000
0.673616 0.117563 0.000000
0.698330 0.113942 0.000000
0.720963 0.110719 0.000000
0.741600 0.107738 0.000000
0.760150 0.105103 0.000000
0.776595 0.102770 0.000000
0.790999 0.100766 0.000000
0.803307 0.099138 0.000000
0.813551 0.097895 0.000000
0.821755 0.096891 0.000000
0.827830 0.096427 0.000000
0.831882 0.096255 0.000000
0.833828 0.096458 0.000000
0.833729 0.097128 0.000000
0.831542 0.098193 0.000000
0.827271 0.099435 0.000000
0.000000 0.264652 0.007666
0.038336 0.256270 0.003680
0.083146 0.248233 0.000701
0.122494 0.240410 0.000000
0.168568 0.232906 0.000000
0.216414 0.225721 0.000000
0.263949 0.218770 0.000000
0.310425 0.212125 0.000000
0.355384 0.205777 0.000000
0.398614 0.199675 0.000000
0.440031 0.193850 0.000000
0.479536 0.188341 0.000000
0.517104 0.183037 0.000000
0.552684 0.178085 0.000000
0.586226 0.173324 0.000000
0.617748 0.168880 0.000000
0.647262 0.164793 0.000000
0.674700 0.160889 0.000000
0.700098 0.157335 0.000000
0.723438 0.154031 0.000000
0.744721 0.151127 0.000000
0.763940 0.148410 0.000000
0.781107 0.146130 0.000000
0.796198 0.144087 0.000000
0.809225 0.142532 0.000000
0.820174 0.141196 0.000000
0.829074 0.140257 0.000000
0.835909 0.139633 0.000000
0.840609 0.139360 0.000000
0.843308 0.139420 0.000000
0.843929 0.139932 0.000000
0.842492 0.140763 0.000000
0.838960 0.141963 0.000000
0.000000 0.309247 0.000000
0.052761 0.300749 0.000000
0.090783 0.292526 0.000000
0.124617 0.284640 0.000000
0.167641 0.277043 0.000000
0.214001 0.269686 0.000000
0.260957 0.262697 0.000000
0.307281 0.255930 0.000000
0.352356 0.249493 0.000000
0.395898 0.243257 0.000000
0.437720 0.237375 0.000000
0.477687 0.231758 0.000000
0.515753 0.226381 0.000000
0.551884 0.221337 0.000000
0.586045 0.216594 0.000000
0.618183 0.212065 0.000000
0.648330 0.207896 0.000000
0.676435 0.203949 0.000000
0.702462 0.200380 0.000000
0.726495 0.197064 0.000000
0.748471 0.194083 0.000000
0.768365 0.191368 0.000000
0.786211 0.189033 0.000000
0.801995 0.186986 0.000000
0.815712 0.185253 0.000000
0.827380 0.183862 0.000000
0.836989 0.182829 0.000000
0.844504 0.182161 0.000000
0.849991 0.181812 0.000000
0.853376 0.181763 0.000000
0.854702 0.182078 0.000000
0.853994 0.182737 0.000000
0.851182 0.183753 0.000000
0.000000 0.353960 0.000000
0.067672 0.345358 0.000000
0.101284 0.337011 0.000000
0.129310 0.329004 0.000000
0.168836 0.321249 0.000000
0.213305 0.313825 0.000000
0.259391 0.306674 0.000000
0.305325 0.299825 0.000000
0.350416 0.293270 0.000000
0.394110 0.286956 0.000000
0.436234 0.280959 0.000000
0.476630 0.275228 0.000000
0.515213 0.269827 0.000000
0.551853 0.264687 0.000000
0.586552 0.259819 0.000000
0.619310 0.255227 0.000000
0.650027 0.250946 0.000000
0.678778 0.247028 0.000000
0.705459 0.243328 0.000000
0.730168 0.239940 0.000000
0.752779 0.236914 0.000000
0.773360 0.234160 0.000000
0.791904 0.231679 0.000000
0.808369 0.229584 0.000000
0.822803 0.227802 0.000000
0.835140 0.226309 0.000000
0.845482 0.225230 0.000000
0.853703 0.224334 0.000000
0.859896 0.223877 0.000000
0.863988 0.223744 0.000000
0.866030 0.223866 0.000000
0.866014 0.224445 0.000000
0.863961 0.225347 0.000000
0.018676 0.398803 0.000000
0.082663 0.390044 0.000000
0.113719 0.381609 0.000000
0.136482 0.373495 0.000000
0.172121 0.365624 0.000000
0.214337 0.358103 0.000000
0.259167 0.350820 0.000000
0.304574 0.343856 0.000000
0.349502 0.337155 0.000000
0.393304 0.330768 0.000000
0.435649 0.324657 0.000000
0.476441 0.318849 0.000000
0.515385 0.313304 0.000000
0.552567 0.308074 0.000000
0.587791 0.303120 0.000000
0.621103 0.298469 0.000000
0.652453 0.294146 0.000000
0.681773 0.290054 0.000000
0.709152 0.286283 0.000000
0.734473 0.282851 0.000000
0.757718 0.279681 0.000000
0.778989 0.276854 0.000000
0.798226 0.274356 0.000000
0.815365 0.272088 0.000000
0.830479 0.270244 0.000000
0.843524 0.268632 0.000000
0.854520 0.267392 0.000000
0.863495 0.266457 0.000000
0.870371 0.265869 0.000000
0.875212 0.265609 0.000000
0.877957 0.265646 0.000000
0.878687 0.266041 0.000000
0.877322 0.266766 0.000000
0.057420 0.443741 0.000000
0.098276 0.434897 0.000000
0.127520 0.426352 0.000000
0.145851 0.418100 0.000000
0.177491 0.410113 0.000000
0.217107 0.402465 0.000000
0.260516 0.395086 0.000000
0.305132 0.388020 0.000000
0.349734 0.381227 0.000000
0.393495 0.374707 0.000000
0.436069 0.368484 0.000000
0.477070 0.362567 0.000000
0.516445 0.356961 0.000000
0.554074 0.351591 0.000000
0.589793 0.346525 0.000000
0.623660 0.341795 0.000000
0.655546 0.337332 0.000000
0.685510 0.333177 0.000000
0.713444 0.329317 0.000000
0.739398 0.325759 0.000000
0.763345 0.322544 0.000000
0.785204 0.319584 0.000000
0.805125 0.316960 0.000000
0.822937 0.314643 0.000000
0.838752 0.312627 0.000000
0.852485 0.310974 0.000000
0.864190 0.309612 0.000000
0.873835 0.308588 0.000000
0.881427 0.307857 0.000000
0.886957 0.307495 0.000000
0.890444 0.307413 0.000000
0.891868 0.307686 0.000000
0.891239 0.308259 0.012271
0.088213 0.488847 0.000000
0.114094 0.479882 0.000000
0.134833 0.471203 0.000000
0.156979 0.462801 0.000000
0.184803 0.454776 0.000000
0.221643 0.446978 0.000000
0.263382 0.439488 0.000000
0.306991 0.432250 0.000000
0.351080 0.425342 0.000000
0.394728 0.418768 0.000000
0.437372 0.412407 0.000000
0.478583 0.406381 0.000000
0.518274 0.400612 0.000000
0.556293 0.395206 0.000000
0.592513 0.390043 0.000000
0.626892 0.385196 0.000000
0.659348 0.380638 0.000000
0.689876 0.376362 0.000000
0.718422 0.372417 0.000000
0.745006 0.368733 0.000000
0.769542 0.365410 0.000000
0.792118 0.362387 0.000000
0.812666 0.359644 0.000000
0.831158 0.357232 0.000000
0.847627 0.355123 0.000000
0.862060 0.353338 0.000000
0.874447 0.351854 0.000000
0.884754 0.350686 0.000000
0.893085 0.349877 0.000000
0.899334 0.349389 0.000000
0.903526 0.349179 0.000000
0.905655 0.349338 0.009000
0.905768 0.349781 0.026995
0.114388 0.534054 0.000000
0.130145 0.524978 0.000000
0.151203 0.516180 0.000000
0.169637 0.507703 0.000000
0.193737 0.499516 0.000000
0.227812 0.491602 0.000000
0.267548 0.483999 0.000000
0.310143 0.476654 0.000000
0.353659 0.469658 0.000000
0.397023 0.462924 0.000000
0.439615 0.456464 0.000000
0.481022 0.450351 0.000000
0.520984 0.444468 0.000000
0.559381 0.438924 0.000000
0.596031 0.433675 0.000000
0.630860 0.428699 0.000000
0.663831 0.424034 0.000000
0.694926 0.419700 0.000000
0.724073 0.415620 0.000000
0.751250 0.411854 0.000000
0.776451 0.408394 0.000000
0.799633 0.405248 0.000000
0.820796 0.402454 0.000000
0.839972 0.399885 0.000000
0.857123 0.397660 0.000000
0.872228 0.395758 0.000000
0.885273 0.394161 0.000000
0.896332 0.392929 0.000000
0.905314 0.391989 0.000000
0.912268 0.391364 0.000000
0.917127 0.391071 0.000000
0.919996 0.391063 0.017782
0.920810 0.391404 0.039146
0.138297 0.579403 0.000000
0.146490 0.570188 0.000000
0.167583 0.561278 0.000000
0.183296 0.552668 0.000000
0.204198 0.544374 0.000000
0.235440 0.536356 0.000000
0.273253 0.528621 0.000000
0.314510 0.521201 0.000000
0.357276 0.514066 0.000000
0.400329 0.507199 0.000000
0.442787 0.500649 0.000000
0.484308 0.494403 0.000000
0.524526 0.488444 0.000000
0.563257 0.482779 0.000000
0.600252 0.477398 0.000000
0.635568 0.472308 0.000000
0.669073 0.467573 0.000000
0.700678 0.463087 0.000000
0.730353 0.458891 0.000000
0.758140 0.455001 0.000000
0.783904 0.451466 0.000000
0.807725 0.448208 0.000000
0.829594 0.445265 0.000000
0.849381 0.442603 0.000000
0.867212 0.440287 0.000000
0.882977 0.438277 0.000000
0.896726 0.436601 0.000000
0.908436 0.435215 0.000000
0.918101 0.434138 0.000000
0.925774 0.433398 0.000000
0.931340 0.432951 0.001622
0.934916 0.432883 0.022632
0.936448 0.433115 0.046911
0.160882 0.624892 0.000000
0.163191 0.615559 0.000000
0.184249 0.606547 0.000000
0.197955 0.597789 0.000000
0.215903 0.589359 0.000000
0.244458 0.581235 0.000000
0.280260 0.573402 0.000000
0.320154 0.565853 0.000000
0.362068 0.558607 0.000000
0.404623 0.551615 0.000000
0.446982 0.544981 0.000000
0.488489 0.538577 0.000000
0.528895 0.532536 0.000000
0.567878 0.526752 0.000000
0.605290 0.521249 0.000000
0.640970 0.516072 0.000000
0.674975 0.511185 0.000000
0.707097 0.506588 0.000000
0.737363 0.502307 0.000000
0.765681 0.498324 0.000000
0.792092 0.494656 0.000000
0.816504 0.491270 0.000000
0.838968 0.488207 0.000000
0.859390 0.485459 0.000000
0.877845 0.483015 0.000000
0.894318 0.480909 0.000000
0.908738 0.479087 0.000000
0.921120 0.477596 0.000000
0.931484 0.476414 0.000000
0.939825 0.475523 0.000000
0.946094 0.474956 0.000000
0.950400 0.474743 0.023074
0.952616 0.474838 0.049983
0.182375 0.670489 0.000000
0.180134 0.661033 0.000000
0.200847 0.651893 0.000000
0.213235 0.643048 0.000000
0.228621 0.634487 0.000000
0.254687 0.626245 0.000000
0.288441 0.618268 0.000000
0.326906 0.610632 0.000000
0.367918 0.603266 0.000000
0.409933 0.596165 0.000000
0.452035 0.589389 0.000000
0.493551 0.582893 0.000000
0.534032 0.576723 0.000000
0.573304 0.570821 0.000000
0.611052 0.565210 0.000000
0.647177 0.559915 0.000000
0.681616 0.554928 0.000000
0.714230 0.550224 0.000000
0.744996 0.545820 0.000000
0.773892 0.541723 0.000000
0.800875 0.537939 0.000000
0.825913 0.534475 0.000000
0.848984 0.531306 0.000000
0.870059 0.528446 0.000000
0.889148 0.525891 0.000000
0.906227 0.523625 0.000000
0.921323 0.521672 0.000000
0.934381 0.520041 0.000000
0.945403 0.518756 0.000000
0.954468 0.517774 0.000000
0.961446 0.517097 0.000000
0.966415 0.516725 0.018086
0.969346 0.516720 0.047860
0.203228 0.716211 0.000000
0.198967 0.706650 0.000000
0.217834 0.697390 0.000000
0.229125 0.688418 0.000000
0.242327 0.679740 0.000000
0.266051 0.671400 0.000000
0.297799 0.663295 0.000000
0.334873 0.655541 0.000000
0.374830 0.648020 0.000000
0.416288 0.640862 0.000000
0.458047 0.633953 0.000000
0.499455 0.627344 0.000000
0.540058 0.621034 0.000000
0.579503 0.615017 0.000000
0.617558 0.609332 0.000000
0.654074 0.603912 0.000000
0.688912 0.598776 0.000000
0.722042 0.593979 0.000000
0.753270 0.589456 0.000000
0.782714 0.585243 0.000000
0.810264 0.581340 0.000000
0.835910 0.577774 0.000000
0.859582 0.574502 0.000000
0.881276 0.571481 0.000000
0.900995 0.568809 0.000000
0.918764 0.566441 0.000000
0.934505 0.564387 0.000000
0.948239 0.562663 0.000000
0.959939 0.561228 0.000000
0.969624 0.560141 0.000000
0.977310 0.559337 0.000000
0.982993 0.558873 0.007122
0.986626 0.558737 0.039698
0.223672 0.762095 0.000000
0.219393 0.752402 0.000000
0.234905 0.743032 0.000000
0.245406 0.733930 0.000000
0.256647 0.725126 0.000000
0.278342 0.716665 0.000000
0.308227 0.708478 0.000000
0.343768 0.700573 0.000000
0.382779 0.692959 0.000000
0.423537 0.685623 0.000000
0.464964 0.678618 0.000000
0.506255 0.671918 0.000000
0.546902 0.665501 0.000000
0.586479 0.659335 0.000000
0.624812 0.653517 0.000000
0.661664 0.647992 0.000000
0.696892 0.642769 0.000000
0.730489 0.637858 0.000000
0.762288 0.633235 0.000000
0.792232 0.628906 0.000000
0.820324 0.624889 0.000000
0.846527 0.621167 0.000000
0.870782 0.617748 0.000000
0.893094 0.614640 0.000000
0.913470 0.611849 0.000000
0.931854 0.609392 0.000000
0.948237 0.607239 0.000000
0.962633 0.605360 0.000000
0.975012 0.603825 0.000000
0.985396 0.602579 0.000000
0.993765 0.601668 0.000000
1.000000 0.601080 0.000000
1.000000 0.600806 0.024360
0.243721 0.808073 0.000000
0.239548 0.798280 0.000000
0.252142 0.788759 0.000000
0.262112 0.779582 0.000000
0.271768 0.770671 0.000000
0.291425 0.762048 0.000000
0.319569 0.753746 0.000000
0.353685 0.745747 0.000000
0.391676 0.738012 0.000000
0.431762 0.730598 0.000000
0.472726 0.723425 0.000000
0.513882 0.716616 0.000000
0.554492 0.710053 0.000000
0.594217 0.703826 0.000000
0.632796 0.697876 0.000000
0.669918 0.692200 0.000000
0.705593 0.686882 0.000000
0.739593 0.681844 0.000000
0.771860 0.677071 0.000000
0.802355 0.672659 0.000000
0.830946 0.668514 0.000000
0.857752 0.664694 0.000000
0.882606 0.661170 0.000000
0.905530 0.657929 0.000000
0.926524 0.655050 0.000000
0.945529 0.652466 0.000000
0.962579 0.650174 0.000000
0.977615 0.648187 0.000000
0.990668 0.646511 0.000000
1.000000 0.645169 0.000000
1.000000 0.644140 0.000000
1.000000 0.643388 0.000000
1.000000 0.642988 0.002179
0.263586 0.854213 0.000000
0.259301 0.844283 0.000000
0.269526 0.834653 0.000000
0.278984 0.825328 0.000000
0.287279 0.816327 0.000000
0.305295 0.807586 0.000000
0.331718 0.799153 0.000000
0.364466 0.791025 0.000000
0.401420 0.783189 0.000000
0.440790 0.775633 0.000000
0.481372 0.768374 0.000000
0.522283 0.761414 0.000000
0.562907 0.754750 0.000000
0.602669 0.748400 0.000000
0.641486 0.742332 0.000000
0.678921 0.736553 0.000000
0.714967 0.731131 0.000000
0.749361 0.725946 0.000000
0.782116 0.721083 0.000000
0.813092 0.716536 0.000000
0.842281 0.712293 0.000000
0.869581 0.708328 0.000000
0.894994 0.704706 0.000000
0.918529 0.701368 0.000000
0.940131 0.698345 0.000000
0.959775 0.695625 0.000000
0.977444 0.693216 0.000000
0.993136 0.691088 0.000000
1.000000 0.689326 0.000000
1.000000 0.687890 0.000000
1.000000 0.686692 0.000000
1.000000 0.685890 0.000000
1.000000 0.685327 0.000000
0.283095 0.900442 0.000000
0.278923 0.890421 0.000000
0.287011 0.880670 0.000000
0.296108 0.871224 0.000000
0.303228 0.862098 0.000000
0.319724 0.853239 0.000000
0.344644 0.844687 0.000000
0.376104 0.836462 0.000000
0.411968 0.828480 0.000000
0.450700 0.820830 0.000000
0.490843 0.813469 0.000000
0.531526 0.806404 0.000000
0.572017 0.799595 0.000000
0.611958 0.793122 0.000000
0.650872 0.786917 0.000000
0.688630 0.781049 0.000000
0.724986 0.775485 0.000000
0.759806 0.770171 0.000000
0.792968 0.765210 0.000000
0.824443 0.760548 0.000000
0.854133 0.756151 0.000000
0.882004 0.752109 0.000000
0.908021 0.748339 0.000000
0.932124 0.744896 0.000000
0.954329 0.741755 0.000000
0.974577 0.738902 0.000000
0.992881 0.736370 0.000000
1.000000 0.734190 0.000000
1.000000 0.732262 0.000000
1.000000 0.730698 0.000000
1.000000 0.729411 0.000000
1.000000 0.728440 0.000000
1.000000 0.727780 0.000000
0.302521 0.946814 0.000000
0.298363 0.936692 0.000000
0.304690 0.926816 0.000000
0.313394 0.917234 0.000000
0.319535 0.908006 0.000000
0.334688 0.899043 0.000000
0.358241 0.890364 0.000000
0.388454 0.881989 0.000000
0.423406 0.873917 0.000000
0.461352 0.866143 0.000000
0.501031 0.858671 0.000000
0.541431 0.851450 0.000000
0.581871 0.844561 0.000000
0.621890 0.837965 0.000000
0.661001 0.831663 0.000000
0.698974 0.825672 0.000000
0.735651 0.819946 0.000000
0.770854 0.814562 0.000000
0.804467 0.809460 0.000000
0.836431 0.804673 0.000000
0.866630 0.800190 0.000000
0.895044 0.796004 0.000000
0.921629 0.792136 0.000000
0.946311 0.788554 0.000000
0.969099 0.785284 0.000000
0.989928 0.782322 0.000000
1.000000 0.779687 0.000000
1.000000 0.777382 0.000000
1.000000 0.775334 0.000000
1.000000 0.773622 0.000000
1.000000 0.772223 0.000000
1.000000 0.771104 0.000000
1.000000 0.770355 0.000000
0.321850 0.993267 0.000000
0.317596 0.983076 0.000000
0.322506 0.973091 0.000000
0.329456 0.963401 0.000000
0.336123 0.954014 0.000000
0.350127 0.944946 0.000000
0.372476 0.936149 0.000000
0.401459 0.927658 0.000000
0.435454 0.919452 0.000000
0.472694 0.911544 0.000000
0.511948 0.903968 0.000000
0.552103 0.896637 0.000000
0.592447 0.889622 0.000000
0.632452 0.882927 0.000000
0.671772 0.876514 0.000000
0.709971 0.870386 0.000000
0.746952 0.864538 0.000000
0.782549 0.859033 0.000000
0.816598 0.853835 0.000000
0.849036 0.848931 0.000000
0.879710 0.844332 0.000000
0.908651 0.839997 0.000000
0.935771 0.836020 0.000000
0.961068 0.832332 0.000000
0.984416 0.828941 0.000000
1.000000 0.825898 0.000000
1.000000 0.823121 0.000000
1.000000 0.820650 0.000000
1.000000 0.818498 0.000000
1.000000 0.816648 0.000000
1.000000 0.815156 0.000000
1.000000 0.813951 0.000000
1.000000 0.813039 0.000000
0.340582 1.000000 0.000000
0.336422 1.000000 0.000000
0.340220 1.000000 0.000000
0.346878 1.000000 0.000000
0.352904 0.999969 0.000000
0.365981 0.990934 0.000000
0.387149 0.982066 0.000000
0.415171 0.973454 0.000000
0.448275 0.965158 0.000000
0.484848 0.957138 0.000000
0.523587 0.949411 0.000000
0.563476 0.941969 0.000000
0.603689 0.934831 0.000000
0.643724 0.928003 0.000000
0.683155 0.921472 0.000000
0.721624 0.915236 0.000000
0.758928 0.909322 0.000000
0.794902 0.903701 0.000000
0.829313 0.898344 0.000000
0.862186 0.893318 0.000000
0.893379 0.888603 0.000000
0.922824 0.884159 0.000000
0.950491 0.880021 0.000000
0.976344 0.876233 0.000000
1.000000 0.872724 0.000000
1.000000 0.869508 0.000000
1.000000 0.866640 0.000000
1.000000 0.864063 0.000000
1.000000 0.861830 0.000000
1.000000 0.859871 0.000000
1.000000 0.858203 0.000000
1.000000 0.856878 0.000000
1.000000 0.855883 0.000000
0.359259 1.000000 0.000000
0.355090 1.000000 0.000000
0.357843 1.000000 0.000000
0.363981 1.000000 0.000000
0.369585 1.000000 0.000000
0.381851 1.000000 0.000000
0.402085 1.000000 0.000000
0.429221 1.000000 0.000000
0.461530 1.000000 0.000000
0.497536 1.000000 0.000000
0.535856 0.994854 0.000000
0.575479 0.987429 0.000000
0.615602 0.980183 0.000000
0.655665 0.973224 0.000000
0.695223 0.966571 0.000000
0.733898 0.960241 0.000000
0.771501 0.954185 0.000000
0.807772 0.948406 0.000000
0.842658 0.942978 0.000000
0.875947 0.937824 0.000000
0.907602 0.932978 0.000000
0.937552 0.928419 0.000000
0.965762 0.924180 0.000000
0.992189 0.920275 0.000000
1.000000 0.916643 0.000000
1.000000 0.913332 0.000000
1.000000 0.910294 0.000000
1.000000 0.907596 0.000000
1.000000 0.905221 0.000000
1.000000 0.903150 0.000000
1.000000 0.901416 0.000000
1.000000 0.899971 0.000000
1.000000 0.898791 0.000000
0.377848 1.000000 0.000000
0.373672 1.000000 0.000000
0.375565 1.000000 0.000000
0.380442 1.000000 0.000000
0.386481 1.000000 0.000000
0.397952 1.000000 0.000000
0.417366 1.000000 0.000000
0.443629 1.000000 0.000000
0.475199 1.000000 0.000000
0.510598 1.000000 0.000000
0.548564 1.000000 0.000000
0.587944 1.000000 0.000000
0.628019 1.000000 0.000000
0.668121 1.000000 0.000000
0.707849 1.000000 0.000000
0.746713 1.000000 0.000000
0.784628 0.998972 0.000000
0.821286 0.993196 0.000000
0.856522 0.987717 0.000000
0.890306 0.982451 0.000000
0.922407 0.977473 0.000000
0.952898 0.972808 0.000000
0.981604 0.968460 0.000000
1.000000 0.964412 0.000000
1.000000 0.960686 0.000000
1.000000 0.957236 0.000000
1.000000 0.954104 0.000000
1.000000 0.951293 0.000000
1.000000 0.948788 0.000000
1.000000 0.946588 0.000000
1.000000 0.944695 0.000000
1.000000 0.943111 0.000000
1.000000 0.941869 0.000000
0.355752 1.000000 0.000000
0.366185 1.000000 0.000000
0.380995 1.000000 0.000000
0.397838 1.000000 0.000000
0.403420 1.000000 0.000000
0.414300 1.000000 0.000000
0.432990 1.000000 0.000000
0.458516 1.000000 0.000000
0.489387 1.000000 0.000000
0.524244 1.000000 0.000000
0.561818 1.000000 0.000000
0.601001 1.000000 0.000000
0.640989 1.000000 0.000000
0.681081 1.000000 0.000000
0.720899 1.000000 0.000000
0.760058 1.000000 0.000000
0.798231 1.000000 0.000000
0.835234 1.000000 0.000000
0.870863 1.000000 0.000000
0.905071 1.000000 0.000000
0.937715 1.000000 0.000000
0.968672 1.000000 0.000000
0.997957 1.000000 0.000000
1.000000 1.000000 0.000000
1.000000 1.000000 0.000000
1.000000 1.000000 0.000000
