docs/luts/Canon_Portrait_AdobeRGB.cube
TITLE "Canon Portrait (Adobe RGB)"
# Source: PA.ICC
LUT_3D_SIZE 5
DOMAIN_MIN 0.0 0.0 0.0
DOMAIN_MAX 1.0 1.0 1.0
0.000000 0.001686 0.003515
0.357553 0.000000 0.000000
0.630599 0.000000 0.000000
0.822140 0.000000 0.000000
0.932800 0.000000 0.000000
0.000000 0.369516 0.000000
0.294421 0.284272 0.000000
0.622727 0.231351 0.000000
0.846142 0.210730 0.000000
0.985081 0.224248 0.003619
0.000000 0.683385 0.000000
0.000000 0.603108 0.000000
0.578121 0.555703 0.000000
0.854112 0.541388 0.000000
1.000000 0.560670 0.168120
0.000000 0.941349 0.000000
0.000000 0.865980 0.000000
0.495278 0.823523 0.000000
0.851796 0.814200 0.000000
1.000000 0.838432 0.056299
0.000000 1.000000 0.000000
0.000000 1.000000 0.000000
0.391926 1.000000 0.000000
0.859002 1.000000 0.000000
1.000000 1.000000 0.000000
0.000000 0.000000 0.293343
0.353109 0.000000 0.169591
0.643520 0.000000 0.061443
0.856292 0.000000 0.000000
0.989614 0.000000 0.000000
0.000000 0.318235 0.265443
0.267328 0.247885 0.213802
0.613601 0.209755 0.186578
0.858354 0.203880 0.186209
1.000000 0.232325 0.217993
0.000000 0.612746 0.000000
0.000000 0.547502 0.030621
0.551596 0.515134 0.123246
0.847035 0.515834 0.216365
1.000000 0.550092 0.331473
0.000000 0.852088 0.000000
0.000000 0.791709 0.000000
0.447815 0.764275 0.000000
0.826247 0.769938 0.000000
1.000000 0.809181 0.272117
0.000000 1.000000 0.000000
0.000000 0.980115 0.000000
0.302934 0.957550 0.000000
0.813385 0.968037 0.000000
1.000000 1.000000 0.000000
0.005476 0.000000 0.664798
0.358017 0.000000 0.511428
0.667918 0.000000 0.385185
0.902787 0.000000 0.284644
1.000000 0.000000 0.209675
0.000000 0.290834 0.620853
0.254118 0.235261 0.538753
0.616472 0.211401 0.484258
0.882312 0.219704 0.457342
1.000000 0.262309 0.459173
0.000000 0.563063 0.423093
0.000000 0.512892 0.414358
0.534313 0.495525 0.432377
0.850026 0.511142 0.477946
1.000000 0.560297 0.552679
0.000000 0.782897 0.000000
0.000000 0.737600 0.005403
0.406024 0.725238 0.193284
0.808939 0.746057 0.334456
1.000000 0.800355 0.492179
0.000000 0.947817 0.000000
0.000000 0.907348 0.000000
0.201267 0.899796 0.000000
0.775098 0.925257 0.000000
1.000000 0.984228 0.229702
0.270248 0.035761 1.000000
0.384120 0.000000 0.927424
0.707761 0.000000 0.773321
0.962445 0.000000 0.646386
1.000000 0.000000 0.547501
0.000000 0.291101 1.000000
0.264988 0.249664 0.933078
0.634027 0.238672 0.850180
0.919356 0.259467 0.794684
1.000000 0.314871 0.767677
0.000000 0.536168 0.835433
0.000000 0.500804 0.794701
0.529511 0.498093 0.781976
0.864545 0.528227 0.797256
1.000000 0.591798 0.841099
0.000000 0.734601 0.467202
0.000000 0.704428 0.501643
0.372840 0.707253 0.562617
0.801365 0.743077 0.650767
1.000000 0.812336 0.767347
0.000000 0.880095 0.000000
0.000000 0.854626 0.000000
0.001230 0.862192 0.089937
0.744443 0.902881 0.326224
1.000000 0.977004 0.534737
0.811065 0.000000 1.000000
0.689281 0.000000 1.000000
0.764339 0.085165 1.000000
1.000000 0.067543 1.000000
1.000000 0.090451 0.951219
0.670533 0.247890 1.000000
0.577933 0.249584 1.000000
0.668784 0.290926 1.000000
0.970619 0.322742 1.000000
1.000000 0.389817 1.000000
0.000000 0.534103 1.000000
0.000000 0.512879 1.000000
0.541235 0.523978 1.000000
0.892190 0.567739 1.000000
1.000000 0.645052 1.000000
0.000000 0.708810 0.937345
0.000000 0.693539 0.937839
0.355259 0.711179 0.965675
0.805519 0.761727 1.000000
1.000000 0.845564 1.000000
0.000000 0.833009 0.393001
0.000000 0.822722 0.473837
0.000000 0.845557 0.579274
0.723165 0.901416 0.710430
1.000000 0.990630 0.869129
