docs/luts/Canon_Portrait_sRGB.cube
TITLE "Canon Portrait (sRGB)"
# Source: PS.ICC
LUT_3D_SIZE 5
DOMAIN_MIN 0.0 0.0 0.0
DOMAIN_MAX 1.0 1.0 1.0
0.000000 0.001686 0.003515
0.388381 0.000000 0.000000
0.652207 0.000000 0.000000
0.781144 0.000000 0.000000
0.776232 0.000000 0.000000
0.000000 0.353960 0.000000
0.350416 0.293270 0.000000
0.650027 0.250946 0.000000
0.822803 0.227802 0.000000
0.863961 0.225347 0.000000
0.203228 0.716211 0.000000
0.374830 0.648020 0.000000
0.688912 0.598776 0.000000
0.900995 0.568809 0.000000
0.986626 0.558737 0.039698
0.359259 1.000000 0.000000
0.461530 1.000000 0.000000
0.771501 0.954185 0.000000
1.000000 0.916643 0.000000
1.000000 0.898791 0.000000
0.000000 1.000000 0.000000
0.263424 1.000000 0.000000
0.679170 1.000000 0.000000
0.940656 1.000000 0.000000
1.000000 1.000000 0.000000
0.000000 0.000000 0.255991
0.381098 0.000000 0.156321
0.695044 0.000000 0.070506
0.876181 0.000000 0.000000
0.924401 0.000000 0.000000
0.000000 0.283778 0.259860
0.267335 0.247899 0.213835
0.619466 0.230332 0.191384
0.845654 0.231757 0.196329
0.940233 0.253951 0.234571
0.143726 0.588845 0.091686
0.237436 0.545639 0.105919
0.585016 0.521328 0.143416
0.850447 0.516194 0.208295
0.989749 0.530952 0.303848
0.284198 0.902879 0.000000
0.303562 0.852011 0.000000
0.597586 0.820233 0.000000
0.892285 0.807548 0.000000
1.000000 0.814545 0.202502
0.308593 1.000000 0.000000
0.388246 1.000000 0.000000
0.647690 1.000000 0.000000
0.926216 1.000000 0.000000
1.000000 1.000000 0.000000
0.000000 0.051715 0.560299
0.421992 0.037377 0.449887
0.786954 0.033319 0.364163
1.000000 0.056752 0.303876
1.000000 0.113486 0.273008
0.000000 0.267401 0.561067
0.241762 0.255768 0.503177
0.640994 0.262388 0.471504
0.919744 0.288056 0.466579
1.000000 0.334559 0.490752
0.112605 0.513141 0.416359
0.172486 0.494792 0.411141
0.534348 0.495510 0.432426
0.852101 0.515181 0.480542
1.000000 0.554647 0.557756
0.227767 0.769834 0.073082
0.222317 0.743898 0.146988
0.477606 0.737177 0.234169
0.820117 0.749516 0.341525
1.000000 0.781479 0.475531
0.338894 1.000000 0.000000
0.325371 1.000000 0.000000
0.478223 0.987720 0.000000
0.825597 0.992259 0.000000
1.000000 1.000000 0.206812
0.089368 0.140576 0.908263
0.516620 0.148992 0.786168
0.930594 0.176813 0.689572
1.000000 0.229149 0.619351
1.000000 0.306764 0.577261
0.079166 0.304957 0.904393
0.277563 0.316455 0.834600
0.715956 0.346464 0.791145
1.000000 0.395986 0.774552
1.000000 0.466414 0.786033
0.131575 0.490369 0.758409
0.174755 0.496569 0.740305
0.539232 0.521828 0.749330
0.906747 0.565958 0.785270
1.000000 0.629860 0.849313
0.198177 0.688343 0.464548
0.199133 0.687355 0.499626
0.414492 0.705689 0.561988
0.801450 0.742993 0.650871
1.000000 0.799828 0.767770
0.281933 0.896981 0.000000
0.278525 0.888224 0.003888
0.366136 0.898875 0.200909
0.733878 0.928594 0.358853
1.000000 0.977713 0.535312
0.441106 0.251600 1.000000
0.665314 0.311070 1.000000
1.000000 0.366510 1.000000
1.000000 0.444864 0.973004
1.000000 0.546521 0.919826
0.290670 0.388194 1.000000
0.368571 0.427527 1.000000
0.844471 0.480986 1.000000
1.000000 0.554401 1.000000
1.000000 0.648860 1.000000
0.193209 0.520753 1.000000
0.226575 0.550811 1.000000
0.600169 0.599988 1.000000
1.000000 0.668112 1.000000
1.000000 0.756180 1.000000
0.209846 0.659494 0.848257
0.220899 0.683205 0.869773
0.410989 0.726297 0.917996
0.837412 0.788307 0.992060
1.000000 0.869640 1.000000
0.248796 0.809552 0.402133
0.257658 0.825800 0.478721
0.320209 0.861545 0.582494
0.696934 0.916447 0.712407
1.000000 0.990543 0.869335
