docs/luts/Canon_Neutral_AdobeRGB.cube
TITLE "Canon Neutral (Adobe RGB)"
# Source: NA.ICC
LUT_3D_SIZE 9
DOMAIN_MIN 0.0 0.0 0.0
DOMAIN_MAX 1.0 1.0 1.0
0.000000 0.001686 0.003515
0.137914 0.000000 0.000674
0.282010 0.000000 0.000000
0.434779 0.000000 0.000000
0.594045 0.000000 0.000000
0.758449 0.000000 0.000000
0.925201 0.000000 0.000000
1.000000 0.000000 0.000000
1.000000 0.000000 0.000000
0.000000 0.125517 0.000000
0.127670 0.120783 0.000000
0.274336 0.119728 0.000000
0.422016 0.121095 0.000000
0.575270 0.123469 0.000000
0.732948 0.125796 0.000000
0.893133 0.126855 0.000000
1.000000 0.125324 0.000000
1.000000 0.120002 0.000000
0.000000 0.249618 0.000000
0.087416 0.245255 0.000000
0.258925 0.244827 0.000000
0.407523 0.247247 0.000000
0.556805 0.251412 0.000000
0.708846 0.256109 0.000000
0.862925 0.260459 0.000000
1.000000 0.263246 0.000000
1.000000 0.263385 0.000000
0.000000 0.371579 0.000000
0.000000 0.367789 0.000000
0.231630 0.368205 0.000000
0.388859 0.371787 0.000000
0.537203 0.377451 0.000000
0.685165 0.384138 0.000000
0.833883 0.390790 0.000000
0.982388 0.396410 0.000000
1.000000 0.399945 0.000000
0.000000 0.490011 0.000000
0.000000 0.487058 0.000000
0.190492 0.488638 0.000000
0.366281 0.493614 0.000000
0.516533 0.501007 0.000000
0.661891 0.509688 0.000000
0.806000 0.518743 0.000000
0.949036 0.527042 0.000000
1.000000 0.533571 0.000000
0.000000 0.603760 0.000000
0.000000 0.601968 0.000000
0.135242 0.604959 0.000000
0.342788 0.611628 0.000000
0.496618 0.620951 0.000000
0.640071 0.631909 0.000000
0.779916 0.643452 0.000000
0.917648 0.654626 0.000000
1.000000 0.664308 0.000000
0.000000 0.711657 0.000000
0.000000 0.711333 0.000000
0.079064 0.715992 0.000000
0.325726 0.724638 0.000000
0.481547 0.736203 0.000000
0.622146 0.749643 0.000000
0.757352 0.764028 0.000000
0.889368 0.778208 0.000000
1.000000 0.791250 0.000000
0.000000 0.812502 0.000000
0.000000 0.813923 0.000000
0.095267 0.820578 0.000000
0.327673 0.831483 0.000000
0.477830 0.845582 0.000000
0.612486 0.861825 0.000000
0.741254 0.879223 0.000000
0.866363 0.896776 0.000000
0.987981 0.913353 0.000000
0.000000 0.905120 0.000000
0.000000 0.908594 0.000000
0.198133 0.917589 0.000000
0.362231 0.931021 0.000000
0.494296 0.947943 0.000000
0.617053 0.967277 0.000000
0.735900 0.987990 0.000000
0.852094 1.000000 0.000000
0.965174 1.000000 0.000000
0.011166 0.015620 0.138617
0.144705 0.001868 0.123216
0.288396 0.000223 0.111977
0.441999 0.000000 0.102416
0.603282 0.000000 0.091865
0.769795 0.003149 0.076666
0.939465 0.000000 0.051407
1.000000 0.000000 0.005455
1.000000 0.000000 0.000000
0.000000 0.129488 0.115547
0.133929 0.123996 0.104399
0.280202 0.122312 0.097202
0.429151 0.123135 0.091528
0.584143 0.125287 0.084919
0.744114 0.127278 0.074260
0.907148 0.128140 0.054663
1.000000 0.126719 0.016036
1.000000 0.121515 0.000000
0.000000 0.252813 0.078915
0.095213 0.247396 0.071623
0.265392 0.246069 0.068327
0.415063 0.247743 0.066258
0.566126 0.251236 0.062845
0.720550 0.255539 0.054902
0.877456 0.259530 0.036526
1.000000 0.262104 0.002871
1.000000 0.262110 0.000000
0.000000 0.374480 0.006747
0.000000 0.369368 0.005065
0.240379 0.368598 0.006863
0.398032 0.371147 0.009336
0.548033 0.375957 0.009740
0.698323 0.381919 0.004962
0.849910 0.388017 0.000000
1.000000 0.393172 0.000000
1.000000 0.396328 0.000000
0.000000 0.493073 0.000000
0.000000 0.488530 0.000000
0.204630 0.488606 0.000000
0.378575 0.492322 0.000000
0.530060 0.498547 0.000000
0.677557 0.506276 0.000000
0.824505 0.514476 0.000000
0.970878 0.522085 0.000000
1.000000 0.528094 0.000000
0.000000 0.607377 0.000000
0.000000 0.603726 0.000000
0.162246 0.604958 0.000000
0.360080 0.610056 0.000000
0.514167 0.617943 0.000000
0.659392 0.627687 0.000000
0.801909 0.638172 0.000000
0.942954 0.648365 0.000000
1.000000 0.657237 0.000000
0.000000 0.716174 0.000000
0.000000 0.713693 0.000000
0.132794 0.716355 0.000000
0.350018 0.723160 0.000000
0.504506 0.733096 0.000000
0.646428 0.745017 0.000000
0.784057 0.758002 0.000000
0.919280 0.770975 0.000000
1.000000 0.782970 0.000000
0.000000 0.818292 0.000000
0.000000 0.817287 0.000000
0.159917 0.821725 0.000000
0.359927 0.830534 0.000000
0.507418 0.842672 0.000000
0.642872 0.857140 0.000000
0.773782 0.872905 0.000000
0.902048 0.888980 0.000000
1.000000 0.904257 0.000000
0.000000 0.912608 0.000000
0.000000 0.913404 0.000000
0.250095 0.919842 0.000000
0.400842 0.930933 0.000000
0.530746 0.945662 0.000000
0.654348 0.962937 0.000000
0.775309 0.981755 0.000000
0.894535 1.000000 0.000000
1.000000 1.000000 0.000000
0.020225 0.023415 0.286225
0.148758 0.019132 0.266425
0.292897 0.007787 0.252524
0.446673 0.008645 0.242212
0.608699 0.013015 0.233458
0.776854 0.008396 0.224180
0.948473 0.000637 0.212076
1.000000 0.000000 0.194563
1.000000 0.000000 0.168261
0.000000 0.135150 0.261363
0.137117 0.128773 0.246104
0.283045 0.126318 0.236396
0.432458 0.126472 0.230154
0.588498 0.128115 0.225300
0.750011 0.129897 0.219791
0.915067 0.130614 0.211390
1.000000 0.129251 0.197708
1.000000 0.124146 0.175649
0.000000 0.256776 0.230199
0.097498 0.250196 0.219389
0.267358 0.247892 0.213836
0.417693 0.248767 0.211464
0.569885 0.251578 0.210273
0.725944 0.255375 0.208240
0.884973 0.258983 0.203171
1.000000 0.261299 0.192655
1.000000 0.261247 0.173806
0.000000 0.377765 0.190675
0.000000 0.371269 0.184281
0.242390 0.369293 0.182924
0.400775 0.370754 0.184546
0.552008 0.374673 0.187110
0.704000 0.379874 0.188503
0.857786 0.385345 0.186552
1.000000 0.390038 0.178768
1.000000 0.392934 0.162066
0.000000 0.496286 0.137136
0.000000 0.490104 0.135710
0.207875 0.488702 0.139403
0.382395 0.491076 0.145908
0.535144 0.496136 0.153008
0.684376 0.502835 0.158328
0.833568 0.510195 0.159608
0.982700 0.517084 0.154150
1.000000 0.522528 0.138357
0.000000 0.610936 0.040755
0.000000 0.605378 0.050289
0.168815 0.604872 0.066292
0.366035 0.608368 0.083576
0.521273 0.614863 0.099100
0.668236 0.623293 0.110899
0.813079 0.632647 0.116591
0.956872 0.641855 0.113177
1.000000 0.649932 0.095646
0.000000 0.720519 0.000000
0.000000 0.715867 0.000000
0.146171 0.716520 0.000000
0.359242 0.721441 0.000000
0.514622 0.729655 0.000000
0.658283 0.740077 0.008334
0.798200 0.751665 0.027644
0.936220 0.763424 0.026663
1.000000 0.774326 0.000000
0.000000 0.823815 0.000000
0.000000 0.820379 0.000000
0.178401 0.822502 0.000000
0.373193 0.829161 0.000000
0.521407 0.839378 0.000000
0.658601 0.852035 0.000000
0.791819 0.866140 0.000000
0.922958 0.880670 0.000000
1.000000 0.894645 0.000000
0.000000 0.919706 0.000000
0.000000 0.917772 0.000000
0.269093 0.921657 0.000000
0.418311 0.930348 0.000000
0.549190 0.942826 0.000000
0.674648 0.958019 0.000000
0.798047 0.974962 0.000000
0.920221 0.992460 0.000000
1.000000 1.000000 0.000000
0.038191 0.037692 0.438790
0.158036 0.031430 0.413854
0.298909 0.028194 0.395901
0.452026 0.025677 0.382790
0.614200 0.022627 0.372632
0.782866 0.017923 0.363347
0.955604 0.009912 0.352927
1.000000 0.000000 0.339344
1.000000 0.000000 0.320468
0.000000 0.143487 0.410741
0.143489 0.136089 0.390448
0.286885 0.132690 0.376760
0.435573 0.132190 0.367680
0.591660 0.133332 0.361331
0.753831 0.134713 0.355584
0.920103 0.135341 0.348629
1.000000 0.133964 0.338352
1.000000 0.129185 0.322670
0.000000 0.262580 0.378333
0.101840 0.254803 0.362548
0.269071 0.251464 0.353019
0.418979 0.251445 0.347869
0.571427 0.253577 0.345095
0.728245 0.256756 0.342830
0.888656 0.260023 0.339083
1.000000 0.262122 0.331825
1.000000 0.261961 0.319016
0.000000 0.382538 0.341205
0.000000 0.374604 0.329848
0.242398 0.371305 0.324453
0.400821 0.371689 0.323137
0.552566 0.374664 0.324016
0.705558 0.379082 0.325055
0.860765 0.383896 0.324360
1.000000 0.388134 0.319976
1.000000 0.390607 0.309681
0.000000 0.500733 0.298630
0.000000 0.492825 0.291666
0.206223 0.489906 0.290526
0.381797 0.490896 0.293153
0.535374 0.494768 0.297678
0.685799 0.500469 0.302105
0.836566 0.506871 0.304469
0.987731 0.513046 0.302775
1.000000 0.517863 0.294716
0.000000 0.615531 0.248679
0.000000 0.608016 0.246440
0.165570 0.605735 0.249873
0.365380 0.607607 0.256961
0.521907 0.612626 0.265496
0.670291 0.619768 0.273580
0.816904 0.627952 0.279137
0.962858 0.636191 0.280056
1.000000 0.643353 0.274076
0.000000 0.725753 0.186548
0.000000 0.718887 0.190178
0.141990 0.717487 0.199633
0.359249 0.720524 0.212351
0.516288 0.727009 0.226043
0.661634 0.735851 0.238474
0.803519 0.746026 0.247674
0.943879 0.756523 0.251462
1.000000 0.766291 0.247284
0.000000 0.830125 0.092970
0.000000 0.824177 0.109058
0.175942 0.824000 0.130598
0.374740 0.828477 0.153641
0.524917 0.836662 0.175649
0.663973 0.847474 0.194665
0.799395 0.859951 0.208741
0.933065 0.872938 0.215783
1.000000 0.885500 0.213394
0.000000 0.927434 0.000000
0.000000 0.922739 0.000000
0.269763 0.924049 0.000000
0.421989 0.930326 0.053203
0.555092 0.940495 0.102764
0.682707 0.953580 0.136135
0.808524 0.968537 0.158867
0.933413 0.984372 0.170994
1.000000 0.999741 0.170472
0.067665 0.057216 0.596078
0.174706 0.049800 0.565509
0.310843 0.045236 0.542785
0.461656 0.041747 0.525966
0.622715 0.038122 0.513082
0.791011 0.032974 0.502203
0.964024 0.024854 0.491414
1.000000 0.012835 0.478765
1.000000 0.000000 0.462329
0.009167 0.155335 0.564814
0.156553 0.146821 0.538830
0.295081 0.142530 0.520391
0.441756 0.141218 0.507558
0.596902 0.141728 0.498432
0.758836 0.142803 0.491094
0.925489 0.143148 0.483599
1.000000 0.141813 0.474102
1.000000 0.137349 0.460568
0.000000 0.271361 0.530069
0.113368 0.262246 0.508581
0.274197 0.257778 0.494303
0.422312 0.256792 0.485397
0.574014 0.258194 0.479889
0.730781 0.260776 0.475928
0.891670 0.263559 0.471614
1.000000 0.265398 0.465042
1.000000 0.265081 0.454223
0.000000 0.389897 0.492084
0.000000 0.380401 0.475021
0.244796 0.375826 0.464869
0.401811 0.375042 0.459757
0.553067 0.376974 0.457820
0.706208 0.380523 0.457116
0.862072 0.384693 0.455831
1.000000 0.388400 0.452062
1.000000 0.390498 0.443747
0.000000 0.507452 0.450965
0.000000 0.497791 0.438223
0.205510 0.493283 0.432143
0.380848 0.492882 0.430857
0.534390 0.495516 0.432440
0.685182 0.500090 0.434987
0.836840 0.505587 0.436639
0.989311 0.510997 0.435513
1.000000 0.515178 0.429598
0.000000 0.622294 0.406631
0.000000 0.612742 0.398274
0.160254 0.608586 0.396299
0.362586 0.608777 0.398841
0.519817 0.612307 0.403974
0.669048 0.618102 0.409841
0.816701 0.625101 0.414426
0.964126 0.632259 0.415877
1.000000 0.638608 0.412206
0.000000 0.732940 0.358615
0.000000 0.723765 0.354753
0.130402 0.720306 0.357147
0.355133 0.721414 0.363785
0.513732 0.726068 0.372689
0.660265 0.733330 0.381962
0.803551 0.742032 0.389556
0.945572 0.751232 0.393588
1.000000 0.759850 0.392023
0.000000 0.838197 0.305943
0.000000 0.829717 0.307052
0.162829 0.827165 0.314312
0.369919 0.829483 0.325585
0.522360 0.835601 0.338727
0.663131 0.844580 0.351717
0.800213 0.855231 0.362546
0.935844 0.866708 0.369244
1.000000 0.877867 0.369718
0.000000 0.936796 0.246220
0.000000 0.929334 0.253632
0.259885 0.927993 0.267128
0.417601 0.931791 0.284072
0.553275 0.939666 0.302315
0.682968 0.950601 0.319614
0.810778 0.963574 0.334116
0.937904 0.977548 0.343690
1.000000 0.991455 0.346185
0.103252 0.079480 0.758025
0.200826 0.071362 0.721199
0.331131 0.065845 0.693056
0.478544 0.061989 0.671789
0.637489 0.058551 0.655409
0.804533 0.054023 0.642011
0.976974 0.046912 0.629762
1.000000 0.035120 0.616697
1.000000 0.017263 0.600981
0.056488 0.171513 0.723682
0.178855 0.161825 0.691397
0.310773 0.156535 0.667558
0.454234 0.154307 0.650268
0.607408 0.154134 0.637621
0.768233 0.154685 0.627675
0.934483 0.155000 0.618671
1.000000 0.153734 0.608617
1.000000 0.149663 0.595708
0.000000 0.284026 0.686441
0.135769 0.273602 0.658631
0.286203 0.267910 0.638936
0.430987 0.265851 0.625541
0.580867 0.266409 0.616501
0.736696 0.268351 0.609937
0.897279 0.270662 0.604048
1.000000 0.272144 0.596867
1.000000 0.271741 0.586590
0.000000 0.400746 0.646762
0.020847 0.389704 0.623336
0.253597 0.383698 0.607763
0.407260 0.381700 0.598154
0.556888 0.382570 0.592622
0.709302 0.385259 0.589350
0.864964 0.388687 0.586391
1.000000 0.391812 0.582005
1.000000 0.393531 0.574177
0.000000 0.517496 0.605082
0.000000 0.506032 0.586011
0.211104 0.499879 0.574446
0.383228 0.497995 0.568576
0.535618 0.499311 0.566507
0.685944 0.502768 0.566400
0.837585 0.507277 0.566363
0.990596 0.511873 0.564627
1.000000 0.515381 0.559171
0.000000 0.632089 0.561805
0.000000 0.620481 0.546999
0.160899 0.614449 0.539410
0.362123 0.612949 0.537278
0.518883 0.614871 0.538607
0.667936 0.619279 0.541670
0.815917 0.625079 0.544507
0.964098 0.631143 0.545291
1.000000 0.636569 0.542080
0.000000 0.743022 0.517260
0.000000 0.731584 0.506733
0.122367 0.725926 0.503161
0.351612 0.725038 0.504750
0.510809 0.727918 0.509556
0.657822 0.733518 0.515756
0.801731 0.740713 0.521428
0.944735 0.748582 0.524674
1.000000 0.756026 0.523614
0.000000 0.849037 0.471790
0.000000 0.837988 0.465569
0.148561 0.833034 0.466174
0.363765 0.833074 0.471606
0.517935 0.837136 0.479987
0.659747 0.844156 0.489379
0.797938 0.853098 0.497901
0.934840 0.862957 0.503619
1.000000 0.872681 0.504623
0.000000 0.948832 0.425701
0.000000 0.938500 0.424085
0.246974 0.934489 0.429052
0.410080 0.935775 0.438593
0.548028 0.941295 0.450720
0.679239 0.950052 0.463462
0.808554 0.961022 0.474908
0.937294 0.973110 0.483154
1.000000 0.985326 0.486103
0.146444 0.104700 0.923909
0.238207 0.095490 0.880797
0.362461 0.089269 0.846655
0.505650 0.084842 0.820272
0.661561 0.081205 0.799710
0.826526 0.077462 0.783050
0.997511 0.071819 0.768469
1.000000 0.063296 0.754088
1.000000 0.048820 0.738010
0.107394 0.192408 0.887267
0.212174 0.181546 0.848107
0.336851 0.175148 0.818255
0.476029 0.172005 0.795820
0.626297 0.171055 0.778944
0.785184 0.171156 0.765758
0.950124 0.171250 0.754376
1.000000 0.170040 0.742944
1.000000 0.166435 0.729590
0.000000 0.301434 0.847572
0.169782 0.289574 0.812873
0.308124 0.282620 0.787182
0.448219 0.279527 0.768613
0.595231 0.279107 0.755316
0.749194 0.280358 0.745488
0.908603 0.282088 0.737143
1.000000 0.283274 0.728560
1.000000 0.282772 0.717800
0.000000 0.416172 0.806057
0.084760 0.403482 0.775713
0.272607 0.396026 0.754078
0.420476 0.392718 0.739314
0.567323 0.392440 0.729524
0.717893 0.394171 0.722861
0.872588 0.396836 0.717545
1.000000 0.399331 0.711657
1.000000 0.400624 0.703325
0.000000 0.531836 0.763189
0.000000 0.518485 0.737173
0.227871 0.510638 0.719545
0.392879 0.507223 0.708451
0.542540 0.507186 0.702090
0.691302 0.509432 0.698609
0.842114 0.512972 0.696170
0.994813 0.516643 0.692856
1.000000 0.519475 0.686863
0.000000 0.646018 0.719676
0.000000 0.632294 0.697882
0.174897 0.624298 0.684152
0.368187 0.621014 0.676743
0.522638 0.621362 0.673752
0.670449 0.624329 0.673343
0.817810 0.628816 0.673683
0.965907 0.633767 0.672909
1.000000 0.638216 0.669198
0.000000 0.757090 0.676021
0.000000 0.743252 0.658434
0.130123 0.735419 0.648611
0.353670 0.732518 0.644837
0.511565 0.733536 0.645182
0.657910 0.737397 0.647799
0.801512 0.743041 0.650888
0.944698 0.749521 0.652586
1.000000 0.755721 0.650957
0.000000 0.863690 0.633006
0.000000 0.850001 0.619542
0.145265 0.842574 0.613614
0.361807 0.840348 0.613426
0.515937 0.842260 0.617132
0.657711 0.847330 0.622809
0.796109 0.854485 0.628627
0.933448 0.862671 0.632657
1.000000 0.870882 0.633068
0.000000 0.964519 0.591241
0.000000 0.951304 0.581944
0.238724 0.944578 0.580048
0.404812 0.943270 0.583493
0.543744 0.946428 0.590554
0.675576 0.952955 0.599284
0.805528 0.961801 0.607784
0.935102 0.972000 0.614148
1.000000 0.982481 0.616548
0.228742 0.128785 1.000000
0.288057 0.122572 1.000000
0.407083 0.115532 1.000000
0.545646 0.110545 0.969625
0.697869 0.106905 0.944813
0.859893 0.103429 0.924732
1.000000 0.099102 0.907475
1.000000 0.092580 0.891253
1.000000 0.082300 0.874026
0.162316 0.218327 1.000000
0.257725 0.206259 1.000000
0.375636 0.198676 0.970644
0.509880 0.194661 0.943174
0.656505 0.193001 0.921897
0.812617 0.192552 0.905108
0.975481 0.192389 0.890836
1.000000 0.191161 0.877268
1.000000 0.187988 0.862725
0.081473 0.324298 1.000000
0.215792 0.311005 0.969639
0.342544 0.302742 0.938085
0.476822 0.298468 0.914278
0.620056 0.297114 0.896497
0.771258 0.297529 0.882632
0.928721 0.298694 0.871259
1.000000 0.299454 0.860453
1.000000 0.298757 0.848460
0.000000 0.437015 0.968418
0.148180 0.422599 0.931495
0.304202 0.413606 0.903802
0.444676 0.408913 0.883466
0.587381 0.407465 0.868754
0.735247 0.408231 0.858132
0.888022 0.410062 0.849661
1.000000 0.411907 0.841576
1.000000 0.412699 0.831990
0.000000 0.551439 0.925267
0.000000 0.536173 0.892413
0.258475 0.526558 0.868122
0.413204 0.521569 0.851238
0.558409 0.520088 0.839951
0.704494 0.521084 0.832415
0.853475 0.523534 0.826832
1.000000 0.526308 0.821302
1.000000 0.528415 0.814041
0.000000 0.665012 0.881743
0.000000 0.649132 0.852385
0.206699 0.639140 0.831997
0.384795 0.634015 0.818726
0.534568 0.632690 0.810772
0.679938 0.634173 0.806305
0.825697 0.637332 0.803451
0.972807 0.641152 0.800414
1.000000 0.644574 0.795353
0.000000 0.776077 0.838196
0.000000 0.759804 0.812931
0.161689 0.749725 0.796380
0.366055 0.744722 0.786657
0.519839 0.743778 0.781978
0.663948 0.745935 0.780475
0.806294 0.750025 0.780330
0.948791 0.755074 0.779727
1.000000 0.760025 0.776784
0.000000 0.883100 0.796004
0.000000 0.866761 0.774813
0.164921 0.856815 0.762038
0.369221 0.852233 0.755891
0.520470 0.851969 0.754424
0.660715 0.855038 0.755868
0.798161 0.860313 0.758380
0.935104 0.866832 0.760115
1.000000 0.873535 0.759172
0.000000 0.984828 0.756081
0.000000 0.968680 0.738962
0.244670 0.959165 0.730010
0.407234 0.955302 0.727356
0.544714 0.955991 0.729110
0.675757 0.960196 0.733462
0.805313 0.966995 0.738551
0.934827 0.975225 0.742530
1.000000 0.983932 0.743558
0.481681 0.109769 1.000000
0.451479 0.126490 1.000000
0.467387 0.145469 1.000000
0.601259 0.139930 1.000000
0.749261 0.136020 1.000000
0.907788 0.132810 1.000000
1.000000 0.129215 1.000000
1.000000 0.124343 1.000000
1.000000 0.116657 1.000000
0.367411 0.234942 1.000000
0.334799 0.234242 1.000000
0.429282 0.227716 1.000000
0.558412 0.222668 1.000000
0.700886 0.220208 1.000000
0.853486 0.219279 1.000000
1.000000 0.218802 1.000000
1.000000 0.217690 1.000000
1.000000 0.214833 0.992816
0.167824 0.353253 1.000000
0.274698 0.338421 1.000000
0.391315 0.328822 1.000000
0.519429 0.323340 1.000000
0.658145 0.320957 1.000000
0.805871 0.320550 1.000000
0.960611 0.321106 1.000000
1.000000 0.321440 0.990362
1.000000 0.320583 0.976750
0.014888 0.463992 1.000000
0.217092 0.447872 1.000000
0.350423 0.437261 1.000000
0.482418 0.431172 1.000000
0.620090 0.428501 1.000000
0.764341 0.428166 0.992772
0.914422 0.429113 0.980867
1.000000 0.430229 0.970126
1.000000 0.430590 0.958833
0.000000 0.577106 1.000000
0.125723 0.559887 1.000000
0.304827 0.548464 1.000000
0.447067 0.541812 0.994618
0.586340 0.538872 0.978216
0.728653 0.538579 0.966324
0.874916 0.539874 0.957181
1.000000 0.541686 0.948915
1.000000 0.543026 0.939844
0.000000 0.690055 1.000000
0.000000 0.671940 1.000000
0.255971 0.659892 0.981203
0.415158 0.652885 0.962017
0.558212 0.649851 0.948809
0.699611 0.649741 0.939835
0.842747 0.651519 0.933344
0.987985 0.654136 0.927499
1.000000 0.656557 0.920556
0.000000 0.800942 1.000000
0.000000 0.782209 0.969345
0.214869 0.769785 0.946046
0.392759 0.762688 0.930272
0.539281 0.759774 0.920204
0.679500 0.760088 0.914111
0.819382 0.762584 0.910203
0.960220 0.766168 0.906678
1.000000 0.769805 0.901770
0.000000 0.908319 0.961000
0.000000 0.889213 0.932335
0.210777 0.876689 0.912648
0.390823 0.869725 0.900206
0.535513 0.867235 0.893228
0.672382 0.868224 0.889951
0.807672 0.871647 0.888591
0.943168 0.876432 0.887308
1.000000 0.881543 0.884369
0.000000 1.000000 0.922869
0.000000 0.991627 0.898030
0.271817 0.979306 0.881916
0.422489 0.972779 0.872789
0.555269 0.970990 0.868822
0.683619 0.972904 0.868284
0.811527 0.977523 0.869433
0.939976 0.983748 0.870358
1.000000 0.990619 0.869341
