docs/luts/Canon_Landscape_sRGB.cube
TITLE "Canon Landscape (sRGB)"
# Source: LS.ICC
LUT_3D_SIZE 5
DOMAIN_MIN 0.0 0.0 0.0
DOMAIN_MAX 1.0 1.0 1.0
0.000000 0.001686 0.003515
0.352771 0.019104 0.007140
0.665181 0.022008 0.000000
0.936791 0.017867 0.000000
1.000000 0.020005 0.000731
0.095291 0.355065 0.000000
0.342377 0.324120 0.014528
0.655039 0.289535 0.046475
0.933618 0.250733 0.087391
1.000000 0.209922 0.146882
0.242986 0.739040 0.000000
0.347474 0.661880 0.000000
0.629661 0.581573 0.000000
0.907082 0.497939 0.093325
1.000000 0.411650 0.185620
0.339522 0.989535 0.000000
0.388696 0.989521 0.000000
0.603290 0.901971 0.000000
0.862791 0.772479 0.000000
1.000000 0.640113 0.137410
0.339522 0.989535 0.000000
0.351706 0.989555 0.000000
0.536733 0.989331 0.000000
0.799136 0.988882 0.000000
1.000000 0.896808 0.000000
0.000541 0.005317 0.223087
0.293784 0.003672 0.190621
0.641679 0.018048 0.159217
0.949092 0.063736 0.125306
1.000000 0.121838 0.105348
0.050822 0.231401 0.224908
0.267358 0.247892 0.213836
0.617982 0.260708 0.205676
0.933157 0.269478 0.200342
1.000000 0.277202 0.208262
0.187856 0.594099 0.142098
0.263282 0.564545 0.158032
0.578172 0.531826 0.176716
0.893343 0.495654 0.198634
1.000000 0.457104 0.232124
0.338249 0.986159 0.000000
0.326295 0.910329 0.000000
0.538240 0.831487 0.000000
0.835106 0.749532 0.097381
1.000000 0.664654 0.175048
0.339522 0.989535 0.000000
0.339522 0.989535 0.000000
0.482045 0.989401 0.000000
0.763163 0.988973 0.000000
1.000000 0.900784 0.000000
0.039014 0.030724 0.568175
0.245833 0.022662 0.496753
0.624874 0.034647 0.430436
0.967505 0.123369 0.367052
1.000000 0.226511 0.311908
0.052239 0.130046 0.559422
0.205587 0.188868 0.509402
0.588212 0.246771 0.464505
0.939045 0.302096 0.423441
1.000000 0.357439 0.390849
0.147519 0.463234 0.484757
0.195973 0.480931 0.455837
0.534424 0.495530 0.432405
0.886173 0.506679 0.413403
1.000000 0.515711 0.402643
0.281829 0.833499 0.331369
0.270960 0.805216 0.326067
0.481297 0.773977 0.326771
0.814195 0.739505 0.331935
1.000000 0.702221 0.344179
0.339948 0.989624 0.016736
0.339986 0.989648 0.061784
0.437471 0.989556 0.105215
0.732742 0.989151 0.143971
1.000000 0.917466 0.194585
0.100927 0.069719 0.881317
0.223826 0.069178 0.881269
0.618353 0.081244 0.814680
0.993483 0.197062 0.714552
1.000000 0.342614 0.621640
0.102086 0.083203 0.881308
0.178354 0.157356 0.881224
0.569623 0.251792 0.836501
0.952806 0.350166 0.757966
1.000000 0.451341 0.686529
0.148924 0.351162 0.880720
0.173810 0.414329 0.856805
0.502733 0.474544 0.794414
0.887045 0.532025 0.737245
1.000000 0.587940 0.686980
0.246896 0.695590 0.774735
0.250810 0.714370 0.727389
0.436980 0.730316 0.686410
0.801548 0.743056 0.650851
1.000000 0.753124 0.621647
0.346139 0.990475 0.552047
0.345419 0.990365 0.525839
0.406169 0.990282 0.506530
0.707957 0.983365 0.492856
1.000000 0.947216 0.485615
0.100927 0.069719 0.881317
0.188923 0.069389 0.881279
0.613168 0.105980 0.880755
1.000000 0.275856 0.878656
1.000000 0.469581 0.877426
0.100927 0.069719 0.881317
0.139808 0.126481 0.881254
0.551620 0.261191 0.880572
0.971320 0.407313 0.878249
1.000000 0.556438 0.876596
0.125577 0.249106 0.881055
0.150357 0.356698 0.880675
0.473778 0.463845 0.879715
0.893307 0.568676 0.877316
1.000000 0.672273 0.875219
0.212619 0.569904 0.879178
0.234023 0.635916 0.878465
0.401903 0.699274 0.877463
0.796309 0.759424 0.875357
1.000000 0.816970 0.872912
0.334922 0.926878 0.873747
0.342231 0.947177 0.873289
0.383870 0.964773 0.872846
0.692441 0.979303 0.871622
1.000000 0.990590 0.869245
