docs/luts/Canon_Portrait_AdobeRGB.cube
TITLE "Canon Portrait (Adobe RGB)"
# Source: PA.ICC
LUT_3D_SIZE 33
DOMAIN_MIN 0.0 0.0 0.0
DOMAIN_MAX 1.0 1.0 1.0
0.000000 0.001686 0.003515
0.050935 0.000000 0.004444
0.100244 0.000000 0.004011
0.147083 0.000000 0.003107
0.191866 0.000000 0.001597
0.235069 0.000000 0.000000
0.277041 0.000000 0.000000
0.317734 0.000000 0.000000
0.357553 0.000000 0.000000
0.396708 0.000000 0.000000
0.433977 0.000000 0.000000
0.469901 0.000000 0.000000
0.504543 0.000000 0.000000
0.537962 0.000000 0.000000
0.570110 0.000000 0.000000
0.600969 0.000000 0.000000
0.630599 0.000000 0.000000
0.658926 0.000000 0.000000
0.685995 0.000000 0.000000
0.711886 0.000000 0.000000
0.736442 0.000000 0.000000
0.759788 0.000000 0.000000
0.781842 0.000000 0.000000
0.802681 0.000000 0.000000
0.822140 0.000000 0.000000
0.840299 0.000000 0.000000
0.857281 0.000000 0.000000
0.872928 0.000000 0.000000
0.887408 0.000000 0.000000
0.900647 0.000000 0.000000
0.912596 0.000000 0.000000
0.923342 0.000000 0.000000
0.932800 0.000000 0.000000
0.000000 0.050205 0.012960
0.030187 0.037266 0.000000
0.087426 0.026637 0.000000
0.137065 0.017932 0.000000
0.184163 0.001905 0.000000
0.228860 0.000000 0.000000
0.271432 0.000000 0.000000
0.312669 0.000000 0.000000
0.352686 0.000000 0.000000
0.391454 0.000000 0.000000
0.429242 0.000000 0.000000
0.466076 0.000000 0.000000
0.501594 0.000000 0.000000
0.535720 0.000000 0.000000
0.568613 0.000000 0.000000
0.600150 0.000000 0.000000
0.630378 0.000000 0.000000
0.659322 0.000000 0.000000
0.686809 0.000000 0.000000
0.713089 0.000000 0.000000
0.738130 0.000000 0.000000
0.761851 0.000000 0.000000
0.784363 0.000000 0.000000
0.805602 0.000000 0.000000
0.825484 0.000000 0.000000
0.844085 0.000000 0.000000
0.861491 0.000000 0.000000
0.877588 0.000000 0.000000
0.892474 0.000000 0.000000
0.906123 0.000000 0.000000
0.918541 0.000000 0.000000
0.929659 0.000000 0.000000
0.939547 0.000000 0.000000
0.000000 0.097924 0.012541
0.005262 0.084989 0.004772
0.071884 0.072610 0.000000
0.127075 0.060733 0.000000
0.175951 0.049666 0.000000
0.221810 0.039022 0.000000
0.265626 0.029809 0.000000
0.307859 0.022037 0.000000
0.348572 0.016064 0.000000
0.388250 0.000992 0.000000
0.426547 0.000000 0.000000
0.463261 0.000000 0.000000
0.498719 0.000000 0.000000
0.533222 0.000000 0.000000
0.566494 0.000000 0.000000
0.598465 0.000000 0.000000
0.629152 0.000000 0.000000
0.658544 0.000000 0.000000
0.686626 0.000000 0.000000
0.713474 0.000000 0.000000
0.739031 0.000000 0.000000
0.763310 0.000000 0.000000
0.786315 0.000000 0.000000
0.807958 0.000000 0.000000
0.828296 0.000000 0.000000
0.847355 0.000000 0.000000
0.865215 0.000000 0.000000
0.881762 0.000000 0.000000
0.897080 0.000000 0.000000
0.911132 0.000000 0.000000
0.923902 0.000000 0.000000
0.935486 0.000000 0.000000
0.945743 0.000000 0.000000
0.000000 0.145194 0.009033
0.000000 0.132319 0.004778
0.041547 0.119923 0.000000
0.111371 0.108095 0.000000
0.165041 0.096878 0.000000
0.213649 0.086211 0.000000
0.259319 0.076049 0.000000
0.302811 0.066339 0.000000
0.344598 0.057041 0.000000
0.384862 0.048082 0.000000
0.423643 0.039513 0.000000
0.461090 0.031433 0.000000
0.497157 0.024813 0.000000
0.531907 0.019182 0.000000
0.565435 0.014240 0.000000
0.597647 0.010038 0.000000
0.628762 0.000000 0.000000
0.658481 0.000000 0.000000
0.687139 0.000000 0.000000
0.714428 0.000000 0.000000
0.740374 0.000000 0.000000
0.765086 0.000000 0.000000
0.788484 0.000000 0.000000
0.810525 0.000000 0.000000
0.831279 0.000000 0.000000
0.850814 0.000000 0.000000
0.869093 0.000000 0.000000
0.886097 0.000000 0.000000
0.901900 0.000000 0.000000
0.916416 0.000000 0.000000
0.929686 0.000000 0.000000
0.941696 0.000000 0.000000
0.952476 0.000000 0.000000
0.000000 0.191720 0.002105
0.000000 0.178898 0.000000
0.000000 0.166651 0.000000
0.084045 0.154931 0.000000
0.148574 0.143714 0.000000
0.202115 0.133030 0.000000
0.250552 0.122754 0.000000
0.295986 0.113123 0.000000
0.339169 0.103901 0.000000
0.380500 0.095098 0.000000
0.420261 0.086676 0.000000
0.458523 0.078834 0.000000
0.495382 0.071092 0.000000
0.530807 0.063958 0.000000
0.565000 0.057008 0.000000
0.597815 0.050501 0.000000
0.629269 0.044130 0.000000
0.659382 0.038302 0.000000
0.688236 0.033247 0.000000
0.715787 0.028650 0.000000
0.742070 0.024799 0.000000
0.767099 0.021468 0.000000
0.790850 0.018815 0.000000
0.813329 0.016601 0.000000
0.834587 0.014800 0.000000
0.854569 0.013558 0.000000
0.873311 0.012763 0.000000
0.890754 0.012554 0.000000
0.906924 0.012710 0.000000
0.921901 0.013388 0.000000
0.935616 0.014632 0.000000
0.948031 0.016754 0.000000
0.959205 0.019422 0.000000
0.000000 0.237438 0.000000
0.000000 0.224736 0.000000
0.000000 0.212565 0.000000
0.033020 0.200935 0.000000
0.123848 0.189733 0.000000
0.185312 0.179128 0.000000
0.238070 0.169001 0.000000
0.286284 0.159393 0.000000
0.331445 0.150274 0.000000
0.374312 0.141549 0.000000
0.415296 0.133340 0.000000
0.454514 0.125629 0.000000
0.492206 0.118318 0.000000
0.528342 0.111445 0.000000
0.563145 0.105083 0.000000
0.596540 0.099165 0.000000
0.628526 0.093553 0.000000
0.659233 0.088535 0.000000
0.688637 0.083998 0.000000
0.716725 0.079910 0.000000
0.743506 0.076255 0.000000
0.769046 0.073189 0.000000
0.793296 0.070450 0.000000
0.816239 0.068340 0.000000
0.837981 0.066851 0.000000
0.858415 0.065854 0.000000
0.877597 0.065505 0.000000
0.895474 0.065662 0.000000
0.912096 0.066667 0.000000
0.927495 0.068136 0.000000
0.941573 0.070422 0.000000
0.954451 0.073266 0.000000
0.966026 0.076786 0.000000
0.000000 0.282345 0.000000
0.000000 0.269741 0.000000
0.000000 0.257627 0.000000
0.000000 0.246061 0.000000
0.086044 0.235023 0.000000
0.162712 0.224471 0.000000
0.221807 0.214394 0.000000
0.273732 0.204873 0.000000
0.321474 0.195833 0.000000
0.366179 0.187232 0.000000
0.408621 0.179180 0.000000
0.449036 0.171597 0.000000
0.487747 0.164515 0.000000
0.524808 0.157873 0.000000
0.560414 0.151685 0.000000
0.594532 0.145992 0.000000
0.627227 0.140787 0.000000
0.658554 0.136142 0.000000
0.688568 0.131860 0.000000
0.717217 0.128148 0.000000
0.744576 0.124876 0.000000
0.770652 0.122149 0.000000
0.795388 0.119975 0.000000
0.818859 0.118261 0.000000
0.841006 0.117108 0.000000
0.861907 0.116543 0.000000
0.881578 0.116570 0.000000
0.899885 0.117116 0.000000
0.916991 0.118269 0.000000
0.932816 0.119964 0.000000
0.947350 0.122249 0.000000
0.960615 0.125109 0.000000
0.972635 0.128606 0.000000
0.000000 0.326373 0.000000
0.000000 0.313847 0.000000
0.000000 0.301832 0.000000
0.000000 0.290320 0.000000
0.010623 0.279375 0.000000
0.131428 0.268869 0.000000
0.201018 0.258899 0.000000
0.258173 0.249474 0.000000
0.309227 0.240482 0.000000
0.356322 0.232026 0.000000
0.400495 0.224086 0.000000
0.442380 0.216633 0.000000
0.482247 0.209628 0.000000
0.520399 0.203154 0.000000
0.556900 0.197164 0.000000
0.591839 0.191627 0.000000
0.625332 0.186588 0.000000
0.657337 0.182095 0.000000
0.688004 0.178031 0.000000
0.717266 0.174549 0.000000
0.745229 0.171527 0.000000
0.771776 0.169038 0.000000
0.797116 0.167109 0.000000
0.821063 0.165620 0.000000
0.843771 0.164764 0.000000
0.865137 0.164385 0.000000
0.885221 0.164514 0.000000
0.904066 0.165243 0.000000
0.921592 0.166571 0.000000
0.937874 0.168404 0.000000
0.952866 0.170859 0.000000
0.966562 0.173782 0.000000
0.978989 0.177297 0.000000
0.000000 0.369516 0.000000
0.000000 0.357097 0.000000
0.000000 0.345159 0.000000
0.000000 0.333732 0.000000
0.000000 0.322811 0.000000
0.082697 0.312439 0.000000
0.173911 0.302541 0.000000
0.238969 0.293171 0.000000
0.294421 0.284272 0.000000
0.344490 0.275908 0.000000
0.390883 0.268035 0.000000
0.434471 0.260707 0.000000
0.475758 0.253818 0.000000
0.515040 0.247436 0.000000
0.552564 0.241566 0.000000
0.588443 0.236177 0.000000
0.622727 0.231351 0.000000
0.655535 0.226988 0.000000
0.686893 0.223129 0.000000
0.716836 0.219765 0.000000
0.745368 0.216930 0.000000
0.772531 0.214607 0.000000
0.798417 0.212820 0.000000
0.822933 0.211494 0.000000
0.846142 0.210730 0.000000
0.868043 0.210479 0.000000
0.888669 0.210859 0.000000
0.907952 0.211716 0.000000
0.925956 0.213090 0.000000
0.942682 0.215114 0.000000
0.958070 0.217622 0.000000
0.972220 0.220658 0.000000
0.985081 0.224248 0.003619
0.000000 0.411789 0.000000
0.000000 0.399440 0.000000
0.000000 0.387596 0.000000
0.000000 0.376282 0.000000
0.000000 0.365416 0.000000
0.000000 0.355103 0.000000
0.136642 0.345314 0.000000
0.214936 0.335991 0.000000
0.276555 0.327216 0.000000
0.330473 0.318910 0.000000
0.379577 0.311154 0.000000
0.425167 0.303892 0.000000
0.468050 0.297105 0.000000
0.508776 0.290842 0.000000
0.547455 0.285087 0.000000
0.584317 0.279848 0.000000
0.619495 0.275085 0.000000
0.653078 0.270814 0.000000
0.685224 0.267077 0.000000
0.715881 0.263871 0.000000
0.745044 0.261133 0.000000
0.772905 0.258962 0.000000
0.799351 0.257242 0.000000
0.824453 0.256146 0.000000
0.848200 0.255476 0.000000
0.870650 0.255424 0.000000
0.891720 0.255830 0.000000
0.911529 0.256816 0.000000
0.930012 0.258380 0.000000
0.947212 0.260449 0.000000
0.963046 0.263014 0.005759
0.977624 0.266217 0.022697
0.990899 0.269876 0.042743
0.000000 0.453232 0.000000
0.000000 0.440944 0.000000
0.000000 0.429186 0.000000
0.000000 0.417908 0.000000
0.000000 0.407145 0.000000
0.000000 0.396908 0.000000
0.077244 0.387170 0.000000
0.184065 0.377946 0.000000
0.255018 0.369260 0.000000
0.313936 0.361033 0.000000
0.366361 0.353367 0.000000
0.414425 0.346178 0.000000
0.459196 0.339472 0.000000
0.501411 0.333331 0.000000
0.541383 0.327663 0.000000
0.579359 0.322506 0.000000
0.615583 0.317870 0.000000
0.650068 0.313703 0.000000
0.682990 0.310125 0.000000
0.714425 0.306982 0.000000
0.744288 0.304379 0.000000
0.772803 0.302281 0.000000
0.799903 0.300750 0.000000
0.825593 0.299718 0.000000
0.849892 0.299176 0.000000
0.872881 0.299213 0.000000
0.894478 0.299774 0.000000
0.914781 0.300851 0.000000
0.933790 0.302497 0.000000
0.951445 0.304656 0.015166
0.967790 0.307345 0.035316
0.982823 0.310537 0.056736
0.996556 0.314356 0.075861
0.000000 0.493794 0.000000
0.000000 0.481560 0.000000
0.000000 0.469865 0.000000
0.000000 0.458662 0.000000
0.000000 0.447982 0.000000
0.000000 0.437852 0.000000
0.000000 0.428170 0.000000
0.142082 0.419075 0.000000
0.228521 0.410399 0.000000
0.294428 0.402319 0.000000
0.351052 0.394692 0.000000
0.402041 0.387586 0.000000
0.449038 0.380992 0.000000
0.492953 0.374926 0.000000
0.534430 0.369339 0.000000
0.573735 0.364293 0.000000
0.610992 0.359727 0.000000
0.646493 0.355721 0.000000
0.680259 0.352167 0.000000
0.712488 0.349149 0.000000
0.743137 0.346669 0.000000
0.772312 0.344687 0.000000
0.800064 0.343239 0.000000
0.826385 0.342314 0.000000
0.851302 0.341913 0.000000
0.874843 0.342011 0.000000
0.896999 0.342675 0.000000
0.917856 0.343845 0.000000
0.937348 0.345578 0.016121
0.955473 0.347808 0.038991
0.972293 0.350614 0.061858
0.987811 0.353939 0.082214
1.000000 0.357816 0.101374
0.000000 0.533445 0.000000
0.000000 0.521310 0.000000
0.000000 0.509652 0.000000
0.000000 0.498553 0.000000
0.000000 0.487975 0.000000
0.000000 0.477886 0.000000
0.000000 0.468317 0.000000
0.073864 0.459257 0.000000
0.195125 0.450712 0.000000
0.271260 0.442660 0.000000
0.333364 0.435155 0.000000
0.387952 0.428123 0.000000
0.437514 0.421629 0.000000
0.483531 0.415629 0.000000
0.526573 0.410127 0.000000
0.567209 0.405182 0.000000
0.605725 0.400718 0.000000
0.642283 0.396765 0.000000
0.677012 0.393339 0.000000
0.710047 0.390424 0.000000
0.741521 0.387990 0.000000
0.771458 0.386151 0.000000
0.799863 0.384787 0.000000
0.826802 0.383930 0.000000
0.852376 0.383593 0.000000
0.876500 0.383858 0.000000
0.899243 0.384599 0.000000
0.920610 0.385848 0.007101
0.940645 0.387659 0.032264
0.959278 0.390013 0.058490
0.976607 0.392886 0.081154
0.992558 0.396269 0.101923
1.000000 0.400261 0.121781
0.000000 0.572241 0.000000
0.000000 0.560184 0.000000
0.000000 0.548620 0.000000
0.000000 0.537594 0.000000
0.000000 0.527088 0.000000
0.000000 0.517074 0.000000
0.000000 0.507574 0.000000
0.000000 0.498604 0.000000
0.150329 0.490093 0.000000
0.243400 0.482171 0.000000
0.312873 0.474712 0.000000
0.371904 0.467775 0.000000
0.424628 0.461361 0.000000
0.472941 0.455433 0.000000
0.517841 0.450052 0.000000
0.559993 0.445185 0.000000
0.599777 0.440784 0.000000
0.637460 0.436967 0.000000
0.673251 0.433602 0.000000
0.707197 0.430750 0.000000
0.739525 0.428418 0.000000
0.770208 0.426648 0.000000
0.799370 0.425392 0.000000
0.827005 0.424631 0.000000
0.853199 0.424425 0.000000
0.877915 0.424732 0.000000
0.901235 0.425553 0.000000
0.923165 0.426925 0.014056
0.943701 0.428794 0.044322
0.962865 0.431253 0.071701
0.980702 0.434207 0.095470
0.997117 0.437701 0.117455
1.000000 0.441746 0.138424
0.000000 0.610157 0.000000
0.000000 0.598165 0.000000
0.000000 0.586667 0.000000
0.000000 0.575743 0.000000
0.000000 0.565287 0.000000
0.000000 0.555371 0.000000
0.000000 0.545966 0.000000
0.000000 0.537072 0.000000
0.077993 0.528676 0.000000
0.208963 0.520801 0.000000
0.289125 0.513426 0.000000
0.353783 0.506563 0.000000
0.410153 0.500241 0.000000
0.461098 0.494386 0.000000
0.508166 0.489068 0.000000
0.551978 0.484273 0.000000
0.593237 0.480005 0.000000
0.632116 0.476217 0.000000
0.668975 0.472942 0.000000
0.703928 0.470220 0.000000
0.737098 0.467978 0.000000
0.768591 0.466285 0.000000
0.798488 0.465104 0.000000
0.826851 0.464458 0.000000
0.853711 0.464314 0.000000
0.879080 0.464715 0.000000
0.902983 0.465592 0.000000
0.925481 0.467069 0.015509
0.946565 0.469038 0.050621
0.966287 0.471546 0.080255
0.984619 0.474595 0.105715
1.000000 0.478200 0.129140
1.000000 0.482302 0.151547
0.000000 0.647189 0.000000
0.000000 0.635278 0.000000
0.000000 0.623887 0.000000
0.000000 0.612999 0.000000
0.000000 0.602628 0.000000
0.000000 0.592787 0.000000
0.000000 0.583447 0.000000
0.000000 0.574647 0.000000
0.000000 0.566298 0.000000
0.163664 0.558523 0.000000
0.261014 0.551239 0.000000
0.333153 0.544486 0.000000
0.394041 0.538194 0.000000
0.448146 0.532457 0.000000
0.497491 0.527234 0.000000
0.543192 0.522497 0.000000
0.585975 0.518271 0.000000
0.626194 0.514606 0.000000
0.664245 0.511446 0.000000
0.700217 0.508750 0.000000
0.734339 0.506614 0.000000
0.766669 0.504997 0.000000
0.797410 0.503904 0.000000
0.826485 0.503334 0.000000
0.853977 0.503259 0.000000
0.880014 0.503737 0.000000
0.904591 0.504782 0.000000
0.927659 0.506281 0.010933
0.949293 0.508364 0.051149
0.969571 0.510977 0.084199
0.988424 0.514095 0.112034
1.000000 0.517761 0.137397
1.000000 0.521954 0.161437
0.000000 0.683385 0.000000
0.000000 0.671547 0.000000
0.000000 0.660222 0.000000
0.000000 0.649407 0.000000
0.000000 0.639145 0.000000
0.000000 0.629373 0.000000
0.000000 0.620106 0.000000
0.000000 0.611334 0.000000
0.000000 0.603108 0.000000
0.094214 0.595380 0.000000
0.227023 0.588172 0.000000
0.309578 0.581467 0.000000
0.376012 0.575302 0.000000
0.433775 0.569636 0.000000
0.485849 0.564477 0.000000
0.533665 0.559862 0.000000
0.578121 0.555703 0.000000
0.619826 0.552100 0.000000
0.659032 0.548993 0.000000
0.696125 0.546438 0.000000
0.731252 0.544413 0.000000
0.764485 0.542854 0.000000
0.796036 0.541836 0.000000
0.825820 0.541321 0.000000
0.854112 0.541388 0.000000
0.880800 0.541946 0.000000
0.905988 0.543029 0.000000
0.929670 0.544665 0.000000
0.951916 0.546801 0.045018
0.972722 0.549463 0.083568
0.992110 0.552660 0.114488
1.000000 0.556408 0.142170
1.000000 0.560670 0.168120
0.000000 0.718674 0.000000
0.000000 0.706941 0.000000
0.000000 0.695651 0.000000
0.000000 0.684947 0.000000
0.000000 0.674747 0.000000
0.000000 0.665052 0.000000
0.000000 0.655881 0.000000
0.000000 0.647181 0.000000
0.000000 0.639034 0.000000
0.000000 0.631363 0.000000
0.183840 0.624265 0.000000
0.282306 0.617606 0.000000
0.355982 0.611524 0.000000
0.418085 0.605941 0.000000
0.473252 0.600865 0.000000
0.523341 0.596334 0.000000
0.569661 0.592258 0.000000
0.612897 0.588743 0.000000
0.653458 0.585735 0.000000
0.691670 0.583209 0.000000
0.727808 0.581231 0.000000
0.762047 0.579813 0.000000
0.794377 0.578856 0.000000
0.825004 0.578454 0.000000
0.853985 0.578575 0.000000
0.881409 0.579182 0.000000
0.907254 0.580374 0.000000
0.931561 0.582058 0.000000
0.954374 0.584302 0.030063
0.975751 0.587055 0.077458
0.995686 0.590337 0.112757
1.000000 0.594179 0.143371
1.000000 0.598517 0.171605
0.000000 0.753125 0.000000
0.000000 0.741406 0.000000
0.000000 0.730269 0.000000
0.000000 0.719625 0.000000
0.000000 0.709480 0.000000
0.000000 0.699880 0.000000
0.000000 0.690748 0.000000
0.000000 0.682171 0.000000
0.000000 0.674074 0.000000
0.000000 0.666501 0.000000
0.122466 0.659418 0.000000
0.250262 0.652914 0.000000
0.333509 0.646851 0.000000
0.400902 0.641372 0.000000
0.459506 0.636377 0.000000
0.512268 0.631894 0.000000
0.560589 0.627908 0.000000
0.605515 0.624480 0.000000
0.647476 0.621548 0.000000
0.686970 0.619143 0.000000
0.724154 0.617227 0.000000
0.759365 0.615865 0.000000
0.792573 0.614990 0.000000
0.824056 0.614671 0.000000
0.853832 0.614875 0.000000
0.881915 0.615603 0.000000
0.908437 0.616861 0.000000
0.933394 0.618629 0.000000
0.956848 0.620945 0.005984
0.978789 0.623767 0.064530
0.999267 0.627118 0.106387
1.000000 0.631015 0.140652
1.000000 0.635457 0.171639
0.000000 0.786667 0.000000
0.000000 0.775045 0.000000
0.000000 0.763991 0.000000
0.000000 0.753423 0.000000
0.000000 0.743343 0.000000
0.000000 0.733781 0.000000
0.000000 0.724748 0.000000
0.000000 0.716251 0.000000
0.000000 0.708222 0.000000
0.000000 0.700759 0.000000
0.000000 0.693755 0.000000
0.210981 0.687307 0.000000
0.308045 0.681355 0.000000
0.382063 0.675897 0.000000
0.444720 0.671011 0.000000
0.500389 0.666600 0.000000
0.550981 0.662714 0.000000
0.597654 0.659341 0.000000
0.641155 0.656499 0.000000
0.681967 0.654167 0.000000
0.720304 0.652354 0.000000
0.756468 0.651046 0.000000
0.790646 0.650282 0.000000
0.822952 0.650039 0.000000
0.853507 0.650316 0.000000
0.882336 0.651111 0.000000
0.909525 0.652430 0.000000
0.935140 0.654273 0.000000
0.959210 0.656670 0.000000
0.981719 0.659564 0.040060
1.000000 0.663015 0.094086
1.000000 0.667006 0.133713
1.000000 0.671497 0.168067
0.000000 0.819325 0.000000
0.000000 0.807816 0.000000
0.000000 0.796826 0.000000
0.000000 0.786317 0.000000
0.000000 0.776352 0.000000
0.000000 0.766851 0.000000
0.000000 0.757907 0.000000
0.000000 0.749459 0.000000
0.000000 0.741542 0.000000
0.000000 0.734144 0.000000
0.000000 0.727208 0.000000
0.159689 0.720834 0.000000
0.278956 0.714957 0.000000
0.361402 0.709611 0.000000
0.428810 0.704750 0.000000
0.487733 0.700426 0.000000
0.540811 0.696637 0.000000
0.589396 0.693310 0.000000
0.634519 0.690555 0.000000
0.676669 0.688324 0.000000
0.716196 0.686584 0.000000
0.753468 0.685359 0.000000
0.788598 0.684644 0.000000
0.821808 0.684490 0.000000
0.853095 0.684841 0.000000
0.882724 0.685713 0.000000
0.910624 0.687135 0.000000
0.936901 0.689069 0.000000
0.961574 0.691502 0.000000
0.984733 0.694480 0.000979
1.000000 0.698016 0.073443
1.000000 0.702082 0.121509
1.000000 0.706638 0.160391
0.000000 0.851142 0.000000
0.000000 0.839695 0.000000
0.000000 0.828780 0.000000
0.000000 0.818341 0.000000
0.000000 0.808458 0.000000
0.000000 0.799071 0.000000
0.000000 0.790191 0.000000
0.000000 0.781819 0.000000
0.000000 0.773961 0.000000
0.000000 0.766618 0.000000
0.000000 0.759780 0.000000
0.077019 0.753473 0.000000
0.244983 0.747690 0.000000
0.338501 0.742417 0.000000
0.411736 0.737652 0.000000
0.474376 0.733383 0.000000
0.530087 0.729651 0.000000
0.580842 0.726452 0.000000
0.627598 0.723751 0.000000
0.671170 0.721571 0.000000
0.711990 0.719929 0.000000
0.750353 0.718806 0.000000
0.786488 0.718187 0.000000
0.820560 0.718055 0.000000
0.852754 0.718507 0.000000
0.883068 0.719443 0.000000
0.911713 0.720919 0.000000
0.938698 0.722941 0.000000
0.964033 0.725479 0.000000
0.987723 0.728542 0.000000
1.000000 0.732131 0.036430
1.000000 0.736266 0.102274
1.000000 0.740939 0.147984
0.000000 0.882101 0.000000
0.000000 0.870723 0.000000
0.000000 0.859853 0.000000
0.000000 0.849485 0.000000
0.000000 0.839683 0.000000
0.000000 0.830393 0.000000
0.000000 0.821563 0.000000
0.000000 0.813290 0.000000
0.000000 0.805518 0.000000
0.000000 0.798262 0.000000
0.000000 0.791521 0.000000
0.000000 0.785261 0.000000
0.203645 0.779562 0.000000
0.313195 0.774339 0.000000
0.393415 0.769638 0.000000
0.460301 0.765494 0.000000
0.518936 0.761806 0.000000
0.571917 0.758697 0.000000
0.620525 0.756074 0.000000
0.665626 0.753971 0.000000
0.707676 0.752392 0.000000
0.747139 0.751315 0.000000
0.784297 0.750790 0.000000
0.819325 0.750760 0.000000
0.852359 0.751278 0.000000
0.883492 0.752281 0.000000
0.912867 0.753832 0.000000
0.940491 0.755938 0.000000
0.966484 0.758577 0.000000
0.990869 0.761679 0.000000
1.000000 0.765379 0.000000
1.000000 0.769559 0.072041
1.000000 0.774306 0.129327
0.000000 0.912148 0.000000
0.000000 0.900858 0.000000
0.000000 0.890067 0.000000
0.000000 0.879803 0.000000
0.000000 0.870056 0.000000
0.000000 0.860821 0.000000
0.000000 0.852098 0.000000
0.000000 0.843894 0.000000
0.000000 0.836196 0.000000
0.000000 0.829012 0.000000
0.000000 0.822313 0.000000
0.000000 0.816179 0.000000
0.148779 0.810542 0.000000
0.284698 0.805400 0.000000
0.373687 0.800777 0.000000
0.445421 0.796703 0.000000
0.507272 0.793093 0.000000
0.562665 0.790039 0.000000
0.613219 0.787491 0.000000
0.659844 0.785460 0.000000
0.703313 0.783999 0.000000
0.743955 0.783002 0.000000
0.782156 0.782532 0.000000
0.818121 0.782614 0.000000
0.852043 0.783190 0.000000
0.883951 0.784263 0.000000
0.914114 0.785902 0.000000
0.942456 0.788054 0.000000
0.969108 0.790740 0.000000
0.994078 0.793972 0.000000
1.000000 0.797735 0.000000
1.000000 0.801978 0.015294
1.000000 0.806816 0.101811
0.000000 0.941349 0.000000
0.000000 0.930096 0.000000
0.000000 0.919408 0.000000
0.000000 0.909227 0.000000
0.000000 0.899547 0.000000
0.000000 0.890378 0.000000
0.000000 0.881744 0.000000
0.000000 0.873620 0.000000
0.000000 0.865980 0.000000
0.000000 0.858883 0.000000
0.000000 0.852277 0.000000
0.000000 0.846222 0.000000
0.053832 0.840638 0.000000
0.252129 0.835603 0.000000
0.352390 0.831049 0.000000
0.429743 0.827012 0.000000
0.495278 0.823523 0.000000
0.553216 0.820552 0.000000
0.605748 0.818029 0.000000
0.654059 0.816106 0.000000
0.698930 0.814718 0.000000
0.740819 0.813800 0.000000
0.780098 0.813399 0.000000
0.817000 0.813534 0.000000
0.851796 0.814200 0.000000
0.884560 0.815370 0.000000
0.915464 0.817082 0.000000
0.944502 0.819325 0.000000
0.971834 0.822070 0.000000
0.997499 0.825385 0.000000
1.000000 0.829194 0.000000
1.000000 0.833555 0.000000
1.000000 0.838432 0.056299
0.000000 0.968019 0.000000
0.000000 0.958508 0.000000
0.000000 0.947882 0.000000
0.000000 0.937749 0.000000
0.000000 0.928155 0.000000
0.000000 0.919095 0.000000
0.000000 0.910501 0.000000
0.000000 0.902429 0.000000
0.000000 0.894907 0.000000
0.000000 0.887870 0.000000
0.000000 0.881349 0.000000
0.000000 0.875344 0.000000
0.000000 0.869866 0.000000
0.213594 0.864887 0.000000
0.329363 0.860424 0.000000
0.413320 0.856470 0.000000
0.482863 0.853061 0.000000
0.543641 0.850165 0.000000
0.598320 0.847737 0.000000
0.648348 0.845901 0.000000
0.694569 0.844534 0.000000
0.737727 0.843728 0.000000
0.778132 0.843385 0.000000
0.816036 0.843608 0.000000
0.851684 0.844344 0.000000
0.885316 0.845595 0.000000
0.916953 0.847369 0.000000
0.946732 0.849681 0.000000
0.974718 0.852533 0.000000
1.000000 0.855891 0.000000
1.000000 0.859769 0.000000
1.000000 0.864192 0.000000
1.000000 0.869164 0.000000
0.000000 0.992948 0.000000
0.000000 0.984141 0.000000
0.000000 0.975271 0.000000
0.000000 0.965427 0.000000
0.000000 0.955894 0.000000
0.000000 0.946919 0.000000
0.000000 0.938396 0.000000
0.000000 0.930400 0.000000
0.000000 0.922953 0.000000
0.000000 0.915990 0.000000
0.000000 0.909560 0.000000
0.000000 0.903624 0.000000
0.000000 0.898222 0.000000
0.165013 0.893340 0.000000
0.304260 0.888954 0.000000
0.396216 0.885082 0.000000
0.470160 0.881712 0.000000
0.533918 0.878891 0.000000
0.590819 0.876578 0.000000
0.642635 0.874765 0.000000
0.690405 0.873513 0.000000
0.734790 0.872747 0.000000
0.776318 0.872524 0.000000
0.815198 0.872801 0.000000
0.851801 0.873610 0.000000
0.886229 0.874940 0.000000
