docs/luts/Canon_Standard_AdobeRGB.cube
TITLE "Canon Standard (Adobe RGB)"
# Source: SA.ICC
LUT_3D_SIZE 9
DOMAIN_MIN 0.0 0.0 0.0
DOMAIN_MAX 1.0 1.0 1.0
0.000000 0.001686 0.003515
0.156115 0.000000 0.000000
0.306102 0.000000 0.000000
0.453856 0.000000 0.000000
0.597505 0.000000 0.000000
0.734904 0.000000 0.000000
0.863333 0.000000 0.000000
0.981200 0.000000 0.000000
1.000000 0.000000 0.000000
0.000000 0.123784 0.000000
0.130148 0.120272 0.000000
0.293873 0.110999 0.000000
0.446234 0.094887 0.000000
0.592063 0.070948 0.000000
0.730597 0.036297 0.000000
0.860269 0.000000 0.000000
0.979208 0.000000 0.000000
1.000000 0.000000 0.000000
0.000000 0.246547 0.000000
0.051203 0.246401 0.000000
0.271582 0.241296 0.000000
0.434843 0.230852 0.000000
0.585475 0.214557 0.000000
0.726703 0.192013 0.000000
0.857925 0.162408 0.000000
0.977723 0.124799 0.000000
1.000000 0.075723 0.000000
0.000000 0.367071 0.000000
0.000000 0.370322 0.000000
0.228630 0.369590 0.000000
0.414897 0.364543 0.000000
0.573944 0.354899 0.000000
0.719349 0.340244 0.000000
0.852890 0.320219 0.000000
0.974021 0.294518 0.000000
1.000000 0.262672 0.000000
0.000000 0.483185 0.000000
0.000000 0.489939 0.000000
0.151100 0.493700 0.000000
0.386820 0.494179 0.000000
0.558291 0.491002 0.000000
0.709107 0.483946 0.000000
0.845304 0.472635 0.000000
0.967681 0.456841 0.000000
1.000000 0.436180 0.000000
0.000000 0.592958 0.000000
0.000000 0.603399 0.000000
0.000000 0.611825 0.000000
0.352271 0.617894 0.000000
0.540534 0.621319 0.000000
0.697665 0.621812 0.000000
0.836511 0.619100 0.000000
0.959710 0.612919 0.000000
1.000000 0.602963 0.000000
0.000000 0.694531 0.000000
0.000000 0.708801 0.000000
0.000000 0.722024 0.000000
0.317363 0.733824 0.000000
0.525232 0.743928 0.000000
0.688439 0.752098 0.000000
0.829221 0.758056 0.000000
0.952225 0.761503 0.000000
1.000000 0.762195 0.000000
0.000000 0.786092 0.000000
0.000000 0.804294 0.000000
0.000000 0.822390 0.000000
0.296255 0.840070 0.000000
0.519935 0.857021 0.000000
0.686669 0.872980 0.000000
0.827426 0.887681 0.000000
0.948701 0.900863 0.000000
1.000000 0.912238 0.000000
0.000000 0.865697 0.000000
0.000000 0.887988 0.000000
0.000000 0.911102 0.000000
0.310482 0.934760 0.000000
0.534284 0.958670 0.000000
0.699109 0.982585 0.000000
0.836747 1.000000 0.000000
0.953902 1.000000 0.000000
1.000000 1.000000 0.000000
0.015134 0.005441 0.139373
0.161363 0.001105 0.121911
0.310220 0.000000 0.103281
0.457286 0.000000 0.081314
0.601276 0.000000 0.053614
0.740141 0.000000 0.017139
0.870771 0.000000 0.000000
0.991904 0.000000 0.000000
1.000000 0.000000 0.000000
0.000000 0.125298 0.121251
0.133929 0.123996 0.104399
0.295652 0.116338 0.086328
0.447461 0.101488 0.065120
0.593719 0.078362 0.036692
0.733595 0.044536 0.002848
0.865359 0.004668 0.000000
0.987463 0.000000 0.000000
1.000000 0.000000 0.000000
0.000000 0.245823 0.092289
0.054107 0.248069 0.074712
0.271055 0.244795 0.055337
0.434050 0.235628 0.031200
0.585389 0.220088 0.005322
0.728091 0.197713 0.000000
0.861671 0.167753 0.000000
0.984631 0.129024 0.000000
1.000000 0.078408 0.000000
0.000000 0.363927 0.032692
0.000000 0.369688 0.010050
0.228735 0.370890 0.000000
0.414249 0.367205 0.000000
0.573854 0.358370 0.000000
0.720654 0.343887 0.000000
0.856481 0.323544 0.000000
0.980773 0.296814 0.000000
1.000000 0.263340 0.000000
0.000000 0.477368 0.000000
0.000000 0.486749 0.000000
0.157037 0.492562 0.000000
0.388332 0.494478 0.000000
0.559765 0.492188 0.000000
0.711796 0.485385 0.000000
0.850238 0.473779 0.000000
0.975676 0.457089 0.000000
1.000000 0.434925 0.000000
0.000000 0.584229 0.000000
0.000000 0.597380 0.000000
0.000000 0.607913 0.000000
0.359452 0.615504 0.000000
0.545902 0.619886 0.000000
0.703656 0.620754 0.000000
0.844451 0.617849 0.000000
0.970509 0.610871 0.000000
1.000000 0.599499 0.000000
0.000000 0.682627 0.000000
0.000000 0.699673 0.000000
0.000000 0.715041 0.000000
0.335552 0.728470 0.000000
0.537366 0.739599 0.000000
0.699951 0.748265 0.000000
0.842062 0.754056 0.000000
0.967682 0.756833 0.000000
1.000000 0.756216 0.000000
0.000000 0.770618 0.000000
0.000000 0.791705 0.000000
0.000000 0.812100 0.000000
0.331312 0.831438 0.000000
0.541869 0.849497 0.000000
0.706119 0.866055 0.000000
0.847409 0.880730 0.000000
0.970840 0.893280 0.000000
1.000000 0.903473 0.000000
0.000000 0.846468 0.000000
0.000000 0.871700 0.000000
0.000000 0.897173 0.000000
0.364210 0.922639 0.000000
0.568587 0.947740 0.000000
0.728815 0.972245 0.000000
0.865933 0.995768 0.000000
0.984740 1.000000 0.000000
1.000000 1.000000 0.000000
0.023482 0.019719 0.285292
0.166509 0.009144 0.267817
0.313069 0.000000 0.249547
0.459009 0.000000 0.229317
0.602908 0.000000 0.206398
0.742632 0.000000 0.179797
0.875257 0.000000 0.147189
0.999046 0.000000 0.105191
1.000000 0.000000 0.042235
0.000000 0.126578 0.265771
0.135796 0.127852 0.249748
0.294746 0.122151 0.233064
0.445641 0.108723 0.214937
0.591891 0.086714 0.194342
0.732657 0.054300 0.169969
0.866202 0.011414 0.140045
0.990891 0.000000 0.101895
1.000000 0.000000 0.046025
0.000000 0.244175 0.242869
0.053495 0.249092 0.228466
0.267358 0.247892 0.213836
0.429460 0.240226 0.198011
0.580845 0.225685 0.180104
0.724507 0.203734 0.158990
0.859868 0.173748 0.133079
0.985387 0.134384 0.099620
1.000000 0.082609 0.050417
0.000000 0.359642 0.212178
0.000000 0.368171 0.199538
0.223288 0.371574 0.186824
0.408150 0.369505 0.173256
0.567806 0.361719 0.157729
0.715551 0.347770 0.139309
0.853150 0.327273 0.116275
0.979995 0.299904 0.085824
1.000000 0.265130 0.039565
0.000000 0.470349 0.167684
0.000000 0.482612 0.156298
0.150959 0.490683 0.144995
0.382101 0.494339 0.132844
0.553546 0.493188 0.118687
0.706490 0.486955 0.101145
0.846626 0.475375 0.077797
0.974593 0.458038 0.042820
1.000000 0.434740 0.000000
0.000000 0.574246 0.092734
0.000000 0.590359 0.079224
0.000000 0.603266 0.065295
0.355485 0.612707 0.048878
0.541322 0.618297 0.027169
0.699676 0.619849 0.001978
0.842034 0.617018 0.000000
0.970600 0.609519 0.000000
1.000000 0.597062 0.000000
0.000000 0.669418 0.000000
0.000000 0.689519 0.000000
0.000000 0.707366 0.000000
0.337464 0.722661 0.000000
0.536675 0.735173 0.000000
0.699178 0.744580 0.000000
0.842544 0.750560 0.000000
0.970516 0.752881 0.000000
1.000000 0.751301 0.000000
0.000000 0.753922 0.000000
0.000000 0.778164 0.000000
0.000000 0.801082 0.000000
0.343822 0.822452 0.000000
0.547850 0.841954 0.000000
0.710733 0.859298 0.000000
0.852702 0.874255 0.000000
0.978135 0.886463 0.000000
1.000000 0.895733 0.000000
0.000000 0.825988 0.000000
0.000000 0.854449 0.000000
0.000000 0.882571 0.000000
0.389121 0.910095 0.000000
0.583488 0.936716 0.000000
0.741025 0.962157 0.000000
0.877942 0.986155 0.000000
0.998384 1.000000 0.000000
1.000000 1.000000 0.000000
0.046059 0.026063 0.431176
0.176433 0.028813 0.413333
0.319427 0.011535 0.394575
0.463689 0.000000 0.373973
0.606711 0.000000 0.350832
0.746496 0.000000 0.324447
0.880411 0.000000 0.293722
1.000000 0.000000 0.257311
1.000000 0.000000 0.213944
0.000000 0.128112 0.407517
0.142904 0.131959 0.391589
0.296732 0.128347 0.374959
0.445419 0.116782 0.356852
0.590829 0.096321 0.336516
0.731784 0.065647 0.313084
0.866413 0.022172 0.285705
0.993016 0.000000 0.253334
1.000000 0.000000 0.214689
0.000000 0.241847 0.383690
0.061857 0.249586 0.370129
0.265398 0.250769 0.356153
0.425296 0.244924 0.341051
0.575831 0.231652 0.324092
0.719653 0.210459 0.304513
0.856052 0.180694 0.281445
0.983543 0.141275 0.253928
1.000000 0.089245 0.220689
0.000000 0.354400 0.356694
0.000000 0.365978 0.345841
0.218099 0.371816 0.334879
0.400846 0.371681 0.323138
0.559757 0.365223 0.309884
0.707767 0.352051 0.294401
0.846455 0.331817 0.275885
0.975298 0.304093 0.253554
1.000000 0.268380 0.226379
0.000000 0.462263 0.323141
0.000000 0.477660 0.315393
0.142256 0.488337 0.307848
0.372875 0.493982 0.299796
0.543766 0.494274 0.290559
0.696924 0.488926 0.279391
0.838171 0.477588 0.265652
0.968139 0.459979 0.248545
1.000000 0.435762 0.227163
0.000000 0.563158 0.279049
0.000000 0.582523 0.274819
0.000000 0.598110 0.271038
0.345960 0.609644 0.267068
0.531153 0.616784 0.262277
0.689745 0.619286 0.255885
0.833167 0.616810 0.247171
0.963691 0.609127 0.235452
1.000000 0.595838 0.219922
0.000000 0.655062 0.217932
0.000000 0.678474 0.217632
0.000000 0.699149 0.218238
0.330609 0.716678 0.219032
0.528214 0.730802 0.219229
0.690565 0.741227 0.218247
0.834760 0.747689 0.215294
0.964584 0.749881 0.209581
1.000000 0.747539 0.200293
0.000000 0.736097 0.120761
0.000000 0.763758 0.125733
0.000000 0.789556 0.132533
0.343348 0.813185 0.140187
0.543449 0.834385 0.147626
0.705373 0.852882 0.154191
0.847790 0.868370 0.159053
0.974886 0.880546 0.161135
1.000000 0.889224 0.159724
0.000000 0.804312 0.000000
0.000000 0.836329 0.000000
0.002011 0.867396 0.000000
0.397631 0.897307 0.000000
0.585542 0.925733 0.000000
0.740932 0.952378 0.000000
0.877770 0.977016 0.009395
0.999442 0.999097 0.041026
1.000000 1.000000 0.045444
0.077981 0.033020 0.573726
0.195947 0.042296 0.555515
0.333486 0.026843 0.536025
0.474796 0.004450 0.514605
0.616047 0.000000 0.490481
0.755222 0.000000 0.462985
0.889720 0.000000 0.431408
1.000000 0.000000 0.394589
1.000000 0.000000 0.351860
0.008034 0.129816 0.544294
0.158675 0.136235 0.528406
0.305062 0.134958 0.511541
0.450435 0.125312 0.493010
0.594098 0.106705 0.472099
0.734468 0.078185 0.448099
0.869460 0.036572 0.420200
0.997380 0.000000 0.387723
1.000000 0.000000 0.349671
0.000000 0.238992 0.517325
0.083537 0.249755 0.504269
0.269258 0.253501 0.490525
0.425115 0.249674 0.475432
0.573876 0.237945 0.458300
0.717057 0.217920 0.438487
0.853829 0.188711 0.415224
0.982608 0.149581 0.387749
1.000000 0.098072 0.355198
0.000000 0.348370 0.489929
0.000000 0.363149 0.480183
0.218501 0.371718 0.470037
0.396592 0.373786 0.458856
0.553579 0.368917 0.445968
0.700915 0.356831 0.430731
0.840038 0.337061 0.412531
0.970086 0.309336 0.390540
1.000000 0.273033 0.364144
0.000000 0.453239 0.459375
0.000000 0.472031 0.453413
0.139654 0.485552 0.447354
0.365435 0.493494 0.440596
0.534390 0.495516 0.432440
0.687001 0.491290 0.422239
0.828610 0.480563 0.409370
0.959868 0.462919 0.393221
1.000000 0.438105 0.373101
0.000000 0.551053 0.422857
0.000000 0.573931 0.421236
0.000000 0.592472 0.419804
0.336410 0.606398 0.417929
0.519901 0.615337 0.414982
0.677872 0.619075 0.410314
0.821678 0.617255 0.403317
0.953502 0.609663 0.393433
1.000000 0.595879 0.379892
0.000000 0.639715 0.377184
0.000000 0.666796 0.380497
0.000000 0.690481 0.384304
0.321341 0.710482 0.387966
0.516724 0.726464 0.390820
0.678296 0.738239 0.392333
0.822790 0.745455 0.391855
0.953844 0.747822 0.388714
1.000000 0.745083 0.382328
0.000000 0.717244 0.318202
0.000000 0.748602 0.327199
0.000000 0.777550 0.337047
0.337727 0.803754 0.347096
0.534024 0.826973 0.356690
0.694499 0.846869 0.365248
0.836911 0.863203 0.372006
0.965117 0.875650 0.376527
1.000000 0.883961 0.378022
0.000000 0.781654 0.238188
0.000000 0.817474 0.254529
0.074762 0.851787 0.271955
0.398199 0.884344 0.289974
0.580339 0.914887 0.307760
0.733527 0.943042 0.324726
0.869837 0.968618 0.340193
0.992194 0.991219 0.353556
1.000000 1.000000 0.362613
0.115661 0.047360 0.709729
0.226408 0.056698 0.691057
0.357625 0.052536 0.670836
0.495579 0.021876 0.648446
0.634386 0.000000 0.623096
0.772238 0.000000 0.594136
0.906610 0.000000 0.560984
1.000000 0.000000 0.522567
1.000000 0.000000 0.478359
0.059084 0.131614 0.673256
0.185018 0.140591 0.657319
0.322975 0.141706 0.640131
0.463934 0.134289 0.621019
0.605060 0.117680 0.599285
0.744078 0.091233 0.574236
0.878820 0.053390 0.545147
1.000000 0.000000 0.511309
1.000000 0.000000 0.472088
0.000000 0.235507 0.641457
0.117272 0.249487 0.628805
0.282408 0.255974 0.615176
0.432658 0.254487 0.599877
0.578426 0.244557 0.582333
0.720191 0.225802 0.561826
0.856614 0.197596 0.537667
0.985988 0.159159 0.509180
1.000000 0.108429 0.475650
0.000000 0.341417 0.611646
0.000000 0.359717 0.602781
0.229063 0.371285 0.593202
0.399213 0.375749 0.582250
0.552908 0.372767 0.569388
0.698617 0.362028 0.553917
0.837285 0.343106 0.535169
0.967954 0.315604 0.512542
1.000000 0.279025 0.485334
0.000000 0.443266 0.581214
0.000000 0.465691 0.576643
0.151201 0.482355 0.571683
0.364097 0.492790 0.565618
0.529388 0.496813 0.557936
0.680303 0.494023 0.547951
0.821495 0.484145 0.535071
0.953338 0.466838 0.518732
1.000000 0.441721 0.498133
0.000000 0.538006 0.547676
0.000000 0.564673 0.547998
0.000000 0.586408 0.548142
0.332222 0.602942 0.547526
0.511714 0.614015 0.545551
0.667945 0.619255 0.541656
0.811270 0.618394 0.535149
0.943671 0.611133 0.525426
1.000000 0.597154 0.511947
0.000000 0.623383 0.508388
0.000000 0.654338 0.514198
0.000000 0.681316 0.520090
0.315773 0.704111 0.525603
0.506839 0.722314 0.529969
0.666500 0.735691 0.532690
0.810458 0.743921 0.533105
0.941994 0.746747 0.530626
1.000000 0.743841 0.524675
0.000000 0.697407 0.460686
0.000000 0.732762 0.472608
0.000000 0.765146 0.485001
0.333425 0.794189 0.497207
0.524361 0.819653 0.508621
0.682541 0.841267 0.518659
0.824084 0.858707 0.526701
0.952613 0.871722 0.532143
1.000000 0.879982 0.534458
0.000000 0.758054 0.401186
0.000000 0.797955 0.420105
0.117550 0.835794 0.439818
0.397565 0.871322 0.459635
0.573050 0.904219 0.478968
0.723161 0.934181 0.497166
0.858293 0.960922 0.513663
0.980764 0.984227 0.527834
1.000000 1.000000 0.539109
0.163243 0.054062 0.835885
0.269318 0.070261 0.816775
0.395234 0.067238 0.795845
0.528658 0.049940 0.772337
0.664852 0.020410 0.745677
0.800740 0.000000 0.715137
0.934322 0.000000 0.680108
1.000000 0.000000 0.639696
1.000000 0.000000 0.593287
0.110909 0.133460 0.791165
0.223083 0.144732 0.775199
0.352959 0.148272 0.757666
0.489037 0.143049 0.737861
0.626915 0.128622 0.715172
0.763946 0.104057 0.688892
0.897771 0.069053 0.658355
1.000000 0.023042 0.622797
1.000000 0.000000 0.581707
0.000000 0.231431 0.753210
0.160714 0.248739 0.740920
0.307580 0.258169 0.727289
0.450940 0.259145 0.711780
0.592905 0.251280 0.693660
0.732381 0.234077 0.672300
0.867724 0.207037 0.647017
0.997089 0.169422 0.617165
1.000000 0.119540 0.582022
0.000000 0.333714 0.719390
0.014705 0.355657 0.711335
0.252644 0.370396 0.702212
0.412200 0.377531 0.691418
0.561109 0.376704 0.678377
0.704316 0.367576 0.662446
0.841798 0.349715 0.642980
0.972269 0.322767 0.619331
1.000000 0.286238 0.590834
0.000000 0.432357 0.687288
0.000000 0.458696 0.683925
0.179966 0.478675 0.679837
0.373044 0.491935 0.674394
0.532555 0.498214 0.666982
0.680580 0.497136 0.656974
0.820405 0.488381 0.643783
0.952017 0.471632 0.626739
1.000000 0.446511 0.605270
0.000000 0.523980 0.654353
0.000000 0.554656 0.656348
0.063105 0.579899 0.657849
0.338173 0.599391 0.658266
0.510799 0.612780 0.657002
0.663834 0.619804 0.653486
0.805707 0.620181 0.647104
0.937845 0.613567 0.637199
1.000000 0.599660 0.623206
0.000000 0.606099 0.618218
0.000000 0.641216 0.626159
0.000000 0.671824 0.633930
0.319982 0.697579 0.640823
0.503102 0.718254 0.646393
0.659293 0.733507 0.649901
0.801512 0.743041 0.650888
0.932794 0.746586 0.648628
1.000000 0.743880 0.642640
0.000000 0.676637 0.576516
0.000000 0.716242 0.591055
0.000000 0.752315 0.605658
0.336943 0.784500 0.619747
0.519338 0.812522 0.632727
0.673696 0.836121 0.644037
0.813419 0.854949 0.652977
0.941426 0.868774 0.659038
1.000000 0.877278 0.661601
0.000000 0.733571 0.526675
0.000000 0.777805 0.548530
0.162550 0.819435 0.570742
0.401621 0.858185 0.592735
0.568480 0.893732 0.613902
0.714376 0.925736 0.633604
0.847326 0.954018 0.651298
0.969034 0.978199 0.666329
1.000000 0.997897 0.678158
0.222292 0.067478 0.947926
0.327196 0.082378 0.928834
0.448485 0.080146 0.907582
0.577713 0.066566 0.883207
0.710488 0.041210 0.855100
0.843985 0.003847 0.822872
0.976042 0.000000 0.785832
1.000000 0.000000 0.743227
1.000000 0.000000 0.694314
0.168116 0.134748 0.894851
0.274385 0.148329 0.878845
0.397642 0.154210 0.860889
0.528613 0.151325 0.840392
0.662796 0.138891 0.816684
0.797246 0.116361 0.789079
0.929578 0.083429 0.756962
1.000000 0.039043 0.719546
1.000000 0.000000 0.676316
0.087533 0.226528 0.849430
0.214020 0.247282 0.837519
0.346824 0.259782 0.823892
0.482952 0.263429 0.808040
0.620321 0.257810 0.789247
0.756845 0.242416 0.766924
0.890534 0.216740 0.740452
1.000000 0.180113 0.709090
1.000000 0.131242 0.672200
0.000000 0.325006 0.810267
0.123491 0.350811 0.802943
0.290788 0.368963 0.794232
0.438551 0.379041 0.783537
0.581608 0.380615 0.770267
0.721269 0.373309 0.753767
0.856719 0.356768 0.733430
0.986413 0.330659 0.708616
1.000000 0.294401 0.678670
0.000000 0.420447 0.774903
0.000000 0.450892 0.772749
0.224463 0.474505 0.769480
0.395527 0.490858 0.764497
0.547337 0.499592 0.757236
0.691177 0.500467 0.747066
0.828704 0.493111 0.733384
0.959312 0.477223 0.715639
1.000000 0.452409 0.693037
0.000000 0.508918 0.740875
0.000000 0.543897 0.744483
0.143276 0.572882 0.747230
0.358262 0.595560 0.748586
0.521022 0.611604 0.747929
0.669229 0.620717 0.744654
0.808462 0.622544 0.738171
0.939438 0.616837 0.727857
1.000000 0.603285 0.713150
0.000000 0.587821 0.705918
0.000000 0.627349 0.715877
0.050885 0.661801 0.725303
0.338248 0.690866 0.733546
0.509758 0.714268 0.740083
0.660546 0.731670 0.744295
0.799950 0.742805 0.745591
0.929868 0.747376 0.743388
1.000000 0.745083 0.737070
0.000000 0.654879 0.667683
0.000000 0.699035 0.684631
0.077322 0.739043 0.701338
0.353375 0.774621 0.717159
0.523439 0.805486 0.731565
0.672060 0.831361 0.743911
0.808637 0.851853 0.753591
0.935143 0.866797 0.760102
1.000000 0.875840 0.762755
0.000000 0.708105 0.623815
0.000000 0.756983 0.648512
0.216324 0.802709 0.673162
0.415615 0.844959 0.697282
0.571360 0.883393 0.720205
0.711293 0.917800 0.741389
0.840846 0.947844 0.760183
0.960863 0.973220 0.775995
1.000000 0.993593 0.788269
0.299504 0.077566 1.000000
0.403482 0.086901 1.000000
0.520236 0.090483 1.000000
0.645058 0.084190 0.975917
0.774439 0.057714 0.947120
0.905112 0.025706 0.913840
1.000000 0.000000 0.875094
1.000000 0.000000 0.830115
1.000000 0.000000 0.778607
0.238210 0.134967 0.979158
0.341724 0.150643 0.963512
0.459603 0.158998 0.945593
0.585532 0.158475 0.924828
0.715714 0.148100 0.900546
0.847208 0.127503 0.871679
0.977470 0.095926 0.837828
1.000000 0.053488 0.798479
1.000000 0.000000 0.752914
0.170584 0.220612 0.926343
0.279843 0.244772 0.914985
0.402309 0.260586 0.901662
0.531411 0.267166 0.885531
0.663819 0.263978 0.866086
0.796877 0.250559 0.842766
0.928208 0.226408 0.814986
1.000000 0.190786 0.781966
1.000000 0.142685 0.743123
0.048035 0.315138 0.881174
0.206767 0.345069 0.874546
0.344443 0.366854 0.866209
0.480993 0.380086 0.855571
0.617384 0.384275 0.841988
0.752776 0.379102 0.824850
0.885480 0.364161 0.803593
1.000000 0.339046 0.777527
1.000000 0.303230 0.745994
0.000000 0.407435 0.841170
0.093530 0.442262 0.840136
0.283472 0.469682 0.837634
0.434091 0.489373 0.833105
0.576944 0.500920 0.825948
0.715527 0.504008 0.815545
0.849826 0.498333 0.801308
0.978625 0.483564 0.782660
1.000000 0.459289 0.758891
0.000000 0.492822 0.804621
0.000000 0.532370 0.809763
0.221195 0.565316 0.813676
0.395066 0.591455 0.815863
0.545742 0.610397 0.815677
0.687625 0.621815 0.812562
0.823148 0.625475 0.805937
0.951971 0.620948 0.795156
1.000000 0.608045 0.779659
0.000000 0.568500 0.769202
0.000000 0.612710 0.781091
0.174526 0.651269 0.792053
0.373633 0.683924 0.801546
0.530440 0.710305 0.808981
0.673969 0.730155 0.813757
0.809263 0.743156 0.815287
0.936805 0.749031 0.812994
1.000000 0.747450 0.806249
0.000000 0.632129 0.732640
0.000000 0.681076 0.751919
0.188747 0.725362 0.770598
0.385891 0.764625 0.788062
0.540725 0.798583 0.803738
0.681618 0.826967 0.817052
0.813758 0.849454 0.827416
0.937677 0.865756 0.834158
1.000000 0.875602 0.836798
0.000000 0.681677 0.692664
0.000000 0.735517 0.720080
0.279734 0.785546 0.747089
0.443289 0.831560 0.773217
0.585594 0.873208 0.797828
0.718046 0.910241 0.820331
0.842903 0.942323 0.840123
0.960170 0.969198 0.856634
1.000000 0.990573 0.869328
