docs/luts/Canon_Standard_AdobeRGB.cube
TITLE "Canon Standard (Adobe RGB)"
# Source: SA.ICC
LUT_3D_SIZE 5
DOMAIN_MIN 0.0 0.0 0.0
DOMAIN_MAX 1.0 1.0 1.0
0.000000 0.001686 0.003515
0.306102 0.000000 0.000000
0.597505 0.000000 0.000000
0.863333 0.000000 0.000000
1.000000 0.000000 0.000000
0.000000 0.246547 0.000000
0.271582 0.241296 0.000000
0.585475 0.214557 0.000000
0.857925 0.162408 0.000000
1.000000 0.075723 0.000000
0.000000 0.483185 0.000000
0.151100 0.493700 0.000000
0.558291 0.491002 0.000000
0.845304 0.472635 0.000000
1.000000 0.436180 0.000000
0.000000 0.694531 0.000000
0.000000 0.722024 0.000000
0.525232 0.743928 0.000000
0.829221 0.758056 0.000000
1.000000 0.762195 0.000000
0.000000 0.865697 0.000000
0.000000 0.911102 0.000000
0.534284 0.958670 0.000000
0.836747 1.000000 0.000000
1.000000 1.000000 0.000000
0.023482 0.019719 0.285292
0.313069 0.000000 0.249547
0.602908 0.000000 0.206398
0.875257 0.000000 0.147189
1.000000 0.000000 0.042235
0.000000 0.244175 0.242869
0.267358 0.247892 0.213836
0.580845 0.225685 0.180104
0.859868 0.173748 0.133079
1.000000 0.082609 0.050417
0.000000 0.470349 0.167684
0.150959 0.490683 0.144995
0.553546 0.493188 0.118687
0.846626 0.475375 0.077797
1.000000 0.434740 0.000000
0.000000 0.669418 0.000000
0.000000 0.707366 0.000000
0.536675 0.735173 0.000000
0.842544 0.750560 0.000000
1.000000 0.751301 0.000000
0.000000 0.825988 0.000000
0.000000 0.882571 0.000000
0.583488 0.936716 0.000000
0.877942 0.986155 0.000000
1.000000 1.000000 0.000000
0.077981 0.033020 0.573726
0.333486 0.026843 0.536025
0.616047 0.000000 0.490481
0.889720 0.000000 0.431408
1.000000 0.000000 0.351860
0.000000 0.238992 0.517325
0.269258 0.253501 0.490525
0.573876 0.237945 0.458300
0.853829 0.188711 0.415224
1.000000 0.098072 0.355198
0.000000 0.453239 0.459375
0.139654 0.485552 0.447354
0.534390 0.495516 0.432440
0.828610 0.480563 0.409370
1.000000 0.438105 0.373101
0.000000 0.639715 0.377184
0.000000 0.690481 0.384304
0.516724 0.726464 0.390820
0.822790 0.745455 0.391855
1.000000 0.745083 0.382328
0.000000 0.781654 0.238188
0.074762 0.851787 0.271955
0.580339 0.914887 0.307760
0.869837 0.968618 0.340193
1.000000 1.000000 0.362613
0.163243 0.054062 0.835885
0.395234 0.067238 0.795845
0.664852 0.020410 0.745677
0.934322 0.000000 0.680108
1.000000 0.000000 0.593287
0.000000 0.231431 0.753210
0.307580 0.258169 0.727289
0.592905 0.251280 0.693660
0.867724 0.207037 0.647017
1.000000 0.119540 0.582022
0.000000 0.432357 0.687288
0.179966 0.478675 0.679837
0.532555 0.498214 0.666982
0.820405 0.488381 0.643783
1.000000 0.446511 0.605270
0.000000 0.606099 0.618218
0.000000 0.671824 0.633930
0.503102 0.718254 0.646393
0.801512 0.743041 0.650888
1.000000 0.743880 0.642640
0.000000 0.733571 0.526675
0.162550 0.819435 0.570742
0.568480 0.893732 0.613902
0.847326 0.954018 0.651298
1.000000 0.997897 0.678158
0.299504 0.077566 1.000000
0.520236 0.090483 1.000000
0.774439 0.057714 0.947120
1.000000 0.000000 0.875094
1.000000 0.000000 0.778607
0.170584 0.220612 0.926343
0.402309 0.260586 0.901662
0.663819 0.263978 0.866086
0.928208 0.226408 0.814986
1.000000 0.142685 0.743123
0.000000 0.407435 0.841170
0.283472 0.469682 0.837634
0.576944 0.500920 0.825948
0.849826 0.498333 0.801308
1.000000 0.459289 0.758891
0.000000 0.568500 0.769202
0.174526 0.651269 0.792053
0.530440 0.710305 0.808981
0.809263 0.743156 0.815287
1.000000 0.747450 0.806249
0.000000 0.681677 0.692664
0.279734 0.785546 0.747089
0.585594 0.873208 0.797828
0.842903 0.942323 0.840123
1.000000 0.990573 0.869328
