docs/luts/Canon_Faithful_AdobeRGB.cube
TITLE "Canon Faithful (Adobe RGB)"
# Source: FA.ICC
LUT_3D_SIZE 5
DOMAIN_MIN 0.0 0.0 0.0
DOMAIN_MAX 1.0 1.0 1.0
0.000000 0.001686 0.003515
0.292208 0.000562 0.005275
0.528674 0.000000 0.000000
0.744288 0.000000 0.000000
0.966210 0.000000 0.000000
0.000000 0.256065 0.000000
0.317395 0.221039 0.000000
0.581397 0.204482 0.000000
0.816034 0.197888 0.000000
1.000000 0.192665 0.000000
0.000000 0.518315 0.000000
0.255922 0.479672 0.000000
0.593001 0.460114 0.000000
0.857487 0.451380 0.000000
1.000000 0.445117 0.000000
0.000000 0.794820 0.000000
0.000000 0.749370 0.000000
0.526569 0.723255 0.000000
0.845789 0.708281 0.000000
1.000000 0.696278 0.000000
0.000000 0.989295 0.000000
0.000000 0.989859 0.000000
0.243259 0.989487 0.000000
0.740593 0.977834 0.000000
1.000000 0.956484 0.000000
0.000000 0.030511 0.219945
0.258057 0.007397 0.234368
0.515999 0.002532 0.238586
0.764702 0.000000 0.217929
1.000000 0.000000 0.151424
0.000000 0.271607 0.200113
0.267402 0.247912 0.213881
0.557368 0.241433 0.224512
0.824192 0.243573 0.217732
1.000000 0.245591 0.174145
0.000000 0.525192 0.142373
0.165418 0.498242 0.156108
0.559503 0.489056 0.173046
0.856823 0.489336 0.178233
1.000000 0.490617 0.151559
0.000000 0.795863 0.000000
0.000000 0.762549 0.000000
0.480851 0.747267 0.000000
0.838974 0.741785 0.005770
1.000000 0.738036 0.000814
0.000000 0.989829 0.000000
0.000000 0.989912 0.000000
0.162145 0.989564 0.000000
0.738585 0.988956 0.000000
1.000000 0.988147 0.000000
0.006634 0.060016 0.461686
0.253121 0.050552 0.484254
0.529715 0.050822 0.494174
0.809556 0.051387 0.477196
1.000000 0.041808 0.417685
0.000000 0.273156 0.438694
0.239859 0.260993 0.460019
0.550028 0.264522 0.476568
0.846320 0.275086 0.474284
1.000000 0.283939 0.437877
0.000000 0.509250 0.394089
0.073598 0.494157 0.411864
0.534392 0.495471 0.432462
0.860468 0.504809 0.442018
1.000000 0.513953 0.426196
0.000000 0.765921 0.312243
0.000000 0.744894 0.325095
0.436138 0.740565 0.348949
0.827602 0.744685 0.369099
1.000000 0.749214 0.371890
0.000000 0.990225 0.151238
0.000000 0.990141 0.145604
0.000000 0.989835 0.179744
0.710121 0.989256 0.219797
1.000000 0.988435 0.245539
0.051076 0.106852 0.741245
0.277355 0.106872 0.772892
0.567791 0.115482 0.788561
0.876221 0.125860 0.774250
1.000000 0.131010 0.715582
0.000000 0.287163 0.710596
0.230034 0.286600 0.741195
0.554675 0.299980 0.763965
0.878018 0.318841 0.764977
1.000000 0.335269 0.730279
0.000000 0.496712 0.659081
0.000000 0.493635 0.685775
0.509148 0.505547 0.712682
0.861750 0.524001 0.725955
1.000000 0.540956 0.711989
0.000000 0.730926 0.579041
0.000000 0.722334 0.599378
0.374085 0.729127 0.628000
0.801596 0.742983 0.650979
1.000000 0.755806 0.654891
0.000000 0.990723 0.454962
0.000000 0.978966 0.466420
0.000000 0.977353 0.495979
0.647607 0.983101 0.527816
1.000000 0.988018 0.547801
0.045120 0.181228 0.897408
0.307725 0.188294 0.897270
0.617531 0.206628 0.896657
0.955993 0.228990 0.895173
1.000000 0.250031 0.893530
0.000000 0.334838 0.895997
0.209559 0.344536 0.895771
0.557859 0.367231 0.894940
0.910012 0.394833 0.893202
1.000000 0.420206 0.891084
0.000000 0.512545 0.892856
0.000000 0.520979 0.892552
0.467308 0.543015 0.891485
0.850399 0.570451 0.889444
1.000000 0.595548 0.886860
0.000000 0.717062 0.884602
0.000000 0.720772 0.886529
0.256293 0.738471 0.885363
0.748459 0.761910 0.883129
1.000000 0.782997 0.880036
0.000000 0.954663 0.756761
0.000000 0.950411 0.778516
0.000000 0.960555 0.813942
0.539231 0.976725 0.849013
1.000000 0.990487 0.869323
