docs/luts/Canon_Neutral_AdobeRGB.cube
TITLE "Canon Neutral (Adobe RGB)"
# Source: NA.ICC
LUT_3D_SIZE 5
DOMAIN_MIN 0.0 0.0 0.0
DOMAIN_MAX 1.0 1.0 1.0
0.000000 0.001686 0.003515
0.282010 0.000000 0.000000
0.594045 0.000000 0.000000
0.925201 0.000000 0.000000
1.000000 0.000000 0.000000
0.000000 0.249618 0.000000
0.258925 0.244827 0.000000
0.556805 0.251412 0.000000
0.862925 0.260459 0.000000
1.000000 0.263385 0.000000
0.000000 0.490011 0.000000
0.190492 0.488638 0.000000
0.516533 0.501007 0.000000
0.806000 0.518743 0.000000
1.000000 0.533571 0.000000
0.000000 0.711657 0.000000
0.079064 0.715992 0.000000
0.481547 0.736203 0.000000
0.757352 0.764028 0.000000
1.000000 0.791250 0.000000
0.000000 0.905120 0.000000
0.198133 0.917589 0.000000
0.494296 0.947943 0.000000
0.735900 0.987990 0.000000
0.965174 1.000000 0.000000
0.020225 0.023415 0.286225
0.292897 0.007787 0.252524
0.608699 0.013015 0.233458
0.948473 0.000637 0.212076
1.000000 0.000000 0.168261
0.000000 0.256776 0.230199
0.267358 0.247892 0.213836
0.569885 0.251578 0.210273
0.884973 0.258983 0.203171
1.000000 0.261247 0.173806
0.000000 0.496286 0.137136
0.207875 0.488702 0.139403
0.535144 0.496136 0.153008
0.833568 0.510195 0.159608
1.000000 0.522528 0.138357
0.000000 0.720519 0.000000
0.146171 0.716520 0.000000
0.514622 0.729655 0.000000
0.798200 0.751665 0.027644
1.000000 0.774326 0.000000
0.000000 0.919706 0.000000
0.269093 0.921657 0.000000
0.549190 0.942826 0.000000
0.798047 0.974962 0.000000
1.000000 1.000000 0.000000
0.067665 0.057216 0.596078
0.310843 0.045236 0.542785
0.622715 0.038122 0.513082
0.964024 0.024854 0.491414
1.000000 0.000000 0.462329
0.000000 0.271361 0.530069
0.274197 0.257778 0.494303
0.574014 0.258194 0.479889
0.891670 0.263559 0.471614
1.000000 0.265081 0.454223
0.000000 0.507452 0.450965
0.205510 0.493283 0.432143
0.534390 0.495516 0.432440
0.836840 0.505587 0.436639
1.000000 0.515178 0.429598
0.000000 0.732940 0.358615
0.130402 0.720306 0.357147
0.513732 0.726068 0.372689
0.803551 0.742032 0.389556
1.000000 0.759850 0.392023
0.000000 0.936796 0.246220
0.259885 0.927993 0.267128
0.553275 0.939666 0.302315
0.810778 0.963574 0.334116
1.000000 0.991455 0.346185
0.146444 0.104700 0.923909
0.362461 0.089269 0.846655
0.661561 0.081205 0.799710
0.997511 0.071819 0.768469
1.000000 0.048820 0.738010
0.000000 0.301434 0.847572
0.308124 0.282620 0.787182
0.595231 0.279107 0.755316
0.908603 0.282088 0.737143
1.000000 0.282772 0.717800
0.000000 0.531836 0.763189
0.227871 0.510638 0.719545
0.542540 0.507186 0.702090
0.842114 0.512972 0.696170
1.000000 0.519475 0.686863
0.000000 0.757090 0.676021
0.130123 0.735419 0.648611
0.511565 0.733536 0.645182
0.801512 0.743041 0.650888
1.000000 0.755721 0.650957
0.000000 0.964519 0.591241
0.238724 0.944578 0.580048
0.543744 0.946428 0.590554
0.805528 0.961801 0.607784
1.000000 0.982481 0.616548
0.481681 0.109769 1.000000
0.467387 0.145469 1.000000
0.749261 0.136020 1.000000
1.000000 0.129215 1.000000
1.000000 0.116657 1.000000
0.167824 0.353253 1.000000
0.391315 0.328822 1.000000
0.658145 0.320957 1.000000
0.960611 0.321106 1.000000
1.000000 0.320583 0.976750
0.000000 0.577106 1.000000
0.304827 0.548464 1.000000
0.586340 0.538872 0.978216
0.874916 0.539874 0.957181
1.000000 0.543026 0.939844
0.000000 0.800942 1.000000
0.214869 0.769785 0.946046
0.539281 0.759774 0.920204
0.819382 0.762584 0.910203
1.000000 0.769805 0.901770
0.000000 1.000000 0.922869
0.271817 0.979306 0.881916
0.555269 0.970990 0.868822
0.811527 0.977523 0.869433
1.000000 0.990619 0.869341
