docs/luts/Canon_Faithful_sRGB.cube
TITLE "Canon Faithful (sRGB)"
# Source: FS.ICC
LUT_3D_SIZE 9
DOMAIN_MIN 0.0 0.0 0.0
DOMAIN_MAX 1.0 1.0 1.0
0.000000 0.001686 0.003515
0.155358 0.000000 0.000870
0.298725 0.000000 0.000000
0.428837 0.000000 0.000000
0.546297 0.000000 0.000000
0.651650 0.000000 0.000000
0.745510 0.000000 0.000000
0.828439 0.000000 0.000000
0.900910 0.000000 0.000000
0.000000 0.126214 0.000000
0.154515 0.113342 0.000000
0.301553 0.104013 0.000000
0.438140 0.096538 0.000000
0.563476 0.089797 0.000000
0.677827 0.082694 0.000000
0.781703 0.074036 0.000000
0.875642 0.062469 0.000000
0.960039 0.045814 0.000000
0.021227 0.251794 0.000000
0.152144 0.239242 0.000000
0.297501 0.229821 0.000000
0.439114 0.222511 0.000000
0.571804 0.216174 0.000000
0.694955 0.209594 0.000000
0.808832 0.201873 0.000000
0.913706 0.191784 0.000000
1.000000 0.178134 0.000000
0.055569 0.377164 0.000000
0.154341 0.364820 0.000000
0.288146 0.355571 0.000000
0.431994 0.348258 0.000000
0.570972 0.341827 0.000000
0.702513 0.335139 0.000000
0.826139 0.327173 0.000000
0.942041 0.316812 0.000000
1.000000 0.302956 0.000000
0.096300 0.502303 0.000000
0.168059 0.490360 0.000000
0.276403 0.481367 0.000000
0.417366 0.474146 0.000000
0.560823 0.467670 0.000000
0.699931 0.460811 0.000000
0.833007 0.452521 0.000000
0.959697 0.441654 0.000000
1.000000 0.427217 0.000000
0.162059 0.627411 0.000000
0.196058 0.616045 0.000000
0.268016 0.607418 0.000000
0.397258 0.600428 0.000000
0.541705 0.593976 0.000000
0.686947 0.587028 0.000000
0.828721 0.578434 0.000000
0.965946 0.567160 0.000000
1.000000 0.552131 0.000000
0.219553 0.752690 0.000000
0.227454 0.742050 0.000000
0.271715 0.733966 0.000000
0.375966 0.727322 0.000000
0.515152 0.721051 0.000000
0.663744 0.714059 0.000000
0.813006 0.705293 0.000000
0.960067 0.693666 0.000000
1.000000 0.678111 0.000000
0.273878 0.878423 0.000000
0.269691 0.868567 0.000000
0.295355 0.861139 0.000000
0.360972 0.855001 0.000000
0.484498 0.848979 0.000000
0.631558 0.842158 0.000000
0.786008 0.833311 0.000000
0.941752 0.821455 0.000000
1.000000 0.805513 0.000000
0.326399 1.000000 0.000000
0.322847 0.995719 0.000000
0.329015 0.989163 0.000000
0.362900 0.983612 0.000000
0.456236 0.978092 0.000000
0.593262 0.971500 0.000000
0.748675 0.962728 0.000000
0.911134 0.950763 0.000000
1.000000 0.934500 0.000000
0.000000 0.019097 0.121826
0.133557 0.001216 0.121454
0.282238 0.000000 0.122641
0.418535 0.000000 0.123486
0.542681 0.000000 0.122289
0.655277 0.000000 0.117184
0.756821 0.000000 0.105763
0.847822 0.000000 0.084780
0.928873 0.000000 0.047056
0.000000 0.136080 0.104497
0.133929 0.123996 0.104399
0.285767 0.115765 0.106032
0.428423 0.109922 0.107338
0.560585 0.105268 0.106679
0.682268 0.100815 0.102091
0.793888 0.095257 0.091102
0.895988 0.087640 0.069442
0.989131 0.076427 0.027303
0.000000 0.259727 0.085360
0.134343 0.248093 0.085380
0.282303 0.240081 0.087144
0.429739 0.234617 0.088714
0.569244 0.230473 0.088233
0.699795 0.226594 0.083455
0.821533 0.221908 0.071597
0.934769 0.215320 0.046840
1.000000 0.205671 0.001540
0.011049 0.383149 0.058044
0.141233 0.372083 0.057774
0.273657 0.364503 0.059831
0.422678 0.359293 0.061326
0.568365 0.355357 0.060193
0.707308 0.351583 0.053914
0.838910 0.346944 0.037500
0.963271 0.340292 0.007482
1.000000 0.330590 0.000000
0.098983 0.506304 0.010281
0.161484 0.495970 0.009689
0.263286 0.488946 0.011625
0.407936 0.484105 0.012301
0.557750 0.480408 0.009491
0.704280 0.476761 0.000767
0.845415 0.472069 0.000000
0.980647 0.465236 0.000000
1.000000 0.455240 0.000000
0.163184 0.629357 0.000000
0.190387 0.619890 0.000000
0.257459 0.613576 0.000000
0.387769 0.609270 0.000000
0.537952 0.605924 0.000000
0.690432 0.602438 0.000000
0.840299 0.597772 0.000000
0.986119 0.590823 0.000000
1.000000 0.580496 0.000000
0.219710 0.752597 0.000000
0.217368 0.744089 0.000000
0.265246 0.738576 0.000000
0.366907 0.734923 0.000000
0.510475 0.732045 0.000000
0.666001 0.728865 0.000000
0.823308 0.724312 0.000000
0.979067 0.717343 0.000000
1.000000 0.706778 0.000000
0.272939 0.876058 0.000000
0.269870 0.868701 0.000000
0.293647 0.864137 0.000000
0.353550 0.861274 0.000000
0.479077 0.859010 0.000000
0.632310 0.856251 0.000000
0.794594 0.851936 0.000000
0.959108 0.845021 0.000000
1.000000 0.834375 0.000000
0.324586 0.999843 0.000000
0.322077 0.993864 0.000000
0.322926 0.990432 0.000000
0.358608 0.988513 0.000000
0.450703 0.987008 0.000000
0.592445 0.984800 0.000000
0.755319 0.980910 0.000000
0.926430 0.974170 0.000000
1.000000 0.963500 0.000000
0.000000 0.028827 0.241695
0.114128 0.020794 0.244085
0.268159 0.006355 0.248301
0.410921 0.000000 0.252362
0.542251 0.000000 0.254469
0.662525 0.000000 0.252869
0.772164 0.000000 0.245603
0.871757 0.000000 0.230692
0.961853 0.000000 0.205698
0.000000 0.145075 0.223551
0.115024 0.133395 0.226219
0.271217 0.125803 0.231002
0.420473 0.121055 0.235851
0.559797 0.117934 0.239046
0.689266 0.115393 0.238727
0.809173 0.112255 0.232919
0.919985 0.107489 0.219566
1.000000 0.099844 0.196186
0.000000 0.266135 0.206087
0.117908 0.254974 0.208775
0.267358 0.247892 0.213836
0.420981 0.243696 0.219183
0.567734 0.241247 0.222979
0.706150 0.239489 0.223481
0.836255 0.237271 0.218712
0.958342 0.233631 0.206413
1.000000 0.227390 0.183963
0.011793 0.387140 0.186023
0.129827 0.376828 0.188417
0.258583 0.370434 0.193477
0.412879 0.366816 0.199013
0.565685 0.364888 0.203118
0.712604 0.363544 0.204041
0.852648 0.361653 0.199702
0.985964 0.358215 0.187712
1.000000 0.352144 0.165227
0.100999 0.507913 0.159585
0.156420 0.498646 0.161273
0.248786 0.493084 0.166092
0.396985 0.490180 0.171544
0.553599 0.488765 0.175621
0.708012 0.487806 0.176483
0.857639 0.486207 0.171878
1.000000 0.482885 0.159138
1.000000 0.476799 0.134645
0.163438 0.628578 0.120404
0.182969 0.620460 0.121010
0.245341 0.615899 0.125427
0.375866 0.613805 0.130760
0.531923 0.613038 0.134503
0.692145 0.612577 0.134531
0.850594 0.611307 0.128381
1.000000 0.608161 0.112264
1.000000 0.602048 0.079237
0.218604 0.749297 0.047891
0.215524 0.742465 0.045817
0.257649 0.739010 0.050474
0.354804 0.737912 0.056897
0.502587 0.737934 0.060368
0.665403 0.738022 0.057270
0.831235 0.737171 0.042369
0.996208 0.734289 0.006888
1.000000 0.728270 0.000000
0.270738 0.870269 0.000000
0.268402 0.864812 0.000000
0.286811 0.862664 0.000000
0.343147 0.862599 0.000000
0.469638 0.863537 0.000000
0.629220 0.864389 0.000000
0.799816 0.864083 0.000000
0.973604 0.861594 0.000000
1.000000 0.855757 0.000000
0.321312 0.991588 0.000000
0.319742 0.987779 0.000000
0.319379 0.986984 0.000000
0.352265 0.988116 0.000000
0.441002 0.990085 0.000000
0.586933 0.991791 0.000000
0.757528 0.992168 0.000000
0.937779 0.990197 0.000000
1.000000 0.984693 0.000000
0.000000 0.042778 0.358153
0.096929 0.032889 0.363519
0.254983 0.027663 0.370658
0.404378 0.024449 0.377475
0.543138 0.016626 0.382259
0.671439 0.016283 0.383130
0.789685 0.012717 0.378226
0.898345 0.006483 0.365767
0.997932 0.000000 0.343586
0.000000 0.154000 0.338316
0.097923 0.142141 0.344101
0.256428 0.134910 0.351881
0.412226 0.130695 0.359686
0.559171 0.128610 0.365676
0.696845 0.127414 0.368046
0.825464 0.125939 0.364977
0.945479 0.123357 0.354442
1.000000 0.118356 0.334455
0.000000 0.271664 0.320148
0.103688 0.260561 0.325986
0.251253 0.253939 0.334088
0.411008 0.250666 0.342497
0.565312 0.249448 0.349301
0.712035 0.249254 0.352783
0.850961 0.249056 0.350974
0.982370 0.247726 0.341954
1.000000 0.244149 0.323671
0.020100 0.389881 0.300878
0.121268 0.379866 0.306390
0.241644 0.374225 0.314522
0.400805 0.371697 0.323114
0.561061 0.371256 0.330394
0.716298 0.371836 0.334522
0.865316 0.372235 0.333572
1.000000 0.371425 0.325583
1.000000 0.368388 0.308432
0.103648 0.507883 0.277579
0.144374 0.499199 0.282424
0.232385 0.494660 0.290192
0.382807 0.493135 0.298709
0.546413 0.493560 0.306101
0.709089 0.494808 0.310452
0.867740 0.495798 0.309891
1.000000 0.495429 0.302373
1.000000 0.492682 0.285608
0.163551 0.625782 0.246866
0.167789 0.618530 0.250630
0.231990 0.615286 0.257663
0.360140 0.614891 0.265791
0.521970 0.616234 0.272921
0.690241 0.618266 0.277137
0.857707 0.619875 0.276411
1.000000 0.620014 0.268656
1.000000 0.617621 0.251391
0.217032 0.743670 0.203954
0.214572 0.738012 0.206029
0.250090 0.736152 0.211973
0.338906 0.737005 0.219582
0.489960 0.739437 0.226148
0.660136 0.742376 0.229729
0.834945 0.744747 0.228167
1.000000 0.745461 0.219013
1.000000 0.743427 0.199196
0.267626 0.861700 0.138299
0.265931 0.857773 0.137855
0.278943 0.857451 0.142467
0.329714 0.859696 0.149468
0.455069 0.863361 0.155498
0.620580 0.867319 0.157833
0.799754 0.870553 0.153873
0.983186 0.871950 0.140034
1.000000 0.870421 0.110231
0.316865 0.980089 0.000000
0.315972 0.978022 0.000000
0.316602 0.979403 0.000000
0.344399 0.983153 0.000000
0.426298 0.988134 0.000000
0.575279 0.993236 0.000000
0.753505 0.997361 0.000000
0.943180 0.999482 0.000000
1.000000 0.998601 0.000000
0.000000 0.058211 0.473991
0.082876 0.047910 0.482882
0.240824 0.042161 0.493212
0.396589 0.038563 0.503073
0.543110 0.035363 0.510668
0.679869 0.031882 0.514115
0.807126 0.027512 0.511655
0.925265 0.020955 0.501314
1.000000 0.012315 0.481287
0.000000 0.163395 0.452194
0.083996 0.151028 0.461549
0.239902 0.143656 0.472660
0.401933 0.139794 0.483626
0.556705 0.138194 0.492553
0.702916 0.137768 0.497639
0.840727 0.137532 0.497087
0.970377 0.136422 0.488970
1.000000 0.133400 0.471394
0.000000 0.277249 0.432747
0.093751 0.265774 0.442173
0.232675 0.259108 0.453680
0.397922 0.256156 0.465315
0.559989 0.255676 0.475184
0.715332 0.256601 0.481488
0.863550 0.257828 0.482426
1.000000 0.258263 0.476059
1.000000 0.257004 0.460465
0.032764 0.392136 0.412959
0.107696 0.381962 0.422134
0.222065 0.376554 0.433679
0.384854 0.374722 0.445597
0.552515 0.375264 0.456011
0.716428 0.377218 0.463152
0.874813 0.379389 0.465133
1.000000 0.380762 0.460044
1.000000 0.380213 0.445911
0.107803 0.506983 0.390213
0.132425 0.498399 0.398721
0.214146 0.494379 0.409917
0.364159 0.493773 0.421788
0.534373 0.495524 0.432415
0.705585 0.498456 0.439938
0.873669 0.501550 0.442546
1.000000 0.503642 0.438248
1.000000 0.503742 0.425114
0.164320 0.621729 0.361798
0.161347 0.614883 0.369201
0.218702 0.612414 0.379649
0.339615 0.613242 0.391084
0.506335 0.616191 0.401528
0.682721 0.620220 0.409035
0.859577 0.624268 0.411808
1.000000 0.627156 0.407798
1.000000 0.627911 0.395058
0.215535 0.736400 0.324247
0.213467 0.731437 0.330102
0.239790 0.730675 0.339390
0.318967 0.733042 0.350101
0.471076 0.737386 0.359982
0.648468 0.742644 0.367155
0.832426 0.747701 0.369613
1.000000 0.751519 0.365337
1.000000 0.752951 0.352134
0.264314 0.851194 0.273221
0.263129 0.848224 0.276941
0.263627 0.849301 0.284725
0.314380 0.853348 0.294258
0.434309 0.859240 0.303386
0.604821 0.865838 0.309776
0.792560 0.872059 0.311352
0.985993 0.876855 0.305953
1.000000 0.879127 0.291022
0.311819 0.966242 0.199859
0.311542 0.965444 0.200680
0.312850 0.968508 0.206470
0.336733 0.974317 0.214675
0.406740 0.981889 0.222940
0.556224 0.989949 0.228177
0.741614 0.997330 0.227985
0.940907 1.000000 0.219673
1.000000 0.998874 0.190749
0.000000 0.074665 0.592145
0.075464 0.064334 0.604947
0.224673 0.058638 0.618910
0.385905 0.055288 0.632209
0.540272 0.052677 0.642975
0.685747 0.049775 0.649344
0.822414 0.045720 0.649542
0.950539 0.039821 0.641643
1.000000 0.030558 0.623799
0.000000 0.174143 0.568231
0.077640 0.160855 0.581529
0.220666 0.153027 0.596409
0.387778 0.148900 0.610876
0.550403 0.147451 0.623100
0.705449 0.147419 0.631228
0.852774 0.147808 0.633453
0.992557 0.147615 0.627899
1.000000 0.145886 0.612687
0.000000 0.283582 0.547101
0.079649 0.271247 0.560590
0.211139 0.264141 0.575922
0.380111 0.261138 0.591155
0.549835 0.260976 0.604448
0.714162 0.262484 0.613886
0.871974 0.264696 0.617765
1.000000 0.266473 0.614090
1.000000 0.266758 0.601073
0.050506 0.394717 0.526331
0.098493 0.383852 0.539607
0.200188 0.378250 0.555012
0.363443 0.376582 0.570581
0.538255 0.377707 0.584495
0.710998 0.380542 0.594892
0.879077 0.383991 0.599887
1.000000 0.387022 0.597702
1.000000 0.388458 0.586429
0.114295 0.505989 0.503290
0.110601 0.497025 0.515935
0.195726 0.493009 0.531001
0.339783 0.492866 0.546600
0.515734 0.495457 0.560769
0.695596 0.499613 0.571670
0.873368 0.504239 0.577453
1.000000 0.508332 0.576294
1.000000 0.510798 0.566217
0.166580 0.617178 0.475419
0.163912 0.610227 0.486965
0.208444 0.608062 0.501319
0.314133 0.609603 0.516554
0.483594 0.613742 0.530613
0.667874 0.619280 0.541630
0.854311 0.625224 0.547817
1.000000 0.630409 0.547141
1.000000 0.633842 0.537834
0.214841 0.728298 0.439884
0.213067 0.723473 0.449953
0.230216 0.723338 0.463177
0.296152 0.726733 0.477628
0.445002 0.732516 0.491178
0.628734 0.739605 0.501985
0.821879 0.746909 0.508022
1.000000 0.753290 0.507455
1.000000 0.757758 0.498275
0.261341 0.839482 0.393443
0.260464 0.836970 0.401510
0.261549 0.838975 0.413222
0.299501 0.844326 0.426430
0.407257 0.851926 0.439208
0.580538 0.860665 0.449343
0.776529 0.869433 0.454835
0.980097 0.877114 0.453793
1.000000 0.882737 0.444119
0.306789 0.950825 0.331482
0.306883 0.950806 0.337111
0.308767 0.955072 0.346791
0.324571 0.962508 0.358448
0.383300 0.972076 0.370095
0.528856 0.982578 0.379176
0.720239 0.992882 0.383700
0.929043 1.000000 0.381528
1.000000 0.997262 0.360302
0.000000 0.093159 0.715480
0.071476 0.082066 0.732629
0.206458 0.076044 0.750722
0.370957 0.072868 0.767888
0.532726 0.070841 0.782218
0.687168 0.068524 0.791893
0.833541 0.065144 0.795101
0.972014 0.060372 0.789990
1.000000 0.052668 0.774710
0.000000 0.186717 0.689240
0.067324 0.172402 0.707077
0.198904 0.163681 0.726080
0.368386 0.159220 0.744484
0.538444 0.157484 0.760403
0.702539 0.157396 0.771932
0.859688 0.157967 0.777319
1.000000 0.158280 0.774694
1.000000 0.157269 0.762164
0.006643 0.291402 0.666330
0.071575 0.277861 0.684347
0.187781 0.269959 0.703919
0.356387 0.266448 0.723157
0.533145 0.266123 0.740198
0.706436 0.267866 0.753189
0.874204 0.270488 0.760299
1.000000 0.273082 0.759716
1.000000 0.274511 0.749473
0.071132 0.398312 0.644188
0.067233 0.386453 0.662053
0.178747 0.380141 0.681742
0.335843 0.378218 0.701444
0.516612 0.379423 0.719213
0.698156 0.382709 0.733228
0.876215 0.386981 0.741654
1.000000 0.391121 0.742616
1.000000 0.394047 0.734287
0.123892 0.505628 0.620384
0.120874 0.495796 0.637638
0.182079 0.491378 0.657089
0.309643 0.491244 0.676837
0.489161 0.494181 0.694931
0.677312 0.499092 0.709570
0.864995 0.504826 0.718883
1.000000 0.510408 0.721019
1.000000 0.514718 0.714120
0.171036 0.612892 0.592361
0.168743 0.605348 0.608610
0.197951 0.603052 0.627376
0.284798 0.604848 0.646781
0.452625 0.609637 0.664863
0.643993 0.616218 0.679687
0.840069 0.623576 0.689495
1.000000 0.630560 0.692313
1.000000 0.636187 0.686410
0.215785 0.720100 0.557584
0.214317 0.714988 0.572384
0.215134 0.714973 0.590059
0.273588 0.718877 0.608671
0.411381 0.725613 0.626333
0.599434 0.734042 0.641009
0.801439 0.743043 0.650873
1.000000 0.751584 0.654005
1.000000 0.758532 0.648519
0.259378 0.827279 0.513153
0.258743 0.824776 0.526080
0.260253 0.827155 0.542208
0.289317 0.833325 0.559685
0.374913 0.842199 0.576496
0.546769 0.852573 0.590635
0.749932 0.863363 0.600156
0.963694 0.873532 0.603070
1.000000 0.881928 0.597521
0.302315 0.934608 0.455732
0.302624 0.934868 0.466310
0.304984 0.939821 0.480503
0.308849 0.948371 0.496377
0.358973 0.959455 0.511978
0.493062 0.971913 0.525193
0.688040 0.984673 0.533938
0.905926 0.996406 0.536188
1.000000 0.995420 0.520959
0.000000 0.113937 0.846840
0.071695 0.101879 0.868869
0.187994 0.095335 0.891319
0.350626 0.092130 0.912244
0.518978 0.090056 0.930194
0.682268 0.088113 0.943277
0.838585 0.085470 0.949749
0.987755 0.081229 0.947869
1.000000 0.074691 0.935839
0.007523 0.202110 0.818230
0.055880 0.186260 0.840927
0.177677 0.176567 0.864618
0.343040 0.171246 0.887264
0.519320 0.169032 0.906823
0.692282 0.168647 0.921871
0.859499 0.169136 0.930597
1.000000 0.169432 0.931220
1.000000 0.168641 0.921960
0.048486 0.301563 0.793281
0.047121 0.286404 0.816296
0.167339 0.277316 0.840565
0.326344 0.272991 0.864257
0.508497 0.272113 0.885381
0.690494 0.273594 0.901973
0.868404 0.276330 0.912526
1.000000 0.279172 0.915230
1.000000 0.281145 0.908324
0.094138 0.403842 0.769582
0.092017 0.390476 0.792473
0.165157 0.383092 0.816952
0.302410 0.380483 0.841181
0.486385 0.381381 0.863240
0.676250 0.384636 0.881247
0.864330 0.389217 0.893188
1.000000 0.394009 0.897590
1.000000 0.397969 0.892661
0.137194 0.506733 0.744689
0.134914 0.495645 0.767048
0.173093 0.490360 0.791325
0.275663 0.489749 0.815640
0.453819 0.492577 0.838118
0.649216 0.497774 0.856901
0.846722 0.504186 0.870103
1.000000 0.510725 0.875905
1.000000 0.516329 0.872425
0.178492 0.609710 0.716133
0.176613 0.601121 0.737541
0.179291 0.598166 0.761181
0.256122 0.599768 0.785217
0.413387 0.604734 0.807725
0.609745 0.611904 0.826795
0.815032 0.620179 0.840570
1.000000 0.628512 0.847227
1.000000 0.635758 0.844883
0.219094 0.712570 0.681414
0.217889 0.706680 0.701425
0.219073 0.706299 0.724019
0.257987 0.710253 0.747340
0.371527 0.717493 0.769473
0.559661 0.726769 0.788446
0.769605 0.737064 0.802449
0.985925 0.747205 0.809494
1.000000 0.756113 0.807793
0.259249 0.815422 0.637943
0.258824 0.812434 0.656128
0.260742 0.814728 0.677198
0.274122 0.821206 0.699380
0.341075 0.830853 0.720752
0.503315 0.842374 0.739258
0.711595 0.854728 0.752991
0.934975 0.866784 0.760055
1.000000 0.877548 0.758601
0.299111 0.918338 0.582767
0.299663 0.918385 0.598742
0.302427 0.923537 0.617909
0.306864 0.932740 0.638548
0.339672 0.944840 0.658647
0.450288 0.958773 0.676281
0.644202 0.973374 0.689406
0.869948 0.987523 0.696047
1.000000 0.993349 0.688672
0.051596 0.137670 0.986566
0.058840 0.123985 1.000000
0.174395 0.116524 1.000000
0.325142 0.112895 1.000000
0.497771 0.110909 1.000000
0.669383 0.109240 1.000000
0.835718 0.106839 1.000000
0.995797 0.103151 1.000000
1.000000 0.097282 1.000000
0.063703 0.220767 0.956268
0.066974 0.203108 0.983595
0.164347 0.192031 1.000000
0.312193 0.185793 1.000000
0.491884 0.182837 1.000000
0.673112 0.181886 1.000000
0.850415 0.181940 1.000000
1.000000 0.181978 1.000000
1.000000 0.181094 1.000000
0.088811 0.314840 0.929817
0.089249 0.297704 0.957575
0.160185 0.287062 0.986243
0.291429 0.281537 1.000000
0.474912 0.279817 1.000000
0.664819 0.280695 1.000000
0.852687 0.283037 1.000000
1.000000 0.285791 1.000000
1.000000 0.287984 1.000000
0.120426 0.412071 0.904922
0.119293 0.396801 0.932676
0.160925 0.387892 0.961666
0.266271 0.384159 0.990043
0.447086 0.384334 1.000000
0.643785 0.387204 1.000000
0.841664 0.391661 1.000000
1.000000 0.396654 1.000000
1.000000 0.401099 1.000000
0.154446 0.510123 0.879208
0.153036 0.497298 0.906584
0.158734 0.490697 0.935474
0.243957 0.489170 0.964108
0.409876 0.491494 0.990639
0.610057 0.496479 1.000000
0.816783 0.503071 1.000000
1.000000 0.510135 1.000000
1.000000 0.516585 1.000000
0.189862 0.608353 0.849804
0.188552 0.598279 0.876838
0.190002 0.594260 0.905281
0.237401 0.595180 0.933733
0.367641 0.599895 0.960437
0.564410 0.607132 0.983477
0.777777 0.615928 1.000000
0.995301 0.625063 1.000000
1.000000 0.633461 1.000000
0.225676 0.706527 0.814774
0.224825 0.699415 0.840524
0.226544 0.698176 0.868497
0.248294 0.701763 0.896577
0.330031 0.708977 0.923008
0.509506 0.718682 0.946131
0.725135 0.729693 0.964114
0.951422 0.740986 0.975128
1.000000 0.751426 0.977442
0.261729 0.804624 0.771572
0.261595 0.800681 0.795549
0.263950 0.802416 0.822124
0.268237 0.808816 0.849500
0.313713 0.818688 0.875816
0.451909 0.830924 0.898611
0.660666 0.844360 0.916537
0.892547 0.857910 0.927759
1.000000 0.870423 0.930396
0.298112 0.902819 0.717616
0.298820 0.902174 0.739400
0.301966 0.907039 0.764093
0.306947 0.916382 0.789947
0.326982 0.929048 0.815068
0.405133 0.943961 0.837565
0.588937 0.959923 0.855377
0.819983 0.975830 0.866602
1.000000 0.990563 0.869290
