docs/luts/Canon_Standard_AdobeRGB.cube
TITLE "Canon Standard (Adobe RGB)"
# Source: SA.ICC
LUT_3D_SIZE 33
DOMAIN_MIN 0.0 0.0 0.0
DOMAIN_MAX 1.0 1.0 1.0
0.000000 0.001686 0.003515
0.035990 0.001014 0.002747
0.077244 0.000000 0.001894
0.117847 0.000000 0.001659
0.156115 0.000000 0.000000
0.193727 0.000000 0.000000
0.231235 0.000000 0.000000
0.268717 0.000000 0.000000
0.306102 0.000000 0.000000
0.343363 0.000000 0.000000
0.380402 0.000000 0.000000
0.417250 0.000000 0.000000
0.453856 0.000000 0.000000
0.490238 0.000000 0.000000
0.526335 0.000000 0.000000
0.562084 0.000000 0.000000
0.597505 0.000000 0.000000
0.632527 0.000000 0.000000
0.667117 0.000000 0.000000
0.701312 0.000000 0.000000
0.734904 0.000000 0.000000
0.767856 0.000000 0.000000
0.800405 0.000000 0.000000
0.832175 0.000000 0.000000
0.863333 0.000000 0.000000
0.893855 0.000000 0.000000
0.923680 0.000000 0.000000
0.952827 0.000000 0.000000
0.981200 0.000000 0.000000
1.000000 0.000000 0.000000
1.000000 0.000000 0.000000
1.000000 0.000000 0.000000
1.000000 0.000000 0.000000
0.000000 0.032458 0.000000
0.024157 0.031777 0.000000
0.068811 0.030688 0.000000
0.110413 0.029110 0.000000
0.150361 0.027033 0.000000
0.188905 0.025380 0.000000
0.227202 0.023022 0.000000
0.265155 0.020766 0.000000
0.302909 0.018262 0.000000
0.340398 0.015251 0.000000
0.377676 0.012490 0.000000
0.415013 0.000000 0.000000
0.452008 0.000000 0.000000
0.488456 0.000000 0.000000
0.524546 0.000000 0.000000
0.560348 0.000000 0.000000
0.595793 0.000000 0.000000
0.630848 0.000000 0.000000
0.665468 0.000000 0.000000
0.699650 0.000000 0.000000
0.733349 0.000000 0.000000
0.766618 0.000000 0.000000
0.799469 0.000000 0.000000
0.831560 0.000000 0.000000
0.862883 0.000000 0.000000
0.893382 0.000000 0.000000
0.923304 0.000000 0.000000
0.952428 0.000000 0.000000
0.980859 0.000000 0.000000
1.000000 0.000000 0.000000
1.000000 0.000000 0.000000
1.000000 0.000000 0.000000
1.000000 0.000000 0.000000
0.000000 0.062561 0.000000
0.011859 0.061764 0.000000
0.059352 0.060631 0.000000
0.104013 0.059019 0.000000
0.145346 0.057178 0.000000
0.184933 0.054907 0.000000
0.223847 0.052335 0.000000
0.262303 0.049292 0.000000
0.300411 0.045676 0.000000
0.338236 0.041766 0.000000
0.375748 0.037169 0.000000
0.412996 0.032233 0.000000
0.449941 0.027391 0.000000
0.486538 0.022229 0.000000
0.522817 0.017159 0.000000
0.558723 0.012198 0.000000
0.594284 0.004765 0.000000
0.629660 0.000000 0.000000
0.664335 0.000000 0.000000
0.698487 0.000000 0.000000
0.732198 0.000000 0.000000
0.765505 0.000000 0.000000
0.798239 0.000000 0.000000
0.830297 0.000000 0.000000
0.861776 0.000000 0.000000
0.892579 0.000000 0.000000
0.922755 0.000000 0.000000
0.952148 0.000000 0.000000
0.980577 0.000000 0.000000
1.000000 0.000000 0.000000
1.000000 0.000000 0.000000
1.000000 0.000000 0.000000
1.000000 0.000000 0.000000
0.000000 0.093114 0.000000
0.000000 0.092509 0.000000
0.044997 0.091607 0.000000
0.095146 0.090341 0.000000
0.138832 0.088564 0.000000
0.179802 0.086742 0.000000
0.219624 0.084268 0.000000
0.258804 0.081607 0.000000
0.297442 0.078317 0.000000
0.335642 0.074622 0.000000
0.373528 0.070449 0.000000
0.411062 0.065857 0.000000
0.448222 0.060620 0.000000
0.485049 0.054814 0.000000
0.521504 0.048478 0.000000
0.557513 0.041419 0.000000
0.593221 0.033869 0.000000
0.628418 0.026131 0.000000
0.663176 0.018800 0.000000
0.697421 0.011782 0.000000
0.731153 0.005203 0.000000
0.764699 0.000000 0.000000
0.797520 0.000000 0.000000
0.829522 0.000000 0.000000
0.860931 0.000000 0.000000
0.891690 0.000000 0.000000
0.921762 0.000000 0.000000
0.951152 0.000000 0.000000
0.979832 0.000000 0.000000
1.000000 0.000000 0.000000
1.000000 0.000000 0.000000
1.000000 0.000000 0.000000
1.000000 0.000000 0.000000
0.000000 0.123784 0.000000
0.000000 0.123387 0.000000
0.023446 0.122710 0.000000
0.082937 0.121653 0.000000
0.130148 0.120272 0.000000
0.173247 0.118493 0.000000
0.214427 0.116462 0.000000
0.254609 0.113890 0.000000
0.293873 0.110999 0.000000
0.332651 0.107598 0.000000
0.370932 0.103830 0.000000
0.408776 0.099547 0.000000
0.446234 0.094887 0.000000
0.483308 0.089771 0.000000
0.519979 0.083954 0.000000
0.556232 0.077769 0.000000
0.592063 0.070948 0.000000
0.627414 0.063440 0.000000
0.662318 0.055288 0.000000
0.696714 0.046065 0.000000
0.730597 0.036297 0.000000
0.764068 0.025925 0.000000
0.796762 0.016529 0.000000
0.828838 0.007731 0.000000
0.860269 0.000000 0.000000
0.891104 0.000000 0.000000
0.921287 0.000000 0.000000
0.950608 0.000000 0.000000
0.979208 0.000000 0.000000
1.000000 0.000000 0.000000
1.000000 0.000000 0.000000
1.000000 0.000000 0.000000
1.000000 0.000000 0.000000
0.000000 0.154529 0.000000
0.000000 0.154336 0.000000
0.000000 0.153859 0.000000
0.065358 0.152988 0.000000
0.118994 0.151828 0.000000
0.165096 0.150330 0.000000
0.208101 0.148477 0.000000
0.249433 0.146327 0.000000
0.289596 0.143674 0.000000
0.329026 0.140692 0.000000
0.367855 0.137171 0.000000
0.406144 0.133291 0.000000
0.443958 0.129066 0.000000
0.481345 0.124322 0.000000
0.518270 0.119195 0.000000
0.554743 0.113435 0.000000
0.590762 0.107381 0.000000
0.626271 0.100569 0.000000
0.661302 0.093342 0.000000
0.695835 0.085599 0.000000
0.729942 0.077001 0.000000
0.763486 0.067652 0.000000
0.796208 0.057567 0.000000
0.828377 0.046413 0.000000
0.859868 0.034177 0.000000
0.890691 0.022204 0.000000
0.920782 0.011067 0.000000
0.950176 0.000856 0.000000
0.978732 0.000000 0.000000
1.000000 0.000000 0.000000
1.000000 0.000000 0.000000
1.000000 0.000000 0.000000
1.000000 0.000000 0.000000
0.000000 0.185289 0.000000
0.000000 0.185301 0.000000
0.000000 0.184978 0.000000
0.037459 0.184338 0.000000
0.104258 0.183432 0.000000
0.154901 0.182157 0.000000
0.200357 0.180573 0.000000
0.243270 0.178604 0.000000
0.284571 0.176301 0.000000
0.324821 0.173546 0.000000
0.364293 0.170437 0.000000
0.403072 0.167012 0.000000
0.441309 0.163117 0.000000
0.479021 0.158782 0.000000
0.516262 0.154026 0.000000
0.552959 0.148904 0.000000
0.589231 0.143293 0.000000
0.624966 0.137247 0.000000
0.660167 0.130651 0.000000
0.694828 0.123634 0.000000
0.729118 0.115924 0.000000
0.762643 0.107828 0.000000
0.795527 0.099086 0.000000
0.827802 0.089655 0.000000
0.859405 0.079664 0.000000
0.890303 0.068602 0.000000
0.920494 0.056553 0.000000
0.949913 0.042908 0.000000
0.978539 0.028127 0.000000
1.000000 0.014685 0.000000
1.000000 0.002239 0.000000
1.000000 0.000000 0.000000
1.000000 0.000000 0.000000
0.000000 0.215985 0.000000
0.000000 0.216208 0.000000
0.000000 0.216096 0.000000
0.000000 0.215684 0.000000
0.083425 0.214953 0.000000
0.142002 0.213936 0.000000
0.191031 0.212572 0.000000
0.235995 0.210861 0.000000
0.278687 0.208837 0.000000
0.319918 0.206416 0.000000
0.360122 0.203686 0.000000
0.399516 0.200585 0.000000
0.438285 0.197072 0.000000
0.476417 0.193136 0.000000
0.513958 0.188848 0.000000
0.550991 0.184150 0.000000
0.587489 0.179045 0.000000
0.623424 0.173502 0.000000
0.658797 0.167492 0.000000
0.693723 0.161110 0.000000
0.728024 0.154184 0.000000
0.761654 0.146824 0.000000
0.794679 0.138978 0.000000
0.827074 0.130636 0.000000
0.858753 0.121683 0.000000
0.889768 0.112148 0.000000
0.919997 0.101848 0.000000
0.949500 0.090960 0.000000
0.978189 0.079033 0.000000
1.000000 0.066034 0.000000
1.000000 0.051660 0.000000
1.000000 0.035576 0.000000
1.000000 0.018979 0.000000
0.000000 0.246547 0.000000
0.000000 0.246932 0.000000
0.000000 0.247072 0.000000
0.000000 0.246917 0.000000
0.051203 0.246401 0.000000
0.124661 0.245626 0.000000
0.179106 0.244484 0.000000
0.226959 0.243081 0.000000
0.271582 0.241296 0.000000
0.314173 0.239206 0.000000
0.355317 0.236766 0.000000
0.395536 0.234017 0.000000
0.434843 0.230852 0.000000
0.473442 0.227361 0.000000
0.511378 0.223495 0.000000
0.548703 0.219199 0.000000
0.585475 0.214557 0.000000
0.621682 0.209503 0.000000
0.657250 0.204090 0.000000
0.692286 0.198322 0.000000
0.726703 0.192013 0.000000
0.760523 0.185300 0.000000
0.793628 0.178115 0.000000
0.826148 0.170518 0.000000
0.857925 0.162408 0.000000
0.889016 0.153842 0.000000
0.919394 0.144699 0.000000
0.948945 0.135068 0.000000
0.977723 0.124799 0.000000
1.000000 0.113788 0.000000
1.000000 0.102038 0.000000
1.000000 0.089395 0.000000
1.000000 0.075723 0.000000
0.000000 0.277028 0.000000
0.000000 0.277619 0.000000
0.000000 0.277933 0.000000
0.000000 0.277990 0.000000
0.000014 0.277697 0.000000
0.101864 0.277148 0.000000
0.164243 0.276301 0.000000
0.216066 0.275128 0.000000
0.263018 0.273689 0.000000
0.307191 0.271894 0.000000
0.349556 0.269753 0.000000
0.390616 0.267318 0.000000
0.430617 0.264571 0.000000
0.469795 0.261452 0.000000
0.508190 0.257962 0.000000
0.545976 0.254130 0.000000
0.583032 0.249964 0.000000
0.619507 0.245427 0.000000
0.655361 0.240492 0.000000
0.690574 0.235165 0.000000
0.725183 0.229449 0.000000
0.759163 0.223356 0.000000
0.792457 0.216835 0.000000
0.825013 0.209902 0.000000
0.856943 0.202494 0.000000
0.888157 0.194716 0.000000
0.918589 0.186391 0.000000
0.948247 0.177666 0.000000
0.977066 0.168374 0.000000
1.000000 0.158594 0.000000
1.000000 0.148244 0.000000
1.000000 0.137331 0.000000
1.000000 0.125716 0.000000
0.000000 0.307298 0.000000
0.000000 0.308070 0.000000
0.000000 0.308561 0.000000
0.000000 0.308799 0.000000
0.000000 0.308816 0.000000
0.068907 0.308502 0.000000
0.145971 0.307909 0.000000
0.203178 0.307028 0.000000
0.253096 0.305861 0.000000
0.299240 0.304378 0.000000
0.342947 0.302612 0.000000
0.385052 0.300513 0.000000
0.425890 0.298100 0.000000
0.465746 0.295402 0.000000
0.504680 0.292320 0.000000
0.542840 0.288887 0.000000
0.580287 0.285164 0.000000
0.617098 0.281050 0.000000
0.653153 0.276630 0.000000
0.688646 0.271812 0.000000
0.723461 0.266636 0.000000
0.757578 0.261078 0.000000
0.791051 0.255165 0.000000
0.823736 0.248831 0.000000
0.855813 0.242120 0.000000
0.887071 0.234929 0.000000
0.917580 0.227453 0.000000
0.947313 0.219420 0.000000
0.976220 0.211059 0.000000
1.000000 0.202091 0.000000
1.000000 0.192795 0.000000
1.000000 0.182971 0.000000
1.000000 0.172581 0.000000
0.000000 0.337299 0.000000
0.000000 0.338247 0.000000
0.000000 0.338985 0.000000
0.000000 0.339449 0.000000
0.000000 0.339675 0.000000
0.012857 0.339619 0.000000
0.122928 0.339314 0.000000
0.187931 0.338688 0.000000
0.241749 0.337828 0.000000
0.290246 0.336651 0.000000
0.335635 0.335247 0.000000
0.378929 0.333480 0.000000
0.420628 0.331429 0.000000
0.461162 0.329084 0.000000
0.500722 0.326425 0.000000
0.539413 0.323449 0.000000
0.577267 0.320135 0.000000
0.614419 0.316503 0.000000
0.650784 0.312515 0.000000
0.686481 0.308221 0.000000
0.721504 0.303578 0.000000
0.755827 0.298533 0.000000
0.789402 0.293182 0.000000
0.822303 0.287419 0.000000
0.854449 0.281322 0.000000
0.885850 0.274865 0.000000
0.916430 0.267939 0.000000
0.946242 0.260699 0.000000
0.975190 0.252998 0.000000
1.000000 0.244912 0.000000
1.000000 0.236399 0.000000
1.000000 0.227472 0.000000
1.000000 0.218032 0.000000
0.000000 0.367071 0.000000
0.000000 0.368241 0.000000
0.000000 0.369188 0.000000
0.000000 0.369864 0.000000
0.000000 0.370322 0.000000
0.000000 0.370540 0.000000
0.091611 0.370456 0.000000
0.169723 0.370150 0.000000
0.228630 0.369590 0.000000
0.280092 0.368739 0.000000
0.327420 0.367630 0.000000
0.372085 0.366237 0.000000
0.414897 0.364543 0.000000
0.456238 0.362567 0.000000
0.496428 0.360338 0.000000
0.535654 0.357755 0.000000
0.573944 0.354899 0.000000
0.611450 0.351695 0.000000
0.648174 0.348200 0.000000
0.684113 0.344390 0.000000
0.719349 0.340244 0.000000
0.753875 0.335734 0.000000
0.787614 0.330906 0.000000
0.820671 0.325778 0.000000
0.852890 0.320219 0.000000
0.884425 0.314343 0.000000
0.915100 0.308139 0.000000
0.945021 0.301532 0.000000
0.974021 0.294518 0.000000
1.000000 0.287121 0.000000
1.000000 0.279385 0.000000
1.000000 0.271245 0.000000
1.000000 0.262672 0.000000
0.000000 0.396586 0.000000
0.000000 0.397935 0.000000
0.000000 0.399093 0.000000
0.000000 0.400018 0.000000
0.000000 0.400728 0.000000
0.000000 0.401160 0.000000
0.041226 0.401373 0.000000
0.147414 0.401369 0.000000
0.213548 0.401089 0.000000
0.268692 0.400548 0.000000
0.318338 0.399769 0.000000
0.364624 0.398729 0.000000
0.408615 0.397422 0.000000
0.450892 0.395825 0.000000
0.491785 0.393934 0.000000
0.531584 0.391815 0.000000
0.570389 0.389364 0.000000
0.608297 0.386647 0.000000
0.645330 0.383597 0.000000
0.681597 0.380272 0.000000
0.717013 0.376604 0.000000
0.751735 0.372624 0.000000
0.785677 0.368351 0.000000
0.818844 0.363736 0.000000
0.851228 0.358816 0.000000
0.882815 0.353567 0.000000
0.913583 0.347923 0.000000
0.943592 0.342015 0.000000
0.972671 0.335613 0.000000
1.000000 0.328959 0.000000
1.000000 0.321941 0.000000
1.000000 0.314527 0.000000
1.000000 0.306735 0.000000
0.000000 0.425798 0.000000
0.000000 0.427359 0.000000
0.000000 0.428709 0.000000
0.000000 0.429851 0.000000
0.000000 0.430792 0.000000
0.000000 0.431493 0.000000
0.000000 0.432004 0.000000
0.119136 0.432227 0.000000
0.196081 0.432277 0.000000
0.255963 0.432081 0.000000
0.308379 0.431635 0.000000
0.356528 0.430932 0.000000
0.401852 0.429987 0.000000
0.445153 0.428767 0.000000
0.486858 0.427339 0.000000
0.527242 0.425581 0.000000
0.566549 0.423553 0.000000
0.604840 0.421300 0.000000
0.642246 0.418730 0.000000
0.678784 0.415850 0.000000
0.714523 0.412683 0.000000
0.749428 0.409252 0.000000
0.783545 0.405523 0.000000
0.816865 0.401453 0.000000
0.849349 0.397071 0.000000
0.881090 0.392426 0.000000
0.911975 0.387407 0.000000
0.941966 0.382060 0.000000
0.971143 0.376426 0.000000
0.999421 0.370413 0.000000
1.000000 0.364039 0.000000
1.000000 0.357336 0.000000
1.000000 0.350311 0.000000
0.000000 0.454676 0.000000
0.000000 0.456402 0.000000
0.000000 0.458004 0.000000
0.000000 0.459361 0.000000
0.000000 0.460542 0.000000
0.000000 0.461497 0.000000
0.000000 0.462266 0.000000
0.079382 0.462838 0.000000
0.175694 0.463191 0.000000
0.241689 0.463296 0.000000
0.297464 0.463202 0.000000
0.347769 0.462844 0.000000
0.394585 0.462270 0.000000
0.439010 0.461410 0.000000
0.481586 0.460365 0.000000
0.522706 0.459055 0.000000
0.562510 0.457467 0.000000
0.601241 0.455623 0.000000
0.639014 0.453532 0.000000
0.675897 0.451162 0.000000
0.711896 0.448520 0.000000
0.746993 0.445539 0.000000
0.781262 0.442326 0.000000
0.814766 0.438827 0.000000
0.847398 0.435062 0.000000
0.879198 0.430973 0.000000
0.910179 0.426536 0.000000
0.940231 0.421790 0.000000
0.969476 0.416808 0.000000
0.997772 0.411421 0.000000
1.000000 0.405760 0.000000
1.000000 0.399788 0.000000
1.000000 0.393424 0.000000
0.000000 0.483185 0.000000
0.000000 0.485141 0.000000
0.000000 0.486898 0.000000
0.000000 0.488512 0.000000
0.000000 0.489939 0.000000
0.000000 0.491181 0.000000
0.000000 0.492219 0.000000
0.009870 0.493073 0.000000
0.151100 0.493700 0.000000
0.225725 0.494168 0.000000
0.285539 0.494403 0.000000
0.338272 0.494419 0.000000
0.386820 0.494179 0.000000
0.432463 0.493753 0.000000
0.475984 0.493065 0.000000
0.517849 0.492173 0.000000
0.558291 0.491002 0.000000
0.597526 0.489614 0.000000
0.635649 0.487994 0.000000
0.672836 0.486089 0.000000
0.709107 0.483946 0.000000
0.744460 0.481545 0.000000
0.778908 0.478848 0.000000
0.812543 0.475865 0.000000
0.845304 0.472635 0.000000
0.877162 0.469124 0.000000
0.908235 0.465301 0.000000
0.938439 0.461209 0.000000
0.967681 0.456841 0.000000
0.996025 0.452124 0.000000
1.000000 0.447123 0.000000
1.000000 0.441791 0.000000
1.000000 0.436180 0.000000
0.000000 0.511289 0.000000
0.000000 0.513432 0.000000
0.000000 0.515443 0.000000
0.000000 0.517288 0.000000
0.000000 0.518949 0.000000
0.000000 0.520450 0.000000
0.000000 0.521771 0.000000
0.000000 0.522927 0.000000
0.120363 0.523869 0.000000
0.207704 0.524642 0.000000
0.272491 0.525211 0.000000
0.328204 0.525587 0.000000
0.378622 0.525722 0.000000
0.425627 0.525674 0.000000
0.470161 0.525409 0.000000
0.512823 0.524938 0.000000
0.553884 0.524209 0.000000
0.593652 0.523263 0.000000
0.632230 0.522105 0.000000
0.669680 0.520672 0.000000
0.706242 0.519035 0.000000
0.741834 0.517114 0.000000
0.776493 0.514982 0.000000
0.810233 0.512548 0.000000
0.843177 0.509873 0.000000
0.875143 0.506903 0.000000
0.906297 0.503722 0.000000
0.936500 0.500242 0.000000
0.965785 0.496453 0.000000
0.994141 0.492430 0.000000
1.000000 0.488037 0.000000
1.000000 0.483463 0.000000
1.000000 0.478531 0.000000
0.000000 0.538958 0.000000
0.000000 0.541342 0.000000
0.000000 0.543544 0.000000
0.000000 0.545660 0.000000
0.000000 0.547576 0.000000
0.000000 0.549338 0.000000
0.000000 0.550938 0.000000
0.000000 0.552372 0.000000
0.077856 0.553656 0.000000
0.187275 0.554745 0.000000
0.258534 0.555637 0.000000
0.317556 0.556362 0.000000
0.370106 0.556884 0.000000
0.418600 0.557249 0.000000
0.464214 0.557346 0.000000
0.507712 0.557272 0.000000
0.549407 0.557002 0.000000
0.589668 0.556512 0.000000
0.628730 0.555809 0.000000
0.666585 0.554876 0.000000
0.703326 0.553695 0.000000
0.739155 0.552324 0.000000
0.773977 0.550681 0.000000
0.807922 0.548813 0.000000
0.840928 0.546732 0.000000
0.873024 0.544372 0.000000
0.904162 0.541728 0.000000
0.934446 0.538836 0.000000
0.963773 0.535686 0.000000
0.992178 0.532298 0.000000
1.000000 0.528653 0.000000
1.000000 0.524695 0.000000
1.000000 0.520430 0.000000
0.000000 0.566197 0.000000
0.000000 0.568766 0.000000
0.000000 0.571217 0.000000
0.000000 0.573566 0.000000
0.000000 0.575746 0.000000
0.000000 0.577779 0.000000
0.000000 0.579669 0.000000
0.000000 0.581392 0.000000
0.003147 0.582949 0.000000
0.163681 0.584376 0.000000
0.243393 0.585614 0.000000
0.306317 0.586719 0.000000
0.361260 0.587639 0.000000
0.411393 0.588345 0.000000
0.458159 0.588907 0.000000
0.502553 0.589234 0.000000
0.544964 0.589411 0.000000
0.585707 0.589344 0.000000
0.625174 0.589109 0.000000
0.663387 0.588658 0.000000
0.700495 0.587999 0.000000
0.736498 0.587114 0.000000
0.771511 0.585998 0.000000
0.805595 0.584684 0.000000
0.838721 0.583142 0.000000
0.870879 0.581353 0.000000
0.902133 0.579306 0.000000
0.932405 0.577056 0.000000
0.961747 0.574538 0.000000
0.990151 0.571793 0.000000
1.000000 0.568739 0.000000
1.000000 0.565465 0.000000
1.000000 0.561921 0.000000
0.000000 0.592958 0.000000
0.000000 0.595741 0.000000
0.000000 0.598407 0.000000
0.000000 0.600980 0.000000
0.000000 0.603399 0.000000
0.000000 0.605733 0.000000
0.000000 0.607890 0.000000
0.000000 0.609926 0.000000
0.000000 0.611825 0.000000
0.135801 0.613572 0.000000
0.227138 0.615147 0.000000
0.294662 0.616597 0.000000
0.352271 0.617894 0.000000
0.404089 0.619011 0.000000
0.452121 0.619967 0.000000
0.497395 0.620699 0.000000
0.540534 0.621319 0.000000
0.581864 0.621743 0.000000
0.621751 0.621960 0.000000
0.660293 0.621989 0.000000
0.697665 0.621812 0.000000
0.733957 0.621468 0.000000
0.769118 0.620882 0.000000
0.803321 0.620139 0.000000
0.836511 0.619100 0.000000
0.868753 0.617904 0.000000
0.900042 0.616478 0.000000
0.930311 0.614795 0.000000
0.959710 0.612919 0.000000
0.988057 0.610801 0.000000
1.000000 0.608446 0.000000
1.000000 0.605814 0.000000
1.000000 0.602963 0.000000
0.000000 0.619185 0.000000
0.000000 0.622197 0.000000
0.000000 0.625106 0.000000
0.000000 0.627915 0.000000
0.000000 0.630591 0.000000
0.000000 0.633173 0.000000
0.000000 0.635627 0.000000
0.000000 0.637998 0.000000
0.000000 0.640188 0.000000
0.101093 0.642281 0.000000
0.209792 0.644207 0.000000
0.282754 0.645992 0.000000
0.343224 0.647666 0.000000
0.396880 0.649191 0.000000
0.446186 0.650535 0.000000
0.492360 0.651713 0.000000
0.536203 0.652768 0.000000
0.578154 0.653634 0.000000
0.618458 0.654302 0.000000
0.657366 0.654838 0.000000
0.694978 0.655167 0.000000
0.731468 0.655324 0.000000
0.766845 0.655304 0.000000
0.801099 0.655054 0.000000
0.834417 0.654623 0.000000
0.866718 0.653997 0.000000
0.898017 0.653167 0.000000
0.928335 0.652114 0.000000
0.957686 0.650844 0.000000
0.986009 0.649372 0.000000
1.000000 0.647656 0.000000
1.000000 0.645694 0.000000
1.000000 0.643529 0.000000
0.000000 0.644879 0.000000
0.000000 0.648087 0.000000
0.000000 0.651266 0.000000
0.000000 0.654283 0.000000
0.000000 0.657251 0.000000
0.000000 0.660089 0.000000
0.000000 0.662836 0.000000
0.000000 0.665502 0.000000
0.000000 0.668032 0.000000
0.050876 0.670420 0.000000
0.191159 0.672720 0.000000
0.270599 0.674913 0.000000
0.334166 0.676928 0.000000
0.389787 0.678817 0.000000
0.440471 0.680625 0.000000
0.487655 0.682241 0.000000
0.532182 0.683700 0.000000
0.574625 0.685026 0.000000
0.615381 0.686202 0.000000
0.654618 0.687174 0.000000
0.692501 0.688020 0.000000
0.729175 0.688704 0.000000
0.764711 0.689200 0.000000
0.799118 0.689495 0.000000
0.832443 0.689622 0.000000
0.864804 0.689585 0.000000
0.896099 0.689325 0.000000
0.926433 0.688887 0.000000
0.955674 0.688268 0.000000
0.984007 0.687418 0.000000
1.000000 0.686358 0.000000
1.000000 0.685110 0.000000
1.000000 0.683610 0.000000
0.000000 0.670032 0.000000
0.000000 0.673456 0.000000
0.000000 0.676803 0.000000
0.000000 0.680125 0.000000
0.000000 0.683343 0.000000
0.000000 0.686449 0.000000
0.000000 0.689518 0.000000
0.000000 0.692431 0.000000
0.000000 0.695278 0.000000
0.000000 0.698058 0.000000
0.171485 0.700707 0.000000
0.258549 0.703223 0.000000
0.325553 0.705642 0.000000
0.383125 0.707938 0.000000
0.435119 0.710108 0.000000
0.483206 0.712195 0.000000
0.528452 0.714104 0.000000
0.571509 0.715872 0.000000
0.612669 0.717512 0.000000
0.652147 0.719011 0.000000
0.690291 0.720341 0.000000
0.727159 0.721530 0.000000
0.762812 0.722561 0.000000
0.797295 0.723407 0.000000
0.830719 0.724127 0.000000
0.863037 0.724626 0.000000
0.894425 0.724994 0.000000
0.924602 0.725145 0.000000
0.953865 0.725140 0.000000
0.982078 0.724947 0.000000
1.000000 0.724544 0.000000
1.000000 0.723951 0.000000
1.000000 0.723167 0.000000
0.000000 0.694531 0.000000
0.000000 0.698211 0.000000
0.000000 0.701795 0.000000
0.000000 0.705340 0.000000
0.000000 0.708801 0.000000
0.000000 0.712229 0.000000
0.000000 0.715582 0.000000
0.000000 0.718851 0.000000
0.000000 0.722024 0.000000
0.000000 0.725095 0.000000
0.150687 0.728099 0.000000
0.246802 0.731005 0.000000
0.317363 0.733824 0.000000
0.376996 0.736505 0.000000
0.430306 0.739073 0.000000
0.479350 0.741561 0.000000
0.525232 0.743928 0.000000
0.568769 0.746179 0.000000
0.610283 0.748288 0.000000
0.650105 0.750257 0.000000
0.688439 0.752098 0.000000
0.725450 0.753796 0.000000
0.761195 0.755354 0.000000
0.795745 0.756785 0.000000
0.829221 0.758056 0.000000
0.861576 0.759159 0.000000
0.892878 0.760113 0.000000
0.923080 0.760879 0.000000
0.952225 0.761503 0.000000
0.980334 0.761935 0.000000
1.000000 0.762221 0.000000
1.000000 0.762292 0.000000
1.000000 0.762195 0.000000
0.000000 0.718465 0.000000
0.000000 0.722334 0.000000
0.000000 0.726138 0.000000
0.000000 0.729972 0.000000
0.000000 0.733693 0.000000
0.000000 0.737382 0.000000
0.000000 0.741008 0.000000
0.000000 0.744585 0.000000
0.000000 0.748087 0.000000
0.000000 0.751521 0.000000
0.128733 0.754861 0.000000
0.235862 0.758152 0.000000
0.310020 0.761327 0.000000
0.371671 0.764440 0.000000
0.426145 0.767465 0.000000
0.476061 0.770326 0.000000
0.522626 0.773160 0.000000
0.566612 0.775855 0.000000
0.608450 0.778451 0.000000
0.648537 0.780944 0.000000
0.687092 0.783282 0.000000
0.724181 0.785475 0.000000
0.759976 0.787584 0.000000
0.794615 0.789582 0.000000
0.828064 0.791418 0.000000
0.860372 0.793097 0.000000
0.891631 0.794654 0.000000
0.921772 0.796056 0.000000
0.950831 0.797281 0.000000
0.978862 0.798361 0.000000
1.000000 0.799320 0.000000
1.000000 0.800020 0.000000
1.000000 0.800610 0.000000
0.000000 0.741683 0.000000
0.000000 0.745816 0.000000
0.000000 0.749876 0.000000
0.000000 0.753909 0.000000
0.000000 0.757930 0.000000
0.000000 0.761917 0.000000
0.000000 0.765829 0.000000
0.000000 0.769720 0.000000
0.000000 0.773517 0.000000
0.000000 0.777327 0.000000
0.106480 0.781035 0.000000
0.225954 0.784677 0.000000
0.303841 0.788264 0.000000
0.367261 0.791759 0.000000
0.422988 0.795189 0.000000
0.473684 0.798512 0.000000
0.520809 0.801771 0.000000
0.565145 0.804944 0.000000
0.607308 0.808024 0.000000
0.647580 0.810951 0.000000
0.686252 0.813826 0.000000
0.723419 0.816573 0.000000
0.759314 0.819236 0.000000
0.793915 0.821766 0.000000
0.827310 0.824145 0.000000
0.859621 0.826444 0.000000
