docs/luts/Canon_FineDetail_AdobeRGB.cube
TITLE "Canon Fine Detail (Adobe RGB)"
# Source: FDA.ICC
LUT_3D_SIZE 5
DOMAIN_MIN 0.0 0.0 0.0
DOMAIN_MAX 1.0 1.0 1.0
0.000000 0.001686 0.003515
0.306645 0.000429 0.000000
0.599364 0.000000 0.000000
0.871586 0.000000 0.000000
1.000000 0.000000 0.000000
0.000000 0.246660 0.000000
0.266411 0.241475 0.000000
0.590166 0.227249 0.000000
0.876641 0.200796 0.000000
1.000000 0.158275 0.000000
0.000000 0.483250 0.000000
0.052470 0.487673 0.000000
0.549844 0.491175 0.000000
0.866779 0.491316 0.000000
1.000000 0.485846 0.000000
0.000000 0.694623 0.000000
0.000000 0.709781 0.000000
0.466936 0.731706 0.000000
0.838664 0.758104 0.000000
1.000000 0.786839 0.000000
0.000000 0.865801 0.000000
0.000000 0.892788 0.000000
0.331567 0.934175 0.000000
0.800775 0.987711 0.000000
1.000000 0.988083 0.000000
0.017797 0.011834 0.285431
0.312430 0.005733 0.247952
0.603274 0.000000 0.210460
0.880194 0.000000 0.173364
1.000000 0.000000 0.138154
0.000000 0.244213 0.242952
0.267408 0.247946 0.213904
0.588991 0.238181 0.184623
0.880111 0.211681 0.156255
1.000000 0.164425 0.131614
0.000000 0.470357 0.167846
0.059121 0.484587 0.148836
0.545073 0.493278 0.127266
0.866114 0.494010 0.105627
1.000000 0.484430 0.091486
0.000000 0.669424 0.000000
0.000000 0.695119 0.000000
0.462100 0.722954 0.000000
0.836130 0.750647 0.000000
1.000000 0.776049 0.000000
0.000000 0.826051 0.000000
0.000000 0.864257 0.000000
0.335876 0.912268 0.000000
0.799543 0.967785 0.000000
1.000000 0.988144 0.000000
0.078274 0.032897 0.573838
0.332846 0.032638 0.531724
0.615297 0.015665 0.489258
0.891476 0.000348 0.448380
1.000000 0.000000 0.411607
0.000000 0.238954 0.517415
0.278665 0.253411 0.487740
0.589281 0.250139 0.457407
0.879404 0.226011 0.428791
1.000000 0.177051 0.404569
0.000000 0.453232 0.459494
0.078664 0.479413 0.446585
0.534373 0.495518 0.432487
0.853944 0.499105 0.419983
1.000000 0.487765 0.412372
0.000000 0.639744 0.377426
0.000000 0.678213 0.386525
0.440011 0.714266 0.393536
0.813243 0.745540 0.401647
1.000000 0.769803 0.414767
0.000000 0.781758 0.239307
0.000000 0.833519 0.280620
0.297081 0.890467 0.316905
0.766840 0.950302 0.352763
1.000000 0.988700 0.397747
0.162320 0.063540 0.835964
0.394421 0.065405 0.788746
0.662796 0.045231 0.738935
0.932911 0.023113 0.688783
1.000000 0.000000 0.640843
0.006013 0.231328 0.753280
0.329195 0.257879 0.721729
0.619190 0.262911 0.687202
0.902253 0.243143 0.652309
1.000000 0.194848 0.619655
0.000000 0.432340 0.687382
0.170263 0.472486 0.676027
0.549299 0.498097 0.661288
0.859210 0.506706 0.645899
1.000000 0.495882 0.632917
0.000000 0.606115 0.618420
0.000000 0.659534 0.632303
0.441085 0.705955 0.642181
0.801520 0.743052 0.651006
1.000000 0.768506 0.661941
0.000000 0.733635 0.527148
0.000000 0.801178 0.572165
0.279728 0.869296 0.612294
0.738001 0.935702 0.650603
1.000000 0.989689 0.691276
0.288095 0.070625 0.897813
0.515606 0.078176 0.897563
0.770057 0.072356 0.896923
1.000000 0.045206 0.875464
1.000000 0.022163 0.815583
0.196948 0.219081 0.897143
0.438740 0.260032 0.893333
0.704618 0.275046 0.854044
0.975318 0.261430 0.811829
1.000000 0.216463 0.769822
0.000000 0.407378 0.841303
0.307472 0.463411 0.830930
0.617567 0.500603 0.814548
0.909693 0.516363 0.795010
1.000000 0.508371 0.775400
0.000000 0.568497 0.769404
0.000000 0.638975 0.787340
0.499434 0.697947 0.798794
0.831112 0.743022 0.806639
1.000000 0.771921 0.814006
0.000000 0.681832 0.693131
0.000000 0.767300 0.744907
0.340882 0.848759 0.789558
0.746888 0.923918 0.830013
1.000000 0.990523 0.869337
