docs/luts/Canon_Faithful_sRGB.cube
TITLE "Canon Faithful (sRGB)"
# Source: FS.ICC
LUT_3D_SIZE 5
DOMAIN_MIN 0.0 0.0 0.0
DOMAIN_MAX 1.0 1.0 1.0
0.000000 0.001686 0.003515
0.298725 0.000000 0.000000
0.546297 0.000000 0.000000
0.745510 0.000000 0.000000
0.900910 0.000000 0.000000
0.021227 0.251794 0.000000
0.297501 0.229821 0.000000
0.571804 0.216174 0.000000
0.808832 0.201873 0.000000
1.000000 0.178134 0.000000
0.096300 0.502303 0.000000
0.276403 0.481367 0.000000
0.560823 0.467670 0.000000
0.833007 0.452521 0.000000
1.000000 0.427217 0.000000
0.219553 0.752690 0.000000
0.271715 0.733966 0.000000
0.515152 0.721051 0.000000
0.813006 0.705293 0.000000
1.000000 0.678111 0.000000
0.326399 1.000000 0.000000
0.329015 0.989163 0.000000
0.456236 0.978092 0.000000
0.748675 0.962728 0.000000
1.000000 0.934500 0.000000
0.000000 0.028827 0.241695
0.268159 0.006355 0.248301
0.542251 0.000000 0.254469
0.772164 0.000000 0.245603
0.961853 0.000000 0.205698
0.000000 0.266135 0.206087
0.267358 0.247892 0.213836
0.567734 0.241247 0.222979
0.836255 0.237271 0.218712
1.000000 0.227390 0.183963
0.100999 0.507913 0.159585
0.248786 0.493084 0.166092
0.553599 0.488765 0.175621
0.857639 0.486207 0.171878
1.000000 0.476799 0.134645
0.218604 0.749297 0.047891
0.257649 0.739010 0.050474
0.502587 0.737934 0.060368
0.831235 0.737171 0.042369
1.000000 0.728270 0.000000
0.321312 0.991588 0.000000
0.319379 0.986984 0.000000
0.441002 0.990085 0.000000
0.757528 0.992168 0.000000
1.000000 0.984693 0.000000
0.000000 0.058211 0.473991
0.240824 0.042161 0.493212
0.543110 0.035363 0.510668
0.807126 0.027512 0.511655
1.000000 0.012315 0.481287
0.000000 0.277249 0.432747
0.232675 0.259108 0.453680
0.559989 0.255676 0.475184
0.863550 0.257828 0.482426
1.000000 0.257004 0.460465
0.107803 0.506983 0.390213
0.214146 0.494379 0.409917
0.534373 0.495524 0.432415
0.873669 0.501550 0.442546
1.000000 0.503742 0.425114
0.215535 0.736400 0.324247
0.239790 0.730675 0.339390
0.471076 0.737386 0.359982
0.832426 0.747701 0.369613
1.000000 0.752951 0.352134
0.311819 0.966242 0.199859
0.312850 0.968508 0.206470
0.406740 0.981889 0.222940
0.741614 0.997330 0.227985
1.000000 0.998874 0.190749
0.000000 0.093159 0.715480
0.206458 0.076044 0.750722
0.532726 0.070841 0.782218
0.833541 0.065144 0.795101
1.000000 0.052668 0.774710
0.006643 0.291402 0.666330
0.187781 0.269959 0.703919
0.533145 0.266123 0.740198
0.874204 0.270488 0.760299
1.000000 0.274511 0.749473
0.123892 0.505628 0.620384
0.182079 0.491378 0.657089
0.489161 0.494181 0.694931
0.864995 0.504826 0.718883
1.000000 0.514718 0.714120
0.215785 0.720100 0.557584
0.215134 0.714973 0.590059
0.411381 0.725613 0.626333
0.801439 0.743043 0.650873
1.000000 0.758532 0.648519
0.302315 0.934608 0.455732
0.304984 0.939821 0.480503
0.358973 0.959455 0.511978
0.688040 0.984673 0.533938
1.000000 0.995420 0.520959
0.051596 0.137670 0.986566
0.174395 0.116524 1.000000
0.497771 0.110909 1.000000
0.835718 0.106839 1.000000
1.000000 0.097282 1.000000
0.088811 0.314840 0.929817
0.160185 0.287062 0.986243
0.474912 0.279817 1.000000
0.852687 0.283037 1.000000
1.000000 0.287984 1.000000
0.154446 0.510123 0.879208
0.158734 0.490697 0.935474
0.409876 0.491494 0.990639
0.816783 0.503071 1.000000
1.000000 0.516585 1.000000
0.225676 0.706527 0.814774
0.226544 0.698176 0.868497
0.330031 0.708977 0.923008
0.725135 0.729693 0.964114
1.000000 0.751426 0.977442
0.298112 0.902819 0.717616
0.301966 0.907039 0.764093
0.326982 0.929048 0.815068
0.588937 0.959923 0.855377
1.000000 0.990563 0.869290
