docs/luts/Canon_Faithful_sRGB.cube
TITLE "Canon Faithful (sRGB)"
# Source: FS.ICC
LUT_3D_SIZE 33
DOMAIN_MIN 0.0 0.0 0.0
DOMAIN_MAX 1.0 1.0 1.0
0.000000 0.001686 0.003515
0.033495 0.000000 0.003881
0.076019 0.000000 0.003433
0.116484 0.000000 0.002105
0.155358 0.000000 0.000870
0.192505 0.000000 0.000177
0.228779 0.000000 0.000000
0.264205 0.000000 0.000000
0.298725 0.000000 0.000000
0.332483 0.000000 0.000000
0.365424 0.000000 0.000000
0.397489 0.000000 0.000000
0.428837 0.000000 0.000000
0.459353 0.000000 0.000000
0.489080 0.000000 0.000000
0.518072 0.000000 0.000000
0.546297 0.000000 0.000000
0.573731 0.000000 0.000000
0.600435 0.000000 0.000000
0.626431 0.000000 0.000000
0.651650 0.000000 0.000000
0.676183 0.000000 0.000000
0.699972 0.000000 0.000000
0.723104 0.000000 0.000000
0.745510 0.000000 0.000000
0.767249 0.000000 0.000000
0.788305 0.000000 0.000000
0.808711 0.000000 0.000000
0.828439 0.000000 0.000000
0.847517 0.000000 0.000000
0.865937 0.000000 0.000000
0.883753 0.000000 0.000000
0.900910 0.000000 0.000000
0.000000 0.033158 0.000000
0.033001 0.030150 0.000000
0.075601 0.027047 0.000000
0.116097 0.024452 0.000000
0.155269 0.022165 0.000000
0.192963 0.020211 0.000000
0.229675 0.018724 0.000000
0.265445 0.017040 0.000000
0.300384 0.015727 0.000000
0.334495 0.014486 0.000000
0.367862 0.013396 0.000000
0.400379 0.012266 0.000000
0.432119 0.008392 0.000000
0.463008 0.000359 0.000000
0.493265 0.000000 0.000000
0.522739 0.000000 0.000000
0.551489 0.000000 0.000000
0.579465 0.000000 0.000000
0.606693 0.000000 0.000000
0.633222 0.000000 0.000000
0.659063 0.000000 0.000000
0.684139 0.000000 0.000000
0.708599 0.000000 0.000000
0.732347 0.000000 0.000000
0.755399 0.000000 0.000000
0.777805 0.000000 0.000000
0.799534 0.000000 0.000000
0.820647 0.000000 0.000000
0.841090 0.000000 0.000000
0.860877 0.000000 0.000000
0.880056 0.000000 0.000000
0.898612 0.000000 0.000000
0.916518 0.000000 0.000000
0.000000 0.063876 0.000000
0.034977 0.060034 0.000000
0.076234 0.056785 0.000000
0.116226 0.053451 0.000000
0.155121 0.050477 0.000000
0.192982 0.047912 0.000000
0.229900 0.045555 0.000000
0.265930 0.043123 0.000000
0.301192 0.041072 0.000000
0.335724 0.039080 0.000000
0.369418 0.037018 0.000000
0.402420 0.035088 0.000000
0.434647 0.033287 0.000000
0.466091 0.031577 0.000000
0.496830 0.029863 0.000000
0.526754 0.028211 0.000000
0.556037 0.026381 0.000000
0.584548 0.024560 0.000000
0.612396 0.023048 0.000000
0.639485 0.021156 0.000000
0.665935 0.019087 0.000000
0.691639 0.017337 0.000000
0.716689 0.015347 0.000000
0.741100 0.013455 0.000000
0.764777 0.011128 0.000000
0.787858 0.009165 0.000000
0.810291 0.006940 0.000000
0.832029 0.004507 0.000000
0.853179 0.002211 0.000000
0.873730 0.000000 0.000000
0.893617 0.000000 0.000000
0.912929 0.000000 0.000000
0.931633 0.000000 0.000000
0.000000 0.094867 0.000000
0.038709 0.091308 0.000000
0.077590 0.087929 0.000000
0.116676 0.084733 0.000000
0.155138 0.081852 0.000000
0.192719 0.079266 0.000000
0.229714 0.076968 0.000000
0.266016 0.074685 0.000000
0.301576 0.072548 0.000000
0.336476 0.070466 0.000000
0.370587 0.068533 0.000000
0.403970 0.066780 0.000000
0.436623 0.064924 0.000000
0.468579 0.063020 0.000000
0.499749 0.061260 0.000000
0.530254 0.059627 0.000000
0.559984 0.057661 0.000000
0.589091 0.055874 0.000000
0.617475 0.054057 0.000000
0.645130 0.051897 0.000000
0.672148 0.049986 0.000000
0.698485 0.047530 0.000000
0.724173 0.045230 0.000000
0.749165 0.042749 0.000000
0.773574 0.039999 0.000000
0.797242 0.036846 0.000000
0.820353 0.033761 0.000000
0.842837 0.030630 0.000000
0.864677 0.027316 0.000000
0.885926 0.023814 0.000000
0.906588 0.020226 0.000000
0.926616 0.016228 0.000000
0.946123 0.012435 0.000000
0.000000 0.126214 0.000000
0.042870 0.122631 0.000000
0.079010 0.119264 0.000000
0.116630 0.116132 0.000000
0.154515 0.113342 0.000000
0.192025 0.110808 0.000000
0.229174 0.108386 0.000000
0.265716 0.106063 0.000000
0.301553 0.104013 0.000000
0.336757 0.101989 0.000000
0.371252 0.100109 0.000000
0.405038 0.098258 0.000000
0.438140 0.096538 0.000000
0.470501 0.094826 0.000000
0.502189 0.093198 0.000000
0.533156 0.091582 0.000000
0.563476 0.089797 0.000000
0.593087 0.088198 0.000000
0.621981 0.086498 0.000000
0.650261 0.084505 0.000000
0.677827 0.082694 0.000000
0.704784 0.080778 0.000000
0.731060 0.078636 0.000000
0.756716 0.076395 0.000000
0.781703 0.074036 0.000000
0.806134 0.071538 0.000000
0.829877 0.068700 0.000000
0.853077 0.065726 0.000000
0.875642 0.062469 0.000000
0.897593 0.058887 0.000000
0.918968 0.054887 0.000000
0.939792 0.050559 0.000000
0.960039 0.045814 0.000000
0.000256 0.157545 0.000000
0.047349 0.153984 0.000000
0.080162 0.150725 0.000000
0.116483 0.147708 0.000000
0.153827 0.144813 0.000000
0.191192 0.142282 0.000000
0.228388 0.139888 0.000000
0.265000 0.137570 0.000000
0.301131 0.135492 0.000000
0.336621 0.133485 0.000000
0.371441 0.131646 0.000000
0.405598 0.129821 0.000000
0.439126 0.128105 0.000000
0.471957 0.126455 0.000000
0.504092 0.124801 0.000000
0.535558 0.123248 0.000000
0.566350 0.121555 0.000000
0.596504 0.120010 0.000000
0.625981 0.118269 0.000000
0.654806 0.116562 0.000000
0.682967 0.114735 0.000000
0.710535 0.112933 0.000000
0.737425 0.110979 0.000000
0.763711 0.108916 0.000000
0.789365 0.106652 0.000000
0.814418 0.104366 0.000000
0.838891 0.101823 0.000000
0.862741 0.099017 0.000000
0.886021 0.096060 0.000000
0.908696 0.092728 0.000000
0.930857 0.089203 0.000000
0.952432 0.085252 0.000000
0.973417 0.081116 0.000000
0.006479 0.188988 0.000000
0.052233 0.185477 0.000000
0.081862 0.182161 0.000000
0.116600 0.179162 0.000000
0.153167 0.176362 0.000000
0.190212 0.173735 0.000000
0.227215 0.171264 0.000000
0.264036 0.169046 0.000000
0.300307 0.166962 0.000000
0.336044 0.164982 0.000000
0.371180 0.163084 0.000000
0.405734 0.161335 0.000000
0.439622 0.159649 0.000000
0.472872 0.157965 0.000000
0.505463 0.156338 0.000000
0.537432 0.154793 0.000000
0.568732 0.153217 0.000000
0.599393 0.151561 0.000000
0.629418 0.149940 0.000000
0.658800 0.148285 0.000000
0.687555 0.146578 0.000000
0.715699 0.144745 0.000000
0.743187 0.142852 0.000000
0.770130 0.140831 0.000000
0.796459 0.138738 0.000000
0.822167 0.136392 0.000000
0.847259 0.133925 0.000000
0.871843 0.131310 0.000000
0.895816 0.128397 0.000000
0.919274 0.125341 0.000000
0.942160 0.121932 0.000000
0.964464 0.118164 0.000000
0.986281 0.114306 0.000000
0.013359 0.220439 0.000000
0.058306 0.216905 0.000000
0.084399 0.213644 0.000000
0.117004 0.210563 0.000000
0.152487 0.207773 0.000000
0.189067 0.205150 0.000000
0.225956 0.202765 0.000000
0.262644 0.200523 0.000000
0.299075 0.198399 0.000000
0.335026 0.196407 0.000000
0.370444 0.194545 0.000000
0.405331 0.192728 0.000000
0.439607 0.191086 0.000000
0.473266 0.189416 0.000000
0.506279 0.187793 0.000000
0.538735 0.186263 0.000000
0.570525 0.184721 0.000000
0.601711 0.183080 0.000000
0.632268 0.181535 0.000000
0.662219 0.179839 0.000000
0.691546 0.178136 0.000000
0.720258 0.176345 0.000000
0.748413 0.174486 0.000000
0.775935 0.172529 0.000000
0.802920 0.170338 0.000000
0.829325 0.168116 0.000000
0.855128 0.165658 0.000000
0.880361 0.163009 0.000000
0.905069 0.160212 0.000000
0.929226 0.157131 0.000000
0.952838 0.153886 0.000000
0.975913 0.150378 0.000000
0.998523 0.146476 0.000000
0.021227 0.251794 0.000000
0.065534 0.248298 0.000000
0.087919 0.245029 0.000000
0.118008 0.242005 0.000000
0.152144 0.239242 0.000000
0.187929 0.236597 0.000000
0.224407 0.234206 0.000000
0.261039 0.231923 0.000000
0.297501 0.229821 0.000000
0.333578 0.227832 0.000000
0.369300 0.225992 0.000000
0.404452 0.224237 0.000000
0.439114 0.222511 0.000000
0.473098 0.220857 0.000000
0.506602 0.219289 0.000000
0.539496 0.217733 0.000000
0.571804 0.216174 0.000000
0.603452 0.214565 0.000000
0.634543 0.212922 0.000000
0.665090 0.211345 0.000000
0.694955 0.209594 0.000000
0.724284 0.207845 0.000000
0.753012 0.205953 0.000000
0.781196 0.203925 0.000000
0.808832 0.201873 0.000000
0.835875 0.199605 0.000000
0.862369 0.197227 0.000000
0.888315 0.194591 0.000000
0.913706 0.191784 0.000000
0.938605 0.188750 0.000000
0.962984 0.185490 0.000000
0.986831 0.181961 0.000000
1.000000 0.178134 0.000000
0.029763 0.283193 0.000000
0.066515 0.279674 0.000000
0.092212 0.276436 0.000000
0.119646 0.273453 0.000000
0.151949 0.270664 0.000000
0.186822 0.268027 0.000000
0.222789 0.265638 0.000000
0.259190 0.263389 0.000000
0.295607 0.261258 0.000000
0.331785 0.259253 0.000000
0.367656 0.257381 0.000000
0.403115 0.255665 0.000000
0.438032 0.253939 0.000000
0.472502 0.252326 0.000000
0.506383 0.250741 0.000000
0.539698 0.249142 0.000000
0.572470 0.247549 0.000000
0.604616 0.245966 0.000000
0.636254 0.244416 0.000000
0.667296 0.242736 0.000000
0.697754 0.241000 0.000000
0.727676 0.239240 0.000000
0.757027 0.237379 0.000000
0.785811 0.235388 0.000000
0.814090 0.233233 0.000000
0.841799 0.231003 0.000000
0.868956 0.228570 0.000000
0.895627 0.225951 0.000000
0.921727 0.223107 0.000000
0.947379 0.220161 0.000000
0.972470 0.216884 0.000000
0.997068 0.213315 0.000000
1.000000 0.209572 0.000000
0.038917 0.314482 0.000000
0.068444 0.311059 0.000000
0.097691 0.307808 0.000000
0.121918 0.304800 0.000000
0.152178 0.302005 0.000000
0.185806 0.299425 0.000000
0.221061 0.297021 0.000000
0.257102 0.294826 0.000000
0.293386 0.292673 0.000000
0.329613 0.290717 0.000000
0.365623 0.288823 0.000000
0.401273 0.287061 0.000000
0.436512 0.285365 0.000000
0.471297 0.283716 0.000000
0.505595 0.282115 0.000000
0.539361 0.280545 0.000000
0.572564 0.279018 0.000000
0.605197 0.277395 0.000000
0.637349 0.275798 0.000000
0.668938 0.274109 0.000000
0.699947 0.272401 0.000000
0.730471 0.270641 0.000000
0.760441 0.268719 0.000000
0.789867 0.266719 0.000000
0.818724 0.264577 0.000000
0.847124 0.262330 0.000000
0.874964 0.259885 0.000000
0.902321 0.257265 0.000000
0.929156 0.254405 0.000000
0.955507 0.251370 0.000000
0.981338 0.248079 0.000000
1.000000 0.244602 0.000000
1.000000 0.240762 0.000000
0.047986 0.345843 0.000000
0.078429 0.342366 0.000000
0.104071 0.339152 0.000000
0.125062 0.336185 0.000000
0.153003 0.333436 0.000000
0.185032 0.330842 0.000000
0.219332 0.328454 0.000000
0.254900 0.326246 0.000000
0.290879 0.324106 0.000000
0.327102 0.322151 0.000000
0.363171 0.320271 0.000000
0.398979 0.318496 0.000000
0.434462 0.316798 0.000000
0.469576 0.315171 0.000000
0.504222 0.313548 0.000000
0.538384 0.311990 0.000000
0.572050 0.310389 0.000000
0.605191 0.308797 0.000000
0.637837 0.307171 0.000000
0.669956 0.305526 0.000000
0.701559 0.303764 0.000000
0.732620 0.301955 0.000000
0.763194 0.300058 0.000000
0.793230 0.298021 0.000000
0.822794 0.295898 0.000000
0.851808 0.293607 0.000000
0.880337 0.291150 0.000000
0.908393 0.288467 0.000000
0.935928 0.285644 0.000000
0.963015 0.282574 0.000000
0.989601 0.279297 0.000000
1.000000 0.275734 0.000000
1.000000 0.271887 0.000000
0.055569 0.377164 0.000000
0.087789 0.373710 0.000000
0.111425 0.370528 0.000000
0.129077 0.367588 0.000000
0.154341 0.364820 0.000000
0.184549 0.362242 0.000000
0.217707 0.359870 0.000000
0.252512 0.357695 0.000000
0.288146 0.355571 0.000000
0.324223 0.353601 0.000000
0.360310 0.351726 0.000000
0.396246 0.349934 0.000000
0.431994 0.348258 0.000000
0.467333 0.346611 0.000000
0.502310 0.345011 0.000000
0.536841 0.343406 0.000000
0.570972 0.341827 0.000000
0.604585 0.340229 0.000000
0.637727 0.338578 0.000000
0.670343 0.336873 0.000000
0.702513 0.335139 0.000000
0.734155 0.333319 0.000000
0.765334 0.331400 0.000000
0.796001 0.329360 0.000000
0.826139 0.327173 0.000000
0.855819 0.324850 0.000000
0.885025 0.322388 0.000000
0.913787 0.319714 0.000000
0.942041 0.316812 0.000000
0.969838 0.313728 0.000000
0.997193 0.310387 0.000000
1.000000 0.306839 0.000000
1.000000 0.302956 0.000000
0.062059 0.408456 0.000000
0.096482 0.405057 0.000000
0.119846 0.401879 0.000000
0.133959 0.398900 0.000000
0.156358 0.396205 0.000000
0.184487 0.393654 0.000000
0.216213 0.391306 0.000000
0.250157 0.389088 0.000000
0.285305 0.386996 0.000000
0.321031 0.385035 0.000000
0.357090 0.383170 0.000000
0.393117 0.381400 0.000000
0.428967 0.379692 0.000000
0.464607 0.378042 0.000000
0.499850 0.376438 0.000000
0.534771 0.374849 0.000000
0.569289 0.373247 0.000000
0.603368 0.371618 0.000000
0.636956 0.369962 0.000000
0.670133 0.368264 0.000000
0.702837 0.366538 0.000000
0.735052 0.364680 0.000000
0.766798 0.362741 0.000000
0.798087 0.360680 0.000000
0.828881 0.358468 0.000000
0.859231 0.356133 0.000000
0.889108 0.353655 0.000000
0.918546 0.350931 0.000000
0.947466 0.348000 0.000000
0.976020 0.344879 0.000000
1.000000 0.341536 0.000000
1.000000 0.337911 0.000000
1.000000 0.334011 0.000000
0.067450 0.439743 0.000000
0.104596 0.436341 0.000000
0.122176 0.433221 0.000000
0.140036 0.430271 0.000000
0.159287 0.427590 0.000000
0.184978 0.425059 0.000000
0.215093 0.422732 0.000000
0.247858 0.420539 0.000000
0.282319 0.418448 0.000000
0.317694 0.416500 0.000000
0.353504 0.414606 0.000000
0.389566 0.412858 0.000000
0.425509 0.411149 0.000000
0.461335 0.409490 0.000000
0.496924 0.407877 0.000000
0.532132 0.406287 0.000000
0.567032 0.404703 0.000000
0.601531 0.403082 0.000000
0.635638 0.401430 0.000000
0.669303 0.399700 0.000000
0.702508 0.397922 0.000000
0.735312 0.396056 0.000000
0.767629 0.394110 0.000000
0.799507 0.392027 0.000000
0.830944 0.389802 0.000000
0.861928 0.387429 0.000000
0.892456 0.384897 0.000000
0.922603 0.382143 0.000000
0.952256 0.379200 0.000000
0.981490 0.376027 0.000000
1.000000 0.372683 0.000000
1.000000 0.369018 0.000000
1.000000 0.365062 0.000000
0.076699 0.471049 0.000000
0.112068 0.467664 0.000000
0.129570 0.464556 0.000000
0.147061 0.461646 0.000000
0.163157 0.458965 0.000000
0.186209 0.456446 0.000000
0.214336 0.454160 0.000000
0.245761 0.451947 0.000000
0.279340 0.449909 0.000000
0.314157 0.447968 0.000000
0.349708 0.446096 0.000000
0.385617 0.444324 0.000000
0.421631 0.442621 0.000000
0.457617 0.440992 0.000000
0.493413 0.439364 0.000000
0.528975 0.437788 0.000000
0.564216 0.436164 0.000000
0.599111 0.434567 0.000000
0.633629 0.432873 0.000000
0.667831 0.431140 0.000000
0.701527 0.429336 0.000000
0.734860 0.427474 0.000000
0.767794 0.425500 0.000000
0.800259 0.423380 0.000000
0.832317 0.421153 0.000000
0.863950 0.418762 0.000000
0.895170 0.416149 0.000000
0.925967 0.413388 0.000000
0.956349 0.410415 0.000000
0.986337 0.407239 0.000000
1.000000 0.403800 0.000000
1.000000 0.400132 0.000000
1.000000 0.396149 0.000000
0.096300 0.502303 0.000000
0.118592 0.498978 0.000000
0.138653 0.495882 0.000000
0.155094 0.493024 0.000000
0.168059 0.490360 0.000000
0.188251 0.487886 0.000000
0.214176 0.485586 0.000000
0.243921 0.483412 0.000000
0.276403 0.481367 0.000000
0.310551 0.479452 0.000000
0.345643 0.477593 0.000000
0.381390 0.475830 0.000000
0.417366 0.474146 0.000000
0.453426 0.472505 0.000000
0.489414 0.470875 0.000000
0.525252 0.469277 0.000000
0.560823 0.467670 0.000000
0.596084 0.466019 0.000000
0.631069 0.464363 0.000000
0.665685 0.462615 0.000000
0.699931 0.460811 0.000000
0.733776 0.458904 0.000000
0.767233 0.456885 0.000000
0.800331 0.454765 0.000000
0.833007 0.452521 0.000000
0.865259 0.450095 0.000000
0.897161 0.447500 0.000000
0.928628 0.444684 0.000000
0.959697 0.441654 0.000000
0.990429 0.438453 0.000000
1.000000 0.434990 0.000000
1.000000 0.431273 0.000000
1.000000 0.427217 0.000000
0.114108 0.533553 0.000000
0.124113 0.530289 0.000000
0.147087 0.527251 0.000000
0.161094 0.524392 0.000000
0.174069 0.521755 0.000000
0.191226 0.519312 0.000000
0.214638 0.517037 0.000000
0.242592 0.514891 0.000000
0.273670 0.512854 0.000000
0.306964 0.510950 0.000000
0.341479 0.509081 0.000000
0.376867 0.507333 0.000000
0.412745 0.505667 0.000000
0.448811 0.504012 0.000000
0.484916 0.502390 0.000000
0.520973 0.500807 0.000000
0.556838 0.499176 0.000000
0.592480 0.497549 0.000000
0.627849 0.495860 0.000000
0.662914 0.494124 0.000000
0.697664 0.492301 0.000000
0.731997 0.490371 0.000000
0.766045 0.488342 0.000000
0.799706 0.486212 0.000000
0.833012 0.483932 0.000000
0.865917 0.481489 0.000000
0.898431 0.478860 0.000000
0.930576 0.476009 0.000000
0.962349 0.472969 0.000000
0.993764 0.469698 0.000000
1.000000 0.466217 0.000000
1.000000 0.462429 0.000000
1.000000 0.458354 0.000000
0.130834 0.564830 0.000000
0.129119 0.561611 0.000000
0.154675 0.558566 0.000000
0.167137 0.555789 0.000000
0.181105 0.553146 0.000000
0.195291 0.550719 0.000000
0.215996 0.548505 0.000000
0.241813 0.546345 0.000000
0.271308 0.544355 0.000000
0.303423 0.542455 0.000000
0.337246 0.540635 0.000000
0.372188 0.538903 0.000000
0.407833 0.537228 0.000000
0.443831 0.535596 0.000000
0.479980 0.533969 0.000000
0.516183 0.532361 0.000000
0.552325 0.530742 0.000000
0.588305 0.529112 0.000000
0.624005 0.527393 0.000000
0.659518 0.525681 0.000000
0.694720 0.523817 0.000000
0.729622 0.521908 0.000000
0.764144 0.519846 0.000000
0.798401 0.517660 0.000000
0.832252 0.515365 0.000000
0.865813 0.512888 0.000000
0.898971 0.510217 0.000000
0.931800 0.507372 0.000000
0.964286 0.504309 0.000000
0.996420 0.500997 0.000000
1.000000 0.497467 0.000000
1.000000 0.493661 0.000000
1.000000 0.489573 0.000000
0.146747 0.596112 0.000000
0.145154 0.592928 0.000000
0.161319 0.589927 0.000000
0.176443 0.587183 0.000000
0.189332 0.584572 0.000000
0.200515 0.582197 0.000000
0.218289 0.579954 0.000000
0.241712 0.577860 0.000000
0.269373 0.575885 0.000000
0.300154 0.574015 0.000000
0.333007 0.572202 0.000000
0.367351 0.570472 0.000000
0.402629 0.568811 0.000000
0.438473 0.567169 0.000000
0.474650 0.565575 0.000000
0.510966 0.563972 0.000000
0.547280 0.562343 0.000000
0.583515 0.560708 0.000000
0.619646 0.558994 0.000000
0.655497 0.557226 0.000000
0.691119 0.555398 0.000000
0.726500 0.553438 0.000000
0.761583 0.551383 0.000000
0.796343 0.549183 0.000000
0.830851 0.546917 0.000000
0.865006 0.544393 0.000000
0.898792 0.541677 0.000000
0.932300 0.538773 0.000000
0.965478 0.535714 0.000000
0.998339 0.532382 0.000000
1.000000 0.528800 0.000000
1.000000 0.524958 0.000000
1.000000 0.520811 0.000000
0.162059 0.627411 0.000000
0.160545 0.624247 0.000000
0.166832 0.621307 0.000000
0.184733 0.618551 0.000000
0.196058 0.616045 0.000000
0.206933 0.613655 0.000000
0.221715 0.611449 0.000000
0.242485 0.609401 0.000000
0.268016 0.607418 0.000000
0.297193 0.605555 0.000000
0.328958 0.603800 0.000000
0.362499 0.602065 0.000000
0.397258 0.600428 0.000000
0.432840 0.598788 0.000000
0.468937 0.597208 0.000000
0.505243 0.595600 0.000000
0.541705 0.593976 0.000000
0.578193 0.592333 0.000000
0.614573 0.590625 0.000000
0.650851 0.588867 0.000000
0.686947 0.587028 0.000000
0.722736 0.585025 0.000000
0.758329 0.582982 0.000000
0.793667 0.580795 0.000000
0.828721 0.578434 0.000000
0.863455 0.575923 0.000000
0.897900 0.573200 0.000000
0.932079 0.570280 0.000000
0.965946 0.567160 0.000000
0.999452 0.563759 0.000000
1.000000 0.560192 0.000000
1.000000 0.556283 0.000000
1.000000 0.552131 0.000000
0.176864 0.658709 0.000000
0.175386 0.655569 0.000000
0.174063 0.652692 0.000000
0.192359 0.649992 0.000000
0.202870 0.647507 0.000000
0.214448 0.645157 0.000000
0.226238 0.642985 0.000000
0.244261 0.640937 0.000000
0.267464 0.639011 0.000000
0.294788 0.637185 0.000000
0.325129 0.635408 0.000000
0.357706 0.633735 0.000000
0.391783 0.632066 0.000000
0.426965 0.630471 0.000000
0.462867 0.628891 0.000000
0.499110 0.627294 0.000000
0.535700 0.625691 0.000000
0.572342 0.624045 0.000000
0.609005 0.622330 0.000000
0.645593 0.620568 0.000000
0.682066 0.618679 0.000000
0.718330 0.616720 0.000000
0.754421 0.614634 0.000000
0.790226 0.612400 0.000000
0.825848 0.610049 0.000000
0.861206 0.607500 0.000000
0.896288 0.604794 0.000000
0.931086 0.601845 0.000000
0.965618 0.598695 0.000000
0.999860 0.595269 0.000000
1.000000 0.591669 0.000000
1.000000 0.587724 0.000000
1.000000 0.583508 0.000000
0.191402 0.690036 0.000000
0.189924 0.686940 0.000000
0.188681 0.684125 0.000000
0.198867 0.681468 0.000000
0.212030 0.678994 0.000000
0.223160 0.676678 0.000000
0.232063 0.674544 0.000000
0.247133 0.672527 0.000000
0.267791 0.670624 0.000000
0.292968 0.668819 0.000000
0.321757 0.667093 0.000000
0.353101 0.665428 0.000000
0.386400 0.663783 0.000000
0.420958 0.662181 0.000000
0.456525 0.660607 0.000000
0.492694 0.659016 0.000000
0.529207 0.657395 0.000000
0.566019 0.655761 0.000000
0.602840 0.654061 0.000000
0.639740 0.652283 0.000000
0.676560 0.650415 0.000000
0.713241 0.648429 0.000000
0.749769 0.646324 0.000000
0.786126 0.644084 0.000000
0.822270 0.641723 0.000000
0.858209 0.639166 0.000000
0.893904 0.636429 0.000000
0.929313 0.633454 0.000000
0.964506 0.630253 0.000000
0.999459 0.626830 0.000000
1.000000 0.623165 0.000000
1.000000 0.619214 0.000000
1.000000 0.614972 0.000000
0.205547 0.721348 0.000000
0.204230 0.718327 0.000000
0.202983 0.715543 0.000000
0.204018 0.712909 0.000000
0.220318 0.710471 0.000000
0.228095 0.708222 0.000000
0.239157 0.706136 0.000000
0.251229 0.704139 0.000000
0.269141 0.702264 0.000000
0.291964 0.700480 0.000000
0.318865 0.698799 0.000000
0.348809 0.697116 0.000000
0.381042 0.695530 0.000000
0.414940 0.693943 0.000000
0.449974 0.692348 0.000000
0.485916 0.690772 0.000000
0.522354 0.689198 0.000000
0.559163 0.687570 0.000000
0.596167 0.685836 0.000000
0.633317 0.684084 0.000000
0.670461 0.682213 0.000000
0.707543 0.680225 0.000000
0.744468 0.678098 0.000000
0.781339 0.675856 0.000000
0.817980 0.673467 0.000000
0.854458 0.670901 0.000000
0.890767 0.668156 0.000000
0.926831 0.665134 0.000000
0.962675 0.661943 0.000000
0.998314 0.658491 0.000000
1.000000 0.654793 0.000000
1.000000 0.650792 0.000000
1.000000 0.646478 0.000000
0.219553 0.752690 0.000000
0.218219 0.749738 0.000000
0.217022 0.747020 0.000000
0.215889 0.744432 0.000000
0.227454 0.742050 0.000000
0.237857 0.739814 0.000000
0.247443 0.737748 0.000000
0.256702 0.735784 0.000000
0.271715 0.733966 0.000000
0.291985 0.732207 0.000000
0.316730 0.730502 0.000000
0.344943 0.728891 0.000000
0.375966 0.727322 0.000000
0.408930 0.725751 0.000000
0.443417 0.724196 0.000000
0.478912 0.722623 0.000000
0.515152 0.721051 0.000000
0.551890 0.719399 0.000000
0.589027 0.717685 0.000000
0.626295 0.715917 0.000000
0.663744 0.714059 0.000000
0.701176 0.712082 0.000000
0.738534 0.709964 0.000000
0.775823 0.707693 0.000000
0.813006 0.705293 0.000000
0.850054 0.702696 0.000000
0.886852 0.699915 0.000000
0.923571 0.696897 0.000000
0.960067 0.693666 0.000000
0.996340 0.690190 0.000000
1.000000 0.686461 0.000000
1.000000 0.682436 0.000000
1.000000 0.678111 0.000000
0.233319 0.784094 0.000000
0.232072 0.781187 0.000000
0.230855 0.778488 0.000000
0.229756 0.775951 0.000000
0.233290 0.773630 0.000000
0.246576 0.771421 0.000000
0.255508 0.769405 0.000000
0.263407 0.767459 0.000000
0.275554 0.765683 0.000000
0.293048 0.763944 0.000000
0.315467 0.762310 0.000000
0.341765 0.760697 0.000000
0.371240 0.759145 0.000000
0.403115 0.757590 0.000000
0.436742 0.756050 0.000000
0.471729 0.754515 0.000000
0.507690 0.752933 0.000000
0.544324 0.751318 0.000000
0.581419 0.749623 0.000000
0.618836 0.747837 0.000000
0.656457 0.745955 0.000000
0.694197 0.743993 0.000000
0.731915 0.741885 0.000000
0.769639 0.739604 0.000000
0.807279 0.737186 0.000000
0.844854 0.734588 0.000000
0.882277 0.731783 0.000000
0.919495 0.728757 0.000000
0.956666 0.725505 0.000000
0.993615 0.721989 0.000000
1.000000 0.718225 0.000000
1.000000 0.714183 0.000000
1.000000 0.709823 0.000000
0.246965 0.815486 0.000000
0.245759 0.812631 0.000000
0.244592 0.810001 0.000000
0.243551 0.807536 0.000000
0.242534 0.805240 0.000000
0.254200 0.803089 0.000000
0.262741 0.801104 0.000000
0.271477 0.799211 0.000000
0.280724 0.797455 0.000000
0.295429 0.795756 0.000000
0.315229 0.794137 0.000000
0.339350 0.792570 0.000000
0.367063 0.791042 0.000000
0.397576 0.789520 0.000000
0.430261 0.787989 0.000000
0.464526 0.786455 0.000000
0.500036 0.784884 0.000000
0.536393 0.783275 0.000000
0.573412 0.781586 0.000000
0.610891 0.779827 0.000000
0.648649 0.777959 0.000000
0.686595 0.775970 0.000000
0.724667 0.773850 0.000000
0.762776 0.771555 0.000000
0.800847 0.769133 0.000000
0.838946 0.766546 0.000000
