docs/luts/Canon_Landscape_AdobeRGB.cube
TITLE "Canon Landscape (Adobe RGB)"
# Source: LA.ICC
LUT_3D_SIZE 9
DOMAIN_MIN 0.0 0.0 0.0
DOMAIN_MAX 1.0 1.0 1.0
0.000000 0.001686 0.003515
0.179929 0.014317 0.015565
0.355622 0.014762 0.018792
0.532375 0.010919 0.020109
0.710625 0.000000 0.020654
0.890039 0.000000 0.018847
1.000000 0.000000 0.014439
1.000000 0.000000 0.022254
1.000000 0.000000 0.056602
0.000000 0.180350 0.000000
0.169919 0.174805 0.005578
0.348948 0.165165 0.017561
0.517986 0.150854 0.032507
0.685451 0.131470 0.050009
0.853117 0.106066 0.066266
1.000000 0.072125 0.081660
1.000000 0.021927 0.097198
1.000000 0.000000 0.128414
0.000000 0.370564 0.000000
0.093509 0.353461 0.000000
0.328857 0.332215 0.000000
0.501887 0.306846 0.007107
0.664150 0.277010 0.045968
0.823043 0.242484 0.080471
0.980991 0.202727 0.109916
1.000000 0.156510 0.136926
1.000000 0.105722 0.170316
0.000000 0.570655 0.000000
0.000000 0.541976 0.000000
0.279993 0.509127 0.000000
0.477340 0.472224 0.000000
0.642277 0.431136 0.000000
0.796822 0.385731 0.059227
0.946957 0.335764 0.110966
1.000000 0.280835 0.152062
1.000000 0.221320 0.192423
0.000000 0.780497 0.000000
0.000000 0.740207 0.000000
0.156217 0.695810 0.000000
0.436246 0.647340 0.000000
0.615464 0.594791 0.000000
0.771266 0.538016 0.000000
0.917160 0.477018 0.075416
1.000000 0.411506 0.142638
1.000000 0.341485 0.195203
0.000000 0.989926 0.000000
0.000000 0.948201 0.000000
0.000000 0.892261 0.000000
0.364362 0.832240 0.000000
0.578159 0.768115 0.000000
0.742968 0.699894 0.000000
0.889036 0.627512 0.000000
1.000000 0.550860 0.096047
1.000000 0.469791 0.175649
0.000000 0.989845 0.000000
0.000000 0.989730 0.000000
0.000000 0.989618 0.000000
0.286441 0.989462 0.000000
0.523090 0.951160 0.000000
0.708130 0.871416 0.000000
0.859910 0.787589 0.000000
0.995617 0.699574 0.000000
1.000000 0.607326 0.120962
0.000000 0.989716 0.000000
0.000000 0.989627 0.000000
0.219443 0.989495 0.000000
0.427968 0.989339 0.000000
0.573139 0.989170 0.000000
0.698208 0.988976 0.000000
0.826792 0.957300 0.000000
0.966061 0.857857 0.000000
1.000000 0.754199 0.000000
0.000000 0.989565 0.000000
0.280064 0.989461 0.000000
0.435640 0.989313 0.000000
0.556005 0.989196 0.000000
0.662225 0.989016 0.000000
0.761068 0.988819 0.000000
0.855741 0.988616 0.000000
0.947950 0.988419 0.000000
1.000000 0.910647 0.000000
0.000000 0.002544 0.099931
0.139031 0.001771 0.100676
0.323745 0.001314 0.100146
0.510033 0.000000 0.097516
0.697730 0.000000 0.092081
0.886777 0.000000 0.082470
1.000000 0.000000 0.067839
1.000000 0.000000 0.059551
1.000000 0.000000 0.067848
0.000000 0.115196 0.098645
0.133929 0.123996 0.104399
0.317414 0.128737 0.109475
0.494037 0.128841 0.113504
0.670326 0.123881 0.116250
0.847339 0.113368 0.117830
1.000000 0.096184 0.117792
1.000000 0.070807 0.117870
1.000000 0.045742 0.131828
0.000000 0.297361 0.063602
0.054736 0.294741 0.078654
0.299194 0.288012 0.092883
0.477673 0.277019 0.106147
0.647468 0.261636 0.118472
0.814972 0.241536 0.129942
0.982168 0.216511 0.140717
1.000000 0.185710 0.150698
1.000000 0.152381 0.169475
0.000000 0.489763 0.000000
0.000000 0.475565 0.000000
0.253145 0.457233 0.015598
0.453992 0.434787 0.057926
0.624956 0.408091 0.090270
0.787063 0.377120 0.116948
0.945739 0.341651 0.140638
1.000000 0.301342 0.162426
1.000000 0.257130 0.187643
0.000000 0.692003 0.000000
0.000000 0.666197 0.000000
0.129982 0.636267 0.000000
0.415083 0.602237 0.000000
0.598437 0.564125 0.000000
0.760551 0.521827 0.058160
0.914086 0.475214 0.110973
1.000000 0.424187 0.150377
1.000000 0.368912 0.186344
0.000000 0.904052 0.000000
0.000000 0.866605 0.000000
0.000000 0.825105 0.000000
0.347410 0.779529 0.000000
0.562852 0.729865 0.000000
0.732277 0.676054 0.000000
0.884884 0.618137 0.000000
1.000000 0.555914 0.102729
1.000000 0.489361 0.161312
0.000000 0.989880 0.000000
0.000000 0.989797 0.000000
0.000000 0.989691 0.000000
0.207989 0.966534 0.000000
0.511376 0.905335 0.000000
0.698689 0.840029 0.000000
0.855551 0.770574 0.000000
0.998012 0.697018 0.000000
1.000000 0.619197 0.094845
0.000000 0.989817 0.000000
0.000000 0.989689 0.000000
0.000000 0.989575 0.000000
0.342089 0.989431 0.000000
0.524463 0.989232 0.000000
0.669629 0.988997 0.000000
0.823354 0.932767 0.000000
0.968033 0.847690 0.000000
1.000000 0.758484 0.000000
0.000000 0.989682 0.000000
0.000000 0.989548 0.000000
0.321581 0.989414 0.000000
0.484789 0.989264 0.000000
0.614492 0.989096 0.000000
0.730487 0.988871 0.000000
0.839276 0.988655 0.000000
0.944043 0.988427 0.000000
1.000000 0.907353 0.000000
0.001263 0.005735 0.234802
0.096604 0.005319 0.223864
0.290446 0.004473 0.212674
0.486323 0.001618 0.200497
0.683625 0.004899 0.186529
0.882524 0.009934 0.169846
1.000000 0.008524 0.149551
1.000000 0.011028 0.131980
1.000000 0.019146 0.121968
0.000000 0.056638 0.234118
0.096397 0.078974 0.228170
0.284351 0.097419 0.222052
0.468889 0.111534 0.215214
0.654031 0.120750 0.207368
0.840396 0.124958 0.198201
1.000000 0.123590 0.187245
1.000000 0.117459 0.175908
1.000000 0.112214 0.173502
0.000000 0.228417 0.215785
0.009485 0.240248 0.214766
0.267358 0.247892 0.213836
0.451748 0.251294 0.212625
0.629401 0.250289 0.211039
0.805612 0.244685 0.208802
0.982034 0.234311 0.205809
1.000000 0.218696 0.201777
1.000000 0.201408 0.205398
0.000000 0.412802 0.171033
0.000000 0.413045 0.176646
0.222469 0.409166 0.182487
0.428355 0.401130 0.188481
0.605773 0.388948 0.194382
0.775721 0.372371 0.200074
0.943125 0.351379 0.205484
1.000000 0.325720 0.210426
1.000000 0.296625 0.219825
0.000000 0.607327 0.058322
0.000000 0.595969 0.085270
0.090170 0.580502 0.108485
0.390598 0.560952 0.129359
0.579016 0.537243 0.148462
0.747949 0.509411 0.166223
0.909493 0.477279 0.182891
1.000000 0.440695 0.198545
1.000000 0.400143 0.215991
0.000000 0.811705 0.000000
0.000000 0.788714 0.000000
0.000000 0.761679 0.000000
0.325053 0.730557 0.000000
0.544297 0.695341 0.007066
0.719265 0.656008 0.080078
0.878832 0.612515 0.124893
1.000000 0.564733 0.159569
1.000000 0.512776 0.190260
0.000000 0.989939 0.000000
0.000000 0.989871 0.000000
0.000000 0.952644 0.000000
0.188336 0.909979 0.000000
0.495148 0.863205 0.000000
0.686235 0.812335 0.000000
0.848847 0.757362 0.000000
0.998475 0.698212 0.055396
1.000000 0.634847 0.129719
0.000000 0.989883 0.000000
0.000000 0.989785 0.000000
0.000000 0.989659 0.000000
0.224329 0.989517 0.000000
0.470179 0.989318 0.000000
0.645029 0.978421 0.000000
0.817003 0.911896 0.000000
0.967715 0.841291 0.000000
1.000000 0.766520 0.000000
0.000000 0.989756 0.000000
0.000000 0.989641 0.000000
0.130030 0.989529 0.000000
0.401913 0.989346 0.000000
0.562595 0.989175 0.000000
0.697684 0.988962 0.000000
0.821316 0.988726 0.000000
0.938796 0.988433 0.000000
1.000000 0.907798 0.000000
0.013230 0.015465 0.400904
0.060324 0.013790 0.377935
0.257385 0.011692 0.355159
0.462094 0.007927 0.332022
0.668770 0.016888 0.307942
0.877193 0.033689 0.282161
1.000000 0.054404 0.253917
1.000000 0.078882 0.227380
1.000000 0.103776 0.204525
0.012897 0.015262 0.397986
0.063349 0.045424 0.380190
0.250998 0.073562 0.362597
0.442918 0.099842 0.344630
0.636776 0.122502 0.326014
0.832324 0.140975 0.306439
1.000000 0.154759 0.285253
1.000000 0.165010 0.263833
1.000000 0.175366 0.247688
0.000000 0.165542 0.380794
0.000000 0.191022 0.367885
0.234523 0.212608 0.355145
0.424697 0.230051 0.342257
0.610076 0.243199 0.329071
0.795027 0.251921 0.315264
0.980591 0.256070 0.300671
1.000000 0.255450 0.284909
1.000000 0.253374 0.274801
0.000000 0.340281 0.346251
0.000000 0.354889 0.338344
0.189181 0.365357 0.330676
0.400805 0.371697 0.323114
0.585021 0.373843 0.315566
0.762991 0.371675 0.307820
0.939135 0.365109 0.299722
1.000000 0.354012 0.291148
1.000000 0.339840 0.286195
0.000000 0.526661 0.288640
0.000000 0.529717 0.286424
0.022944 0.528728 0.284733
0.363181 0.523610 0.283433
0.557523 0.514319 0.282415
0.733580 0.500895 0.281550
0.903242 0.483160 0.280704
1.000000 0.461077 0.279735
1.000000 0.435248 0.281055
0.000000 0.723214 0.189425
0.000000 0.714712 0.196474
0.000000 0.702106 0.204284
0.297804 0.685428 0.212576
0.522924 0.664692 0.221279
0.704000 0.639775 0.230008
0.870856 0.610691 0.238771
1.000000 0.577392 0.247325
1.000000 0.540002 0.256915
0.000000 0.929696 0.000000
0.000000 0.909600 0.000000
0.000000 0.885398 0.000000
0.155813 0.857179 0.032900
0.474842 0.824837 0.089872
0.670937 0.788429 0.127526
0.839925 0.747904 0.157805
0.997064 0.703202 0.183788
1.000000 0.654324 0.207203
0.000000 0.989979 0.000000
0.000000 0.989872 0.000000
0.000000 0.989786 0.000000
0.000000 0.989636 0.000000
0.408463 0.989454 0.000000
0.630829 0.946856 0.000000
0.807930 0.894790 0.000000
0.965180 0.838613 0.005208
1.000000 0.778324 0.103617
0.000000 0.989853 0.000000
0.000000 0.989759 0.000000
0.000000 0.989615 0.000000
0.297297 0.989487 0.000000
0.505403 0.989284 0.000000
0.662587 0.989066 0.000000
0.801823 0.988816 0.000000
0.933957 0.983800 0.000000
1.000000 0.911960 0.000000
0.044290 0.034381 0.598372
0.037452 0.030417 0.563283
0.226903 0.026042 0.528500
0.438053 0.020315 0.493873
0.653377 0.034536 0.458720
0.870952 0.067590 0.422565
1.000000 0.103614 0.384751
1.000000 0.142190 0.348068
1.000000 0.179851 0.313349
0.043247 0.033732 0.592675
0.054750 0.030315 0.562908
0.219848 0.062066 0.533443
0.417003 0.095663 0.503956
0.618917 0.129907 0.474157
0.823288 0.161635 0.443600
1.000000 0.189781 0.411982
1.000000 0.215143 0.380094
1.000000 0.239879 0.351455
0.000000 0.113669 0.573790
0.000000 0.149719 0.549071
0.203379 0.183561 0.524612
0.397322 0.214152 0.500158
0.589965 0.240908 0.475506
0.783335 0.263644 0.450407
0.977920 0.282030 0.424643
1.000000 0.296107 0.397838
1.000000 0.308801 0.375012
0.000000 0.273609 0.540337
0.000000 0.301936 0.520546
0.156112 0.326377 0.501016
0.372417 0.346822 0.481558
0.563126 0.363052 0.462056
0.748972 0.375120 0.442412
0.933766 0.382889 0.422438
1.000000 0.386292 0.401890
1.000000 0.386743 0.383937
0.000000 0.450601 0.490028
0.000000 0.467956 0.475220
0.000000 0.481242 0.460730
0.333877 0.490440 0.446478
0.534399 0.495516 0.432416
0.717641 0.496406 0.418414
0.895509 0.493073 0.404363
1.000000 0.485417 0.390102
1.000000 0.474137 0.377643
0.000000 0.638904 0.418618
0.000000 0.644763 0.409109
0.000000 0.646601 0.400128
0.266499 0.644348 0.391607
0.499019 0.637985 0.383501
0.686740 0.627467 0.375752
0.861258 0.612820 0.368205
1.000000 0.593925 0.360833
1.000000 0.571047 0.354617
0.000000 0.837467 0.314464
0.000000 0.831818 0.311604
0.000000 0.822061 0.309659
0.105385 0.808262 0.308557
0.450956 0.790386 0.308182
0.653095 0.768377 0.308367
0.828901 0.742278 0.309013
0.993779 0.712014 0.309970
1.000000 0.677625 0.311640
0.000000 0.990169 0.144572
0.000000 0.990138 0.148868
0.000000 0.990027 0.153305
0.000000 0.982096 0.161504
0.379464 0.952661 0.178380
0.613266 0.919137 0.194858
0.796280 0.881503 0.210588
0.960514 0.839785 0.225667
1.000000 0.793917 0.240023
0.000000 0.990009 0.000000
0.000000 0.989927 0.000000
0.000000 0.989800 0.000000
0.121599 0.989646 0.000000
0.440984 0.989457 0.000000
0.624892 0.989243 0.000000
0.780765 0.988951 0.000000
0.928610 0.977275 0.000000
1.000000 0.919927 0.094373
0.089409 0.063250 0.827137
0.080076 0.057249 0.779913
0.203549 0.050819 0.733088
0.415538 0.042472 0.686548
0.638072 0.061686 0.639879
0.864039 0.104613 0.592645
1.000000 0.153681 0.544208
1.000000 0.205682 0.496651
1.000000 0.256252 0.450144
0.087606 0.062174 0.818638
0.079496 0.056849 0.776776
0.195729 0.067035 0.735321
0.392569 0.100617 0.694022
0.601047 0.143458 0.652631
0.813581 0.187161 0.610769
1.000000 0.228928 0.568118
1.000000 0.268651 0.525362
1.000000 0.307304 0.484579
0.075323 0.085660 0.797293
0.046347 0.121607 0.760653
0.179393 0.163116 0.724315
0.371215 0.204704 0.688109
0.569732 0.244001 0.651840
0.770936 0.280049 0.615295
0.974158 0.312415 0.578225
1.000000 0.340757 0.540376
1.000000 0.367699 0.505266
0.000000 0.215859 0.762389
0.000000 0.256084 0.730789
0.130166 0.293373 0.699494
0.344818 0.327106 0.668278
0.540796 0.357080 0.637107
0.734058 0.383046 0.605815
0.927249 0.404964 0.574204
1.000000 0.422634 0.542123
1.000000 0.437577 0.511925
0.000000 0.380350 0.712970
0.000000 0.411447 0.686296
0.000000 0.438662 0.659916
0.304376 0.461895 0.633756
0.510260 0.481090 0.607704
0.700608 0.496194 0.581715
0.886479 0.507085 0.555565
1.000000 0.513796 0.529287
1.000000 0.516978 0.504228
0.000000 0.559304 0.647090
0.000000 0.579409 0.625395
0.000000 0.595514 0.604036
0.232698 0.607513 0.582989
0.473578 0.615446 0.562223
0.667936 0.619279 0.541670
0.850001 0.618964 0.521181
1.000000 0.614441 0.500758
1.000000 0.606050 0.481216
0.000000 0.749510 0.561447
0.000000 0.758203 0.544857
0.000000 0.762847 0.528742
0.010774 0.763448 0.513175
0.424252 0.759957 0.497991
0.633119 0.752332 0.483247
0.815998 0.740613 0.468845
0.988769 0.724764 0.454729
1.000000 0.704848 0.441241
0.000000 0.950128 0.447814
0.000000 0.947253 0.436877
0.000000 0.940348 0.426730
0.000000 0.929412 0.417389
0.351106 0.914401 0.408845
0.592647 0.895279 0.400919
0.782248 0.872089 0.393659
0.953838 0.844808 0.386912
1.000000 0.813359 0.380702
0.000000 0.990388 0.321231
0.000000 0.990291 0.315114
0.000000 0.990169 0.309238
0.000000 0.990008 0.303556
0.366167 0.989807 0.298085
0.584591 0.989568 0.292660
0.758399 0.989244 0.287272
0.920828 0.974580 0.285425
1.000000 0.931663 0.290021
0.103097 0.072204 0.897818
0.103097 0.072204 0.897818
0.186582 0.071835 0.897769
0.396094 0.070105 0.897648
0.623559 0.093672 0.851952
0.856816 0.145376 0.793135
1.000000 0.206626 0.733566
1.000000 0.271537 0.674508
1.000000 0.335384 0.616135
0.103097 0.072204 0.897818
0.103097 0.072204 0.897818
0.179189 0.071916 0.897782
0.371105 0.113576 0.897536
0.584115 0.163449 0.861960
0.803650 0.217855 0.808490
1.000000 0.272381 0.754496
1.000000 0.325867 0.700388
1.000000 0.378150 0.647540
0.103097 0.072204 0.897818
0.093670 0.103703 0.897704
0.163851 0.150491 0.897483
0.348387 0.202485 0.897074
0.550353 0.252979 0.858745
0.758296 0.301492 0.810555
0.969474 0.347208 0.762002
1.000000 0.389551 0.712884
1.000000 0.430489 0.665579
0.058376 0.166418 0.897413
0.000000 0.217141 0.897136
0.118865 0.266835 0.896645
0.320687 0.313611 0.884975
0.519134 0.356418 0.842074
0.718776 0.395800 0.799100
0.919842 0.431437 0.755862
1.000000 0.463178 0.712269
1.000000 0.492381 0.670008
0.000000 0.316372 0.896164
0.000000 0.360990 0.895555
0.000000 0.401969 0.887281
0.277867 0.438647 0.849350
0.486442 0.471526 0.811483
0.682919 0.500501 0.773702
0.876423 0.525456 0.735813
1.000000 0.546340 0.697701
1.000000 0.563870 0.660574
0.000000 0.485524 0.893363
0.000000 0.519413 0.865163
0.000000 0.549397 0.831970
0.200314 0.575403 0.799030
0.447630 0.597458 0.766305
0.648138 0.615441 0.733708
0.837587 0.629327 0.701159
1.000000 0.639107 0.668589
1.000000 0.645057 0.636684
0.000000 0.666473 0.817411
0.000000 0.689324 0.788847
0.000000 0.708167 0.760613
0.000000 0.722982 0.732773
0.395955 0.733779 0.705232
0.611566 0.740445 0.677926
0.801539 0.743057 0.650877
0.982184 0.741543 0.623981
1.000000 0.736018 0.597520
0.000000 0.858573 0.717294
0.000000 0.870040 0.693717
0.000000 0.877510 0.670637
0.000000 0.880921 0.648039
0.318811 0.880249 0.625847
0.569782 0.875505 0.604130
0.766256 0.866683 0.582798
0.945263 0.853748 0.561779
1.000000 0.836744 0.541216
0.000000 0.991169 0.599464
0.000000 0.991038 0.581428
0.000000 0.990885 0.563612
0.000000 0.990669 0.546002
0.273730 0.990430 0.528534
0.541823 0.990109 0.511128
0.734873 0.989744 0.493755
0.910811 0.975821 0.478064
1.000000 0.947307 0.464258
0.103097 0.072204 0.897818
0.103097 0.072204 0.897818
0.158112 0.071945 0.897774
0.368259 0.070466 0.897673
0.604837 0.112542 0.897177
0.847355 0.183398 0.896016
1.000000 0.261285 0.894023
1.000000 0.340926 0.882681
1.000000 0.417943 0.812303
0.103097 0.072204 0.897818
0.103097 0.072204 0.897818
0.150209 0.071998 0.897787
0.340850 0.113564 0.897556
0.562208 0.177787 0.896912
0.791016 0.248125 0.895688
1.000000 0.318172 0.893719
1.000000 0.386729 0.891641
1.000000 0.452877 0.840952
0.103097 0.072204 0.897818
0.099619 0.085188 0.897790
0.135018 0.133194 0.897608
0.315767 0.195581 0.897132
0.525845 0.260550 0.896300
0.742755 0.324099 0.894960
0.963017 0.384818 0.893065
1.000000 0.442182 0.890627
1.000000 0.497260 0.856334
0.086578 0.120811 0.897664
0.047640 0.178007 0.897372
0.085004 0.239097 0.896899
0.285940 0.299254 0.896222
0.492442 0.356751 0.895189
0.700699 0.410871 0.893731
0.910612 0.461252 0.891852
1.000000 0.507744 0.889493
1.000000 0.551257 0.858433
0.000000 0.253724 0.896808
0.000000 0.311164 0.896227
0.000000 0.365802 0.895505
0.240926 0.416967 0.894525
0.458225 0.464442 0.893308
0.662785 0.508025 0.891813
0.864780 0.547632 0.889980
1.000000 0.583087 0.887785
1.000000 0.614819 0.846945
0.000000 0.413165 0.894773
0.000000 0.461391 0.893900
0.000000 0.505831 0.892889
0.155209 0.546365 0.891748
0.418285 0.582926 0.890441
0.626525 0.615436 0.888954
0.824020 0.643861 0.887231
1.000000 0.667978 0.865613
1.000000 0.688151 0.821620
0.000000 0.586455 0.890911
0.000000 0.623771 0.889807
0.000000 0.657111 0.888670
0.000000 0.686412 0.887464
0.365633 0.711690 0.886226
0.589065 0.732913 0.884860
0.786018 0.749798 0.859643
0.974283 0.762512 0.820607
1.000000 0.771242 0.781888
0.000000 0.770993 0.884544
0.000000 0.796954 0.883428
0.000000 0.818887 0.882340
0.000000 0.836765 0.881286
0.284992 0.850452 0.861428
0.545575 0.860008 0.827443
0.748808 0.865475 0.793667
0.935115 0.866806 0.760101
1.000000 0.864157 0.726824
0.000000 0.965971 0.874983
0.000000 0.980298 0.855669
0.000000 0.990559 0.825698
0.000000 0.991805 0.796463
0.134390 0.991487 0.767592
0.497072 0.991087 0.738849
0.710844 0.990611 0.710159
0.898885 0.981039 0.682237
1.000000 0.966910 0.654716
0.103097 0.072204 0.897818
0.103097 0.072204 0.897818
0.133488 0.072073 0.897796
0.339649 0.070774 0.897714
0.583531 0.131540 0.897128
0.834471 0.219911 0.895755
1.000000 0.313904 0.893382
1.000000 0.408919 0.891250
1.000000 0.501816 0.889303
0.103097 0.072204 0.897818
0.103097 0.072204 0.897818
0.126160 0.072086 0.897784
0.309596 0.116061 0.897596
0.537890 0.193612 0.896837
0.775059 0.278843 0.895421
1.000000 0.363846 0.893094
1.000000 0.447202 0.890525
1.000000 0.528718 0.888659
0.103097 0.072204 0.897818
0.103097 0.072204 0.897818
0.111601 0.119789 0.897668
0.281789 0.191978 0.897173
0.498432 0.270309 0.896266
0.723750 0.348124 0.894704
0.952822 0.423304 0.892403
1.000000 0.495297 0.889457
1.000000 0.565355 0.887662
0.098631 0.088489 0.897749
0.074199 0.144481 0.897552
0.056253 0.215259 0.897119
0.248179 0.288164 0.896372
0.461941 0.359425 0.895186
0.678685 0.427734 0.893496
0.897370 0.492449 0.891202
1.000000 0.553409 0.888296
1.000000 0.611750 0.886300
0.024660 0.196787 0.897258
0.000000 0.265600 0.896719
0.000000 0.333249 0.895953
0.196140 0.398193 0.894888
0.424411 0.459729 0.893456
0.637880 0.517528 0.891643
0.848718 0.571411 0.889377
1.000000 0.621320 0.886645
1.000000 0.667950 0.884466
0.000000 0.345078 0.895805
0.000000 0.406805 0.894860
0.000000 0.465197 0.893752
0.077470 0.519876 0.892447
0.380718 0.570615 0.890826
0.598860 0.617432 0.888950
0.805203 0.660223 0.886769
1.000000 0.698925 0.884258
1.000000 0.733914 0.882007
0.000000 0.509651 0.892822
0.000000 0.561085 0.891582
0.000000 0.608679 0.890239
0.000000 0.652274 0.888699
0.322355 0.691853 0.886999
0.558783 0.727376 0.885173
0.765282 0.758835 0.883135
0.962778 0.786254 0.880922
1.000000 0.809695 0.878815
0.000000 0.686178 0.887763
0.000000 0.726433 0.886282
0.000000 0.762731 0.884802
0.000000 0.794961 0.883258
0.229971 0.823154 0.881620
0.514145 0.847302 0.879975
0.727036 0.867326 0.878227
0.922129 0.883302 0.876410
1.000000 0.895231 0.874611
0.000000 0.873373 0.879914
0.000000 0.902178 0.878425
0.000000 0.927001 0.876989
0.000000 0.947753 0.875602
0.000000 0.964453 0.874246
0.460243 0.977102 0.872964
0.688514 0.985679 0.871695
0.884951 0.990177 0.870472
1.000000 0.990609 0.869315
