docs/luts/Canon_Landscape_AdobeRGB.cube
TITLE "Canon Landscape (Adobe RGB)"
# Source: LA.ICC
LUT_3D_SIZE 33
DOMAIN_MIN 0.0 0.0 0.0
DOMAIN_MAX 1.0 1.0 1.0
0.000000 0.001686 0.003515
0.046478 0.003086 0.010978
0.091138 0.010726 0.013593
0.135757 0.013832 0.014554
0.179929 0.014317 0.015565
0.223738 0.014918 0.016548
0.267700 0.015146 0.017505
0.311639 0.014910 0.018064
0.355622 0.014762 0.018792
0.399711 0.014226 0.019470
0.443856 0.013435 0.019855
0.488119 0.012275 0.020012
0.532375 0.010919 0.020109
0.576808 0.009215 0.020150
0.621299 0.007178 0.020104
0.666000 0.000000 0.020733
0.710625 0.000000 0.020654
0.755375 0.000000 0.020505
0.800169 0.000000 0.020159
0.845047 0.000000 0.019554
0.890039 0.000000 0.018847
0.935101 0.000000 0.017994
0.980257 0.000000 0.016992
1.000000 0.000000 0.015804
1.000000 0.000000 0.014439
1.000000 0.000000 0.012934
1.000000 0.000000 0.011199
1.000000 0.000000 0.014029
1.000000 0.000000 0.022254
1.000000 0.000000 0.030750
1.000000 0.000000 0.039734
1.000000 0.000000 0.048377
1.000000 0.000000 0.056602
0.000000 0.045028 0.003163
0.040534 0.046013 0.011954
0.090297 0.046824 0.013188
0.136192 0.047213 0.014767
0.180416 0.047573 0.016076
0.224109 0.047715 0.017509
0.267694 0.047579 0.018843
0.311149 0.047040 0.020192
0.354533 0.046156 0.021272
0.397994 0.045043 0.022494
0.441463 0.043408 0.023579
0.485023 0.041153 0.024634
0.528605 0.038753 0.025488
0.572269 0.035962 0.026449
0.615972 0.032629 0.027790
0.659768 0.028917 0.028760
0.703622 0.024936 0.029848
0.747619 0.020695 0.030836
0.791630 0.016261 0.031741
0.835741 0.011593 0.032583
0.879980 0.006221 0.033283
0.924251 0.000933 0.034069
0.968656 0.000000 0.034488
1.000000 0.000000 0.035153
1.000000 0.000000 0.035601
1.000000 0.000000 0.036385
1.000000 0.000000 0.036531
1.000000 0.000000 0.037950
1.000000 0.000000 0.047249
1.000000 0.000000 0.055980
1.000000 0.000000 0.064090
1.000000 0.000000 0.071755
1.000000 0.000000 0.079136
0.000000 0.089166 0.008039
0.028669 0.089603 0.009595
0.085612 0.089770 0.011304
0.134041 0.089566 0.013031
0.179271 0.089239 0.014862
0.223367 0.088679 0.016628
0.266918 0.087821 0.018469
0.310124 0.086715 0.020227
0.353206 0.085187 0.022171
0.396222 0.083385 0.024020
0.439142 0.081307 0.025851
0.482068 0.078881 0.027665
0.525020 0.075909 0.029531
0.567977 0.072662 0.031728
0.611005 0.069026 0.034038
0.654100 0.064877 0.036195
0.697202 0.060387 0.038445
0.740453 0.055123 0.040812
0.783726 0.049397 0.042876
0.827091 0.042742 0.044960
0.870530 0.035395 0.047037
0.914036 0.027792 0.049110
0.957632 0.020128 0.051011
1.000000 0.012151 0.052915
1.000000 0.004222 0.054774
1.000000 0.000000 0.056537
1.000000 0.000000 0.058433
1.000000 0.000000 0.060114
1.000000 0.000000 0.067354
1.000000 0.000000 0.075693
1.000000 0.000000 0.083353
1.000000 0.000000 0.090882
1.000000 0.000000 0.098057
0.000000 0.134376 0.003171
0.006986 0.134084 0.005062
0.075235 0.133486 0.007146
0.128336 0.132737 0.009231
0.175982 0.131789 0.011438
0.221113 0.130474 0.013763
0.265094 0.128888 0.016177
0.308480 0.127053 0.018569
0.351404 0.124873 0.021117
0.394068 0.122413 0.023734
0.436658 0.119677 0.026240
0.479075 0.116585 0.029051
0.521512 0.113255 0.032048
0.563887 0.109497 0.035424
0.606272 0.105368 0.038643
0.648685 0.100816 0.042125
0.691216 0.095945 0.045406
0.733697 0.090674 0.048623
0.776265 0.084952 0.051718
0.818928 0.078721 0.054840
0.861623 0.071680 0.057807
0.904344 0.064200 0.060977
0.947154 0.055661 0.063806
0.990087 0.046144 0.066801
1.000000 0.035586 0.069741
1.000000 0.024323 0.072545
1.000000 0.013425 0.075414
1.000000 0.002485 0.078173
1.000000 0.000000 0.083517
1.000000 0.000000 0.091586
1.000000 0.000000 0.099369
1.000000 0.000000 0.106876
1.000000 0.000000 0.114399
0.000000 0.180350 0.000000
0.000000 0.179282 0.000000
0.054527 0.178038 0.000378
0.118275 0.176591 0.002906
0.169919 0.174805 0.005578
0.216987 0.172814 0.008384
0.262011 0.170508 0.011295
0.305877 0.167962 0.014329
0.348948 0.165165 0.017561
0.391573 0.162049 0.020893
0.433850 0.158581 0.024409
0.475980 0.154890 0.028425
0.517986 0.150854 0.032507
0.559898 0.146543 0.036986
0.601752 0.141907 0.041430
0.643574 0.136904 0.045799
0.685451 0.131470 0.050009
0.727300 0.125768 0.054259
0.769211 0.119659 0.058356
0.811138 0.113090 0.062396
0.853117 0.106066 0.066266
0.895179 0.098573 0.070242
0.937227 0.090390 0.074087
0.979361 0.081592 0.077941
1.000000 0.072125 0.081660
1.000000 0.061610 0.085445
1.000000 0.049431 0.089144
1.000000 0.035948 0.092858
1.000000 0.021927 0.097198
1.000000 0.012389 0.105364
1.000000 0.003593 0.113198
1.000000 0.000000 0.120877
1.000000 0.000000 0.128414
0.000000 0.226951 0.000000
0.000000 0.225219 0.000000
0.014696 0.223266 0.000000
0.101974 0.221047 0.000000
0.160257 0.218599 0.000000
0.210616 0.215812 0.000054
0.257336 0.212805 0.003814
0.302117 0.209559 0.007583
0.345677 0.205957 0.011444
0.388472 0.202153 0.015744
0.430746 0.198084 0.020489
0.472665 0.193662 0.025516
0.514346 0.188956 0.030585
0.555883 0.184005 0.036006
0.597309 0.178737 0.041778
0.638622 0.173091 0.047293
0.679944 0.167152 0.052701
0.721193 0.160884 0.057863
0.762464 0.154316 0.062944
0.803777 0.147290 0.067820
0.845092 0.139962 0.072729
0.886410 0.132117 0.077471
0.927830 0.123910 0.082213
0.969233 0.115079 0.086892
1.000000 0.105610 0.091480
1.000000 0.095694 0.096042
1.000000 0.084654 0.100533
1.000000 0.072956 0.104990
1.000000 0.059470 0.109448
1.000000 0.047333 0.117089
1.000000 0.034405 0.125236
1.000000 0.021949 0.133139
1.000000 0.011052 0.140960
0.000000 0.274210 0.000000
0.000000 0.271757 0.000000
0.000000 0.269085 0.000000
0.075061 0.266157 0.000000
0.146182 0.262955 0.000000
0.201421 0.259421 0.000000
0.250720 0.255698 0.000000
0.296955 0.251730 0.000000
0.341384 0.247467 0.002557
0.384590 0.242930 0.007938
0.427058 0.238153 0.013557
0.468970 0.233059 0.019615
0.510536 0.227674 0.025915
0.551797 0.222056 0.032562
0.592852 0.216098 0.039424
0.633762 0.209820 0.046428
0.674590 0.203309 0.052926
0.715353 0.196425 0.059322
0.756042 0.189242 0.065433
0.796723 0.181689 0.071407
0.837389 0.173785 0.077216
0.878103 0.165498 0.082865
0.918831 0.156849 0.088504
0.959543 0.147763 0.093938
1.000000 0.138147 0.099237
1.000000 0.128110 0.104638
1.000000 0.117447 0.109951
1.000000 0.105995 0.115185
1.000000 0.093631 0.120288
1.000000 0.081408 0.127235
1.000000 0.069472 0.135650
1.000000 0.056856 0.143927
1.000000 0.042863 0.152041
0.000000 0.322085 0.000000
0.000000 0.318915 0.000000
0.000000 0.315486 0.000000
0.022788 0.311851 0.000000
0.125407 0.307884 0.000000
0.188590 0.303689 0.000000
0.241712 0.299251 0.000000
0.290084 0.294526 0.000000
0.335847 0.289524 0.000000
0.379859 0.284318 0.000000
0.422731 0.278836 0.003708
0.464847 0.273008 0.010705
0.506433 0.266954 0.018291
0.547507 0.260622 0.025908
0.588337 0.253989 0.034259
0.628925 0.247087 0.042725
0.669347 0.239874 0.050951
0.709619 0.232390 0.058634
0.749839 0.224553 0.065994
0.789983 0.216392 0.073065
0.830095 0.207925 0.079864
0.870192 0.199143 0.086497
0.910265 0.189936 0.092924
0.950369 0.180398 0.099173
0.990464 0.170408 0.105448
1.000000 0.159949 0.111545
1.000000 0.149086 0.117565
1.000000 0.137589 0.123496
1.000000 0.125555 0.129444
1.000000 0.112853 0.135839
1.000000 0.101085 0.144708
1.000000 0.088660 0.153293
1.000000 0.075483 0.161854
0.000000 0.370564 0.000000
0.000000 0.366678 0.000000
0.000000 0.362541 0.000000
0.000000 0.358147 0.000000
0.093509 0.353461 0.000000
0.171087 0.348571 0.000000
0.229832 0.343415 0.000000
0.281357 0.337950 0.000000
0.328857 0.332215 0.000000
0.374065 0.326294 0.000000
0.417625 0.320078 0.000000
0.460173 0.313561 0.000000
0.501887 0.306846 0.007107
0.543003 0.299784 0.016254
0.583648 0.292478 0.025629
0.624055 0.284879 0.035747
0.664150 0.277010 0.045968
0.704052 0.268779 0.055438
0.743805 0.260339 0.064212
0.783477 0.251563 0.072587
0.823043 0.242484 0.080471
0.862542 0.233064 0.088209
0.902048 0.223303 0.095644
0.941521 0.213202 0.102830
0.980991 0.202727 0.109916
1.000000 0.191876 0.116771
1.000000 0.180547 0.123586
1.000000 0.168789 0.130319
1.000000 0.156510 0.136926
1.000000 0.143671 0.143433
1.000000 0.131371 0.152312
1.000000 0.118767 0.161463
1.000000 0.105722 0.170316
0.000000 0.419695 0.000000
0.000000 0.415061 0.000000
0.000000 0.410173 0.000000
0.000000 0.405076 0.000000
0.031804 0.399679 0.000000
0.146521 0.394047 0.000000
0.214222 0.388147 0.000000
0.270032 0.381981 0.000000
0.320186 0.375559 0.000000
0.366958 0.368867 0.000000
0.411595 0.361943 0.000000
0.454722 0.354754 0.000000
0.496798 0.347247 0.000000
0.538086 0.339523 0.002927
0.578767 0.331483 0.013792
0.619004 0.323225 0.025152
0.658876 0.314653 0.037243
0.698499 0.305792 0.049135
0.737946 0.296656 0.059855
0.777162 0.287237 0.069992
0.816270 0.277535 0.079235
0.855268 0.267447 0.088079
0.894239 0.257085 0.096595
0.933099 0.246397 0.104822
0.971954 0.235362 0.112712
1.000000 0.223928 0.120500
1.000000 0.212147 0.128105
1.000000 0.199942 0.135568
1.000000 0.187304 0.142909
1.000000 0.174144 0.150089
1.000000 0.161099 0.158705
1.000000 0.148155 0.168258
1.000000 0.134758 0.177582
0.000000 0.469428 0.000000
0.000000 0.464061 0.000000
0.000000 0.458443 0.000000
0.000000 0.452598 0.000000
0.000000 0.446473 0.000000
0.110246 0.440123 0.000000
0.193762 0.433514 0.000000
0.255853 0.426621 0.000000
0.309462 0.419509 0.000000
0.358401 0.412082 0.000000
0.404404 0.404447 0.000000
0.448433 0.396494 0.000000
0.491066 0.388296 0.000000
0.532692 0.379850 0.000000
0.573548 0.371139 0.000000
0.613789 0.362143 0.010819
0.653550 0.352893 0.024485
0.692988 0.343391 0.038639
0.732072 0.333511 0.052447
0.770951 0.323436 0.064506
0.809636 0.312991 0.075594
0.848207 0.302320 0.085862
0.886619 0.291300 0.095640
0.925003 0.279981 0.104962
0.963279 0.268381 0.113954
1.000000 0.256409 0.122595
1.000000 0.244083 0.131066
1.000000 0.231317 0.139298
1.000000 0.218232 0.147344
1.000000 0.204619 0.155276
1.000000 0.190931 0.163829
1.000000 0.177349 0.173870
1.000000 0.163492 0.183706
0.000000 0.519719 0.000000
0.000000 0.513668 0.000000
0.000000 0.507306 0.000000
0.000000 0.500766 0.000000
0.000000 0.493910 0.000000
0.042433 0.486826 0.000000
0.166021 0.479499 0.000000
0.237839 0.471863 0.000000
0.296318 0.464019 0.000000
0.348108 0.455886 0.000000
0.395959 0.447504 0.000000
0.441208 0.438890 0.000000
0.484666 0.429950 0.000000
0.526784 0.420808 0.000000
0.567909 0.411366 0.000000
0.608281 0.401693 0.000000
0.648069 0.391711 0.007791
0.687338 0.381476 0.023649
0.726248 0.370963 0.040279
0.764837 0.360126 0.055689
0.803189 0.349090 0.069175
0.841352 0.337737 0.081326
0.879340 0.326047 0.092668
0.917189 0.314058 0.103250
0.954967 0.301804 0.113396
0.992640 0.289195 0.123096
1.000000 0.276265 0.132469
1.000000 0.263005 0.141638
1.000000 0.249343 0.150458
1.000000 0.235296 0.159156
1.000000 0.220844 0.167669
1.000000 0.206635 0.178235
1.000000 0.192341 0.188609
0.000000 0.570655 0.000000
0.000000 0.563872 0.000000
0.000000 0.556807 0.000000
0.000000 0.549538 0.000000
0.000000 0.541976 0.000000
0.000000 0.534166 0.000000
0.126081 0.526086 0.000000
0.214774 0.517751 0.000000
0.279993 0.509127 0.000000
0.335678 0.500315 0.000000
0.385900 0.491221 0.000000
0.432809 0.481839 0.000000
0.477340 0.472224 0.000000
0.520208 0.462334 0.000000
0.561778 0.452188 0.000000
0.602416 0.441789 0.000000
0.642277 0.431136 0.000000
0.681590 0.420173 0.004453
0.720382 0.408983 0.022766
0.758737 0.397468 0.041883
0.796822 0.385731 0.059227
0.834659 0.373668 0.073932
0.872225 0.361311 0.087309
0.909636 0.348691 0.099487
0.946957 0.335764 0.110966
0.984109 0.322522 0.121889
1.000000 0.308980 0.132260
1.000000 0.295077 0.142365
1.000000 0.280835 0.152062
1.000000 0.266210 0.161562
1.000000 0.251215 0.170823
1.000000 0.236343 0.181436
1.000000 0.221320 0.192423
0.000000 0.622226 0.000000
0.000000 0.614684 0.000000
0.000000 0.606935 0.000000
0.000000 0.598860 0.000000
0.000000 0.590604 0.000000
0.000000 0.582049 0.000000
0.054376 0.573269 0.000000
0.184332 0.564229 0.000000
0.259974 0.554916 0.000000
0.320763 0.545357 0.000000
0.374134 0.535491 0.000000
0.423076 0.525427 0.000000
0.469047 0.515116 0.000000
0.512886 0.504506 0.000000
0.555130 0.493631 0.000000
0.596177 0.482539 0.000000
0.636251 0.471143 0.000000
0.675613 0.459466 0.000000
0.714376 0.447564 0.001119
0.752657 0.435392 0.022080
0.790525 0.422917 0.043929
0.828034 0.410167 0.062927
0.865299 0.397130 0.078987
0.902367 0.383839 0.093322
0.939231 0.370250 0.106455
0.975905 0.356361 0.118781
1.000000 0.342116 0.130386
1.000000 0.327622 0.141523
1.000000 0.312767 0.152263
1.000000 0.297595 0.162617
1.000000 0.281987 0.172642
1.000000 0.266340 0.183364
1.000000 0.250710 0.194929
0.000000 0.674357 0.000000
0.000000 0.666146 0.000000
0.000000 0.657640 0.000000
0.000000 0.648870 0.000000
0.000000 0.639866 0.000000
0.000000 0.630587 0.000000
0.000000 0.621068 0.000000
0.141429 0.611308 0.000000
0.234700 0.601252 0.000000
0.302760 0.590979 0.000000
0.360250 0.580415 0.000000
0.411801 0.569625 0.000000
0.459523 0.558585 0.000000
0.504592 0.547273 0.000000
0.547729 0.535666 0.000000
0.589315 0.523838 0.000000
0.629820 0.511759 0.000000
0.669377 0.499396 0.000000
0.708212 0.486732 0.000000
0.746447 0.473876 0.000000
0.784188 0.460678 0.021441
0.821505 0.447247 0.046042
0.858497 0.433549 0.066772
0.895179 0.419542 0.084065
0.931677 0.405278 0.099522
0.967951 0.390696 0.113548
1.000000 0.375814 0.126662
1.000000 0.360636 0.138948
1.000000 0.345169 0.150781
1.000000 0.329345 0.162122
1.000000 0.313178 0.173057
1.000000 0.296791 0.183981
1.000000 0.280510 0.196285
0.000000 0.727127 0.000000
0.000000 0.718179 0.000000
0.000000 0.708928 0.000000
0.000000 0.699458 0.000000
0.000000 0.689736 0.000000
0.000000 0.679716 0.000000
0.000000 0.669497 0.000000
0.066141 0.658990 0.000000
0.201852 0.648235 0.000000
0.280772 0.637246 0.000000
0.343775 0.625990 0.000000
0.398743 0.614436 0.000000
0.448686 0.602655 0.000000
0.495307 0.590627 0.000000
0.539475 0.578325 0.000000
0.581899 0.565761 0.000000
0.622913 0.552963 0.000000
0.662808 0.539874 0.000000
0.701815 0.526571 0.000000
0.740092 0.512941 0.000000
0.777776 0.499075 0.000000
0.814947 0.484925 0.020995
0.851789 0.470492 0.048692
0.888211 0.455797 0.070932
0.924337 0.440861 0.089483
0.960220 0.425602 0.105884
0.995901 0.410040 0.120770
1.000000 0.394232 0.134550
1.000000 0.378050 0.147646
1.000000 0.361598 0.160083
1.000000 0.344844 0.172020
1.000000 0.327743 0.183526
1.000000 0.310685 0.196369
0.000000 0.780497 0.000000
0.000000 0.770803 0.000000
0.000000 0.760883 0.000000
0.000000 0.750656 0.000000
0.000000 0.740207 0.000000
0.000000 0.729475 0.000000
0.000000 0.718522 0.000000
0.000000 0.707286 0.000000
0.156217 0.695810 0.000000
0.253608 0.684104 0.000000
0.324222 0.672087 0.000000
0.383498 0.659837 0.000000
0.436246 0.647340 0.000000
0.484796 0.634601 0.000000
0.530363 0.621581 0.000000
0.573756 0.608329 0.000000
0.615464 0.594791 0.000000
0.655787 0.580965 0.000000
0.695125 0.566917 0.000000
0.733560 0.552591 0.000000
0.771266 0.538016 0.000000
0.808422 0.523190 0.000000
0.845048 0.508078 0.021378
0.881287 0.492683 0.051518
0.917160 0.477018 0.075416
0.952702 0.461067 0.095099
0.988024 0.444848 0.112434
1.000000 0.428342 0.128052
1.000000 0.411506 0.142638
1.000000 0.394381 0.156355
1.000000 0.376974 0.169339
1.000000 0.359228 0.181917
1.000000 0.341485 0.195203
0.000000 0.834499 0.000000
0.000000 0.824079 0.000000
0.000000 0.813398 0.000000
0.000000 0.802451 0.000000
0.000000 0.791275 0.000000
0.000000 0.779862 0.000000
0.000000 0.768175 0.000000
0.000000 0.756198 0.000000
0.078871 0.744012 0.000000
0.218770 0.731569 0.000000
0.300629 0.718850 0.000000
0.365677 0.705909 0.000000
0.422038 0.692633 0.000000
0.472941 0.679187 0.000000
0.520208 0.665470 0.000000
0.564744 0.651457 0.000000
0.607335 0.637215 0.000000
0.648309 0.622690 0.000000
0.688038 0.607926 0.000000
0.726778 0.592901 0.000000
0.764600 0.577594 0.000000
0.801770 0.562062 0.000000
0.838321 0.546212 0.000000
0.874410 0.530131 0.021773
0.910040 0.513764 0.054795
0.945352 0.497124 0.080145
0.980342 0.480215 0.100875
1.000000 0.462996 0.119053
1.000000 0.445522 0.135570
1.000000 0.427704 0.150782
1.000000 0.409647 0.165098
1.000000 0.391255 0.178807
1.000000 0.372698 0.192599
0.000000 0.889097 0.000000
0.000000 0.877953 0.000000
0.000000 0.866556 0.000000
0.000000 0.854881 0.000000
0.000000 0.843001 0.000000
0.000000 0.830854 0.000000
0.000000 0.818379 0.000000
0.000000 0.805738 0.000000
0.000000 0.792811 0.000000
0.170924 0.779650 0.000000
0.271811 0.766208 0.000000
0.344700 0.752514 0.000000
0.405539 0.738557 0.000000
0.459461 0.724346 0.000000
0.508808 0.709920 0.000000
0.554878 0.695205 0.000000
0.598485 0.680240 0.000000
0.640246 0.665026 0.000000
0.680527 0.649502 0.000000
0.719629 0.633788 0.000000
0.757701 0.617757 0.000000
0.794964 0.601478 0.000000
0.831560 0.584937 0.000000
0.867567 0.568154 0.000000
0.903022 0.551105 0.022848
0.938131 0.533735 0.058631
0.972833 0.516149 0.085177
1.000000 0.498234 0.106958
1.000000 0.480078 0.125922
1.000000 0.461612 0.143074
1.000000 0.442811 0.158972
1.000000 0.423780 0.173948
1.000000 0.404483 0.188488
0.000000 0.944286 0.000000
0.000000 0.932412 0.000000
0.000000 0.920291 0.000000
0.000000 0.907918 0.000000
0.000000 0.895300 0.000000
0.000000 0.882415 0.000000
0.000000 0.869278 0.000000
0.000000 0.855871 0.000000
0.000000 0.842238 0.000000
0.092109 0.828330 0.000000
0.235157 0.814185 0.000000
0.319648 0.799772 0.000000
0.386581 0.785103 0.000000
0.444163 0.770148 0.000000
0.496000 0.754967 0.000000
0.543851 0.739541 0.000000
0.588803 0.723884 0.000000
0.631513 0.707898 0.000000
0.672533 0.691720 0.000000
0.712103 0.675229 0.000000
0.750548 0.658507 0.000000
0.787989 0.641560 0.000000
0.824638 0.624302 0.000000
0.860648 0.606789 0.000000
0.896025 0.589028 0.000000
0.930956 0.570954 0.024468
0.965428 0.552626 0.062730
0.999547 0.534047 0.090584
1.000000 0.515190 0.113147
1.000000 0.496034 0.132861
1.000000 0.476630 0.150711
1.000000 0.456877 0.167296
1.000000 0.436838 0.182772
0.000000 0.989926 0.000000
0.000000 0.987543 0.000000
0.000000 0.974672 0.000000
0.000000 0.961579 0.000000
0.000000 0.948201 0.000000
0.000000 0.934613 0.000000
0.000000 0.920743 0.000000
0.000000 0.906647 0.000000
0.000000 0.892261 0.000000
0.000000 0.877626 0.000000
0.185573 0.862771 0.000000
0.289336 0.847618 0.000000
0.364362 0.832240 0.000000
0.426716 0.816585 0.000000
0.481635 0.800695 0.000000
0.531656 0.784506 0.000000
0.578159 0.768115 0.000000
0.622085 0.751464 0.000000
0.663911 0.734534 0.000000
0.704118 0.717342 0.000000
0.742968 0.699894 0.000000
0.780772 0.682206 0.000000
0.817613 0.664240 0.000000
0.853686 0.645998 0.000000
0.889036 0.627512 0.000000
0.923861 0.608790 0.000000
0.958164 0.589754 0.027098
0.992032 0.570456 0.067355
1.000000 0.550860 0.096047
1.000000 0.531056 0.119513
1.000000 0.510939 0.140055
1.000000 0.490500 0.158545
1.000000 0.469791 0.175649
0.000000 0.989885 0.000000
0.000000 0.989883 0.000000
0.000000 0.989859 0.000000
0.000000 0.989824 0.000000
0.000000 0.989798 0.000000
0.000000 0.987411 0.000000
0.000000 0.972842 0.000000
0.000000 0.957985 0.000000
0.000000 0.942860 0.000000
0.000000 0.927523 0.000000
0.106165 0.911935 0.000000
0.251169 0.896065 0.000000
0.338089 0.879932 0.000000
0.406533 0.863598 0.000000
0.465373 0.846992 0.000000
0.518013 0.830096 0.000000
0.566449 0.812973 0.000000
0.611737 0.795566 0.000000
0.654633 0.777951 0.000000
0.695614 0.760023 0.000000
0.735035 0.741861 0.000000
0.773260 0.723436 0.000000
0.810321 0.704773 0.000000
0.846513 0.685851 0.000000
0.881950 0.666624 0.000000
0.916750 0.647155 0.000000
0.950937 0.627403 0.000000
0.984640 0.607454 0.030266
1.000000 0.587159 0.072336
1.000000 0.566637 0.101965
1.000000 0.545835 0.126131
1.000000 0.524700 0.147244
1.000000 0.503296 0.166413
0.000000 0.989881 0.000000
0.000000 0.989848 0.000000
0.000000 0.989826 0.000000
0.000000 0.989819 0.000000
0.000000 0.989793 0.000000
0.000000 0.989751 0.000000
0.000000 0.989724 0.000000
0.000000 0.989679 0.000000
0.000000 0.989644 0.000000
0.000000 0.978037 0.000000
0.000000 0.961751 0.000000
0.200290 0.945128 0.000000
0.306405 0.928304 0.000000
0.383319 0.911217 0.000000
0.446878 0.893870 0.000000
0.502794 0.876285 0.000000
0.553491 0.858419 0.000000
0.600419 0.840313 0.000000
0.644610 0.821963 0.000000
0.686484 0.803321 0.000000
0.726647 0.784449 0.000000
0.765299 0.765307 0.000000
0.802767 0.745909 0.000000
0.839195 0.726263 0.000000
0.874756 0.706332 0.000000
0.909577 0.686179 0.000000
0.943729 0.665743 0.000000
0.977307 0.645017 0.000000
1.000000 0.624057 0.034577
1.000000 0.602812 0.077719
1.000000 0.581287 0.108033
1.000000 0.559499 0.132916
1.000000 0.537403 0.154669
0.000000 0.989857 0.000000
0.000000 0.989831 0.000000
0.000000 0.989832 0.000000
0.000000 0.989781 0.000000
0.000000 0.989760 0.000000
0.000000 0.989736 0.000000
0.000000 0.989702 0.000000
0.000000 0.989667 0.000000
0.000000 0.989635 0.000000
0.000000 0.989593 0.000000
0.000000 0.989563 0.000000
0.140643 0.989529 0.000000
0.267071 0.977289 0.000000
0.355900 0.959465 0.000000
0.425894 0.941378 0.000000
0.485654 0.923059 0.000000
0.539174 0.904507 0.000000
0.588090 0.885660 0.000000
0.633672 0.866583 0.000000
0.676742 0.847241 0.000000
0.717667 0.827621 0.000000
0.757016 0.807780 0.000000
0.794936 0.787680 0.000000
0.831673 0.767311 0.000000
0.867457 0.746667 0.000000
0.902340 0.725794 0.000000
0.936491 0.704618 0.000000
0.970027 0.683196 0.000000
1.000000 0.661510 0.000000
1.000000 0.639578 0.039608
1.000000 0.617349 0.083373
1.000000 0.594856 0.114458
1.000000 0.572079 0.139810
0.000000 0.989845 0.000000
0.000000 0.989828 0.000000
0.000000 0.989780 0.000000
0.000000 0.989765 0.000000
0.000000 0.989730 0.000000
0.000000 0.989717 0.000000
0.000000 0.989691 0.000000
0.000000 0.989658 0.000000
0.000000 0.989618 0.000000
0.000000 0.989577 0.000000
0.068764 0.989528 0.000000
0.207526 0.989497 0.000000
0.286441 0.989462 0.000000
0.348406 0.989414 0.000000
0.401752 0.989355 0.000000
0.466449 0.970485 0.000000
0.523090 0.951160 0.000000
0.574459 0.931614 0.000000
0.621838 0.911814 0.000000
0.666153 0.891768 0.000000
0.708130 0.871416 0.000000
0.748195 0.850861 0.000000
0.786680 0.830017 0.000000
0.823845 0.808916 0.000000
0.859910 0.787589 0.000000
0.894972 0.765981 0.000000
0.929202 0.744114 0.000000
0.962769 0.721977 0.000000
0.995617 0.699574 0.000000
1.000000 0.676895 0.000000
1.000000 0.654012 0.045530
1.000000 0.630787 0.089420
1.000000 0.607326 0.120962
0.000000 0.989823 0.000000
0.000000 0.989791 0.000000
0.000000 0.989756 0.000000
0.000000 0.989758 0.000000
0.000000 0.989715 0.000000
0.000000 0.989691 0.000000
0.000000 0.989661 0.000000
0.000000 0.989631 0.000000
0.000000 0.989603 0.000000
0.000000 0.989548 0.000000
0.173359 0.989513 0.000000
0.259855 0.989460 0.000000
0.324489 0.989422 0.000000
0.378887 0.989401 0.000000
0.427096 0.989327 0.000000
0.471373 0.989303 0.000000
0.512625 0.989230 0.000000
0.559445 0.978192 0.000000
0.608814 0.957646 0.000000
0.654712 0.936868 0.000000
0.697897 0.915839 0.000000
0.738805 0.894518 0.000000
0.778039 0.872980 0.000000
0.815687 0.851165 0.000000
0.852112 0.829093 0.000000
0.887469 0.806786 0.000000
0.921852 0.784183 0.000000
0.955436 0.761370 0.000000
0.988293 0.738232 0.000000
1.000000 0.714874 0.000000
1.000000 0.691219 0.000000
1.000000 0.667320 0.051810
1.000000 0.643153 0.095762
0.000000 0.989793 0.000000
0.000000 0.989764 0.000000
0.000000 0.989749 0.000000
0.000000 0.989719 0.000000
0.000000 0.989695 0.000000
0.000000 0.989660 0.000000
0.000000 0.989636 0.000000
0.000000 0.989603 0.000000
0.000000 0.989559 0.000000
0.145299 0.989529 0.000000
0.238913 0.989494 0.000000
0.305307 0.989440 0.000000
0.360270 0.989390 0.000000
0.408696 0.989361 0.000000
0.452728 0.989323 0.000000
0.493566 0.989262 0.000000
0.532119 0.989232 0.000000
0.568924 0.989154 0.000000
0.604329 0.989130 0.000000
0.642308 0.982620 0.000000
0.686808 0.960845 0.000000
0.728860 0.938824 0.000000
0.768847 0.916549 0.000000
0.807148 0.894031 0.000000
0.844032 0.871221 0.000000
0.879727 0.848167 0.000000
