docs/luts/Canon_Faithful_AdobeRGB.cube
TITLE "Canon Faithful (Adobe RGB)"
# Source: FA.ICC
LUT_3D_SIZE 9
DOMAIN_MIN 0.0 0.0 0.0
DOMAIN_MAX 1.0 1.0 1.0
0.000000 0.001686 0.003515
0.157584 0.000749 0.005189
0.292208 0.000562 0.005275
0.414771 0.000000 0.002239
0.528674 0.000000 0.000000
0.637390 0.000000 0.000000
0.744288 0.000000 0.000000
0.852761 0.000000 0.000000
0.966210 0.000000 0.000000
0.000000 0.127947 0.000000
0.165401 0.107799 0.000000
0.311628 0.093430 0.000000
0.440020 0.083262 0.000000
0.558527 0.076157 0.000000
0.671512 0.071051 0.000000
0.782659 0.066846 0.000000
0.895466 0.062214 0.000000
1.000000 0.055652 0.000000
0.000000 0.256065 0.000000
0.143427 0.235704 0.000000
0.317395 0.221039 0.000000
0.456149 0.210992 0.000000
0.581397 0.204482 0.000000
0.699856 0.200472 0.000000
0.816034 0.197888 0.000000
0.933724 0.195672 0.000000
1.000000 0.192665 0.000000
0.000000 0.385925 0.000000
0.033700 0.364827 0.000000
0.303153 0.349480 0.000000
0.459210 0.338856 0.000000
0.594045 0.331917 0.000000
0.719583 0.327600 0.000000
0.841795 0.324889 0.000000
0.965107 0.322703 0.000000
1.000000 0.319955 0.000000
0.000000 0.518315 0.000000
0.000000 0.496101 0.000000
0.255922 0.479672 0.000000
0.444081 0.468024 0.000000
0.593001 0.460114 0.000000
0.727872 0.454918 0.000000
0.857487 0.451380 0.000000
0.987312 0.448459 0.000000
1.000000 0.445117 0.000000
0.000000 0.654264 0.000000
0.000000 0.630545 0.000000
0.120778 0.612626 0.000000
0.401604 0.599518 0.000000
0.573358 0.590196 0.000000
0.721112 0.583631 0.000000
0.860095 0.578789 0.000000
0.997715 0.574638 0.000000
1.000000 0.570085 0.000000
0.000000 0.794820 0.000000
0.000000 0.769176 0.000000
0.000000 0.749370 0.000000
0.308515 0.734404 0.000000
0.526569 0.723255 0.000000
0.694085 0.714890 0.000000
0.845789 0.708281 0.000000
0.993134 0.702430 0.000000
1.000000 0.696278 0.000000
0.000000 0.941007 0.000000
0.000000 0.913038 0.000000
0.000000 0.890932 0.000000
0.000000 0.873704 0.000000
0.434113 0.860307 0.000000
0.638264 0.849743 0.000000
0.808997 0.840958 0.000000
0.969444 0.832935 0.000000
1.000000 0.824728 0.000000
0.000000 0.989295 0.000000
0.000000 0.989945 0.000000
0.000000 0.989859 0.000000
0.000000 0.989693 0.000000
0.243259 0.989487 0.000000
0.535682 0.989217 0.000000
0.740593 0.977834 0.000000
0.920613 0.967244 0.000000
1.000000 0.956484 0.000000
0.000000 0.017821 0.107060
0.133605 0.002021 0.112507
0.271408 0.001990 0.116939
0.398692 0.001018 0.118946
0.518826 0.000000 0.116644
0.635199 0.000000 0.107789
0.751200 0.000000 0.089101
0.870248 0.000000 0.053415
0.995687 0.000000 0.000000
0.000000 0.141294 0.099175
0.134033 0.124093 0.104484
0.287702 0.112474 0.109605
0.421534 0.105026 0.112920
0.546366 0.100609 0.112759
0.666937 0.098151 0.106960
0.786993 0.096534 0.092458
0.910152 0.094630 0.063175
1.000000 0.090903 0.003744
0.000000 0.267244 0.080139
0.094894 0.249769 0.085992
0.289527 0.237851 0.091993
0.435185 0.230396 0.096725
0.567063 0.226343 0.098491
0.693132 0.224606 0.095168
0.818127 0.224200 0.083656
0.946005 0.223909 0.057434
1.000000 0.222698 0.001599
0.000000 0.395298 0.034774
0.000000 0.377128 0.043966
0.269364 0.364576 0.053240
0.435543 0.356572 0.060898
0.577737 0.352083 0.065383
0.711052 0.350067 0.064435
0.842057 0.349496 0.054175
0.975404 0.349246 0.025681
1.000000 0.348240 0.000000
0.000000 0.526234 0.000000
0.000000 0.507010 0.000000
0.209406 0.493420 0.000000
0.417011 0.484433 0.000000
0.574773 0.479030 0.000000
0.717765 0.476169 0.000000
0.856238 0.474807 0.000000
0.996036 0.473880 0.000000
1.000000 0.472324 0.000000
0.000000 0.661066 0.000000
0.000000 0.640385 0.000000
0.000000 0.625368 0.000000
0.368915 0.614977 0.000000
0.552838 0.608214 0.000000
0.709598 0.604043 0.000000
0.857655 0.601431 0.000000
1.000000 0.599325 0.000000
1.000000 0.596689 0.000000
0.000000 0.800820 0.000000
0.000000 0.778292 0.000000
0.000000 0.761438 0.000000
0.260491 0.749255 0.000000
0.502714 0.740705 0.000000
0.681064 0.734810 0.000000
0.842374 0.730492 0.000000
0.999776 0.726721 0.000000
1.000000 0.722612 0.000000
0.000000 0.946541 0.000000
0.000000 0.921746 0.000000
0.000000 0.902645 0.000000
0.000000 0.888248 0.000000
0.402878 0.877529 0.000000
0.623112 0.869470 0.000000
0.804628 0.863035 0.000000
0.975496 0.857187 0.000000
1.000000 0.851047 0.000000
0.000000 0.989258 0.000000
0.000000 0.989970 0.000000
0.000000 0.989857 0.000000
0.000000 0.989705 0.000000
0.216522 0.989506 0.000000
0.531535 0.989226 0.000000
0.740589 0.988902 0.000000
0.927474 0.988470 0.000000
1.000000 0.983130 0.000000
0.000000 0.030511 0.219945
0.116120 0.016362 0.227517
0.258057 0.007397 0.234368
0.389887 0.004598 0.238619
0.515999 0.002532 0.238586
0.639787 0.000000 0.232416
0.764702 0.000000 0.217929
0.894044 0.000000 0.192408
1.000000 0.000000 0.151424
0.000000 0.149106 0.212961
0.109228 0.134956 0.220011
0.270112 0.126101 0.227132
0.409019 0.121292 0.232647
0.539860 0.119360 0.234862
0.667731 0.119227 0.231851
0.796500 0.119795 0.221559
0.929768 0.119932 0.201411
1.000000 0.118254 0.167499
0.000000 0.271607 0.200113
0.043747 0.257055 0.206555
0.267402 0.247912 0.213881
0.419298 0.243064 0.220441
0.557368 0.241433 0.224512
0.690670 0.241944 0.224281
0.824192 0.243573 0.217732
0.961971 0.245159 0.202233
1.000000 0.245591 0.174145
0.000000 0.396745 0.178538
0.000000 0.381550 0.184357
0.240772 0.371785 0.191874
0.416273 0.366417 0.199397
0.565150 0.364410 0.205259
0.705751 0.364692 0.207637
0.845158 0.366206 0.204415
0.988218 0.367871 0.193080
1.000000 0.368577 0.169893
0.000000 0.525192 0.142373
0.000000 0.508976 0.147903
0.165418 0.498242 0.156108
0.393850 0.491943 0.165068
0.559503 0.489056 0.173046
0.709994 0.488538 0.178143
0.856823 0.489336 0.178233
1.000000 0.490385 0.170666
1.000000 0.490617 0.151559
0.000000 0.657896 0.070944
0.000000 0.640277 0.078281
0.000000 0.628156 0.090377
0.339713 0.620528 0.103905
0.534741 0.616335 0.116447
0.699590 0.614564 0.125994
0.856109 0.614187 0.130374
1.000000 0.614118 0.126584
1.000000 0.613461 0.112679
0.000000 0.795863 0.000000
0.000000 0.776441 0.000000
0.000000 0.762549 0.000000
0.212763 0.753167 0.000000
0.480851 0.747267 0.000000
0.668905 0.743816 0.000000
0.838974 0.741785 0.005770
1.000000 0.740139 0.009676
1.000000 0.738036 0.000814
0.000000 0.940110 0.000000
0.000000 0.918497 0.000000
0.000000 0.902418 0.000000
0.000000 0.890881 0.000000
0.373129 0.882865 0.000000
0.608374 0.877330 0.000000
0.799588 0.873239 0.000000
0.980071 0.869572 0.000000
1.000000 0.865515 0.000000
0.000000 0.989829 0.000000
0.000000 0.989999 0.000000
0.000000 0.989912 0.000000
0.000000 0.989763 0.000000
0.162145 0.989564 0.000000
0.518480 0.989285 0.000000
0.738585 0.988956 0.000000
0.935102 0.988514 0.000000
1.000000 0.988147 0.000000
0.000000 0.044374 0.337320
0.107757 0.033390 0.347042
0.251764 0.027050 0.355738
0.387813 0.023962 0.361634
0.519629 0.022790 0.362945
0.650602 0.022157 0.357882
0.784155 0.020523 0.344524
0.923656 0.016601 0.320667
1.000000 0.008505 0.283565
0.000000 0.154857 0.329425
0.092917 0.143699 0.338519
0.259028 0.137627 0.347545
0.402300 0.135372 0.354694
0.538764 0.135807 0.358289
0.673632 0.137886 0.356536
0.810818 0.140501 0.347503
0.953956 0.142462 0.329035
1.000000 0.142548 0.298530
0.000000 0.272466 0.316950
0.000000 0.260884 0.325196
0.251002 0.254524 0.334213
0.408148 0.252261 0.342331
0.551889 0.253047 0.347867
0.692033 0.255802 0.348996
0.833774 0.259412 0.343797
0.981175 0.262834 0.330196
1.000000 0.264887 0.305670
0.000000 0.393552 0.298333
0.000000 0.381350 0.305493
0.217329 0.374411 0.314337
0.400853 0.371696 0.323173
0.555732 0.372152 0.330349
0.703109 0.374712 0.334036
0.850543 0.378326 0.332362
1.000000 0.381881 0.323197
1.000000 0.384268 0.304084
0.000000 0.518432 0.271290
0.000000 0.505270 0.277231
0.122110 0.497386 0.285773
0.373774 0.493809 0.295244
0.546395 0.493433 0.303889
0.703780 0.495275 0.309953
0.858502 0.498256 0.311543
1.000000 0.501289 0.306562
1.000000 0.503466 0.293234
0.000000 0.647976 0.231524
0.000000 0.633454 0.236164
0.000000 0.624261 0.244585
0.312622 0.619375 0.254884
0.517902 0.617790 0.265239
0.690126 0.618430 0.273802
0.854515 0.620278 0.278657
1.000000 0.622271 0.277680
1.000000 0.623596 0.270145
0.000000 0.783148 0.168260
0.000000 0.766870 0.171854
0.000000 0.755958 0.181134
0.160182 0.749388 0.193524
0.459387 0.746141 0.206794
0.656259 0.745173 0.218909
0.834470 0.745445 0.227822
1.000000 0.745929 0.231291
1.000000 0.745836 0.229647
0.000000 0.924939 0.004638
0.000000 0.906507 0.010187
0.000000 0.893488 0.035634
0.000000 0.884819 0.068633
0.342188 0.879509 0.097323
0.592184 0.876516 0.121280
0.792400 0.874805 0.139631
0.981882 0.873313 0.150850
1.000000 0.871311 0.157389
0.000000 0.990112 0.000000
0.000000 0.990069 0.000000
0.000000 0.989995 0.000000
0.000000 0.989855 0.000000
0.004574 0.989668 0.000000
0.495441 0.989402 0.000000
0.728645 0.989069 0.000000
0.935336 0.988606 0.000000
1.000000 0.988241 0.000000
0.006634 0.060016 0.461686
0.109181 0.053525 0.473652
0.253121 0.050552 0.484254
0.392607 0.050052 0.491680
0.529715 0.050822 0.494174
0.667619 0.051579 0.489974
0.809556 0.051387 0.477196
0.958950 0.048772 0.453855
1.000000 0.041808 0.417685
0.000000 0.161746 0.452286
0.086207 0.153624 0.463657
0.254190 0.150275 0.474585
0.401012 0.150543 0.483330
0.542639 0.153288 0.488190
0.684161 0.157457 0.487354
0.829515 0.161972 0.478987
0.982270 0.165759 0.461134
1.000000 0.167392 0.431504
0.000000 0.273156 0.438694
0.000000 0.264563 0.449102
0.239859 0.260993 0.460019
0.401183 0.261343 0.469750
0.550028 0.264522 0.476568
0.696673 0.269466 0.478701
0.846320 0.275086 0.474284
1.000000 0.280291 0.461430
1.000000 0.283939 0.437877
0.000000 0.389006 0.419759
0.000000 0.379824 0.428937
0.198103 0.375723 0.439550
0.388454 0.375680 0.449929
0.548678 0.378605 0.458390
0.702399 0.383452 0.463116
0.857541 0.389151 0.462351
1.000000 0.394605 0.454039
1.000000 0.398894 0.436502
0.000000 0.509250 0.394089
0.000000 0.499137 0.401768
0.073598 0.494157 0.411864
0.355506 0.493278 0.422663
0.534392 0.495471 0.432462
0.698211 0.499669 0.439539
0.860468 0.504809 0.442018
1.000000 0.509824 0.437973
1.000000 0.513953 0.426196
0.000000 0.634578 0.359553
0.000000 0.623157 0.365511
0.000000 0.616918 0.374929
0.285570 0.614811 0.385997
0.500905 0.615811 0.397030
0.679995 0.618896 0.406244
0.851876 0.623001 0.411819
1.000000 0.627033 0.411770
1.000000 0.630333 0.405435
0.000000 0.765921 0.312243
0.000000 0.752796 0.316342
0.000000 0.744894 0.325095
0.086483 0.741153 0.336568
0.436138 0.740565 0.348949
0.641656 0.742090 0.360415
0.827602 0.744685 0.369099
1.000000 0.747309 0.372993
1.000000 0.749214 0.371890
0.000000 0.904239 0.243353
0.000000 0.889036 0.245451
0.000000 0.879053 0.254082
0.000000 0.873289 0.266811
0.305940 0.870689 0.281511
0.572507 0.870258 0.296105
0.781460 0.870928 0.308559
0.979594 0.871658 0.316887
1.000000 0.871702 0.321246
0.000000 0.990225 0.151238
0.000000 0.990201 0.141187
0.000000 0.990141 0.145604
0.000000 0.990030 0.160097
0.000000 0.989835 0.179744
0.460498 0.989606 0.200632
0.710121 0.989256 0.219797
0.927743 0.988799 0.234645
1.000000 0.988435 0.245539
0.024814 0.080042 0.595470
0.119927 0.076186 0.609870
0.261886 0.075675 0.622462
0.404047 0.077211 0.631475
0.545965 0.079893 0.635174
0.690376 0.082976 0.631784
0.840416 0.085400 0.619489
0.999423 0.085999 0.596369
1.000000 0.083238 0.560330
0.000000 0.172982 0.584359
0.089076 0.167831 0.598121
0.255136 0.167181 0.611091
0.404690 0.169888 0.621509
0.551014 0.174868 0.627614
0.698890 0.181091 0.627685
0.852103 0.187494 0.619865
1.000000 0.192977 0.602273
1.000000 0.196461 0.572952
0.000000 0.276979 0.568939
0.000000 0.271406 0.581752
0.233178 0.270621 0.594729
0.397684 0.273548 0.606137
0.551178 0.279094 0.614299
0.703987 0.286211 0.617387
0.861265 0.293837 0.613647
1.000000 0.300800 0.601154
1.000000 0.306409 0.578303
0.000000 0.386421 0.548414
0.000000 0.380286 0.559939
0.181755 0.379056 0.572598
0.378069 0.381665 0.584680
0.543131 0.387069 0.594482
0.702876 0.394186 0.600241
0.865428 0.401978 0.600187
1.000000 0.409326 0.592402
1.000000 0.415572 0.575586
0.000000 0.500909 0.521768
0.000000 0.493865 0.531673
0.001338 0.491808 0.543718
0.337512 0.493671 0.556159
0.522367 0.498409 0.567303
0.692303 0.504971 0.575396
0.861818 0.512297 0.578673
1.000000 0.519283 0.575231
1.000000 0.525347 0.564031
0.000000 0.620946 0.487569
0.000000 0.612662 0.495606
0.000000 0.609378 0.506782
0.255608 0.610078 0.519335
0.482151 0.613712 0.531552
0.667972 0.619239 0.541732
0.847147 0.625586 0.548053
1.000000 0.631712 0.548619
1.000000 0.636942 0.542646
0.000000 0.747425 0.443714
0.000000 0.737486 0.449626
0.000000 0.732583 0.459716
0.000000 0.731716 0.472241
0.408695 0.733808 0.485435
0.623445 0.737855 0.497500
0.817060 0.742772 0.506679
1.000000 0.747545 0.511031
1.000000 0.751444 0.510038
0.000000 0.881243 0.386242
0.000000 0.869273 0.389818
0.000000 0.862374 0.398869
0.000000 0.859520 0.411425
0.257837 0.859676 0.425688
0.546978 0.861798 0.439770
0.765132 0.864877 0.451858
0.971914 0.867838 0.460030
1.000000 0.869925 0.463824
0.000000 0.990427 0.314166
0.000000 0.990395 0.311786
0.000000 0.990367 0.317990
0.000000 0.990269 0.330173
0.000000 0.990111 0.345923
0.410690 0.989889 0.362869
0.682108 0.989561 0.378808
0.911850 0.989105 0.391509
1.000000 0.988700 0.400279
0.051076 0.106852 0.741245
0.138098 0.105305 0.758190
0.277355 0.106872 0.772892
0.421477 0.110530 0.783589
0.567791 0.115482 0.788561
0.718381 0.120888 0.786044
0.876221 0.125860 0.774250
1.000000 0.129250 0.751285
1.000000 0.131010 0.715582
0.000000 0.191480 0.728179
0.099677 0.189229 0.744531
0.261184 0.191207 0.759661
0.412765 0.196305 0.771814
0.563378 0.203501 0.779272
0.717250 0.211776 0.780283
0.878078 0.220109 0.773028
1.000000 0.227402 0.755679
1.000000 0.233419 0.726790
0.000000 0.287163 0.710596
0.000000 0.284603 0.726018
0.230034 0.286600 0.741195
0.396918 0.292085 0.754404
0.554675 0.299980 0.763965
0.713316 0.309269 0.768084
0.878018 0.318841 0.764977
1.000000 0.327611 0.752803
1.000000 0.335269 0.730279
0.000000 0.389113 0.687849
0.000000 0.386035 0.701951
0.166474 0.387651 0.716806
0.368568 0.392937 0.730739
0.538179 0.400818 0.742003
0.703762 0.410215 0.748844
0.873507 0.420067 0.749488
1.000000 0.429293 0.742136
1.000000 0.437479 0.725561
0.000000 0.496712 0.659081
0.000000 0.492774 0.671550
0.000000 0.493635 0.685775
0.318014 0.498247 0.700049
0.509148 0.505547 0.712682
0.685139 0.514489 0.721900
0.861750 0.524001 0.725955
1.000000 0.532994 0.722985
1.000000 0.540956 0.711989
0.000000 0.610382 0.623297
0.000000 0.605246 0.633804
0.000000 0.604953 0.647097
0.218428 0.608462 0.661431
0.459923 0.614724 0.675091
0.652863 0.622717 0.686386
0.839287 0.631343 0.693494
1.000000 0.639534 0.694591
1.000000 0.646725 0.688809
0.000000 0.730926 0.579041
0.000000 0.724174 0.587301
0.000000 0.722334 0.599378
0.000000 0.724335 0.613531
0.374085 0.729127 0.628000
0.599953 0.735696 0.641058
0.801596 0.742983 0.650979
1.000000 0.749915 0.655892
1.000000 0.755806 0.654891
0.000000 0.859216 0.524034
0.000000 0.850484 0.529798
0.000000 0.846684 0.540473
0.000000 0.846759 0.554278
0.183588 0.849681 0.569460
0.512983 0.854416 0.584181
0.741806 0.859902 0.596735
0.957573 0.865102 0.605236
1.000000 0.869229 0.608728
0.000000 0.990723 0.454962
0.000000 0.985108 0.457149
0.000000 0.978966 0.466420
0.000000 0.976717 0.479987
0.000000 0.977353 0.495979
0.352981 0.979827 0.512520
0.647607 0.983101 0.527816
0.888419 0.986134 0.539961
1.000000 0.988018 0.547801
0.076056 0.142777 0.897623
0.158519 0.142079 0.897604
0.295751 0.144741 0.897518
0.441991 0.149988 0.897352
0.592800 0.157114 0.897024
0.749749 0.165251 0.896549
0.915625 0.173488 0.895821
1.000000 0.180763 0.894764
1.000000 0.187912 0.885821
0.000000 0.219994 0.886348
0.113634 0.220203 0.897137
0.269511 0.224029 0.897028
0.422716 0.230968 0.896808
0.577518 0.240123 0.896460
0.737505 0.250493 0.895897
0.906047 0.261133 0.895096
1.000000 0.270888 0.893970
1.000000 0.280241 0.893206
0.000000 0.306808 0.866354
0.000000 0.307212 0.884512
0.228761 0.311815 0.896195
0.397037 0.319406 0.895931
0.558723 0.329381 0.895502
0.723167 0.340716 0.894857
0.895270 0.352366 0.893966
1.000000 0.363261 0.892772
1.000000 0.373443 0.891908
0.000000 0.400292 0.840956
0.000000 0.400273 0.857830
0.150083 0.404748 0.875075
0.358713 0.412686 0.890971
0.532666 0.422821 0.894053
0.703836 0.434346 0.893326
0.880713 0.446281 0.892369
1.000000 0.457508 0.891054
1.000000 0.467878 0.889857
0.000000 0.499945 0.809461
0.000000 0.499132 0.824701
0.000000 0.502935 0.841302
0.294864 0.510287 0.857576
0.493474 0.520150 0.871803
0.675685 0.531460 0.882241
0.859419 0.543158 0.887155
1.000000 0.554146 0.884681
1.000000 0.564026 0.873806
0.000000 0.606178 0.771044
0.000000 0.604193 0.784285
0.000000 0.606892 0.799924
0.165816 0.613239 0.816261
0.432292 0.622155 0.831557
0.633339 0.632603 0.844070
0.827303 0.643511 0.852092
1.000000 0.653799 0.853751
1.000000 0.662920 0.848035
0.000000 0.719707 0.724620
0.000000 0.716190 0.735576
0.000000 0.717389 0.749964
0.000000 0.722283 0.766045
0.327939 0.729807 0.782093
0.569344 0.738916 0.796395
0.779918 0.748576 0.807174
0.989745 0.757673 0.812644
1.000000 0.765537 0.811681
0.000000 0.841404 0.668692
0.000000 0.835952 0.677039
0.000000 0.835257 0.689881
0.000000 0.838294 0.705472
0.000000 0.843999 0.722036
0.467168 0.851350 0.737893
0.709705 0.859277 0.751207
0.935221 0.866737 0.760222
1.000000 0.872886 0.763696
0.000000 0.972222 0.600795
0.000000 0.964418 0.606246
0.000000 0.961432 0.617378
0.000000 0.962203 0.632352
0.000000 0.965694 0.649338
0.266540 0.970848 0.666606
0.602066 0.976637 0.682354
0.856187 0.981985 0.694769
1.000000 0.985954 0.702280
0.045120 0.181228 0.897408
0.160140 0.182919 0.897393
0.307725 0.188294 0.897270
0.460404 0.196475 0.897030
0.617531 0.206628 0.896657
0.781701 0.217780 0.896029
0.955993 0.228990 0.895173
1.000000 0.239042 0.893943
1.000000 0.250031 0.893530
0.000000 0.254752 0.896871
0.092820 0.257173 0.896830
0.267226 0.263669 0.896668
0.427870 0.273265 0.896397
0.589263 0.285019 0.895966
0.756461 0.297882 0.895303
0.933329 0.310891 0.894393
1.000000 0.322886 0.893076
1.000000 0.334798 0.892500
0.000000 0.334838 0.895997
0.000000 0.337569 0.895934
0.209559 0.344536 0.895771
0.388913 0.354770 0.895437
0.557859 0.367231 0.894940
0.729663 0.380957 0.894212
0.910012 0.394833 0.893202
1.000000 0.407813 0.891830
1.000000 0.420206 0.891084
0.000000 0.420691 0.894696
0.000000 0.423279 0.894653
0.095811 0.430211 0.894442
0.336146 0.440472 0.894059
0.519209 0.453083 0.893485
0.698200 0.466978 0.892697
0.883382 0.481113 0.891581
1.000000 0.494437 0.890150
1.000000 0.506829 0.889230
0.000000 0.512545 0.892856
0.000000 0.514532 0.892773
0.000000 0.520979 0.892552
0.253344 0.530805 0.892129
0.467308 0.543015 0.891485
0.658174 0.556585 0.890631
0.850399 0.570451 0.889444
1.000000 0.583554 0.887913
1.000000 0.595548 0.886860
0.000000 0.611054 0.890259
0.000000 0.612057 0.890223
0.000000 0.617538 0.889985
0.025776 0.626485 0.889546
0.390785 0.637853 0.888847
0.604023 0.650622 0.887916
0.807208 0.663737 0.886683
1.000000 0.676130 0.885103
1.000000 0.687273 0.883822
0.000000 0.717062 0.884602
0.000000 0.716652 0.886742
0.000000 0.720772 0.886529
0.000000 0.728388 0.886084
0.256293 0.738471 0.885363
0.526368 0.749993 0.884405
0.748459 0.761910 0.883129
0.968172 0.773155 0.881517
1.000000 0.782997 0.880036
0.000000 0.831111 0.826034
0.000000 0.828925 0.837247
0.000000 0.831367 0.852584
0.000000 0.837370 0.870252
0.000000 0.845838 0.880840
0.402685 0.855664 0.879867
0.665478 0.865943 0.878593
0.902673 0.875613 0.876991
1.000000 0.883726 0.875263
0.000000 0.954663 0.756761
0.000000 0.950210 0.765042
0.000000 0.950411 0.778516
0.000000 0.954193 0.795406
0.000000 0.960555 0.813942
0.063586 0.968414 0.832388
0.539231 0.976725 0.849013
0.811436 0.984437 0.861977
1.000000 0.990487 0.869323
