docs/luts/WW04_Emerald.cube
TITLE "Canon Picture Style - Emerald"
# Source: WW04_EMERALD.pf2 (PSE runtime memory extraction)
LUT_3D_SIZE 9
DOMAIN_MIN 0.0 0.0 0.0
DOMAIN_MAX 1.0 1.0 1.0
0.000000 0.001686 0.003515
0.126645 0.000959 0.002446
0.255319 0.000626 0.000000
0.383434 0.000000 0.000000
0.511519 0.000000 0.000000
0.639578 0.000000 0.000000
0.767634 0.000000 0.000000
0.895637 0.000000 0.000000
1.000000 0.000000 0.000000
0.011709 0.123654 0.000000
0.133415 0.123497 0.000000
0.258589 0.123367 0.000000
0.385526 0.122917 0.000000
0.513009 0.122001 0.000000
0.640699 0.120509 0.000000
0.768505 0.118318 0.000000
0.896362 0.115437 0.000000
1.000000 0.111615 0.000000
0.053574 0.247275 0.000000
0.148842 0.247213 0.000000
0.266686 0.247088 0.000000
0.390718 0.246821 0.000000
0.516695 0.246325 0.000000
0.643504 0.245610 0.000000
0.770738 0.244586 0.000000
0.898215 0.243230 0.000000
1.000000 0.241484 0.000000
0.101391 0.371004 0.000000
0.173137 0.370952 0.000000
0.280336 0.370842 0.000000
0.399605 0.370619 0.000000
0.523087 0.370298 0.000000
0.648384 0.369811 0.000000
0.774657 0.369139 0.000000
0.901452 0.368293 0.000000
1.000000 0.367220 0.000000
0.148905 0.494741 0.000000
0.204392 0.494705 0.000000
0.299675 0.494610 0.000000
0.412621 0.494442 0.000000
0.532559 0.494159 0.000000
0.655680 0.493816 0.000000
0.780489 0.493305 0.000000
0.906278 0.492710 0.000000
1.000000 0.491924 0.000000
0.196527 0.618455 0.000000
0.240581 0.618408 0.000000
0.324168 0.618326 0.000000
0.429721 0.618185 0.000000
0.545189 0.617975 0.000000
0.665479 0.617662 0.000000
0.788386 0.617286 0.000000
0.912827 0.616809 0.000000
1.000000 0.616207 0.000000
0.244182 0.742146 0.000000
0.279978 0.742123 0.000000
0.353139 0.742067 0.000000
0.450768 0.741940 0.000000
0.561037 0.741732 0.000000
0.677883 0.741483 0.000000
0.798438 0.741162 0.000000
0.921151 0.740771 0.000000
1.000000 0.740275 0.000000
0.291853 0.865845 0.000000
0.321656 0.865802 0.000000
0.385695 0.865751 0.000000
0.475438 0.865660 0.000000
0.580061 0.865493 0.000000
0.692972 0.865281 0.000000
0.810718 0.864987 0.000000
0.931434 0.864664 0.000000
1.000000 0.864255 0.000000
0.339522 0.989535 0.000000
0.364809 0.989540 0.000000
0.421165 0.989463 0.000000
0.503357 0.989376 0.000000
0.602038 0.989234 0.000000
0.710634 0.989066 0.000000
0.825218 0.988817 0.000000
0.943586 0.988529 0.000000
1.000000 0.988139 0.000000
0.000000 0.002610 0.106404
0.127561 0.001906 0.105932
0.255634 0.001775 0.104708
0.383600 0.000734 0.102380
0.511602 0.000000 0.098662
0.639618 0.000000 0.093307
0.767648 0.000000 0.085901
0.895686 0.000000 0.075771
1.000000 0.000000 0.061801
0.013833 0.124057 0.104876
0.133929 0.123996 0.104399
0.258845 0.123855 0.103102
0.385653 0.123373 0.100663
0.513091 0.122463 0.096879
0.640736 0.121003 0.091422
0.768548 0.118841 0.083849
0.896413 0.115925 0.073468
1.000000 0.112094 0.059120
0.054295 0.247500 0.100620
0.149174 0.247457 0.100080
0.266853 0.247328 0.098683
0.390779 0.247051 0.096115
0.516754 0.246568 0.092122
0.643512 0.245825 0.086357
0.770784 0.244804 0.078348
0.898246 0.243451 0.067324
1.000000 0.241694 0.051690
0.101820 0.371155 0.092279
0.173372 0.371087 0.091669
0.280479 0.370985 0.090126
0.399721 0.370765 0.087346
0.523162 0.370427 0.082955
0.648435 0.369941 0.076580
0.774698 0.369295 0.067633
0.901464 0.368428 0.054946
1.000000 0.367338 0.036343
0.149273 0.494823 0.078012
0.204660 0.494788 0.077330
0.299817 0.494689 0.075528
0.412737 0.494533 0.072283
0.532632 0.494255 0.067090
0.655718 0.493889 0.059403
0.780542 0.493405 0.048265
0.906314 0.492801 0.031825
1.000000 0.492013 0.011263
0.196844 0.618517 0.053804
0.240797 0.618481 0.052891
0.324344 0.618399 0.050453
0.429811 0.618243 0.045967
0.545264 0.618022 0.038561
0.665556 0.617723 0.028062
0.788433 0.617337 0.014289
0.912832 0.616860 0.000000
1.000000 0.616250 0.000000
0.244394 0.742198 0.010581
0.280185 0.742159 0.009412
0.353293 0.742095 0.006526
0.450858 0.741971 0.001413
0.561159 0.741799 0.000000
0.677973 0.741547 0.000000
0.798496 0.741209 0.000000
0.921211 0.740840 0.000000
1.000000 0.740346 0.000000
0.292035 0.865881 0.000000
0.321850 0.865876 0.000000
0.385910 0.865806 0.000000
0.475583 0.865691 0.000000
0.580123 0.865529 0.000000
0.693042 0.865313 0.000000
0.810761 0.865027 0.000000
0.931483 0.864707 0.000000
1.000000 0.864265 0.000000
0.339700 0.989584 0.000000
0.364957 0.989552 0.000000
0.421335 0.989514 0.000000
0.503459 0.989419 0.000000
0.602125 0.989266 0.000000
0.710733 0.989106 0.000000
0.825296 0.988854 0.000000
0.943621 0.988550 0.000000
1.000000 0.988196 0.000000
0.000185 0.005105 0.217174
0.128558 0.005060 0.217020
0.256159 0.004785 0.216527
0.383956 0.003704 0.215529
0.511846 0.001515 0.213897
0.639811 0.000000 0.211569
0.767815 0.000000 0.208467
0.895802 0.000000 0.204445
1.000000 0.000000 0.199445
0.016757 0.125251 0.216562
0.134924 0.125227 0.216358
0.259375 0.125045 0.215805
0.386003 0.124556 0.214733
0.513309 0.123650 0.213103
0.640904 0.122168 0.210731
0.768672 0.119989 0.207571
0.896499 0.117125 0.203549
1.000000 0.113347 0.198525
0.056738 0.248075 0.214670
0.150158 0.248030 0.214438
0.267358 0.247892 0.213836
0.391138 0.247611 0.212715
0.517002 0.247128 0.211001
0.643719 0.246397 0.208575
0.770921 0.245384 0.205368
0.898338 0.243979 0.201252
1.000000 0.242275 0.196174
0.103340 0.371488 0.210964
0.174316 0.371447 0.210730
0.281003 0.371318 0.210057
0.400088 0.371124 0.208906
0.523422 0.370796 0.207123
0.648655 0.370309 0.204611
0.774845 0.369631 0.201308
0.901607 0.368764 0.197107
1.000000 0.367678 0.191853
0.150443 0.495073 0.205080
0.205459 0.495034 0.204827
0.300354 0.494920 0.204115
0.413080 0.494770 0.202899
0.532876 0.494488 0.201022
0.655942 0.494132 0.198439
0.780696 0.493648 0.195001
0.906453 0.493030 0.190641
1.000000 0.492257 0.185160
0.197788 0.618694 0.196551
0.241499 0.618649 0.196258
0.324886 0.618577 0.195554
0.430168 0.618422 0.194248
0.545532 0.618209 0.192271
0.665768 0.617904 0.189526
0.788613 0.617545 0.185932
0.912979 0.617037 0.181273
1.000000 0.616423 0.175476
0.245159 0.742341 0.184761
0.280889 0.742308 0.184472
0.353788 0.742240 0.183701
0.451241 0.742123 0.182323
0.561435 0.741947 0.180196
0.678186 0.741684 0.177224
0.798673 0.741367 0.173307
0.921359 0.740961 0.168314
1.000000 0.740477 0.162027
0.292654 0.865983 0.168799
0.322453 0.865980 0.168471
0.386338 0.865913 0.167629
0.475935 0.865804 0.166068
0.580422 0.865639 0.163706
0.693272 0.865439 0.160433
0.810947 0.865157 0.156072
0.931598 0.864795 0.150405
1.000000 0.864403 0.143352
0.340335 0.989690 0.146990
0.365464 0.989649 0.146618
0.421757 0.989603 0.145576
0.503813 0.989522 0.143862
0.602424 0.989373 0.141061
0.710902 0.989179 0.137219
0.825479 0.988939 0.132028
0.943784 0.988638 0.125324
1.000000 0.988298 0.116796
0.006773 0.010471 0.327885
0.131100 0.010424 0.327828
0.257430 0.009961 0.327562
0.384773 0.008751 0.327016
0.512431 0.006472 0.326099
0.640263 0.002876 0.324759
0.768146 0.000000 0.322945
0.896049 0.000000 0.320603
1.000000 0.000000 0.317727
0.023298 0.127382 0.327581
0.137452 0.127341 0.327482
0.260691 0.127116 0.327180
0.386807 0.126600 0.326580
0.513909 0.125665 0.325636
0.641340 0.124195 0.324250
0.768998 0.122084 0.322436
0.896775 0.119191 0.320066
1.000000 0.115533 0.317172
0.062083 0.249068 0.326524
0.152520 0.249006 0.326382
0.268603 0.248868 0.326015
0.391928 0.248582 0.325376
0.517570 0.248091 0.324373
0.644152 0.247344 0.322989
0.771251 0.246330 0.321131
0.898621 0.244935 0.318728
1.000000 0.243235 0.315809
0.106823 0.372087 0.324331
0.176379 0.372028 0.324190
0.282248 0.371930 0.323817
0.400837 0.371704 0.323150
0.523965 0.371364 0.322098
0.649052 0.370881 0.320630
0.775191 0.370237 0.318744
0.901871 0.369354 0.316301
1.000000 0.368286 0.313332
0.152862 0.495477 0.320879
0.207276 0.495456 0.320730
0.301510 0.495342 0.320325
0.413850 0.495164 0.319599
0.533462 0.494896 0.318526
0.656349 0.494531 0.317011
0.781025 0.494046 0.315058
0.906745 0.493443 0.312591
1.000000 0.492674 0.309553
0.199607 0.619005 0.315920
0.243059 0.618970 0.315756
0.325945 0.618887 0.315322
0.430909 0.618722 0.314583
0.546106 0.618530 0.313467
0.666187 0.618202 0.311915
0.788916 0.617827 0.309898
0.913272 0.617347 0.307354
1.000000 0.616739 0.304227
0.246660 0.742564 0.309220
0.282194 0.742550 0.309043
0.354793 0.742492 0.308623
0.451962 0.742369 0.307877
0.561942 0.742167 0.306696
0.678615 0.741931 0.305120
0.799024 0.741611 0.303024
0.921600 0.741190 0.300394
1.000000 0.740703 0.297179
0.293942 0.866175 0.300589
0.323562 0.866168 0.300415
0.387245 0.866091 0.299960
0.476612 0.865995 0.299176
0.580939 0.865846 0.297977
0.693668 0.865622 0.296314
0.811312 0.865363 0.294151
0.931866 0.864994 0.291404
1.000000 0.864596 0.288078
0.341335 0.989848 0.289732
0.366468 0.989808 0.289534
0.422625 0.989777 0.289085
0.504490 0.989672 0.288243
0.602973 0.989547 0.286975
0.711328 0.989336 0.285203
0.825820 0.989110 0.282966
0.944034 0.988800 0.280080
1.000000 0.988458 0.276592
0.018101 0.018299 0.438608
0.135502 0.018119 0.438568
0.259673 0.017533 0.438420
0.386183 0.016233 0.438090
0.513442 0.013834 0.437480
0.640984 0.010213 0.436618
0.768753 0.005081 0.435432
0.896544 0.000000 0.433840
1.000000 0.000000 0.431923
0.034856 0.130409 0.438422
0.141726 0.130332 0.438359
0.262881 0.130062 0.438173
0.388249 0.129557 0.437812
0.514913 0.128576 0.437193
0.642139 0.127129 0.436295
0.769607 0.125014 0.435066
0.897295 0.122237 0.433508
1.000000 0.118659 0.431573
0.070542 0.250540 0.437764
0.156483 0.250482 0.437676
0.270801 0.250313 0.437442
0.393331 0.250022 0.437036
0.518577 0.249522 0.436379
0.644930 0.248780 0.435439
0.771848 0.247732 0.434175
0.899108 0.246386 0.432603
1.000000 0.244640 0.430651
0.112498 0.372955 0.436304
0.179945 0.372925 0.436231
0.284340 0.372790 0.435966
0.402223 0.372586 0.435509
0.524949 0.372250 0.434820
0.649841 0.371768 0.433854
0.775765 0.371088 0.432584
0.902356 0.370219 0.430950
1.000000 0.369167 0.428982
0.157058 0.496101 0.433984
0.210274 0.496059 0.433877
0.303446 0.495939 0.433588
0.415172 0.495776 0.433126
0.534406 0.495531 0.432453
0.657078 0.495141 0.431409
0.781604 0.494651 0.430103
0.907203 0.494040 0.428449
1.000000 0.493262 0.426422
0.202769 0.619440 0.430647
0.245562 0.619426 0.430551
0.327740 0.619329 0.430256
0.432239 0.619197 0.429766
0.547045 0.618970 0.429015
0.666928 0.618676 0.427979
0.789514 0.618294 0.426622
0.913743 0.617807 0.424941
1.000000 0.617199 0.422871
0.249178 0.742939 0.426140
0.284280 0.742884 0.426024
0.356393 0.742823 0.425745
0.453148 0.742713 0.425229
0.562860 0.742511 0.424453
0.679302 0.742272 0.423403
0.799590 0.741951 0.422015
0.922087 0.741549 0.420277
1.000000 0.741074 0.418177
0.295968 0.866479 0.420395
0.325332 0.866435 0.420258
0.388679 0.866380 0.419958
0.477748 0.866297 0.419455
0.581815 0.866119 0.418646
0.694389 0.865930 0.417596
0.811853 0.865646 0.416174
0.932350 0.865293 0.414387
1.000000 0.864886 0.412220
0.343099 0.990079 0.413245
0.368046 0.990053 0.413116
0.423907 0.990012 0.412846
0.505537 0.989913 0.412290
0.603781 0.989780 0.411489
0.712000 0.989574 0.410365
0.826357 0.989360 0.408925
0.944507 0.989046 0.407070
1.000000 0.988706 0.404890
0.035543 0.028667 0.549297
0.141932 0.028434 0.549280
0.263039 0.027726 0.549174
0.388310 0.026285 0.548943
0.514928 0.023799 0.548529
0.642152 0.020119 0.547940
0.769619 0.014748 0.547069
0.897271 0.007871 0.545940
1.000000 0.000000 0.544551
0.051569 0.134361 0.549179
0.147969 0.134239 0.549110
0.266149 0.133957 0.548993
0.390337 0.133420 0.548758
0.516369 0.132442 0.548321
0.643232 0.130987 0.547692
0.770521 0.128961 0.546848
0.898011 0.126198 0.545702
1.000000 0.122699 0.544291
0.081873 0.252468 0.548713
0.162270 0.252418 0.548651
0.273969 0.252233 0.548489
0.395430 0.251937 0.548220
0.520024 0.251428 0.547733
0.646033 0.250670 0.547086
0.772728 0.249648 0.546177
0.899826 0.248274 0.545036
1.000000 0.246573 0.543596
0.120591 0.374160 0.547701
0.185008 0.374101 0.547623
0.287363 0.373991 0.547447
0.404248 0.373791 0.547143
0.526432 0.373442 0.546643
0.650922 0.372949 0.545943
0.776668 0.372276 0.545024
0.903067 0.371426 0.543851
1.000000 0.370328 0.542383
0.162901 0.496895 0.546009
0.214630 0.496870 0.545935
0.306310 0.496768 0.545735
0.417133 0.496606 0.545402
0.535798 0.496344 0.544885
0.658205 0.495988 0.544169
0.782475 0.495495 0.543211
0.907892 0.494865 0.542002
1.000000 0.494095 0.540560
0.207311 0.620050 0.543559
0.249244 0.620033 0.543492
0.330390 0.619946 0.543290
0.434093 0.619805 0.542929
0.548432 0.619592 0.542403
0.667944 0.619278 0.541645
0.790338 0.618907 0.540688
0.914411 0.618418 0.539440
1.000000 0.617816 0.537955
0.252813 0.743401 0.540292
0.287404 0.743367 0.540220
0.358814 0.743324 0.540024
0.454941 0.743192 0.539652
0.564201 0.743022 0.539096
0.680351 0.742750 0.538323
0.800403 0.742431 0.537305
0.922794 0.742062 0.536071
1.000000 0.741541 0.534512
0.298960 0.866867 0.536114
0.327953 0.866832 0.536019
0.390836 0.866791 0.535821
0.479384 0.866658 0.535418
0.583082 0.866508 0.534846
0.695355 0.866295 0.534062
0.812679 0.866023 0.533040
0.933036 0.865701 0.531771
1.000000 0.865294 0.530213
0.345508 0.990393 0.530904
0.370355 0.990392 0.530842
0.425793 0.990316 0.530602
0.507036 0.990222 0.530196
0.604987 0.990100 0.529627
0.713021 0.989926 0.528851
0.827133 0.989669 0.527780
0.945174 0.989379 0.526458
1.000000 0.989026 0.524895
0.057446 0.041763 0.659992
0.150438 0.041443 0.659952
0.267456 0.040661 0.659872
0.391185 0.039055 0.659711
0.516994 0.036542 0.659421
0.643672 0.032601 0.658965
0.770857 0.027314 0.658333
0.898260 0.020454 0.657500
1.000000 0.011620 0.656448
0.069863 0.139174 0.659884
0.156145 0.139048 0.659832
0.270574 0.138753 0.659758
0.393156 0.138181 0.659583
0.518417 0.137211 0.659255
0.644765 0.135778 0.658802
0.771737 0.133799 0.658179
0.899007 0.131105 0.657311
1.000000 0.127685 0.656234
0.095718 0.254914 0.659533
0.169834 0.254847 0.659498
0.278333 0.254686 0.659390
0.398223 0.254366 0.659194
0.522031 0.253828 0.658837
0.647540 0.253077 0.658328
0.773953 0.252062 0.657684
0.900823 0.250685 0.656799
1.000000 0.248999 0.655727
0.130629 0.375669 0.658800
0.191659 0.375628 0.658736
0.291482 0.375528 0.658625
0.406952 0.375289 0.658384
0.528398 0.374954 0.658027
0.652430 0.374445 0.657495
0.777859 0.373789 0.656786
0.904031 0.372916 0.655902
1.000000 0.371854 0.654800
0.170622 0.497961 0.657543
0.220349 0.497921 0.657478
0.310161 0.497826 0.657335
0.419762 0.497658 0.657075
0.537739 0.497386 0.656674
0.659664 0.497034 0.656145
0.783651 0.496532 0.655395
0.908849 0.495917 0.654485
1.000000 0.495134 0.653364
0.213300 0.620832 0.655668
0.254193 0.620807 0.655608
0.333887 0.620743 0.655480
0.436608 0.620578 0.655185
0.550296 0.620369 0.654766
0.669435 0.620090 0.654217
0.791509 0.619680 0.653443
0.915413 0.619220 0.652521
1.000000 0.618610 0.651355
0.257636 0.744008 0.653147
0.291559 0.743987 0.653074
0.361968 0.743937 0.652943
0.457339 0.743819 0.652650
0.566018 0.743617 0.652227
0.681779 0.743390 0.651652
0.801539 0.743057 0.650877
0.923723 0.742665 0.649925
1.000000 0.742200 0.648765
0.302939 0.867362 0.649943
0.331581 0.867350 0.649876
0.393748 0.867289 0.649719
0.481592 0.867172 0.649424
0.584801 0.867009 0.648975
0.696774 0.866823 0.648403
0.813809 0.866540 0.647592
0.933979 0.866209 0.646631
1.000000 0.865802 0.645432
0.348878 0.990813 0.645937
0.373415 0.990814 0.645886
0.428409 0.990741 0.645699
0.509157 0.990646 0.645397
0.606636 0.990508 0.644955
0.714334 0.990331 0.644346
0.828229 0.990096 0.643535
0.946102 0.989792 0.642534
1.000000 0.989431 0.641332
0.079219 0.055732 0.770665
0.160730 0.055438 0.770615
0.273119 0.054721 0.770556
0.394827 0.053432 0.770454
0.519606 0.051093 0.770219
0.645643 0.047708 0.769875
0.772424 0.042808 0.769395
0.899585 0.035915 0.768752
1.000000 0.027123 0.767912
0.089098 0.144859 0.770555
0.166209 0.144742 0.770535
0.276234 0.144417 0.770462
0.396837 0.143814 0.770329
0.521019 0.142855 0.770100
0.646744 0.141477 0.769753
0.773300 0.139553 0.769254
0.900303 0.136950 0.768609
1.000000 0.133698 0.767765
0.111234 0.257899 0.770325
0.179085 0.257811 0.770271
0.283777 0.257650 0.770186
0.401794 0.257296 0.770017
0.524624 0.256780 0.769778
0.649515 0.256035 0.769402
0.775472 0.254997 0.768865
0.902110 0.253676 0.768203
1.000000 0.251970 0.767363
0.142644 0.377532 0.769732
0.199901 0.377493 0.769701
0.296667 0.377360 0.769579
0.410489 0.377128 0.769408
0.530942 0.376798 0.769128
0.654382 0.376305 0.768737
0.779373 0.375617 0.768176
0.905339 0.374760 0.767488
1.000000 0.373690 0.766620
0.180057 0.499243 0.768746
0.227527 0.499224 0.768707
0.315036 0.499137 0.768617
0.423141 0.498938 0.768387
0.540230 0.498676 0.768079
0.661573 0.498308 0.767645
0.785192 0.497823 0.767091
0.910116 0.497217 0.766362
1.000000 0.496426 0.765459
0.220844 0.621799 0.767291
0.260350 0.621771 0.767250
0.338398 0.621702 0.767127
0.439858 0.621538 0.766897
0.552680 0.621348 0.766583
0.671316 0.621064 0.766136
0.793047 0.620667 0.765555
0.916631 0.620181 0.764801
1.000000 0.619589 0.763895
0.263798 0.744793 0.765304
0.296903 0.744737 0.765219
0.366101 0.744700 0.765129
0.460406 0.744568 0.764897
0.568352 0.744397 0.764552
0.683615 0.744125 0.764087
0.803020 0.743844 0.763493
0.924968 0.743440 0.762718
1.000000 0.742930 0.761766
0.308011 0.867971 0.762702
0.336140 0.867973 0.762683
0.397425 0.867886 0.762533
0.484525 0.867798 0.762293
0.587113 0.867635 0.761939
0.698535 0.867431 0.761485
0.815251 0.867145 0.760833
0.935142 0.866822 0.760089
1.000000 0.866411 0.759138
0.353166 0.991334 0.759528
0.377324 0.991302 0.759470
0.431725 0.991262 0.759364
0.511845 0.991164 0.759104
0.608788 0.991029 0.758762
0.716062 0.990859 0.758291
0.829668 0.990604 0.757626
0.947261 0.990310 0.756814
1.000000 0.989962 0.755865
0.100927 0.069719 0.881317
0.172794 0.069470 0.881292
0.280120 0.068769 0.881242
0.399345 0.067560 0.881153
0.522795 0.065615 0.880973
0.648143 0.062712 0.880704
0.774366 0.058590 0.880329
0.901175 0.053027 0.879818
1.000000 0.045240 0.879163
0.109226 0.151340 0.881217
0.177812 0.151249 0.881229
0.283035 0.150908 0.881162
0.401286 0.150314 0.881063
0.524261 0.149362 0.880877
0.649185 0.147984 0.880605
0.775236 0.146108 0.880208
0.901857 0.143615 0.879690
1.000000 0.140448 0.879014
0.128253 0.261375 0.881016
0.189978 0.261307 0.880993
0.290384 0.261139 0.880946
0.406219 0.260789 0.880823
0.527808 0.260284 0.880628
0.651938 0.259513 0.880326
0.777448 0.258476 0.879914
0.903721 0.257142 0.879374
1.000000 0.255464 0.878696
0.156446 0.379754 0.880593
0.209744 0.379706 0.880567
0.303040 0.379582 0.880477
0.414782 0.379335 0.880310
0.534049 0.378992 0.880105
0.656788 0.378491 0.879773
0.781323 0.377841 0.879359
0.906901 0.376978 0.878787
1.000000 0.375900 0.878105
0.190986 0.500802 0.879789
0.236162 0.500766 0.879757
0.320958 0.500679 0.879688
0.427313 0.500490 0.879506
0.543322 0.500219 0.879255
0.663980 0.499877 0.878949
0.787099 0.499383 0.878473
0.911688 0.498737 0.877868
1.000000 0.497982 0.877176
0.229779 0.622974 0.878628
0.267837 0.622928 0.878578
0.343899 0.622866 0.878510
0.443811 0.622726 0.878328
0.555718 0.622509 0.878057
0.673635 0.622216 0.877698
0.794940 0.621831 0.877213
0.918174 0.621354 0.876626
1.000000 0.620724 0.875853
0.271131 0.745684 0.877006
0.303278 0.745675 0.876981
0.371117 0.745593 0.876865
0.464188 0.745478 0.876689
0.571248 0.745288 0.876390
0.685873 0.745071 0.876035
0.804884 0.744745 0.875536
0.926473 0.744356 0.874925
1.000000 0.743875 0.874153
0.314171 0.868705 0.874900
0.341719 0.868708 0.874878
0.401948 0.868631 0.874745
0.488080 0.868540 0.874568
0.589869 0.868382 0.874278
0.700761 0.868187 0.873912
0.817046 0.867903 0.873365
0.936641 0.867561 0.872740
1.000000 0.867146 0.871956
0.358410 0.991957 0.872296
0.382208 0.991910 0.872208
0.435866 0.991877 0.872125
0.515130 0.991782 0.871923
0.611454 0.991648 0.871645
0.718192 0.991463 0.871222
0.831459 0.991244 0.870722
0.948762 0.990951 0.870071
1.000000 0.990609 0.869315
