docs/luts/WW04_Emerald.cube
TITLE "Canon Picture Style - Emerald"
# Source: WW04_EMERALD.pf2 (PSE runtime memory extraction)
LUT_3D_SIZE 5
DOMAIN_MIN 0.0 0.0 0.0
DOMAIN_MAX 1.0 1.0 1.0
0.000000 0.001686 0.003515
0.255319 0.000626 0.000000
0.511519 0.000000 0.000000
0.767634 0.000000 0.000000
1.000000 0.000000 0.000000
0.053574 0.247275 0.000000
0.266686 0.247088 0.000000
0.516695 0.246325 0.000000
0.770738 0.244586 0.000000
1.000000 0.241484 0.000000
0.148905 0.494741 0.000000
0.299675 0.494610 0.000000
0.532559 0.494159 0.000000
0.780489 0.493305 0.000000
1.000000 0.491924 0.000000
0.244182 0.742146 0.000000
0.353139 0.742067 0.000000
0.561037 0.741732 0.000000
0.798438 0.741162 0.000000
1.000000 0.740275 0.000000
0.339522 0.989535 0.000000
0.421165 0.989463 0.000000
0.602038 0.989234 0.000000
0.825218 0.988817 0.000000
1.000000 0.988139 0.000000
0.000185 0.005105 0.217174
0.256159 0.004785 0.216527
0.511846 0.001515 0.213897
0.767815 0.000000 0.208467
1.000000 0.000000 0.199445
0.056738 0.248075 0.214670
0.267358 0.247892 0.213836
0.517002 0.247128 0.211001
0.770921 0.245384 0.205368
1.000000 0.242275 0.196174
0.150443 0.495073 0.205080
0.300354 0.494920 0.204115
0.532876 0.494488 0.201022
0.780696 0.493648 0.195001
1.000000 0.492257 0.185160
0.245159 0.742341 0.184761
0.353788 0.742240 0.183701
0.561435 0.741947 0.180196
0.798673 0.741367 0.173307
1.000000 0.740477 0.162027
0.340335 0.989690 0.146990
0.421757 0.989603 0.145576
0.602424 0.989373 0.141061
0.825479 0.988939 0.132028
1.000000 0.988298 0.116796
0.018101 0.018299 0.438608
0.259673 0.017533 0.438420
0.513442 0.013834 0.437480
0.768753 0.005081 0.435432
1.000000 0.000000 0.431923
0.070542 0.250540 0.437764
0.270801 0.250313 0.437442
0.518577 0.249522 0.436379
0.771848 0.247732 0.434175
1.000000 0.244640 0.430651
0.157058 0.496101 0.433984
0.303446 0.495939 0.433588
0.534406 0.495531 0.432453
0.781604 0.494651 0.430103
1.000000 0.493262 0.426422
0.249178 0.742939 0.426140
0.356393 0.742823 0.425745
0.562860 0.742511 0.424453
0.799590 0.741951 0.422015
1.000000 0.741074 0.418177
0.343099 0.990079 0.413245
0.423907 0.990012 0.412846
0.603781 0.989780 0.411489
0.826357 0.989360 0.408925
1.000000 0.988706 0.404890
0.057446 0.041763 0.659992
0.267456 0.040661 0.659872
0.516994 0.036542 0.659421
0.770857 0.027314 0.658333
1.000000 0.011620 0.656448
0.095718 0.254914 0.659533
0.278333 0.254686 0.659390
0.522031 0.253828 0.658837
0.773953 0.252062 0.657684
1.000000 0.248999 0.655727
0.170622 0.497961 0.657543
0.310161 0.497826 0.657335
0.537739 0.497386 0.656674
0.783651 0.496532 0.655395
1.000000 0.495134 0.653364
0.257636 0.744008 0.653147
0.361968 0.743937 0.652943
0.566018 0.743617 0.652227
0.801539 0.743057 0.650877
1.000000 0.742200 0.648765
0.348878 0.990813 0.645937
0.428409 0.990741 0.645699
0.606636 0.990508 0.644955
0.828229 0.990096 0.643535
1.000000 0.989431 0.641332
0.100927 0.069719 0.881317
0.280120 0.068769 0.881242
0.522795 0.065615 0.880973
0.774366 0.058590 0.880329
1.000000 0.045240 0.879163
0.128253 0.261375 0.881016
0.290384 0.261139 0.880946
0.527808 0.260284 0.880628
0.777448 0.258476 0.879914
1.000000 0.255464 0.878696
0.190986 0.500802 0.879789
0.320958 0.500679 0.879688
0.543322 0.500219 0.879255
0.787099 0.499383 0.878473
1.000000 0.497982 0.877176
0.271131 0.745684 0.877006
0.371117 0.745593 0.876865
0.571248 0.745288 0.876390
0.804884 0.744745 0.875536
1.000000 0.743875 0.874153
0.358410 0.991957 0.872296
0.435866 0.991877 0.872125
0.611454 0.991648 0.871645
0.831459 0.991244 0.870722
1.000000 0.990609 0.869315
