docs/luts/WW04_Emerald.cube
TITLE "Canon Picture Style - Emerald"
# Source: WW04_EMERALD.pf2 (PSE runtime memory extraction)
LUT_3D_SIZE 33
DOMAIN_MIN 0.0 0.0 0.0
DOMAIN_MAX 1.0 1.0 1.0
0.000000 0.001686 0.003515
0.026583 0.001555 0.003328
0.060227 0.001413 0.003127
0.093738 0.001210 0.002840
0.126645 0.000959 0.002446
0.159202 0.000698 0.001926
0.191240 0.000740 0.001308
0.223273 0.000716 0.000533
0.255319 0.000626 0.000000
0.287385 0.000482 0.000000
0.319400 0.000258 0.000000
0.351384 0.000000 0.000000
0.383434 0.000000 0.000000
0.415441 0.000000 0.000000
0.447471 0.000000 0.000000
0.479489 0.000000 0.000000
0.511519 0.000000 0.000000
0.543520 0.000000 0.000000
0.575536 0.000000 0.000000
0.607549 0.000000 0.000000
0.639578 0.000000 0.000000
0.671567 0.000000 0.000000
0.703576 0.000000 0.000000
0.735629 0.000000 0.000000
0.767634 0.000000 0.000000
0.799634 0.000000 0.000000
0.831620 0.000000 0.000000
0.863626 0.000000 0.000000
0.895637 0.000000 0.000000
0.927669 0.000000 0.000000
0.959690 0.000000 0.000000
0.991672 0.000000 0.000000
1.000000 0.000000 0.000000
0.000000 0.032397 0.002871
0.029744 0.032266 0.002684
0.062599 0.032146 0.002499
0.095429 0.031963 0.002200
0.127896 0.031703 0.001818
0.160072 0.031532 0.001275
0.192009 0.031574 0.000663
0.223928 0.031515 0.000000
0.255880 0.031414 0.000000
0.287862 0.031257 0.000000
0.319828 0.031033 0.000000
0.351767 0.030760 0.000000
0.383786 0.030405 0.000000
0.415761 0.029962 0.000000
0.447773 0.029534 0.000000
0.479765 0.028925 0.000000
0.511762 0.028205 0.000000
0.543754 0.027491 0.000000
0.575771 0.026668 0.000000
0.607754 0.025723 0.000000
0.639758 0.024736 0.000000
0.671764 0.023638 0.000000
0.703753 0.022328 0.000000
0.735755 0.021057 0.000000
0.767766 0.019630 0.000000
0.799775 0.018061 0.000000
0.831758 0.016483 0.000000
0.863780 0.014795 0.000000
0.895790 0.012893 0.000000
0.927779 0.010778 0.000000
0.959783 0.008805 0.000000
0.991810 0.006639 0.000000
1.000000 0.004374 0.000000
0.000000 0.062349 0.002173
0.033229 0.062252 0.001986
0.065158 0.062153 0.001773
0.097227 0.062028 0.001502
0.129298 0.061842 0.001108
0.161058 0.061807 0.000587
0.192834 0.061801 0.000000
0.224637 0.061744 0.000000
0.256495 0.061667 0.000000
0.288419 0.061563 0.000000
0.320320 0.061398 0.000000
0.352207 0.061160 0.000000
0.384199 0.060922 0.000000
0.416130 0.060562 0.000000
0.448096 0.060205 0.000000
0.480049 0.059762 0.000000
0.512061 0.059242 0.000000
0.544002 0.058688 0.000000
0.575989 0.058030 0.000000
0.607982 0.057325 0.000000
0.639981 0.056501 0.000000
0.671968 0.055621 0.000000
0.703962 0.054605 0.000000
0.735968 0.053538 0.000000
0.767946 0.052315 0.000000
0.799930 0.051046 0.000000
0.831906 0.049635 0.000000
0.863942 0.048153 0.000000
0.895912 0.046478 0.000000
0.927903 0.044734 0.000000
0.959927 0.042819 0.000000
0.991914 0.040529 0.000000
1.000000 0.038222 0.000000
0.004868 0.092935 0.001147
0.038340 0.092877 0.000976
0.068724 0.092806 0.000763
0.099830 0.092709 0.000492
0.131084 0.092640 0.000071
0.162495 0.092645 0.000000
0.194015 0.092608 0.000000
0.225667 0.092568 0.000000
0.257383 0.092503 0.000000
0.289209 0.092417 0.000000
0.321013 0.092276 0.000000
0.352861 0.092134 0.000000
0.384760 0.091924 0.000000
0.416636 0.091690 0.000000
0.448551 0.091413 0.000000
0.480494 0.091094 0.000000
0.512459 0.090749 0.000000
0.544404 0.090332 0.000000
0.576362 0.089900 0.000000
0.608308 0.089374 0.000000
0.640298 0.088793 0.000000
0.672240 0.088138 0.000000
0.704231 0.087484 0.000000
0.736195 0.086739 0.000000
0.768173 0.085865 0.000000
0.800163 0.085093 0.000000
0.832165 0.084121 0.000000
0.864132 0.083117 0.000000
0.896111 0.082006 0.000000
0.928116 0.080856 0.000000
0.960113 0.079532 0.000000
0.992098 0.078188 0.000000
1.000000 0.076760 0.000000
0.011709 0.123654 0.000000
0.044943 0.123615 0.000000
0.073229 0.123540 0.000000
0.103005 0.123505 0.000000
0.133415 0.123497 0.000000
0.164375 0.123490 0.000000
0.195629 0.123482 0.000000
0.227034 0.123437 0.000000
0.258589 0.123367 0.000000
0.290254 0.123301 0.000000
0.321952 0.123193 0.000000
0.353699 0.123064 0.000000
0.385526 0.122917 0.000000
0.417336 0.122708 0.000000
0.449197 0.122521 0.000000
0.481110 0.122271 0.000000
0.513009 0.122001 0.000000
0.544877 0.121670 0.000000
0.576819 0.121329 0.000000
0.608746 0.120910 0.000000
0.640699 0.120509 0.000000
0.672639 0.120027 0.000000
0.704567 0.119498 0.000000
0.736526 0.118931 0.000000
0.768505 0.118318 0.000000
0.800456 0.117665 0.000000
0.832422 0.116950 0.000000
0.864395 0.116221 0.000000
0.896362 0.115437 0.000000
0.928374 0.114545 0.000000
0.960344 0.113637 0.000000
0.992320 0.112652 0.000000
1.000000 0.111615 0.000000
0.020307 0.154512 0.000000
0.052269 0.154472 0.000000
0.078315 0.154487 0.000000
0.106709 0.154470 0.000000
0.136366 0.154444 0.000000
0.166794 0.154424 0.000000
0.197624 0.154409 0.000000
0.228761 0.154378 0.000000
0.260085 0.154320 0.000000
0.291569 0.154247 0.000000
0.323118 0.154155 0.000000
0.354751 0.154040 0.000000
0.386484 0.153936 0.000000
0.418242 0.153792 0.000000
0.450011 0.153616 0.000000
0.481835 0.153402 0.000000
0.513695 0.153186 0.000000
0.545532 0.152928 0.000000
0.577407 0.152643 0.000000
0.609309 0.152348 0.000000
0.641224 0.152002 0.000000
0.673134 0.151594 0.000000
0.705050 0.151218 0.000000
0.736978 0.150758 0.000000
0.768926 0.150295 0.000000
0.800861 0.149751 0.000000
0.832815 0.149220 0.000000
0.864752 0.148604 0.000000
0.896687 0.147966 0.000000
0.928687 0.147309 0.000000
0.960643 0.146537 0.000000
0.992630 0.145791 0.000000
1.000000 0.144998 0.000000
0.029913 0.185408 0.000000
0.059849 0.185399 0.000000
0.084014 0.185396 0.000000
0.111118 0.185381 0.000000
0.139915 0.185371 0.000000
0.169736 0.185361 0.000000
0.200108 0.185319 0.000000
0.230900 0.185284 0.000000
0.261945 0.185246 0.000000
0.293194 0.185177 0.000000
0.324586 0.185102 0.000000
0.356062 0.185013 0.000000
0.387645 0.184892 0.000000
0.419295 0.184773 0.000000
0.451014 0.184624 0.000000
0.482730 0.184455 0.000000
0.514547 0.184283 0.000000
0.546334 0.184054 0.000000
0.578142 0.183801 0.000000
0.610006 0.183574 0.000000
0.641841 0.183282 0.000000
0.673717 0.182943 0.000000
0.705607 0.182612 0.000000
0.737505 0.182272 0.000000
0.769433 0.181883 0.000000
0.801328 0.181442 0.000000
0.833255 0.180978 0.000000
0.865184 0.180465 0.000000
0.897151 0.179994 0.000000
0.929082 0.179425 0.000000
0.961031 0.178864 0.000000
0.992987 0.178215 0.000000
1.000000 0.177579 0.000000
0.041414 0.216331 0.000000
0.068165 0.216328 0.000000
0.090513 0.216328 0.000000
0.116300 0.216320 0.000000
0.144062 0.216286 0.000000
0.173176 0.216260 0.000000
0.203051 0.216247 0.000000
0.233411 0.216201 0.000000
0.264156 0.216161 0.000000
0.295139 0.216107 0.000000
0.326285 0.216030 0.000000
0.357598 0.215940 0.000000
0.389062 0.215855 0.000000
0.420586 0.215752 0.000000
0.452198 0.215617 0.000000
0.483836 0.215470 0.000000
0.515552 0.215314 0.000000
0.547263 0.215138 0.000000
0.579017 0.214926 0.000000
0.610806 0.214700 0.000000
0.642617 0.214451 0.000000
0.674428 0.214199 0.000000
0.706273 0.213893 0.000000
0.738165 0.213611 0.000000
0.770023 0.213266 0.000000
0.801896 0.212921 0.000000
0.833812 0.212530 0.000000
0.865689 0.212115 0.000000
0.897616 0.211667 0.000000
0.929566 0.211211 0.000000
0.961492 0.210748 0.000000
0.993424 0.210187 0.000000
1.000000 0.209619 0.000000
0.053574 0.247275 0.000000
0.077098 0.247264 0.000000
0.097727 0.247262 0.000000
0.122104 0.247242 0.000000
0.148842 0.247213 0.000000
0.177161 0.247200 0.000000
0.206404 0.247163 0.000000
0.236298 0.247138 0.000000
0.266686 0.247088 0.000000
0.297412 0.247043 0.000000
0.328289 0.246967 0.000000
0.359418 0.246898 0.000000
0.390718 0.246821 0.000000
0.422097 0.246726 0.000000
0.453541 0.246593 0.000000
0.485088 0.246480 0.000000
0.516695 0.246325 0.000000
0.548315 0.246163 0.000000
0.580028 0.246011 0.000000
0.611748 0.245813 0.000000
0.643504 0.245610 0.000000
0.675283 0.245384 0.000000
0.707088 0.245123 0.000000
0.738882 0.244854 0.000000
0.770738 0.244586 0.000000
0.802575 0.244265 0.000000
0.834447 0.243952 0.000000
0.866309 0.243575 0.000000
0.898215 0.243230 0.000000
0.930097 0.242816 0.000000
0.962030 0.242396 0.000000
0.993928 0.241931 0.000000
1.000000 0.241484 0.000000
0.065672 0.278229 0.000000
0.086585 0.278212 0.000000
0.105556 0.278205 0.000000
0.128560 0.278203 0.000000
0.154195 0.278161 0.000000
0.181668 0.278160 0.000000
0.210249 0.278133 0.000000
0.239627 0.278095 0.000000
0.269601 0.278044 0.000000
0.299951 0.277984 0.000000
0.330607 0.277935 0.000000
0.361461 0.277859 0.000000
0.392572 0.277799 0.000000
0.423779 0.277693 0.000000
0.455110 0.277613 0.000000
0.486508 0.277474 0.000000
0.518027 0.277361 0.000000
0.549582 0.277223 0.000000
0.581180 0.277070 0.000000
0.612813 0.276893 0.000000
0.644525 0.276722 0.000000
0.676201 0.276504 0.000000
0.707981 0.276299 0.000000
0.739739 0.276048 0.000000
0.771556 0.275828 0.000000
0.803336 0.275538 0.000000
0.835191 0.275242 0.000000
0.867024 0.274943 0.000000
0.898889 0.274614 0.000000
0.930744 0.274259 0.000000
0.962622 0.273911 0.000000
0.994518 0.273515 0.000000
1.000000 0.273085 0.000000
0.077615 0.309121 0.000000
0.096342 0.309120 0.000000
0.113912 0.309126 0.000000
0.135498 0.309095 0.000000
0.160066 0.309098 0.000000
0.186601 0.309065 0.000000
0.214487 0.309026 0.000000
0.243296 0.309002 0.000000
0.272817 0.308956 0.000000
0.302835 0.308919 0.000000
0.333171 0.308869 0.000000
0.363781 0.308780 0.000000
0.394652 0.308722 0.000000
0.425683 0.308632 0.000000
0.456860 0.308542 0.000000
0.488148 0.308429 0.000000
0.519544 0.308329 0.000000
0.550978 0.308221 0.000000
0.582504 0.308080 0.000000
0.614037 0.307915 0.000000
0.645664 0.307748 0.000000
0.677317 0.307573 0.000000
0.709014 0.307370 0.000000
0.740714 0.307165 0.000000
0.772477 0.306953 0.000000
0.804238 0.306709 0.000000
0.835996 0.306442 0.000000
0.867830 0.306183 0.000000
0.899643 0.305890 0.000000
0.931471 0.305555 0.000000
0.963335 0.305272 0.000000
0.995187 0.304920 0.000000
1.000000 0.304547 0.000000
0.089475 0.340042 0.000000
0.106366 0.340046 0.000000
0.122580 0.340028 0.000000
0.142940 0.340032 0.000000
0.166353 0.340008 0.000000
0.192021 0.339990 0.000000
0.219163 0.339960 0.000000
0.247389 0.339936 0.000000
0.276398 0.339885 0.000000
0.306015 0.339849 0.000000
0.336025 0.339796 0.000000
0.366380 0.339741 0.000000
0.397010 0.339661 0.000000
0.427825 0.339592 0.000000
0.458836 0.339522 0.000000
0.489965 0.339392 0.000000
0.521229 0.339303 0.000000
0.552564 0.339196 0.000000
0.583967 0.339075 0.000000
0.615415 0.338927 0.000000
0.646971 0.338789 0.000000
0.678515 0.338600 0.000000
0.710151 0.338447 0.000000
0.741823 0.338246 0.000000
0.773508 0.338060 0.000000
0.805234 0.337848 0.000000
0.836972 0.337611 0.000000
0.868744 0.337368 0.000000
0.900476 0.337089 0.000000
0.932328 0.336829 0.000000
0.964120 0.336550 0.000000
0.995930 0.336236 0.000000
1.000000 0.335894 0.000000
0.101391 0.371004 0.000000
0.116731 0.371009 0.000000
0.131669 0.370999 0.000000
0.150821 0.370993 0.000000
0.173137 0.370952 0.000000
0.197883 0.370926 0.000000
0.224263 0.370911 0.000000
0.251859 0.370889 0.000000
0.280336 0.370842 0.000000
0.309531 0.370794 0.000000
0.339187 0.370763 0.000000
0.369240 0.370703 0.000000
0.399605 0.370619 0.000000
0.430211 0.370546 0.000000
0.461023 0.370496 0.000000
0.492005 0.370408 0.000000
0.523087 0.370298 0.000000
0.554300 0.370209 0.000000
0.585611 0.370083 0.000000
0.616968 0.369964 0.000000
0.648384 0.369811 0.000000
0.679883 0.369652 0.000000
0.711458 0.369508 0.000000
0.743062 0.369343 0.000000
0.774657 0.369139 0.000000
0.806299 0.368954 0.000000
0.837980 0.368743 0.000000
0.869689 0.368518 0.000000
0.901452 0.368293 0.000000
0.933199 0.368033 0.000000
0.964967 0.367766 0.000000
0.996779 0.367502 0.000000
1.000000 0.367220 0.000000
0.113246 0.401938 0.000000
0.127225 0.401923 0.000000
0.141108 0.401916 0.000000
0.159119 0.401910 0.000000
0.180393 0.401880 0.000000
0.204180 0.401853 0.000000
0.229761 0.401832 0.000000
0.256682 0.401800 0.000000
0.284659 0.401792 0.000000
0.313383 0.401746 0.000000
0.342622 0.401681 0.000000
0.372343 0.401624 0.000000
0.402484 0.401566 0.000000
0.432836 0.401490 0.000000
0.463435 0.401420 0.000000
0.494244 0.401364 0.000000
0.525183 0.401269 0.000000
0.556214 0.401159 0.000000
0.587409 0.401074 0.000000
0.618657 0.400940 0.000000
0.649991 0.400823 0.000000
0.681385 0.400673 0.000000
0.712859 0.400541 0.000000
0.744352 0.400370 0.000000
0.775927 0.400210 0.000000
0.807529 0.400022 0.000000
0.839157 0.399844 0.000000
0.870822 0.399640 0.000000
0.902498 0.399436 0.000000
0.934229 0.399192 0.000000
0.965925 0.398953 0.000000
0.997707 0.398709 0.000000
1.000000 0.398452 0.000000
0.125096 0.432854 0.000000
0.137934 0.432844 0.000000
0.150857 0.432835 0.000000
0.167794 0.432831 0.000000
0.188017 0.432810 0.000000
0.210873 0.432796 0.000000
0.235690 0.432789 0.000000
0.261933 0.432745 0.000000
0.289316 0.432712 0.000000
0.317553 0.432691 0.000000
0.346391 0.432622 0.000000
0.375784 0.432567 0.000000
0.405585 0.432527 0.000000
0.435680 0.432453 0.000000
0.466080 0.432383 0.000000
0.496676 0.432321 0.000000
0.527445 0.432228 0.000000
0.558320 0.432151 0.000000
0.589358 0.432025 0.000000
0.620483 0.431928 0.000000
0.651729 0.431805 0.000000
0.683028 0.431696 0.000000
0.714395 0.431552 0.000000
0.745862 0.431408 0.000000
0.777328 0.431254 0.000000
0.808878 0.431096 0.000000
0.840417 0.430918 0.000000
0.872038 0.430744 0.000000
0.903661 0.430545 0.000000
0.935315 0.430329 0.000000
0.966989 0.430101 0.000000
0.998709 0.429868 0.000000
1.000000 0.429621 0.000000
0.137038 0.463793 0.000000
0.148840 0.463809 0.000000
0.160888 0.463799 0.000000
0.176806 0.463791 0.000000
0.196054 0.463758 0.000000
0.217992 0.463733 0.000000
0.241990 0.463732 0.000000
0.267558 0.463704 0.000000
0.294320 0.463655 0.000000
0.322045 0.463627 0.000000
0.350474 0.463589 0.000000
0.379461 0.463527 0.000000
0.408968 0.463485 0.000000
0.438781 0.463411 0.000000
0.468918 0.463335 0.000000
0.499301 0.463264 0.000000
0.529906 0.463194 0.000000
0.560635 0.463110 0.000000
0.591532 0.463035 0.000000
0.622499 0.462919 0.000000
0.653617 0.462815 0.000000
0.684812 0.462690 0.000000
0.716110 0.462579 0.000000
0.747444 0.462423 0.000000
0.778864 0.462297 0.000000
0.810305 0.462137 0.000000
0.841776 0.461968 0.000000
0.873314 0.461793 0.000000
0.904920 0.461639 0.000000
0.936510 0.461419 0.000000
0.968175 0.461242 0.000000
0.999824 0.461020 0.000000
1.000000 0.460785 0.000000
0.148905 0.494741 0.000000
0.159792 0.494720 0.000000
0.171020 0.494713 0.000000
0.186110 0.494722 0.000000
0.204392 0.494705 0.000000
0.225486 0.494681 0.000000
0.248641 0.494648 0.000000
0.273488 0.494647 0.000000
0.299675 0.494610 0.000000
0.326860 0.494554 0.000000
0.354868 0.494539 0.000000
0.383472 0.494487 0.000000
0.412621 0.494442 0.000000
0.442131 0.494375 0.000000
0.472011 0.494294 0.000000
0.502156 0.494228 0.000000
0.532559 0.494159 0.000000
0.563128 0.494086 0.000000
0.593832 0.493990 0.000000
0.624695 0.493918 0.000000
0.655680 0.493816 0.000000
0.686724 0.493683 0.000000
0.717937 0.493584 0.000000
0.749191 0.493458 0.000000
0.780489 0.493305 0.000000
0.811840 0.493167 0.000000
0.843300 0.493015 0.000000
0.874751 0.492862 0.000000
0.906278 0.492710 0.000000
0.937818 0.492510 0.000000
0.969406 0.492322 0.000000
1.000000 0.492116 0.000000
1.000000 0.491924 0.000000
0.160821 0.525645 0.000000
0.170931 0.525658 0.000000
0.181429 0.525625 0.000000
0.195633 0.525644 0.000000
0.213073 0.525631 0.000000
0.233225 0.525593 0.000000
0.255650 0.525570 0.000000
0.279780 0.525557 0.000000
0.305336 0.525511 0.000000
0.332014 0.525496 0.000000
0.359490 0.525450 0.000000
0.387676 0.525393 0.000000
0.416507 0.525368 0.000000
0.445717 0.525299 0.000000
0.475320 0.525250 0.000000
0.505240 0.525175 0.000000
0.535424 0.525107 0.000000
0.565790 0.525035 0.000000
0.596360 0.524957 0.000000
0.627050 0.524850 0.000000
0.657877 0.524764 0.000000
0.688853 0.524666 0.000000
0.719911 0.524554 0.000000
0.751041 0.524427 0.000000
0.782265 0.524296 0.000000
0.813540 0.524178 0.000000
0.844926 0.524041 0.000000
0.876305 0.523890 0.000000
0.907746 0.523737 0.000000
0.939229 0.523563 0.000000
0.970750 0.523360 0.000000
1.000000 0.523186 0.000000
1.000000 0.522994 0.000000
0.172669 0.556577 0.000000
0.182114 0.556579 0.000000
0.191963 0.556562 0.000000
0.205403 0.556571 0.000000
0.222005 0.556566 0.000000
0.241371 0.556548 0.000000
0.262979 0.556517 0.000000
0.286401 0.556475 0.000000
0.311324 0.556473 0.000000
0.337409 0.556416 0.000000
0.364445 0.556404 0.000000
0.392217 0.556345 0.000000
0.420668 0.556317 0.000000
0.449528 0.556240 0.000000
0.478854 0.556182 0.000000
0.508540 0.556142 0.000000
0.538480 0.556062 0.000000
0.568606 0.555981 0.000000
0.599005 0.555898 0.000000
0.629572 0.555830 0.000000
0.660243 0.555725 0.000000
0.691087 0.555656 0.000000
0.722012 0.555537 0.000000
0.753062 0.555435 0.000000
0.784163 0.555303 0.000000
0.815355 0.555190 0.000000
0.846634 0.555067 0.000000
0.877954 0.554928 0.000000
0.909339 0.554776 0.000000
0.940774 0.554616 0.000000
0.972180 0.554432 0.000000
1.000000 0.554276 0.000000
1.000000 0.554087 0.000000
0.184640 0.587520 0.000000
0.193381 0.587496 0.000000
0.202642 0.587484 0.000000
0.215328 0.587478 0.000000
0.231137 0.587464 0.000000
0.249738 0.587447 0.000000
0.270575 0.587436 0.000000
0.293308 0.587426 0.000000
0.317606 0.587398 0.000000
0.343168 0.587361 0.000000
0.369686 0.587335 0.000000
0.397027 0.587290 0.000000
0.425041 0.587222 0.000000
0.453614 0.587188 0.000000
0.482612 0.587140 0.000000
0.512029 0.587090 0.000000
0.541749 0.587017 0.000000
0.571674 0.586943 0.000000
0.601887 0.586867 0.000000
0.632254 0.586790 0.000000
0.662785 0.586693 0.000000
0.693455 0.586593 0.000000
0.724259 0.586504 0.000000
0.755189 0.586394 0.000000
0.786227 0.586307 0.000000
0.817320 0.586187 0.000000
0.848502 0.586057 0.000000
0.879725 0.585933 0.000000
0.911023 0.585792 0.000000
0.942360 0.585615 0.000000
0.973754 0.585464 0.000000
1.000000 0.585330 0.000000
1.000000 0.585145 0.000000
0.196527 0.618455 0.000000
0.204789 0.618437 0.000000
0.213534 0.618442 0.000000
0.225500 0.618409 0.000000
0.240581 0.618408 0.000000
0.258353 0.618385 0.000000
0.278485 0.618369 0.000000
0.300556 0.618364 0.000000
0.324168 0.618326 0.000000
0.349167 0.618302 0.000000
0.375195 0.618261 0.000000
0.402066 0.618235 0.000000
0.429721 0.618185 0.000000
0.457915 0.618150 0.000000
0.486605 0.618082 0.000000
0.515721 0.618022 0.000000
0.545189 0.617975 0.000000
0.574891 0.617886 0.000000
0.604912 0.617832 0.000000
0.635093 0.617733 0.000000
0.665479 0.617662 0.000000
0.696012 0.617582 0.000000
0.726690 0.617476 0.000000
0.757495 0.617361 0.000000
0.788386 0.617286 0.000000
0.819396 0.617181 0.000000
0.850443 0.617046 0.000000
0.881575 0.616923 0.000000
0.912827 0.616809 0.000000
0.944089 0.616649 0.000000
0.975438 0.616520 0.000000
1.000000 0.616359 0.000000
1.000000 0.616207 0.000000
0.208408 0.649376 0.000000
0.216187 0.649364 0.000000
0.224392 0.649349 0.000000
0.235803 0.649344 0.000000
0.250160 0.649312 0.000000
0.267247 0.649331 0.000000
0.286622 0.649280 0.000000
0.308011 0.649264 0.000000
0.331051 0.649254 0.000000
0.355436 0.649222 0.000000
0.380952 0.649195 0.000000
0.407384 0.649149 0.000000
0.434590 0.649096 0.000000
0.462444 0.649072 0.000000
0.490837 0.649019 0.000000
0.519634 0.648949 0.000000
0.548846 0.648886 0.000000
0.578352 0.648853 0.000000
0.608122 0.648770 0.000000
0.638126 0.648705 0.000000
0.668345 0.648624 0.000000
0.698720 0.648546 0.000000
0.729270 0.648448 0.000000
0.759928 0.648359 0.000000
0.790711 0.648262 0.000000
0.821574 0.648159 0.000000
0.852560 0.648043 0.000000
0.883603 0.647906 0.000000
0.914710 0.647783 0.000000
0.945915 0.647645 0.000000
0.977182 0.647526 0.000000
1.000000 0.647365 0.000000
1.000000 0.647228 0.000000
0.220300 0.680283 0.000000
0.227677 0.680289 0.000000
0.235424 0.680281 0.000000
0.246227 0.680288 0.000000
0.259945 0.680247 0.000000
0.276308 0.680247 0.000000
0.295057 0.680247 0.000000
0.315756 0.680222 0.000000
0.338146 0.680173 0.000000
0.361987 0.680158 0.000000
0.387005 0.680135 0.000000
0.412958 0.680103 0.000000
0.439759 0.680047 0.000000
0.467233 0.680007 0.000000
0.495275 0.679963 0.000000
0.523802 0.679914 0.000000
0.552714 0.679866 0.000000
0.581969 0.679802 0.000000
0.611517 0.679725 0.000000
0.641330 0.679658 0.000000
0.671383 0.679587 0.000000
0.701569 0.679501 0.000000
0.731944 0.679408 0.000000
0.762505 0.679334 0.000000
0.793161 0.679227 0.000000
0.823925 0.679136 0.000000
0.854781 0.679030 0.000000
0.885703 0.678906 0.000000
0.916767 0.678790 0.000000
0.947876 0.678663 0.000000
0.979058 0.678549 0.000000
1.000000 0.678384 0.000000
1.000000 0.678257 0.000000
0.232212 0.711218 0.000000
0.239145 0.711226 0.000000
0.246549 0.711215 0.000000
0.256798 0.711207 0.000000
0.269877 0.711188 0.000000
0.285635 0.711169 0.000000
0.303660 0.711164 0.000000
0.323737 0.711128 0.000000
0.345503 0.711113 0.000000
0.368818 0.711092 0.000000
0.393243 0.711063 0.000000
0.418732 0.711019 0.000000
0.445136 0.710988 0.000000
0.472233 0.710961 0.000000
0.499896 0.710899 0.000000
0.528127 0.710843 0.000000
0.556787 0.710805 0.000000
0.585798 0.710753 0.000000
0.615129 0.710683 0.000000
0.644702 0.710611 0.000000
0.674570 0.710540 0.000000
0.704593 0.710465 0.000000
0.734825 0.710392 0.000000
0.765187 0.710285 0.000000
0.795756 0.710208 0.000000
0.826369 0.710089 0.000000
0.857127 0.709992 0.000000
0.887955 0.709905 0.000000
0.918901 0.709796 0.000000
0.949932 0.709664 0.000000
0.981007 0.709534 0.000000
1.000000 0.709407 0.000000
1.000000 0.709265 0.000000
0.244182 0.742146 0.000000
0.250690 0.742134 0.000000
0.257708 0.742142 0.000000
0.267459 0.742129 0.000000
0.279978 0.742123 0.000000
0.295106 0.742118 0.000000
0.312507 0.742107 0.000000
0.331951 0.742068 0.000000
0.353139 0.742067 0.000000
0.375861 0.742013 0.000000
0.399791 0.741984 0.000000
0.424830 0.741978 0.000000
0.450768 0.741940 0.000000
0.477486 0.741898 0.000000
0.504779 0.741847 0.000000
0.532697 0.741797 0.000000
0.561037 0.741732 0.000000
0.589804 0.741700 0.000000
0.618881 0.741635 0.000000
0.648271 0.741570 0.000000
0.677883 0.741483 0.000000
0.707773 0.741418 0.000000
0.737832 0.741341 0.000000
0.768082 0.741268 0.000000
0.798438 0.741162 0.000000
0.828958 0.741076 0.000000
0.859581 0.740967 0.000000
0.890337 0.740853 0.000000
0.921151 0.740771 0.000000
0.952089 0.740656 0.000000
0.983088 0.740541 0.000000
1.000000 0.740424 0.000000
1.000000 0.740275 0.000000
0.256098 0.773082 0.000000
0.262272 0.773062 0.000000
0.268897 0.773049 0.000000
0.278242 0.773062 0.000000
0.290229 0.773024 0.000000
0.304738 0.773027 0.000000
0.321555 0.772997 0.000000
0.340402 0.772999 0.000000
0.361002 0.772982 0.000000
0.383153 0.772952 0.000000
0.406546 0.772910 0.000000
0.431094 0.772892 0.000000
0.456593 0.772859 0.000000
0.482876 0.772809 0.000000
0.509877 0.772769 0.000000
0.537437 0.772727 0.000000
0.565513 0.772675 0.000000
0.593972 0.772628 0.000000
0.622825 0.772571 0.000000
0.651979 0.772496 0.000000
0.681436 0.772439 0.000000
0.711098 0.772378 0.000000
0.741015 0.772298 0.000000
0.771040 0.772196 0.000000
0.801301 0.772124 0.000000
0.831706 0.772045 0.000000
0.862190 0.771939 0.000000
0.892848 0.771848 0.000000
0.923567 0.771747 0.000000
0.954356 0.771642 0.000000
0.985291 0.771533 0.000000
1.000000 0.771404 0.000000
1.000000 0.771259 0.000000
0.267997 0.803994 0.000000
0.273853 0.803982 0.000000
0.280208 0.803995 0.000000
0.289121 0.803976 0.000000
0.300583 0.803979 0.000000
0.314599 0.803974 0.000000
0.330748 0.803947 0.000000
0.349032 0.803938 0.000000
0.369022 0.803898 0.000000
0.390645 0.803894 0.000000
0.413516 0.803842 0.000000
0.437599 0.803810 0.000000
0.462696 0.803796 0.000000
0.488594 0.803766 0.000000
0.515181 0.803716 0.000000
0.542398 0.803655 0.000000
0.570192 0.803636 0.000000
0.598363 0.803582 0.000000
0.626939 0.803497 0.000000
0.655851 0.803447 0.000000
0.685130 0.803398 0.000000
0.714575 0.803309 0.000000
0.744293 0.803255 0.000000
0.774211 0.803169 0.000000
0.804300 0.803102 0.000000
