docs/FineDetail_6D.cube
TITLE "Fine Detail for older cameras (Canon 6D / Digic5)"
# Generated from FDS.ICC (Canon Picture Style Editor)
# Profile: Fine Detail sRGB - scanner input to Lab PCS
# Conversion: ICC Lab -> XYZ D50 -> linear sRGB -> gamma sRGB
LUT_3D_SIZE 9
DOMAIN_MIN 0.0 0.0 0.0
DOMAIN_MAX 1.0 1.0 1.0
0.000000 0.001686 0.003515
0.122605 0.001016 0.002495
0.246227 0.000765 0.001623
0.368965 0.000047 0.000755
0.492097 0.000000 0.000000
0.616400 0.000000 0.000000
0.742585 0.000000 0.000000
0.871405 0.000000 0.000000
1.000000 0.000000 0.000000
0.013078 0.129125 0.000000
0.122270 0.128072 0.000000
0.245367 0.127331 0.000000
0.370196 0.126077 0.000000
0.495942 0.123535 0.000000
0.622929 0.119007 0.000000
0.751751 0.111672 0.000000
0.883104 0.100438 0.000000
1.000000 0.083835 0.000000
0.056964 0.256089 0.000000
0.130689 0.255653 0.000000
0.247209 0.255448 0.000000
0.371856 0.254858 0.000000
0.499032 0.253239 0.000000
0.628037 0.249946 0.000000
0.759070 0.244326 0.000000
0.892676 0.235648 0.000000
1.000000 0.223191 0.000000
0.105490 0.381806 0.000000
0.149903 0.381722 0.000000
0.253289 0.381891 0.000000
0.374714 0.381699 0.000000
0.501939 0.380570 0.000000
0.632124 0.377854 0.000000
0.764823 0.372949 0.000000
0.900257 0.365206 0.000000
1.000000 0.354023 0.000000
0.153509 0.506761 0.000000
0.178551 0.506840 0.000000
0.264682 0.507177 0.000000
0.379631 0.507185 0.000000
0.505074 0.506276 0.000000
0.635460 0.503844 0.000000
0.769207 0.499277 0.000000
0.906033 0.491962 0.000000
1.000000 0.481359 0.000000
0.201595 0.631584 0.000000
0.214382 0.631610 0.000000
0.282032 0.631920 0.000000
0.387334 0.631918 0.000000
0.509016 0.631027 0.000000
0.638410 0.628643 0.000000
0.772393 0.624150 0.000000
0.910151 0.616965 0.000000
1.000000 0.606528 0.000000
0.249853 0.756872 0.000000
0.255027 0.756646 0.000000
0.305433 0.756729 0.000000
0.398527 0.756530 0.000000
0.514364 0.755440 0.000000
0.641319 0.752878 0.000000
0.774717 0.748248 0.000000
0.912750 0.740953 0.000000
1.000000 0.730410 0.000000
0.298540 0.883252 0.000000
0.298264 0.882598 0.000000
0.334616 0.882253 0.000000
0.413929 0.881645 0.000000
0.521694 0.880155 0.000000
0.644748 0.877215 0.000000
0.776465 0.872220 0.000000
0.914064 0.864585 0.000000
1.000000 0.853719 0.000000
0.339491 0.989535 0.000000
0.339491 0.989535 0.000000
0.362262 0.989511 0.000000
0.428615 0.989454 0.000000
0.528077 0.989340 0.000000
0.646926 0.989169 0.000000
0.777046 0.988933 0.000000
0.914457 0.988514 0.000000
1.000000 0.977108 0.000000
0.006591 0.002660 0.112060
0.134437 0.001990 0.110673
0.257169 0.001980 0.111450
0.379440 0.001221 0.113282
0.501945 0.000000 0.115139
0.625399 0.000000 0.116004
0.750519 0.000000 0.114623
0.878072 0.000000 0.109578
1.000000 0.000000 0.098689
0.014868 0.126077 0.106433
0.134031 0.124124 0.104524
0.256912 0.122737 0.105209
0.381057 0.121124 0.107427
0.505862 0.118564 0.110242
0.631632 0.114337 0.112600
0.759080 0.107580 0.113405
0.888792 0.097369 0.111299
1.000000 0.082114 0.104462
0.056964 0.254451 0.094908
0.142036 0.252827 0.092024
0.259412 0.251768 0.092280
0.383361 0.250660 0.094618
0.509376 0.248824 0.098032
0.636892 0.245664 0.101572
0.766158 0.240489 0.104114
0.897756 0.232586 0.104418
1.000000 0.221335 0.101397
0.105868 0.381990 0.075261
0.160313 0.380511 0.070686
0.266189 0.379617 0.070077
0.387220 0.378709 0.072240
0.513071 0.377154 0.076124
0.641473 0.374376 0.080689
0.772096 0.369716 0.084860
0.905168 0.362562 0.087314
1.000000 0.352358 0.087767
0.154616 0.509098 0.040714
0.187775 0.507573 0.032182
0.278194 0.506666 0.029723
0.393268 0.505733 0.031293
0.517371 0.504221 0.035841
0.645729 0.501511 0.042287
0.777057 0.496997 0.048979
0.911179 0.490075 0.054130
1.000000 0.480203 0.058409
0.203554 0.636386 0.000000
0.222403 0.634612 0.000000
0.295882 0.633461 0.000000
0.402219 0.632336 0.000000
0.522746 0.630634 0.000000
0.649935 0.627756 0.000000
0.781246 0.623121 0.000000
0.915912 0.616126 0.000000
1.000000 0.606225 0.000000
0.252853 0.764445 0.000000
0.262354 0.762222 0.000000
0.319299 0.760648 0.000000
0.414688 0.759108 0.000000
0.529682 0.756999 0.000000
0.654484 0.753762 0.000000
0.784943 0.748769 0.000000
0.919600 0.741447 0.000000
1.000000 0.731242 0.000000
0.302683 0.893897 0.000000
0.306217 0.891038 0.000000
0.348277 0.888834 0.000000
0.431113 0.886673 0.000000
0.538780 0.883976 0.000000
0.659778 0.880153 0.000000
0.788447 0.874603 0.000000
0.922430 0.866731 0.000000
1.000000 0.855997 0.000000
0.339565 0.989529 0.000000
0.339844 0.989531 0.000000
0.372405 0.989500 0.000000
0.444700 0.989438 0.000000
0.545704 0.989333 0.000000
0.663257 0.989154 0.000000
0.790512 0.988910 0.000000
0.924267 0.988601 0.000000
1.000000 0.981107 0.000000
0.016949 0.005338 0.226546
0.140785 0.005360 0.225100
0.263321 0.005164 0.225982
0.385366 0.004301 0.228064
0.507497 0.002539 0.230369
0.630393 0.000000 0.231915
0.754768 0.000000 0.231639
0.881340 0.000000 0.228431
1.000000 0.000000 0.220984
0.024125 0.123411 0.223506
0.141320 0.120861 0.221493
0.263879 0.119178 0.222269
0.387527 0.117609 0.224772
0.511607 0.115408 0.228037
0.636495 0.111891 0.231061
0.762790 0.106179 0.232819
0.891153 0.097436 0.232251
1.000000 0.084195 0.228146
0.058252 0.251946 0.216469
0.149891 0.249494 0.213547
0.267385 0.247954 0.213904
0.390695 0.246676 0.216491
0.515722 0.245020 0.220353
0.641961 0.242350 0.224522
0.769751 0.238008 0.227990
0.899600 0.231277 0.229710
1.000000 0.221596 0.228743
0.106672 0.380429 0.205138
0.168181 0.377932 0.200932
0.275279 0.376344 0.200539
0.395660 0.375068 0.202950
0.520324 0.373484 0.207128
0.647177 0.371012 0.212189
0.775940 0.366983 0.217044
0.906912 0.360787 0.220734
1.000000 0.351891 0.222553
0.155529 0.508903 0.189074
0.195294 0.506154 0.183119
0.288247 0.504353 0.181638
0.403083 0.502865 0.183539
0.525860 0.501104 0.187827
0.652399 0.498499 0.193537
0.781574 0.494423 0.199617
0.913243 0.488250 0.205053
1.000000 0.479484 0.209360
0.204872 0.637896 0.167420
0.229341 0.634705 0.158899
0.306741 0.632465 0.155768
0.413485 0.630567 0.156843
0.532750 0.628429 0.161039
0.657971 0.625453 0.167332
0.786810 0.621046 0.174542
0.918705 0.614605 0.181686
1.000000 0.605600 0.188347
0.254726 0.767988 0.137867
0.268711 0.764149 0.125251
0.330690 0.761277 0.119388
0.427391 0.758765 0.119113
0.541451 0.756017 0.123135
0.664159 0.752473 0.130192
0.791957 0.747510 0.139007
0.923523 0.740544 0.148217
1.000000 0.731038 0.157456
0.305394 0.899777 0.093980
0.312137 0.895099 0.071989
0.359937 0.891389 0.058928
0.445203 0.888045 0.055254
0.552407 0.884510 0.059822
0.671389 0.880182 0.069944
0.797233 0.874446 0.082915
0.927863 0.866746 0.096664
1.000000 0.856493 0.110440
0.339915 0.989611 0.032424
0.344254 0.989594 0.000000
0.382782 0.989543 0.000000
0.459285 0.989481 0.000000
0.560879 0.989355 0.000000
0.676826 0.989180 0.000000
0.801297 0.988951 0.000000
0.931485 0.988662 0.000000
1.000000 0.982614 0.011937
0.023524 0.011105 0.339868
0.143870 0.010928 0.338303
0.265739 0.010579 0.338926
0.387595 0.009613 0.340685
0.509538 0.007780 0.342629
0.632107 0.004746 0.343727
0.755969 0.000313 0.343004
0.881808 0.000000 0.339411
1.000000 0.000000 0.331814
0.032463 0.122163 0.338791
0.145647 0.119388 0.336608
0.267291 0.117773 0.337112
0.390462 0.116581 0.339278
0.513993 0.115121 0.342123
0.638178 0.112677 0.344670
0.763578 0.108420 0.345927
0.890838 0.101634 0.344882
1.000000 0.091021 0.340446
0.063543 0.249548 0.334258
0.155326 0.246653 0.331132
0.272073 0.245000 0.331202
0.394606 0.243928 0.333416
0.518778 0.242804 0.336848
0.643978 0.241010 0.340501
0.770515 0.237866 0.343393
0.898881 0.232732 0.344562
1.000000 0.224896 0.342995
0.109151 0.378078 0.326317
0.174245 0.374927 0.321942
0.281244 0.373017 0.321233
0.400850 0.371755 0.323210
0.524407 0.370519 0.326908
0.649881 0.368712 0.331367
0.777085 0.365697 0.335613
0.906197 0.360856 0.338625
1.000000 0.353597 0.339621
0.157186 0.507142 0.315057
0.201485 0.503533 0.309042
0.295538 0.501186 0.307266
0.409772 0.499517 0.308701
0.531292 0.497904 0.312376
0.656189 0.495762 0.317366
0.783436 0.492482 0.322642
0.912920 0.487448 0.327260
1.000000 0.480137 0.330470
0.206251 0.637083 0.300497
0.235415 0.632839 0.292436
0.315116 0.629867 0.289180
0.421796 0.627568 0.289761
0.539793 0.625362 0.293139
0.663154 0.622663 0.298393
0.789820 0.618844 0.304478
0.919191 0.613332 0.310444
1.000000 0.605563 0.315588
0.256208 0.768458 0.282486
0.274454 0.763363 0.271787
0.340001 0.759544 0.266619
0.437305 0.756449 0.265973
0.550292 0.753434 0.268780
0.671050 0.749942 0.274056
0.796400 0.745375 0.280757
0.925145 0.739144 0.287910
1.000000 0.730686 0.294755
0.307226 0.901837 0.260537
0.317535 0.895696 0.246421
0.369866 0.890849 0.238719
0.456723 0.886735 0.236347
0.563243 0.882725 0.238280
0.680294 0.878243 0.243369
0.803522 0.872705 0.250597
0.931043 0.865513 0.258843
1.000000 0.856118 0.267277
0.340888 0.989754 0.239813
0.348746 0.989719 0.220512
0.393160 0.989671 0.208607
0.472513 0.989588 0.203115
0.574056 0.989459 0.202914
0.688216 0.989292 0.206852
0.809882 0.989059 0.213599
0.936701 0.988782 0.222012
1.000000 0.982528 0.231564
0.031044 0.019319 0.452835
0.144730 0.019005 0.451161
0.265256 0.018448 0.451472
0.386845 0.017441 0.452811
0.508728 0.015498 0.454167
0.631170 0.012356 0.454539
0.754740 0.007771 0.452994
0.880132 0.001425 0.448484
1.000000 0.000000 0.439960
0.042097 0.123267 0.453476
0.148075 0.120642 0.451164
0.268026 0.119433 0.451363
0.390585 0.118969 0.453070
0.513667 0.118565 0.455313
0.637350 0.117537 0.457104
0.762082 0.115137 0.457492
0.888503 0.110632 0.455479
1.000000 0.103042 0.450017
0.071716 0.248241 0.450960
0.159201 0.245283 0.447667
0.274257 0.243860 0.447383
0.395899 0.243368 0.449121
0.519274 0.243146 0.451916
0.643613 0.242570 0.454778
0.769121 0.241001 0.456775
0.896274 0.237819 0.456900
1.000000 0.232215 0.454146
0.114202 0.375899 0.445392
0.179100 0.372466 0.440833
0.285017 0.370621 0.439755
0.403583 0.369738 0.441212
0.526053 0.369199 0.444224
0.650355 0.368438 0.447864
0.776117 0.366782 0.451128
0.903674 0.363646 0.453064
1.000000 0.358400 0.452733
0.160418 0.504718 0.437011
0.206836 0.500623 0.430834
0.300798 0.498134 0.428660
0.414126 0.496650 0.429531
0.534372 0.495541 0.432476
0.657811 0.494246 0.436560
0.783332 0.492118 0.440818
0.910865 0.488594 0.444240
1.000000 0.483070 0.446031
0.208465 0.634851 0.426067
0.240854 0.629917 0.417890
0.321748 0.626594 0.414280
0.427862 0.624279 0.414252
0.544587 0.622365 0.416825
0.666248 0.620304 0.421092
0.790893 0.617457 0.426041
0.918003 0.613242 0.430686
1.000000 0.607088 0.434259
0.257921 0.766774 0.412746
0.279859 0.760784 0.402149
0.347722 0.756416 0.396733
0.445165 0.753077 0.395465
0.557002 0.750173 0.397383
0.675950 0.747121 0.401498
0.799024 0.743318 0.406860
0.925190 0.738173 0.412493
1.000000 0.731109 0.417558
0.308792 0.901013 0.397086
0.322697 0.893792 0.383632
0.378435 0.888180 0.375969
0.466220 0.883624 0.373091
0.571953 0.879522 0.374010
0.687210 0.875264 0.377752
0.808017 0.870294 0.383282
0.932695 0.863997 0.389648
1.000000 0.855805 0.395943
0.342554 0.989984 0.382627
0.354331 0.989943 0.365227
0.403333 0.989880 0.354338
0.484510 0.989783 0.348994
0.585577 0.989652 0.348127
0.697837 0.989492 0.350706
0.816845 0.989255 0.355664
0.940441 0.988981 0.361995
1.000000 0.981782 0.369164
0.041121 0.030195 0.566087
0.144636 0.029766 0.564377
0.262694 0.029157 0.564467
0.383911 0.027960 0.565352
0.505779 0.025921 0.566106
0.628233 0.022708 0.565684
0.751757 0.017954 0.563184
0.876941 0.011350 0.557604
1.000000 0.002713 0.547882
0.053519 0.127503 0.568427
0.149746 0.125367 0.566051
0.266943 0.124926 0.565975
0.388648 0.125461 0.567220
0.511368 0.126409 0.568816
0.634662 0.127088 0.569794
0.758971 0.126807 0.569202
0.884771 0.124934 0.566044
1.000000 0.120613 0.559311
0.083379 0.248953 0.567685
0.162546 0.246291 0.564323
0.274841 0.245484 0.563732
0.395315 0.245905 0.565001
0.517926 0.246935 0.567111
0.641548 0.247916 0.569134
0.766211 0.248276 0.570109
0.892394 0.247358 0.569052
1.000000 0.244440 0.564949
0.122232 0.374824 0.564107
0.183680 0.371493 0.559423
0.287327 0.370070 0.558032
0.404557 0.369923 0.558962
0.525984 0.370460 0.561278
0.649222 0.371075 0.564016
0.773823 0.371143 0.566217
0.900000 0.370076 0.566941
1.000000 0.367236 0.565169
0.165781 0.502604 0.557995
0.212042 0.498415 0.551657
0.304783 0.496141 0.549124
0.416847 0.495183 0.549444
0.535862 0.494952 0.551641
0.657945 0.494853 0.554786
0.781945 0.494265 0.557921
0.907785 0.492600 0.560098
1.000000 0.489253 0.560303
0.212086 0.632155 0.549635
0.246349 0.626902 0.541306
0.327231 0.623584 0.537301
0.432485 0.621622 0.536704
0.547864 0.620387 0.538475
0.667934 0.619320 0.541722
0.790787 0.617806 0.545479
0.915832 0.615258 0.548790
1.000000 0.611059 0.550713
0.260451 0.763857 0.539290
0.285240 0.757361 0.528637
0.354472 0.752810 0.522859
0.451619 0.749598 0.520955
0.562238 0.747166 0.522006
0.679476 0.744916 0.525061
0.800513 0.742243 0.529168
0.924322 0.738558 0.533332
1.000000 0.733269 0.536662
0.310620 0.898245 0.527285
0.327930 0.890282 0.513861
0.386223 0.884292 0.505919
0.474448 0.879672 0.502430
0.579263 0.875833 0.502454
0.692791 0.872172 0.505003
0.811354 0.868126 0.509128
0.933433 0.863086 0.513880
1.000000 0.856482 0.518314
0.345218 0.990328 0.516044
0.360850 0.990265 0.499036
0.413374 0.990191 0.488156
0.495699 0.990094 0.482386
0.595944 0.989950 0.480713
0.706339 0.989774 0.482188
0.822798 0.989564 0.485825
0.943415 0.989287 0.490553
1.000000 0.981281 0.495819
0.062014 0.043898 0.680403
0.144927 0.043466 0.678717
0.259127 0.042783 0.678624
0.379490 0.041553 0.679137
0.501355 0.039410 0.679273
0.624012 0.040475 0.678101
0.747720 0.040039 0.674623
0.872908 0.037110 0.667887
1.000000 0.030695 0.656876
0.073903 0.135463 0.684402
0.152028 0.134148 0.682031
0.264982 0.134739 0.681746
0.385470 0.136591 0.682561
0.507751 0.139157 0.683549
0.630853 0.141769 0.683713
0.754872 0.143946 0.682117
0.880334 0.144880 0.677770
1.000000 0.143988 0.669701
0.098820 0.252584 0.685350
0.166594 0.250580 0.681961
0.274719 0.250731 0.681145
0.393656 0.252391 0.681947
0.515467 0.255000 0.683439
0.638458 0.257906 0.684608
0.762502 0.260486 0.684522
0.887906 0.262166 0.682251
1.000000 0.262252 0.676751
0.133357 0.375807 0.683573
0.188808 0.372952 0.678840
0.289115 0.372291 0.677163
0.404635 0.373244 0.677641
0.524938 0.375208 0.679284
0.647211 0.377573 0.681131
0.770788 0.379715 0.682265
0.895853 0.381068 0.681706
1.000000 0.380960 0.678479
0.173707 0.501711 0.679384
0.217841 0.497791 0.672967
0.308348 0.496095 0.670132
0.418783 0.496056 0.669951
0.536489 0.497071 0.671451
0.657307 0.498509 0.673657
0.779962 0.499821 0.675676
0.904287 0.500377 0.676530
1.000000 0.499578 0.675251
0.217692 0.629904 0.673143
0.252351 0.624721 0.664719
0.332362 0.621795 0.660400
0.436323 0.620522 0.659239
0.550357 0.620339 0.660254
0.668956 0.620644 0.662554
0.790145 0.620824 0.665140
0.913383 0.620272 0.667086
1.000000 0.618440 0.667403
0.264374 0.760644 0.665149
0.291177 0.754000 0.654382
0.360876 0.749639 0.648276
0.457384 0.746947 0.645790
0.566764 0.745357 0.646062
0.682367 0.744265 0.648089
0.801538 0.743075 0.650942
0.923231 0.741229 0.653702
1.000000 0.738093 0.655359
0.313295 0.894415 0.655785
0.333666 0.886128 0.642323
0.393676 0.880101 0.634028
0.482110 0.875800 0.629936
0.585897 0.872591 0.629113
0.697779 0.869911 0.630603
0.814316 0.867139 0.633420
0.934040 0.863722 0.636646
1.000000 0.859071 0.639349
0.349031 0.990790 0.646825
0.368446 0.990699 0.629939
0.423558 0.990611 0.618833
0.506414 0.990502 0.612555
0.605682 0.990359 0.610129
0.714248 0.990194 0.610558
0.828303 0.989978 0.612918
0.945981 0.988383 0.616213
1.000000 0.981970 0.619650
0.085118 0.059632 0.796459
0.147228 0.059791 0.794929
0.255526 0.061608 0.794698
0.374615 0.064350 0.794879
0.496365 0.067307 0.794475
0.619244 0.069904 0.792566
0.743250 0.071412 0.788139
0.868677 0.071445 0.780255
0.996123 0.069529 0.767927
0.095668 0.147623 0.802115
0.156336 0.147395 0.799837
0.263197 0.149296 0.799416
0.381904 0.152740 0.799876
0.503661 0.157182 0.800292
0.626596 0.162080 0.799684
0.750525 0.166879 0.797079
0.875786 0.170993 0.791575
1.000000 0.173728 0.782121
0.117230 0.259938 0.804721
0.172362 0.258940 0.801386
0.274880 0.260374 0.800389
0.391762 0.263630 0.800818
0.512659 0.268114 0.801700
0.635102 0.273221 0.802069
0.758641 0.278389 0.800971
0.883486 0.283015 0.797489
1.000000 0.286426 0.790589
0.147769 0.379741 0.804623
0.195579 0.377708 0.799908
0.291180 0.378188 0.798063
0.404576 0.380586 0.798096
0.523704 0.384304 0.799120
0.645046 0.388737 0.800127
0.767777 0.393331 0.800232
0.891893 0.397412 0.798401
1.000000 0.400407 0.793730
0.184565 0.502994 0.802206
0.225062 0.499695 0.795778
0.312256 0.498958 0.792741
0.420699 0.500190 0.792101
0.537017 0.502787 0.792917
0.656613 0.506161 0.794285
0.778099 0.509693 0.795206
0.901136 0.512832 0.794777
1.000000 0.514910 0.791983
0.225716 0.629047 0.797833
0.259512 0.624289 0.789365
0.337840 0.622115 0.784808
0.440199 0.621939 0.783152
0.552814 0.623146 0.783476
0.669978 0.625174 0.784856
0.789710 0.627407 0.786329
0.911333 0.629242 0.786930
1.000000 0.630121 0.785723
0.270207 0.758090 0.791866
0.298185 0.751659 0.781046
0.367680 0.747837 0.774628
0.463196 0.746039 0.771644
0.571258 0.745653 0.771184
0.685369 0.746081 0.772241
0.802794 0.746765 0.773944
0.922615 0.747096 0.775299
1.000000 0.746458 0.775349
0.317392 0.890490 0.784654
0.340321 0.882218 0.771127
0.401526 0.876553 0.762543
0.489779 0.872925 0.757926
0.592531 0.870722 0.756296
0.702905 0.869358 0.756769
0.817559 0.868275 0.758390
0.935132 0.866842 0.760183
1.000000 0.864486 0.761187
0.354074 0.991392 0.777589
0.377031 0.991277 0.760743
0.434096 0.991164 0.749394
0.517036 0.991053 0.742631
0.615319 0.990896 0.739431
0.722077 0.990732 0.738908
0.833930 0.990512 0.740022
0.949081 0.989069 0.741893
1.000000 0.984764 0.743576
0.102419 0.079838 0.881349
0.148639 0.081191 0.881341
0.250730 0.083878 0.881305
0.368421 0.087359 0.881205
0.490334 0.091257 0.881058
0.613814 0.095707 0.880822
0.738506 0.100580 0.880457
0.864649 0.105461 0.879974
0.992633 0.109944 0.879344
0.111398 0.162007 0.881262
0.158588 0.163267 0.881277
0.259755 0.166844 0.881228
0.376896 0.172249 0.881110
0.498507 0.178987 0.880925
0.621642 0.186635 0.880639
0.745902 0.194684 0.880267
0.871424 0.202589 0.879745
0.998716 0.209751 0.879097
0.130643 0.270283 0.881063
0.175968 0.270716 0.881042
0.273429 0.273811 0.880977
0.388500 0.278999 0.880835
0.508833 0.285714 0.880609
0.631085 0.293421 0.880314
0.754542 0.301572 0.879896
0.879224 0.309572 0.879323
1.000000 0.316866 0.878634
0.158710 0.386479 0.880624
0.200310 0.385706 0.880587
0.291871 0.387723 0.880502
0.403387 0.391928 0.880332
0.521594 0.397754 0.880080
0.642387 0.404620 0.879716
0.764630 0.411961 0.879260
0.888180 0.419214 0.878658
1.000000 0.425799 0.877948
0.193128 0.506632 0.879819
0.230656 0.504415 0.879793
0.315051 0.505039 0.879712
0.421775 0.507903 0.879535
0.536943 0.512446 0.879261
0.655649 0.518068 0.878877
0.776229 0.524202 0.878371
0.898354 0.530272 0.877729
1.000000 0.535672 0.876972
0.232354 0.629997 0.878606
0.265686 0.626137 0.878637
0.342634 0.625115 0.878517
0.443599 0.626404 0.878331
0.554973 0.629374 0.878054
0.671021 0.633474 0.877650
0.789535 0.638091 0.877102
0.909837 0.642692 0.876467
1.000000 0.646651 0.875690
0.275108 0.756696 0.876894
0.304655 0.750965 0.876936
0.374254 0.748124 0.876881
0.468956 0.747578 0.876693
0.575847 0.748776 0.876419
0.688619 0.751096 0.875976
0.804597 0.753990 0.875453
0.922741 0.756849 0.874803
1.000000 0.759124 0.874037
0.320949 0.887119 0.874630
0.347026 0.879323 0.874733
0.409645 0.874443 0.874694
0.497742 0.871886 0.874543
0.599591 0.871064 0.874280
0.708597 0.871408 0.873878
0.821556 0.872328 0.873353
0.937239 0.873236 0.872688
1.000000 0.873564 0.871912
0.358746 0.991903 0.872363
0.385812 0.991875 0.872306
0.444890 0.991831 0.872190
0.528127 0.991733 0.871982
0.625374 0.991595 0.870406
0.730500 0.991403 0.868935
0.840304 0.991190 0.868906
0.953235 0.990931 0.869376
1.000000 0.990593 0.869354
