docs/FineDetail_6D.cube
TITLE "Fine Detail for older cameras (Canon 6D / Digic5)"
# Generated from FDS.ICC (Canon Picture Style Editor)
# Profile: Fine Detail sRGB - scanner input to Lab PCS
# Conversion: ICC Lab -> XYZ D50 -> linear sRGB -> gamma sRGB
LUT_3D_SIZE 33
DOMAIN_MIN 0.0 0.0 0.0
DOMAIN_MAX 1.0 1.0 1.0
0.000000 0.001686 0.003515
0.025321 0.001562 0.003350
0.058421 0.001443 0.003147
0.090843 0.001258 0.002875
0.122605 0.001016 0.002495
0.153996 0.000725 0.002042
0.184777 0.000783 0.001791
0.215510 0.000794 0.001710
0.246227 0.000765 0.001623
0.276918 0.000670 0.001482
0.307595 0.000516 0.001330
0.338273 0.000304 0.001067
0.368965 0.000047 0.000755
0.399666 0.000000 0.000348
0.430427 0.000000 0.000000
0.461217 0.000000 0.000000
0.492097 0.000000 0.000000
0.523028 0.000000 0.000000
0.554044 0.000000 0.000000
0.585161 0.000000 0.000000
0.616400 0.000000 0.000000
0.647731 0.000000 0.000000
0.679196 0.000000 0.000000
0.710815 0.000000 0.000000
0.742585 0.000000 0.000000
0.774495 0.000000 0.000000
0.806596 0.000000 0.000000
0.838902 0.000000 0.000000
0.871405 0.000000 0.000000
0.904101 0.000000 0.000000
0.937004 0.000000 0.000000
0.970185 0.000000 0.000000
1.000000 0.000000 0.000000
0.000000 0.033685 0.002850
0.026042 0.033151 0.002712
0.058549 0.032647 0.002508
0.090537 0.032127 0.002260
0.122148 0.031588 0.001897
0.153385 0.031094 0.001443
0.184261 0.030835 0.000838
0.215114 0.030544 0.000148
0.245956 0.030196 0.000000
0.276790 0.029783 0.000000
0.307646 0.029279 0.000000
0.338481 0.028727 0.000000
0.369338 0.028028 0.000000
0.400228 0.027220 0.000000
0.431162 0.026311 0.000000
0.462142 0.025246 0.000000
0.493191 0.024032 0.000000
0.524303 0.022592 0.000000
0.555510 0.021072 0.000000
0.586809 0.019263 0.000000
0.618205 0.017336 0.000000
0.649716 0.015178 0.000000
0.681347 0.012726 0.000000
0.713140 0.010128 0.000000
0.745067 0.007219 0.000000
0.777161 0.004099 0.000000
0.809410 0.000622 0.000000
0.841869 0.000000 0.000000
0.874508 0.000000 0.000000
0.907381 0.000000 0.000000
0.940444 0.000000 0.000000
0.973773 0.000000 0.000000
1.000000 0.000000 0.000000
0.000199 0.065420 0.002099
0.027094 0.064992 0.001981
0.059024 0.064572 0.001776
0.090412 0.064138 0.001515
0.121757 0.063702 0.001172
0.152796 0.063393 0.000697
0.183715 0.063157 0.000099
0.214683 0.062892 0.000000
0.245637 0.062606 0.000000
0.276614 0.062240 0.000000
0.307598 0.061836 0.000000
0.338592 0.061357 0.000000
0.369623 0.060784 0.000000
0.400689 0.060085 0.000000
0.431788 0.059270 0.000000
0.462959 0.058349 0.000000
0.494174 0.057267 0.000000
0.525444 0.056047 0.000000
0.556832 0.054606 0.000000
0.588305 0.052986 0.000000
0.619880 0.051134 0.000000
0.651559 0.049031 0.000000
0.683384 0.046721 0.000000
0.715336 0.043996 0.000000
0.747433 0.041027 0.000000
0.779700 0.037640 0.000000
0.812129 0.033993 0.000000
0.844732 0.030013 0.000000
0.877561 0.025910 0.000000
0.910550 0.021546 0.000000
0.943790 0.016861 0.000000
0.977258 0.011802 0.000000
1.000000 0.006451 0.000000
0.005708 0.097271 0.000993
0.029634 0.096899 0.000886
0.060643 0.096548 0.000708
0.091061 0.096207 0.000462
0.121811 0.095890 0.000079
0.152549 0.095688 0.000000
0.183420 0.095475 0.000000
0.214392 0.095269 0.000000
0.245422 0.095005 0.000000
0.276490 0.094719 0.000000
0.307599 0.094376 0.000000
0.338734 0.093984 0.000000
0.369890 0.093497 0.000000
0.401103 0.092938 0.000000
0.432368 0.092268 0.000000
0.463682 0.091484 0.000000
0.495071 0.090592 0.000000
0.526533 0.089527 0.000000
0.558067 0.088356 0.000000
0.589706 0.086998 0.000000
0.621449 0.085421 0.000000
0.653306 0.083711 0.000000
0.685267 0.081737 0.000000
0.717387 0.079534 0.000000
0.749636 0.077111 0.000000
0.782061 0.074409 0.000000
0.814651 0.071336 0.000000
0.847439 0.067973 0.000000
0.880397 0.064156 0.000000
0.913579 0.060003 0.000000
0.946957 0.055298 0.000000
0.980568 0.050094 0.000000
1.000000 0.044125 0.000000
0.013078 0.129125 0.000000
0.033851 0.128805 0.000000
0.063477 0.128503 0.000000
0.092443 0.128250 0.000000
0.122270 0.128072 0.000000
0.152689 0.127897 0.000000
0.183404 0.127724 0.000000
0.214328 0.127546 0.000000
0.245367 0.127331 0.000000
0.276481 0.127098 0.000000
0.307668 0.126818 0.000000
0.338897 0.126478 0.000000
0.370196 0.126077 0.000000
0.401539 0.125596 0.000000
0.432937 0.124996 0.000000
0.464402 0.124323 0.000000
0.495942 0.123535 0.000000
0.527543 0.122624 0.000000
0.559241 0.121570 0.000000
0.591023 0.120368 0.000000
0.622929 0.119007 0.000000
0.654923 0.117487 0.000000
0.687065 0.115720 0.000000
0.719333 0.113791 0.000000
0.751751 0.111672 0.000000
0.784328 0.109284 0.000000
0.817074 0.106600 0.000000
0.850002 0.103673 0.000000
0.883104 0.100438 0.000000
0.916432 0.096910 0.000000
0.949958 0.092952 0.000000
0.983720 0.088626 0.000000
1.000000 0.083835 0.000000
0.022254 0.160942 0.000000
0.039475 0.160678 0.000000
0.067092 0.160464 0.000000
0.094346 0.160282 0.000000
0.123346 0.160135 0.000000
0.153284 0.159984 0.000000
0.183742 0.159853 0.000000
0.214513 0.159711 0.000000
0.245499 0.159544 0.000000
0.276606 0.159343 0.000000
0.307839 0.159123 0.000000
0.339143 0.158829 0.000000
0.370511 0.158481 0.000000
0.401974 0.158054 0.000000
0.433483 0.157556 0.000000
0.465082 0.156949 0.000000
0.496747 0.156241 0.000000
0.528510 0.155424 0.000000
0.560334 0.154489 0.000000
0.592277 0.153388 0.000000
0.624311 0.152138 0.000000
0.656465 0.150756 0.000000
0.688750 0.149182 0.000000
0.721173 0.147386 0.000000
0.753748 0.145435 0.000000
0.786463 0.143265 0.000000
0.819348 0.140832 0.000000
0.852434 0.138144 0.000000
0.885696 0.135204 0.000000
0.919148 0.131987 0.000000
0.952840 0.128430 0.000000
0.986731 0.124568 0.000000
1.000000 0.120384 0.000000
0.032430 0.192750 0.000000
0.045847 0.192523 0.000000
0.071554 0.192344 0.000000
0.097133 0.192199 0.000000
0.125097 0.192085 0.000000
0.154372 0.191969 0.000000
0.184429 0.191867 0.000000
0.214986 0.191763 0.000000
0.245816 0.191634 0.000000
0.276886 0.191481 0.000000
0.308121 0.191280 0.000000
0.339468 0.191046 0.000000
0.370906 0.190739 0.000000
0.402434 0.190380 0.000000
0.434050 0.189934 0.000000
0.465759 0.189397 0.000000
0.497550 0.188746 0.000000
0.529405 0.187999 0.000000
0.561385 0.187117 0.000000
0.593452 0.186142 0.000000
0.625626 0.184980 0.000000
0.657924 0.183665 0.000000
0.690343 0.182218 0.000000
0.722909 0.180556 0.000000
0.755620 0.178725 0.000000
0.788486 0.176692 0.000000
0.821520 0.174411 0.000000
0.854735 0.171937 0.000000
0.888142 0.169144 0.000000
0.921741 0.166182 0.000000
0.955560 0.162858 0.000000
0.989600 0.159328 0.000000
1.000000 0.155410 0.000000
0.044551 0.224472 0.000000
0.053273 0.224278 0.000000
0.077153 0.224125 0.000000
0.100846 0.224012 0.000000
0.127517 0.223919 0.000000
0.155983 0.223840 0.000000
0.185517 0.223766 0.000000
0.215749 0.223694 0.000000
0.246407 0.223604 0.000000
0.277354 0.223484 0.000000
0.308524 0.223322 0.000000
0.339873 0.223131 0.000000
0.371344 0.222859 0.000000
0.402937 0.222548 0.000000
0.434626 0.222147 0.000000
0.466401 0.221654 0.000000
0.498305 0.221064 0.000000
0.530299 0.220387 0.000000
0.562357 0.219579 0.000000
0.594554 0.218649 0.000000
0.626879 0.217571 0.000000
0.659283 0.216353 0.000000
0.691839 0.214967 0.000000
0.724564 0.213397 0.000000
0.757384 0.211663 0.000000
0.790387 0.209725 0.000000
0.823569 0.207571 0.000000
0.856926 0.205188 0.000000
0.890455 0.202608 0.000000
0.924208 0.199761 0.000000
0.958162 0.196645 0.000000
0.992334 0.193242 0.000000
1.000000 0.189583 0.000000
0.056964 0.256089 0.000000
0.061618 0.255919 0.000000
0.083717 0.255801 0.000000
0.105395 0.255717 0.000000
0.130689 0.255653 0.000000
0.158178 0.255607 0.000000
0.187063 0.255560 0.000000
0.216852 0.255522 0.000000
0.247209 0.255448 0.000000
0.277995 0.255372 0.000000
0.309085 0.255247 0.000000
0.340364 0.255080 0.000000
0.371856 0.254858 0.000000
0.403471 0.254581 0.000000
0.435217 0.254227 0.000000
0.467072 0.253787 0.000000
0.499032 0.253239 0.000000
0.531118 0.252613 0.000000
0.563310 0.251852 0.000000
0.595615 0.250964 0.000000
0.628037 0.249946 0.000000
0.660590 0.248778 0.000000
0.693284 0.247471 0.000000
0.726103 0.245981 0.000000
0.759070 0.244326 0.000000
0.792205 0.242485 0.000000
0.825505 0.240408 0.000000
0.858989 0.238143 0.000000
0.892676 0.235648 0.000000
0.926523 0.232913 0.000000
0.960605 0.229939 0.000000
0.994900 0.226674 0.000000
1.000000 0.223191 0.000000
0.069260 0.287614 0.000000
0.070602 0.287485 0.000000
0.091016 0.287389 0.000000
0.110791 0.287334 0.000000
0.134548 0.287288 0.000000
0.160933 0.287266 0.000000
0.189064 0.287253 0.000000
0.218312 0.287236 0.000000
0.248324 0.287206 0.000000
0.278850 0.287142 0.000000
0.309775 0.287058 0.000000
0.340999 0.286926 0.000000
0.372416 0.286738 0.000000
0.404036 0.286493 0.000000
0.435798 0.286161 0.000000
0.467732 0.285759 0.000000
0.499756 0.285271 0.000000
0.531916 0.284659 0.000000
0.564206 0.283961 0.000000
0.596604 0.283125 0.000000
0.629150 0.282158 0.000000
0.661814 0.281048 0.000000
0.694595 0.279781 0.000000
0.727543 0.278356 0.000000
0.760649 0.276754 0.000000
0.793917 0.274972 0.000000
0.827333 0.272985 0.000000
0.860955 0.270794 0.000000
0.894748 0.268390 0.000000
0.928749 0.265747 0.000000
0.962937 0.262869 0.000000
0.997352 0.259718 0.000000
1.000000 0.256373 0.000000
0.081396 0.319077 0.000000
0.081350 0.318968 0.000000
0.098865 0.318887 0.000000
0.116870 0.318850 0.000000
0.139023 0.318845 0.000000
0.164202 0.318851 0.000000
0.191446 0.318850 0.000000
0.220081 0.318863 0.000000
0.249652 0.318858 0.000000
0.279913 0.318824 0.000000
0.310623 0.318762 0.000000
0.341708 0.318655 0.000000
0.373078 0.318486 0.000000
0.404674 0.318279 0.000000
0.436449 0.317985 0.000000
0.468372 0.317612 0.000000
0.500466 0.317148 0.000000
0.532693 0.316587 0.000000
0.565074 0.315916 0.000000
0.597566 0.315118 0.000000
0.630190 0.314194 0.000000
0.662948 0.313125 0.000000
0.695865 0.311902 0.000000
0.728928 0.310548 0.000000
0.762130 0.308981 0.000000
0.795504 0.307268 0.000000
0.829057 0.305334 0.000000
0.862778 0.303217 0.000000
0.896706 0.300862 0.000000
0.930810 0.298292 0.000000
0.965149 0.295498 0.000000
0.999683 0.292418 0.000000
1.000000 0.289210 0.000000
0.093498 0.350473 0.000000
0.093413 0.350381 0.000000
0.107205 0.350324 0.000000
0.123636 0.350300 0.000000
0.144145 0.350323 0.000000
0.168031 0.350344 0.000000
0.194316 0.350373 0.000000
0.222245 0.350394 0.000000
0.251306 0.350419 0.000000
0.281177 0.350398 0.000000
0.311660 0.350373 0.000000
0.342570 0.350281 0.000000
0.373819 0.350145 0.000000
0.405361 0.349950 0.000000
0.437130 0.349695 0.000000
0.469075 0.349347 0.000000
0.501200 0.348908 0.000000
0.533479 0.348380 0.000000
0.565889 0.347744 0.000000
0.598464 0.346967 0.000000
0.631185 0.346090 0.000000
0.664037 0.345069 0.000000
0.697049 0.343889 0.000000
0.730194 0.342547 0.000000
0.763513 0.341044 0.000000
0.797024 0.339365 0.000000
0.830665 0.337498 0.000000
0.864504 0.335407 0.000000
0.898531 0.333125 0.000000
0.932770 0.330615 0.000000
0.967207 0.327872 0.000000
1.000000 0.324890 0.000000
1.000000 0.321750 0.000000
0.105490 0.381806 0.000000
0.105426 0.381728 0.000000
0.115986 0.381698 0.000000
0.131036 0.381701 0.000000
0.149903 0.381722 0.000000
0.172452 0.381763 0.000000
0.197672 0.381805 0.000000
0.224798 0.381858 0.000000
0.253289 0.381891 0.000000
0.282752 0.381900 0.000000
0.312897 0.381880 0.000000
0.343596 0.381813 0.000000
0.374714 0.381699 0.000000
0.406155 0.381543 0.000000
0.437858 0.381294 0.000000
0.469787 0.380977 0.000000
0.501939 0.380570 0.000000
0.534236 0.380064 0.000000
0.566698 0.379456 0.000000
0.599331 0.378724 0.000000
0.632124 0.377854 0.000000
0.665052 0.376862 0.000000
0.698152 0.375708 0.000000
0.731405 0.374406 0.000000
0.764823 0.372949 0.000000
0.798411 0.371303 0.000000
0.832188 0.369477 0.000000
0.866114 0.367436 0.000000
0.900257 0.365206 0.000000
0.934609 0.362748 0.000000
0.969159 0.360056 0.000000
1.000000 0.357120 0.000000
1.000000 0.354023 0.000000
0.117530 0.413100 0.000000
0.117495 0.413036 0.000000
0.125170 0.413009 0.000000
0.138969 0.413019 0.000000
0.156242 0.413071 0.000000
0.177386 0.413127 0.000000
0.201532 0.413190 0.000000
0.227782 0.413248 0.000000
0.255593 0.413295 0.000000
0.284566 0.413317 0.000000
0.314357 0.413323 0.000000
0.344792 0.413274 0.000000
0.375711 0.413183 0.000000
0.407015 0.413026 0.000000
0.438662 0.412811 0.000000
0.470558 0.412511 0.000000
0.502675 0.412126 0.000000
0.534993 0.411636 0.000000
0.567500 0.411043 0.000000
0.600164 0.410336 0.000000
0.633004 0.409506 0.000000
0.666027 0.408522 0.000000
0.699191 0.407408 0.000000
0.732523 0.406147 0.000000
0.766042 0.404696 0.000000
0.799722 0.403096 0.000000
0.833590 0.401292 0.000000
0.867646 0.399305 0.000000
0.901871 0.397111 0.000000
0.936316 0.394683 0.000000
0.970973 0.392043 0.000000
1.000000 0.389165 0.000000
1.000000 0.386137 0.000000
0.129531 0.444342 0.000000
0.129517 0.444292 0.000000
0.134651 0.444280 0.000000
0.147472 0.444308 0.000000
0.163181 0.444354 0.000000
0.182919 0.444426 0.000000
0.205866 0.444498 0.000000
0.231181 0.444581 0.000000
0.258276 0.444635 0.000000
0.286678 0.444686 0.000000
0.316054 0.444691 0.000000
0.346159 0.444653 0.000000
0.376874 0.444584 0.000000
0.408012 0.444451 0.000000
0.439522 0.444237 0.000000
0.471339 0.443957 0.000000
0.503436 0.443582 0.000000
0.535740 0.443122 0.000000
0.568265 0.442541 0.000000
0.600959 0.441851 0.000000
0.633869 0.441049 0.000000
0.666928 0.440089 0.000000
0.700175 0.438993 0.000000
0.733584 0.437744 0.000000
0.767174 0.436332 0.000000
0.800942 0.434767 0.000000
0.834892 0.432988 0.000000
0.869051 0.431021 0.000000
0.903381 0.428851 0.000000
0.937919 0.426467 0.000000
0.972682 0.423869 0.000000
1.000000 0.421030 0.000000
1.000000 0.418031 0.000000
0.141548 0.475559 0.000000
0.141473 0.475512 0.000000
0.144446 0.475514 0.000000
0.156457 0.475552 0.000000
0.170635 0.475615 0.000000
0.188965 0.475682 0.000000
0.210654 0.475770 0.000000
0.234999 0.475858 0.000000
0.261299 0.475935 0.000000
0.289076 0.475983 0.000000
0.317981 0.475993 0.000000
0.347736 0.475981 0.000000
0.378162 0.475906 0.000000
0.409126 0.475790 0.000000
0.440482 0.475594 0.000000
0.472217 0.475331 0.000000
0.504245 0.474960 0.000000
0.536523 0.474517 0.000000
0.569024 0.473953 0.000000
0.601776 0.473286 0.000000
0.634669 0.472481 0.000000
0.667794 0.471559 0.000000
0.701084 0.470468 0.000000
0.734566 0.469257 0.000000
0.768222 0.467852 0.000000
0.802070 0.466292 0.000000
0.836113 0.464546 0.000000
0.870342 0.462616 0.000000
0.904761 0.460455 0.000000
0.939394 0.458119 0.000000
0.974242 0.455530 0.000000
1.000000 0.452716 0.000000
1.000000 0.449776 0.000000
0.153509 0.506761 0.000000
0.153526 0.506725 0.000000
0.154501 0.506722 0.000000
0.165808 0.506770 0.000000
0.178551 0.506840 0.000000
0.195485 0.506925 0.000000
0.215976 0.507015 0.000000
0.239213 0.507094 0.000000
0.264682 0.507177 0.000000
0.291801 0.507238 0.000000
0.320164 0.507269 0.000000
0.349489 0.507245 0.000000
0.379631 0.507185 0.000000
0.410327 0.507074 0.000000
0.441555 0.506892 0.000000
0.473144 0.506627 0.000000
0.505074 0.506276 0.000000
0.537320 0.505841 0.000000
0.569804 0.505284 0.000000
0.602527 0.504627 0.000000
0.635460 0.503844 0.000000
0.668601 0.502919 0.000000
0.701955 0.501859 0.000000
0.735465 0.500654 0.000000
0.769207 0.499277 0.000000
0.803106 0.497726 0.000000
0.837217 0.495999 0.000000
0.871540 0.494079 0.000000
0.906033 0.491962 0.000000
0.940783 0.489629 0.000000
0.975693 0.487069 0.000000
1.000000 0.484281 0.000000
1.000000 0.481359 0.000000
0.165519 0.537951 0.000000
0.165537 0.537915 0.000000
0.165496 0.537936 0.000000
0.175410 0.537968 0.000000
0.186888 0.538035 0.000000
0.202479 0.538125 0.000000
0.221702 0.538213 0.000000
0.243900 0.538302 0.000000
0.268448 0.538391 0.000000
0.294824 0.538442 0.000000
0.322606 0.538480 0.000000
0.351514 0.538473 0.000000
0.381246 0.538426 0.000000
0.411686 0.538306 0.000000
0.442702 0.538131 0.000000
0.474152 0.537876 0.000000
0.505992 0.537535 0.000000
0.538140 0.537103 0.000000
0.570570 0.536562 0.000000
0.603288 0.535908 0.000000
0.636213 0.535125 0.000000
0.669380 0.534226 0.000000
0.702743 0.533166 0.000000
0.736322 0.531965 0.000000
0.770114 0.530608 0.000000
0.804071 0.529077 0.000000
0.838259 0.527346 0.000000
0.872633 0.525437 0.000000
0.907222 0.523339 0.000000
0.942009 0.521031 0.000000
0.977041 0.518490 0.000000
1.000000 0.515719 0.000000
1.000000 0.512808 0.000000
0.177489 0.569148 0.000000
0.177507 0.569111 0.000000
0.177507 0.569111 0.000000
0.185218 0.569163 0.000000
0.195707 0.569229 0.000000
0.209951 0.569307 0.000000
0.227905 0.569399 0.000000
0.248997 0.569493 0.000000
0.272606 0.569585 0.000000
0.298197 0.569640 0.000000
0.325367 0.569676 0.000000
0.353733 0.569673 0.000000
0.383066 0.569617 0.000000
0.413196 0.569501 0.000000
0.443956 0.569322 0.000000
0.475217 0.569067 0.000000
0.506913 0.568732 0.000000
0.538975 0.568301 0.000000
0.571376 0.567771 0.000000
0.604035 0.567121 0.000000
0.636949 0.566347 0.000000
0.670134 0.565443 0.000000
0.703512 0.564393 0.000000
0.737112 0.563214 0.000000
0.770933 0.561862 0.000000
0.804948 0.560328 0.000000
0.839202 0.558621 0.000000
0.873640 0.556723 0.000000
0.908281 0.554622 0.000000
0.943165 0.552323 0.000000
0.978253 0.549811 0.000000
1.000000 0.547062 0.000000
1.000000 0.544154 0.000000
0.189530 0.600358 0.000000
0.189516 0.600305 0.000000
0.189516 0.600305 0.000000
0.195270 0.600353 0.000000
0.204865 0.600402 0.000000
0.217846 0.600499 0.000000
0.234591 0.600588 0.000000
0.254504 0.600664 0.000000
0.277111 0.600751 0.000000
0.301878 0.600813 0.000000
0.328358 0.600835 0.000000
0.356171 0.600828 0.000000
0.385114 0.600771 0.000000
0.414886 0.600671 0.000000
0.445359 0.600480 0.000000
0.476413 0.600234 0.000000
0.507925 0.599898 0.000000
0.539877 0.599461 0.000000
0.572178 0.598931 0.000000
0.604798 0.598287 0.000000
0.637693 0.597515 0.000000
0.670846 0.596616 0.000000
0.704225 0.595577 0.000000
0.737858 0.594388 0.000000
0.771703 0.593019 0.000000
0.805765 0.591515 0.000000
0.840042 0.589809 0.000000
0.874557 0.587917 0.000000
0.909267 0.585835 0.000000
0.944183 0.583536 0.000000
0.979367 0.581025 0.000000
1.000000 0.578298 0.000000
1.000000 0.575382 0.000000
0.201595 0.631584 0.000000
0.201493 0.631520 0.000000
0.201557 0.631515 0.000000
0.205486 0.631544 0.000000
0.214382 0.631610 0.000000
0.226109 0.631677 0.000000
0.241607 0.631767 0.000000
0.260423 0.631849 0.000000
0.282032 0.631920 0.000000
0.305940 0.631978 0.000000
0.331667 0.631993 0.000000
0.358887 0.631984 0.000000
0.387334 0.631918 0.000000
0.416709 0.631817 0.000000
0.446871 0.631631 0.000000
0.477685 0.631373 0.000000
0.509016 0.631027 0.000000
0.540841 0.630598 0.000000
0.573019 0.630064 0.000000
0.605556 0.629412 0.000000
0.638410 0.628643 0.000000
0.671503 0.627731 0.000000
0.704901 0.626693 0.000000
0.738546 0.625502 0.000000
0.772393 0.624150 0.000000
0.806497 0.622635 0.000000
0.840809 0.620933 0.000000
0.875373 0.619044 0.000000
0.910151 0.616965 0.000000
0.945142 0.614671 0.000000
0.980358 0.612155 0.000000
1.000000 0.609438 0.000000
1.000000 0.606528 0.000000
0.213580 0.662838 0.000000
0.213542 0.662768 0.000000
0.213574 0.662747 0.000000
0.215869 0.662775 0.000000
0.224169 0.662809 0.000000
0.234788 0.662881 0.000000
0.249073 0.662953 0.000000
0.266728 0.663028 0.000000
0.287311 0.663098 0.000000
0.310309 0.663129 0.000000
0.335299 0.663158 0.000000
0.361880 0.663138 0.000000
0.389771 0.663072 0.000000
0.418711 0.662936 0.000000
0.448552 0.662753 0.000000
0.479069 0.662490 0.000000
0.510210 0.662131 0.000000
0.541843 0.661702 0.000000
0.573893 0.661161 0.000000
0.606329 0.660501 0.000000
0.639121 0.659717 0.000000
0.672193 0.658820 0.000000
0.705556 0.657780 0.000000
0.739191 0.656574 0.000000
0.773041 0.655217 0.000000
0.807165 0.653706 0.000000
0.841538 0.652002 0.000000
0.876100 0.650103 0.000000
0.910915 0.648029 0.000000
0.945964 0.645737 0.000000
0.981240 0.643228 0.000000
1.000000 0.640482 0.000000
1.000000 0.637587 0.000000
0.225646 0.694128 0.000000
0.225585 0.694040 0.000000
0.225617 0.694019 0.000000
0.226356 0.694019 0.000000
0.234274 0.694056 0.000000
0.243761 0.694109 0.000000
0.256914 0.694164 0.000000
0.273444 0.694230 0.000000
0.292987 0.694280 0.000000
0.315065 0.694316 0.000000
0.339223 0.694323 0.000000
0.365117 0.694285 0.000000
0.392462 0.694204 0.000000
0.420961 0.694073 0.000000
0.450389 0.693870 0.000000
0.480609 0.693603 0.000000
0.511486 0.693247 0.000000
0.542894 0.692784 0.000000
0.574808 0.692238 0.000000
0.607138 0.691570 0.000000
0.639827 0.690783 0.000000
0.672840 0.689873 0.000000
0.706196 0.688824 0.000000
0.739780 0.687619 0.000000
0.773651 0.686257 0.000000
0.807780 0.684716 0.000000
0.842149 0.683023 0.000000
0.876752 0.681129 0.000000
0.911611 0.679045 0.000000
0.946705 0.676752 0.000000
0.982050 0.674238 0.000000
1.000000 0.671499 0.000000
1.000000 0.668583 0.000000
0.237701 0.725467 0.000000
0.237705 0.725374 0.000000
0.237690 0.725319 0.000000
0.237666 0.725302 0.000000
0.244571 0.725332 0.000000
0.253123 0.725362 0.000000
0.265125 0.725409 0.000000
0.280532 0.725454 0.000000
0.299014 0.725487 0.000000
0.320115 0.725512 0.000000
0.343478 0.725507 0.000000
0.368642 0.725447 0.000000
0.395389 0.725365 0.000000
0.423361 0.725203 0.000000
0.452375 0.725005 0.000000
0.482256 0.724706 0.000000
0.512862 0.724338 0.000000
0.544075 0.723877 0.000000
0.575789 0.723302 0.000000
0.607982 0.722638 0.000000
0.640552 0.721834 0.000000
0.673518 0.720910 0.000000
0.706776 0.719841 0.000000
0.740338 0.718635 0.000000
0.774197 0.717264 0.000000
0.808339 0.715722 0.000000
0.842710 0.714000 0.000000
0.877332 0.712108 0.000000
0.912216 0.710012 0.000000
0.947360 0.707707 0.000000
0.982718 0.705184 0.000000
1.000000 0.702445 0.000000
1.000000 0.699519 0.000000
0.249853 0.756872 0.000000
0.249733 0.756750 0.000000
0.249761 0.756673 0.000000
0.249727 0.756656 0.000000
0.255027 0.756646 0.000000
0.262746 0.756659 0.000000
0.273713 0.756682 0.000000
0.288028 0.756727 0.000000
0.305433 0.756729 0.000000
0.325547 0.756745 0.000000
0.348051 0.756712 0.000000
0.372486 0.756645 0.000000
0.398527 0.756530 0.000000
0.425997 0.756361 0.000000
0.454573 0.756143 0.000000
0.484038 0.755832 0.000000
0.514364 0.755440 0.000000
0.545296 0.754965 0.000000
0.576837 0.754382 0.000000
0.608872 0.753693 0.000000
0.641319 0.752878 0.000000
0.674170 0.751945 0.000000
0.707372 0.750851 0.000000
0.740885 0.749636 0.000000
0.774717 0.748248 0.000000
0.808822 0.746688 0.000000
0.843199 0.744971 0.000000
0.877820 0.743054 0.000000
0.912750 0.740953 0.000000
0.947880 0.738631 0.000000
0.983316 0.736111 0.000000
1.000000 0.733352 0.000000
1.000000 0.730410 0.000000
0.261966 0.788343 0.000000
0.261878 0.788198 0.000000
0.261882 0.788104 0.000000
0.261800 0.788053 0.000000
0.265628 0.788026 0.000000
0.272710 0.788023 0.000000
0.282620 0.788017 0.000000
0.295861 0.788033 0.000000
0.312163 0.788030 0.000000
0.331343 0.787997 0.000000
0.352914 0.787964 0.000000
0.376575 0.787872 0.000000
0.401971 0.787749 0.000000
0.428814 0.787547 0.000000
0.456916 0.787305 0.000000
0.486026 0.786983 0.000000
0.515987 0.786573 0.000000
0.546641 0.786071 0.000000
0.577952 0.785480 0.000000
0.609785 0.784763 0.000000
0.642112 0.783927 0.000000
0.674834 0.782976 0.000000
0.707958 0.781872 0.000000
0.741410 0.780622 0.000000
0.775183 0.779236 0.000000
0.809275 0.777661 0.000000
0.843630 0.775926 0.000000
0.878264 0.773995 0.000000
0.913171 0.771859 0.000000
0.948351 0.769536 0.000000
0.983804 0.766992 0.000000
1.000000 0.764232 0.000000
1.000000 0.761270 0.000000
0.274127 0.819883 0.000000
0.274014 0.819720 0.000000
0.273960 0.819591 0.000000
0.273987 0.819513 0.000000
0.276388 0.819463 0.000000
0.282926 0.819433 0.000000
0.291815 0.819409 0.000000
0.304037 0.819401 0.000000
0.319319 0.819377 0.000000
0.337498 0.819324 0.000000
0.358132 0.819254 0.000000
0.381007 0.819139 0.000000
0.405674 0.818979 0.000000
0.431909 0.818774 0.000000
0.459501 0.818509 0.000000
0.488119 0.818151 0.000000
0.517750 0.817728 0.000000
0.548085 0.817200 0.000000
0.579156 0.816575 0.000000
0.610789 0.815839 0.000000
