docs/FineDetail_6D.cube
TITLE "Fine Detail for older cameras (Canon 6D / Digic5)"
# Generated from FDS.ICC (Canon Picture Style Editor)
# Profile: Fine Detail sRGB - scanner input to Lab PCS
# Conversion: ICC Lab -> XYZ D50 -> linear sRGB -> gamma sRGB
LUT_3D_SIZE 5
DOMAIN_MIN 0.0 0.0 0.0
DOMAIN_MAX 1.0 1.0 1.0
0.000000 0.001686 0.003515
0.246227 0.000765 0.001623
0.492097 0.000000 0.000000
0.742585 0.000000 0.000000
1.000000 0.000000 0.000000
0.056964 0.256089 0.000000
0.247209 0.255448 0.000000
0.499032 0.253239 0.000000
0.759070 0.244326 0.000000
1.000000 0.223191 0.000000
0.153509 0.506761 0.000000
0.264682 0.507177 0.000000
0.505074 0.506276 0.000000
0.769207 0.499277 0.000000
1.000000 0.481359 0.000000
0.249853 0.756872 0.000000
0.305433 0.756729 0.000000
0.514364 0.755440 0.000000
0.774717 0.748248 0.000000
1.000000 0.730410 0.000000
0.339491 0.989535 0.000000
0.362262 0.989511 0.000000
0.528077 0.989340 0.000000
0.777046 0.988933 0.000000
1.000000 0.977108 0.000000
0.016949 0.005338 0.226546
0.263321 0.005164 0.225982
0.507497 0.002539 0.230369
0.754768 0.000000 0.231639
1.000000 0.000000 0.220984
0.058252 0.251946 0.216469
0.267385 0.247954 0.213904
0.515722 0.245020 0.220353
0.769751 0.238008 0.227990
1.000000 0.221596 0.228743
0.155529 0.508903 0.189074
0.288247 0.504353 0.181638
0.525860 0.501104 0.187827
0.781574 0.494423 0.199617
1.000000 0.479484 0.209360
0.254726 0.767988 0.137867
0.330690 0.761277 0.119388
0.541451 0.756017 0.123135
0.791957 0.747510 0.139007
1.000000 0.731038 0.157456
0.339915 0.989611 0.032424
0.382782 0.989543 0.000000
0.560879 0.989355 0.000000
0.801297 0.988951 0.000000
1.000000 0.982614 0.011937
0.031044 0.019319 0.452835
0.265256 0.018448 0.451472
0.508728 0.015498 0.454167
0.754740 0.007771 0.452994
1.000000 0.000000 0.439960
0.071716 0.248241 0.450960
0.274257 0.243860 0.447383
0.519274 0.243146 0.451916
0.769121 0.241001 0.456775
1.000000 0.232215 0.454146
0.160418 0.504718 0.437011
0.300798 0.498134 0.428660
0.534372 0.495541 0.432476
0.783332 0.492118 0.440818
1.000000 0.483070 0.446031
0.257921 0.766774 0.412746
0.347722 0.756416 0.396733
0.557002 0.750173 0.397383
0.799024 0.743318 0.406860
1.000000 0.731109 0.417558
0.342554 0.989984 0.382627
0.403333 0.989880 0.354338
0.585577 0.989652 0.348127
0.816845 0.989255 0.355664
1.000000 0.981782 0.369164
0.062014 0.043898 0.680403
0.259127 0.042783 0.678624
0.501355 0.039410 0.679273
0.747720 0.040039 0.674623
1.000000 0.030695 0.656876
0.098820 0.252584 0.685350
0.274719 0.250731 0.681145
0.515467 0.255000 0.683439
0.762502 0.260486 0.684522
1.000000 0.262252 0.676751
0.173707 0.501711 0.679384
0.308348 0.496095 0.670132
0.536489 0.497071 0.671451
0.779962 0.499821 0.675676
1.000000 0.499578 0.675251
0.264374 0.760644 0.665149
0.360876 0.749639 0.648276
0.566764 0.745357 0.646062
0.801538 0.743075 0.650942
1.000000 0.738093 0.655359
0.349031 0.990790 0.646825
0.423558 0.990611 0.618833
0.605682 0.990359 0.610129
0.828303 0.989978 0.612918
1.000000 0.981970 0.619650
0.102419 0.079838 0.881349
0.250730 0.083878 0.881305
0.490334 0.091257 0.881058
0.738506 0.100580 0.880457
0.992633 0.109944 0.879344
0.130643 0.270283 0.881063
0.273429 0.273811 0.880977
0.508833 0.285714 0.880609
0.754542 0.301572 0.879896
1.000000 0.316866 0.878634
0.193128 0.506632 0.879819
0.315051 0.505039 0.879712
0.536943 0.512446 0.879261
0.776229 0.524202 0.878371
1.000000 0.535672 0.876972
0.275108 0.756696 0.876894
0.374254 0.748124 0.876881
0.575847 0.748776 0.876419
0.804597 0.753990 0.875453
1.000000 0.759124 0.874037
0.358746 0.991903 0.872363
0.444890 0.991831 0.872190
0.625374 0.991595 0.870406
0.840304 0.991190 0.868906
1.000000 0.990593 0.869354
